milangroshev/digital-twin-scalability/logs/run1-300s/10.0.1.131.csv
timestamp,node,latency,action,joint_1,joint_2,joint_3,joint_4,joint_5,joint_6
1605105653267184128,10.0.1.131,2020,,0.000,0.000,0.000,0.000,0.000,0.000
1605105655939958016,10.0.1.131,690,move_down,-0.020,-0.020,-0.020,0.000,0.000,0.000
1605105657414061056,10.0.1.131,416,move_down,-0.040,-0.040,-0.040,0.000,0.000,0.000
1605105658892622848,10.0.1.131,414,move_down,-0.060,-0.060,-0.060,0.000,0.000,0.000
1605105660358743808,10.0.1.131,421,move_down,-0.080,-0.080,-0.080,0.000,0.000,0.000
1605105661788039936,10.0.1.131,397,move_down,-0.100,-0.100,-0.100,0.000,0.000,0.000
1605105663246280960,10.0.1.131,402,move_down,-0.120,-0.120,-0.120,0.000,0.000,0.000
1605105664764511232,10.0.1.131,436,move_down,-0.140,-0.140,-0.140,0.000,0.000,0.000
1605105666240185856,10.0.1.131,402,move_down,-0.160,-0.160,-0.160,0.000,0.000,0.000
1605105667722411008,10.0.1.131,431,move_down,-0.180,-0.180,-0.180,0.000,0.000,0.000
1605105669198235136,10.0.1.131,429,move_down,-0.200,-0.200,-0.200,0.000,0.000,0.000
1605105670711606016,10.0.1.131,424,move_down,-0.220,-0.220,-0.220,0.000,0.000,0.000
1605105672188070912,10.0.1.131,434,move_down,-0.240,-0.240,-0.240,0.000,0.000,0.000
1605105673703453952,10.0.1.131,427,move_down,-0.260,-0.260,-0.260,0.000,0.000,0.000
1605105675182131968,10.0.1.131,425,move_down,-0.280,-0.280,-0.280,0.000,0.000,0.000
1605105676614846976,10.0.1.131,417,move_down,-0.300,-0.300,-0.300,0.000,0.000,0.000
1605105678087734016,10.0.1.131,421,move_down,-0.320,-0.320,-0.320,0.000,0.000,0.000
1605105679584737024,10.0.1.131,398,move_down,-0.340,-0.340,-0.340,0.000,0.000,0.000
1605105681088046080,10.0.1.131,429,move_down,-0.360,-0.360,-0.360,0.000,0.000,0.000
1605105682558458112,10.0.1.131,401,move_down,-0.380,-0.380,-0.380,0.000,0.000,0.000
1605105683980859904,10.0.1.131,396,move_down,-0.400,-0.400,-0.400,0.000,0.000,0.000
1605105685428421120,10.0.1.131,423,move_down,-0.420,-0.420,-0.420,0.000,0.000,0.000
1605105686948396032,10.0.1.131,427,move_down,-0.440,-0.440,-0.440,0.000,0.000,0.000
1605105688434097152,10.0.1.131,410,move_down,-0.460,-0.460,-0.460,0.000,0.000,0.000
1605105689941255168,10.0.1.131,438,move_down,-0.480,-0.480,-0.480,0.000,0.000,0.000
1605105691468135168,10.0.1.131,431,move_down,-0.500,-0.500,-0.500,0.000,0.000,0.000
1605105692948491008,10.0.1.131,414,move_down,-0.520,-0.520,-0.520,0.000,0.000,0.000
1605105694438214144,10.0.1.131,422,move_down,-0.540,-0.540,-0.540,0.000,0.000,0.000
1605105695878146048,10.0.1.131,403,move_down,-0.560,-0.560,-0.560,0.000,0.000,0.000
1605105697389689856,10.0.1.131,430,move_down,-0.580,-0.580,-0.580,0.000,0.000,0.000
1605105698530228992,10.0.1.131,33,pick,-0.590,-0.590,-0.590,0.000,0.000,0.000
1605105699549979904,10.0.1.131,52,pick,-0.600,-0.600,-0.600,0.000,0.000,0.000
1605105700555663104,10.0.1.131,55,pick,-0.610,-0.610,-0.610,0.000,0.000,0.000
1605105701548745984,10.0.1.131,47,pick,-0.620,-0.620,-0.620,0.000,0.000,0.000
1605105702543024896,10.0.1.131,36,pick,-0.630,-0.630,-0.630,0.000,0.000,0.000
1605105703548506880,10.0.1.131,41,pick,-0.640,-0.640,-0.640,0.000,0.000,0.000
1605105704568957184,10.0.1.131,60,pick,-0.650,-0.650,-0.650,0.000,0.000,0.000
1605105705548273152,10.0.1.131,38,pick,-0.660,-0.660,-0.660,0.000,0.000,0.000
1605105706550195968,10.0.1.131,38,pick,-0.670,-0.670,-0.670,0.000,0.000,0.000
1605105707548788992,10.0.1.131,35,pick,-0.680,-0.680,-0.680,0.000,0.000,0.000
1605105708569856000,10.0.1.131,55,pick,-0.690,-0.690,-0.690,0.000,0.000,0.000
1605105709549135872,10.0.1.131,33,pick,-0.700,-0.700,-0.700,0.000,0.000,0.000
1605105710568641792,10.0.1.131,51,pick,-0.710,-0.710,-0.710,0.000,0.000,0.000
1605105711549037056,10.0.1.131,30,pick,-0.720,-0.720,-0.720,0.000,0.000,0.000
1605105712569423872,10.0.1.131,50,pick,-0.730,-0.730,-0.730,0.000,0.000,0.000
1605105713572290816,10.0.1.131,50,pick,-0.740,-0.740,-0.740,0.000,0.000,0.000
1605105714568742912,10.0.1.131,45,pick,-0.750,-0.750,-0.750,0.000,0.000,0.000
1605105715570915072,10.0.1.131,44,pick,-0.760,-0.760,-0.760,0.000,0.000,0.000
1605105716570589184,10.0.1.131,42,pick,-0.770,-0.770,-0.770,0.000,0.000,0.000
1605105717930035968,10.0.1.131,401,move_up,-0.750,-0.750,-0.750,0.000,0.000,0.000
1605105719409431808,10.0.1.131,391,move_up,-0.730,-0.730,-0.730,0.000,0.000,0.000
1605105720971895808,10.0.1.131,481,move_up,-0.710,-0.710,-0.710,0.000,0.000,0.000
1605105722421506816,10.0.1.131,421,move_up,-0.690,-0.690,-0.690,0.000,0.000,0.000
1605105723899816960,10.0.1.131,404,move_up,-0.670,-0.670,-0.670,0.000,0.000,0.000
1605105725398886912,10.0.1.131,423,move_up,-0.650,-0.650,-0.650,0.000,0.000,0.000
1605105726869796864,10.0.1.131,377,move_up,-0.630,-0.630,-0.630,0.000,0.000,0.000
1605105728280004864,10.0.1.131,408,move_up,-0.610,-0.610,-0.610,0.000,0.000,0.000
1605105729771106048,10.0.1.131,405,move_up,-0.590,-0.590,-0.590,0.000,0.000,0.000
1605105731301315072,10.0.1.131,485,move_up,-0.570,-0.570,-0.570,0.000,0.000,0.000
1605105732785728000,10.0.1.131,424,move_up,-0.550,-0.550,-0.550,0.000,0.000,0.000
1605105734376118784,10.0.1.131,490,move_up,-0.530,-0.530,-0.530,0.000,0.000,0.000
1605105735833462016,10.0.1.131,414,move_up,-0.510,-0.510,-0.510,0.000,0.000,0.000
1605105737371238912,10.0.1.131,432,move_up,-0.490,-0.490,-0.490,0.000,0.000,0.000
1605105738865398016,10.0.1.131,463,move_up,-0.470,-0.470,-0.470,0.000,0.000,0.000
1605105740415808000,10.0.1.131,502,move_up,-0.450,-0.450,-0.450,0.000,0.000,0.000
1605105741945022976,10.0.1.131,460,move_up,-0.430,-0.430,-0.430,0.000,0.000,0.000
1605105743461129984,10.0.1.131,447,move_up,-0.410,-0.410,-0.410,0.000,0.000,0.000
1605105744983753984,10.0.1.131,438,move_up,-0.390,-0.390,-0.390,0.000,0.000,0.000
1605105746485160960,10.0.1.131,439,move_up,-0.370,-0.370,-0.370,0.000,0.000,0.000
1605105747973020928,10.0.1.131,428,move_up,-0.350,-0.350,-0.350,0.000,0.000,0.000
1605105749440047104,10.0.1.131,433,move_up,-0.330,-0.330,-0.330,0.000,0.000,0.000
1605105751018860032,10.0.1.131,482,move_up,-0.310,-0.310,-0.310,0.000,0.000,0.000
1605105752449761024,10.0.1.131,415,move_up,-0.290,-0.290,-0.290,0.000,0.000,0.000
1605105753932758016,10.0.1.131,413,move_up,-0.270,-0.270,-0.270,0.000,0.000,0.000
1605105755411086080,10.0.1.131,407,move_up,-0.250,-0.250,-0.250,0.000,0.000,0.000
1605105756866217984,10.0.1.131,386,move_up,-0.230,-0.230,-0.230,0.000,0.000,0.000
1605105758315276032,10.0.1.131,383,move_up,-0.210,-0.210,-0.210,0.000,0.000,0.000
1605105759799386880,10.0.1.131,419,move_up,-0.190,-0.190,-0.190,0.000,0.000,0.000
1605105760919856128,10.0.1.131,39,place,-0.180,-0.180,-0.180,0.000,0.000,0.000
1605105761943831040,10.0.1.131,62,place,-0.170,-0.170,-0.170,0.000,0.000,0.000
1605105762921541888,10.0.1.131,37,place,-0.160,-0.160,-0.160,0.000,0.000,0.000
1605105763924721920,10.0.1.131,38,place,-0.150,-0.150,-0.150,0.000,0.000,0.000
1605105764947174144,10.0.1.131,60,place,-0.140,-0.140,-0.140,0.000,0.000,0.000
1605105765944360960,10.0.1.131,55,place,-0.130,-0.130,-0.130,0.000,0.000,0.000
1605105766946821888,10.0.1.131,56,place,-0.120,-0.120,-0.120,0.000,0.000,0.000
1605105767937693184,10.0.1.131,46,place,-0.110,-0.110,-0.110,0.000,0.000,0.000
1605105768939009792,10.0.1.131,46,place,-0.100,-0.100,-0.100,0.000,0.000,0.000
1605105769947766016,10.0.1.131,54,place,-0.090,-0.090,-0.090,0.000,0.000,0.000
1605105770947069952,10.0.1.131,52,place,-0.080,-0.080,-0.080,0.000,0.000,0.000
1605105771940645888,10.0.1.131,45,place,-0.070,-0.070,-0.070,0.000,0.000,0.000
1605105772944603904,10.0.1.131,46,place,-0.060,-0.060,-0.060,0.000,0.000,0.000
1605105773949982976,10.0.1.131,50,place,-0.050,-0.050,-0.050,0.000,0.000,0.000
1605105774966679040,10.0.1.131,55,place,-0.040,-0.040,-0.040,0.000,0.000,0.000
1605105775962202112,10.0.1.131,48,place,-0.030,-0.030,-0.030,0.000,0.000,0.000
1605105776962286848,10.0.1.131,46,place,-0.020,-0.020,-0.020,0.000,0.000,0.000
1605105777965568000,10.0.1.131,48,place,-0.010,-0.010,-0.010,0.000,0.000,0.000
1605105778962842880,10.0.1.131,44,place,0.000,0.000,0.000,0.000,0.000,0.000
1605105780337502976,10.0.1.131,416,move_down,-0.020,-0.020,-0.020,0.000,0.000,0.000
1605105781870379008,10.0.1.131,484,move_down,-0.040,-0.040,-0.040,0.000,0.000,0.000
1605105783327749120,10.0.1.131,392,move_down,-0.060,-0.060,-0.060,0.000,0.000,0.000
1605105784867877120,10.0.1.131,444,move_down,-0.080,-0.080,-0.080,0.000,0.000,0.000
1605105786313974016,10.0.1.131,375,move_down,-0.100,-0.100,-0.100,0.000,0.000,0.000
1605105787788233984,10.0.1.131,423,move_down,-0.120,-0.120,-0.120,0.000,0.000,0.000
1605105789243335936,10.0.1.131,379,move_down,-0.140,-0.140,-0.140,0.000,0.000,0.000
1605105790715672064,10.0.1.131,424,move_down,-0.160,-0.160,-0.160,0.000,0.000,0.000
1605105792151751936,10.0.1.131,392,move_down,-0.180,-0.180,-0.180,0.000,0.000,0.000
1605105793592945152,10.0.1.131,387,move_down,-0.200,-0.200,-0.200,0.000,0.000,0.000
1605105795089027840,10.0.1.131,435,move_down,-0.220,-0.220,-0.220,0.000,0.000,0.000
1605105796630204928,10.0.1.131,442,move_down,-0.240,-0.240,-0.240,0.000,0.000,0.000
1605105798111979008,10.0.1.131,435,move_down,-0.260,-0.260,-0.260,0.000,0.000,0.000
1605105799632318976,10.0.1.131,437,move_down,-0.280,-0.280,-0.280,0.000,0.000,0.000
1605105801216652032,10.0.1.131,475,move_down,-0.300,-0.300,-0.300,0.000,0.000,0.000
1605105802742511872,10.0.1.131,462,move_down,-0.320,-0.320,-0.320,0.000,0.000,0.000
1605105804198708992,10.0.1.131,391,move_down,-0.340,-0.340,-0.340,0.000,0.000,0.000
1605105805679814144,10.0.1.131,410,move_down,-0.360,-0.360,-0.360,0.000,0.000,0.000
1605105807214378240,10.0.1.131,455,move_down,-0.380,-0.380,-0.380,0.000,0.000,0.000
1605105808655955200,10.0.1.131,414,move_down,-0.400,-0.400,-0.400,0.000,0.000,0.000
1605105810153049856,10.0.1.131,421,move_down,-0.420,-0.420,-0.420,0.000,0.000,0.000
1605105811580252928,10.0.1.131,420,move_down,-0.440,-0.440,-0.440,0.000,0.000,0.000
1605105813025603072,10.0.1.131,408,move_down,-0.460,-0.460,-0.460,0.000,0.000,0.000
1605105814579826176,10.0.1.131,429,move_down,-0.480,-0.480,-0.480,0.000,0.000,0.000
1605105816028175104,10.0.1.131,413,move_down,-0.500,-0.500,-0.500,0.000,0.000,0.000
1605105817528430080,10.0.1.131,416,move_down,-0.520,-0.520,-0.520,0.000,0.000,0.000
1605105818988377088,10.0.1.131,460,move_down,-0.540,-0.540,-0.540,0.000,0.000,0.000
1605105820451159040,10.0.1.131,414,move_down,-0.560,-0.560,-0.560,0.000,0.000,0.000
1605105821990425088,10.0.1.131,467,move_down,-0.580,-0.580,-0.580,0.000,0.000,0.000
1605105823110712064,10.0.1.131,51,pick,-0.590,-0.590,-0.590,0.000,0.000,0.000
1605105824111005952,10.0.1.131,50,pick,-0.600,-0.600,-0.600,0.000,0.000,0.000
1605105825116730880,10.0.1.131,54,pick,-0.610,-0.610,-0.610,0.000,0.000,0.000
1605105826109811968,10.0.1.131,46,pick,-0.620,-0.620,-0.620,0.000,0.000,0.000
1605105827116916992,10.0.1.131,48,pick,-0.630,-0.630,-0.630,0.000,0.000,0.000
1605105828112317952,10.0.1.131,42,pick,-0.640,-0.640,-0.640,0.000,0.000,0.000
1605105829118001920,10.0.1.131,46,pick,-0.650,-0.650,-0.650,0.000,0.000,0.000
1605105830124720128,10.0.1.131,45,pick,-0.660,-0.660,-0.660,0.000,0.000,0.000
1605105831128731904,10.0.1.131,48,pick,-0.670,-0.670,-0.670,0.000,0.000,0.000
1605105832130331136,10.0.1.131,48,pick,-0.680,-0.680,-0.680,0.000,0.000,0.000
1605105834128828160,10.0.1.131,41,pick,-0.700,-0.700,-0.700,0.000,0.000,0.000
1605105835131161088,10.0.1.131,42,pick,-0.710,-0.710,-0.710,0.000,0.000,0.000
1605105836132550912,10.0.1.131,40,pick,-0.720,-0.720,-0.720,0.000,0.000,0.000
1605105837148637184,10.0.1.131,52,pick,-0.730,-0.730,-0.730,0.000,0.000,0.000
1605105838145020928,10.0.1.131,47,pick,-0.740,-0.740,-0.740,0.000,0.000,0.000
1605105839150432000,10.0.1.131,51,pick,-0.750,-0.750,-0.750,0.000,0.000,0.000
1605105840149574144,10.0.1.131,43,pick,-0.760,-0.760,-0.760,0.000,0.000,0.000
1605105841168656128,10.0.1.131,61,pick,-0.770,-0.770,-0.770,0.000,0.000,0.000
1605105842509143040,10.0.1.131,399,move_up,-0.750,-0.750,-0.750,0.000,0.000,0.000
1605105844027035904,10.0.1.131,432,move_up,-0.730,-0.730,-0.730,0.000,0.000,0.000
1605105845505177088,10.0.1.131,397,move_up,-0.710,-0.710,-0.710,0.000,0.000,0.000
1605105846998667008,10.0.1.131,436,move_up,-0.690,-0.690,-0.690,0.000,0.000,0.000
1605105848455408128,10.0.1.131,412,move_up,-0.670,-0.670,-0.670,0.000,0.000,0.000
1605105849882616064,10.0.1.131,426,move_up,-0.650,-0.650,-0.650,0.000,0.000,0.000
1605105851369139968,10.0.1.131,416,move_up,-0.630,-0.630,-0.630,0.000,0.000,0.000
1605105852937396992,10.0.1.131,500,move_up,-0.610,-0.610,-0.610,0.000,0.000,0.000
1605105854438010880,10.0.1.131,425,move_up,-0.590,-0.590,-0.590,0.000,0.000,0.000
1605105855992052992,10.0.1.131,437,move_up,-0.570,-0.570,-0.570,0.000,0.000,0.000
1605105857514307072,10.0.1.131,430,move_up,-0.550,-0.550,-0.550,0.000,0.000,0.000
1605105858979224064,10.0.1.131,413,move_up,-0.530,-0.530,-0.530,0.000,0.000,0.000
1605105860504948992,10.0.1.131,450,move_up,-0.510,-0.510,-0.510,0.000,0.000,0.000
1605105862007961088,10.0.1.131,424,move_up,-0.490,-0.490,-0.490,0.000,0.000,0.000
1605105863568598016,10.0.1.131,463,move_up,-0.470,-0.470,-0.470,0.000,0.000,0.000
1605105865050028032,10.0.1.131,438,move_up,-0.450,-0.450,-0.450,0.000,0.000,0.000
1605105866568986880,10.0.1.131,453,move_up,-0.430,-0.430,-0.430,0.000,0.000,0.000
1605105868055493120,10.0.1.131,395,move_up,-0.410,-0.410,-0.410,0.000,0.000,0.000
1605105869599889920,10.0.1.131,506,move_up,-0.390,-0.390,-0.390,0.000,0.000,0.000
1605105871070797056,10.0.1.131,399,move_up,-0.370,-0.370,-0.370,0.000,0.000,0.000
1605105872663379968,10.0.1.131,505,move_up,-0.350,-0.350,-0.350,0.000,0.000,0.000
1605105874146163968,10.0.1.131,421,move_up,-0.330,-0.330,-0.330,0.000,0.000,0.000
1605105875725307904,10.0.1.131,482,move_up,-0.310,-0.310,-0.310,0.000,0.000,0.000
1605105877204824832,10.0.1.131,405,move_up,-0.290,-0.290,-0.290,0.000,0.000,0.000
1605105878710799104,10.0.1.131,429,move_up,-0.270,-0.270,-0.270,0.000,0.000,0.000
1605105880208148992,10.0.1.131,449,move_up,-0.250,-0.250,-0.250,0.000,0.000,0.000
1605105881666811904,10.0.1.131,406,move_up,-0.230,-0.230,-0.230,0.000,0.000,0.000
1605105883214728192,10.0.1.131,435,move_up,-0.210,-0.210,-0.210,0.000,0.000,0.000
1605105884740614912,10.0.1.131,441,move_up,-0.190,-0.190,-0.190,0.000,0.000,0.000
1605105885796941056,10.0.1.131,58,place,-0.180,-0.180,-0.180,0.000,0.000,0.000
1605105886804564992,10.0.1.131,64,place,-0.170,-0.170,-0.170,0.000,0.000,0.000
1605105887777887232,10.0.1.131,36,place,-0.160,-0.160,-0.160,0.000,0.000,0.000
1605105888781115904,10.0.1.131,35,place,-0.150,-0.150,-0.150,0.000,0.000,0.000
1605105889803823872,10.0.1.131,57,place,-0.140,-0.140,-0.140,0.000,0.000,0.000
1605105890798031104,10.0.1.131,50,place,-0.130,-0.130,-0.130,0.000,0.000,0.000
1605105891801001984,10.0.1.131,52,place,-0.120,-0.120,-0.120,0.000,0.000,0.000
1605105892797390080,10.0.1.131,47,place,-0.110,-0.110,-0.110,0.000,0.000,0.000
1605105893805746176,10.0.1.131,54,place,-0.100,-0.100,-0.100,0.000,0.000,0.000
1605105894797984000,10.0.1.131,45,place,-0.090,-0.090,-0.090,0.000,0.000,0.000
1605105895797574144,10.0.1.131,43,place,-0.080,-0.080,-0.080,0.000,0.000,0.000
1605105896802229760,10.0.1.131,46,place,-0.070,-0.070,-0.070,0.000,0.000,0.000
1605105897821193984,10.0.1.131,64,place,-0.060,-0.060,-0.060,0.000,0.000,0.000
1605105899793234944,10.0.1.131,32,place,-0.040,-0.040,-0.040,0.000,0.000,0.000
1605105900797280000,10.0.1.131,33,place,-0.030,-0.030,-0.030,0.000,0.000,0.000
1605105901796786176,10.0.1.131,32,place,-0.020,-0.020,-0.020,0.000,0.000,0.000
1605105902810872064,10.0.1.131,43,place,-0.010,-0.010,-0.010,0.000,0.000,0.000
1605105903815737856,10.0.1.131,48,place,0.000,0.000,0.000,0.000,0.000,0.000
1605105905168260096,10.0.1.131,399,move_down,-0.020,-0.020,-0.020,0.000,0.000,0.000
1605105906698240000,10.0.1.131,498,move_down,-0.040,-0.040,-0.040,0.000,0.000,0.000
1605105908183599872,10.0.1.131,432,move_down,-0.060,-0.060,-0.060,0.000,0.000,0.000
1605105909691378944,10.0.1.131,436,move_down,-0.080,-0.080,-0.080,0.000,0.000,0.000
1605105911210153984,10.0.1.131,441,move_down,-0.100,-0.100,-0.100,0.000,0.000,0.000
1605105912755613184,10.0.1.131,479,move_down,-0.120,-0.120,-0.120,0.000,0.000,0.000
1605105914259321088,10.0.1.131,447,move_down,-0.140,-0.140,-0.140,0.000,0.000,0.000
1605105915808280832,10.0.1.131,450,move_down,-0.160,-0.160,-0.160,0.000,0.000,0.000
1605105917323732992,10.0.1.131,461,move_down,-0.180,-0.180,-0.180,0.000,0.000,0.000
1605105918853799168,10.0.1.131,446,move_down,-0.200,-0.200,-0.200,0.000,0.000,0.000
1605105920456555008,10.0.1.131,523,move_down,-0.220,-0.220,-0.220,0.000,0.000,0.000
1605105921935867904,10.0.1.131,420,move_down,-0.240,-0.240,-0.240,0.000,0.000,0.000
1605105923436386048,10.0.1.131,422,move_down,-0.260,-0.260,-0.260,0.000,0.000,0.000
1605105924895524864,10.0.1.131,422,move_down,-0.280,-0.280,-0.280,0.000,0.000,0.000
1605105926413330176,10.0.1.131,468,move_down,-0.300,-0.300,-0.300,0.000,0.000,0.000
1605105927832901120,10.0.1.131,380,move_down,-0.320,-0.320,-0.320,0.000,0.000,0.000
1605105929252914944,10.0.1.131,389,move_down,-0.340,-0.340,-0.340,0.000,0.000,0.000
1605105930724473088,10.0.1.131,380,move_down,-0.360,-0.360,-0.360,0.000,0.000,0.000
1605105932205260032,10.0.1.131,418,move_down,-0.380,-0.380,-0.380,0.000,0.000,0.000
1605105933663492864,10.0.1.131,397,move_down,-0.400,-0.400,-0.400,0.000,0.000,0.000
1605105935177634048,10.0.1.131,433,move_down,-0.420,-0.420,-0.420,0.000,0.000,0.000
1605105936645804800,10.0.1.131,403,move_down,-0.440,-0.440,-0.440,0.000,0.000,0.000
1605105938127271936,10.0.1.131,434,move_down,-0.460,-0.460,-0.460,0.000,0.000,0.000
1605105939586170880,10.0.1.131,428,move_down,-0.480,-0.480,-0.480,0.000,0.000,0.000
1605105941086607872,10.0.1.131,398,move_down,-0.500,-0.500,-0.500,0.000,0.000,0.000
1605105942611796992,10.0.1.131,435,move_down,-0.520,-0.520,-0.520,0.000,0.000,0.000
1605105944118980864,10.0.1.131,435,move_down,-0.540,-0.540,-0.540,0.000,0.000,0.000
1605105945614213888,10.0.1.131,435,move_down,-0.560,-0.560,-0.560,0.000,0.000,0.000
1605105947176615936,10.0.1.131,469,move_down,-0.580,-0.580,-0.580,0.000,0.000,0.000
1605105948289519104,10.0.1.131,40,pick,-0.590,-0.590,-0.590,0.000,0.000,0.000
1605105949289405952,10.0.1.131,37,pick,-0.600,-0.600,-0.600,0.000,0.000,0.000
1605105950290532096,10.0.1.131,37,pick,-0.610,-0.610,-0.610,0.000,0.000,0.000
1605105951288073984,10.0.1.131,33,pick,-0.620,-0.620,-0.620,0.000,0.000,0.000
1605105952288733952,10.0.1.131,32,pick,-0.630,-0.630,-0.630,0.000,0.000,0.000
1605105954317133824,10.0.1.131,53,pick,-0.650,-0.650,-0.650,0.000,0.000,0.000
1605105955307410944,10.0.1.131,36,pick,-0.660,-0.660,-0.660,0.000,0.000,0.000
1605105956318106880,10.0.1.131,46,pick,-0.670,-0.670,-0.670,0.000,0.000,0.000
1605105958324403968,10.0.1.131,49,pick,-0.690,-0.690,-0.690,0.000,0.000,0.000
1605105959330248192,10.0.1.131,53,pick,-0.700,-0.700,-0.700,0.000,0.000,0.000
1605105960327891200,10.0.1.131,47,pick,-0.710,-0.710,-0.710,0.000,0.000,0.000
1605105961326277888,10.0.1.131,45,pick,-0.720,-0.720,-0.720,0.000,0.000,0.000
1605105962330460160,10.0.1.131,47,pick,-0.730,-0.730,-0.730,0.000,0.000,0.000
1605105963327888896,10.0.1.131,44,pick,-0.740,-0.740,-0.740,0.000,0.000,0.000
1605105964329981952,10.0.1.131,45,pick,-0.750,-0.750,-0.750,0.000,0.000,0.000
1605105965326169088,10.0.1.131,39,pick,-0.760,-0.760,-0.760,0.000,0.000,0.000
1605105966327378944,10.0.1.131,39,pick,-0.770,-0.770,-0.770,0.000,0.000,0.000
1605105967727195136,10.0.1.131,432,move_up,-0.750,-0.750,-0.750,0.000,0.000,0.000
1605105969218556928,10.0.1.131,408,move_up,-0.730,-0.730,-0.730,0.000,0.000,0.000
1605105970720148992,10.0.1.131,414,move_up,-0.710,-0.710,-0.710,0.000,0.000,0.000
1605105972225174784,10.0.1.131,394,move_up,-0.690,-0.690,-0.690,0.000,0.000,0.000
1605105973709238016,10.0.1.131,459,move_up,-0.670,-0.670,-0.670,0.000,0.000,0.000
1605105974788646912,10.0.1.131,-1,move_up,-0.650,-0.650,-0.650,0.000,0.000,0.000
1605105976712566016,10.0.1.131,448,move_up,-0.630,-0.630,-0.630,0.000,0.000,0.000
1605105978253278976,10.0.1.131,463,move_up,-0.610,-0.610,-0.610,0.000,0.000,0.000
1605105979777390848,10.0.1.131,435,move_up,-0.590,-0.590,-0.590,0.000,0.000,0.000
1605105981283169024,10.0.1.131,429,move_up,-0.570,-0.570,-0.570,0.000,0.000,0.000
1605105982782588928,10.0.1.131,447,move_up,-0.550,-0.550,-0.550,0.000,0.000,0.000
1605105984274926848,10.0.1.131,416,move_up,-0.530,-0.530,-0.530,0.000,0.000,0.000
1605105985783247872,10.0.1.131,429,move_up,-0.510,-0.510,-0.510,0.000,0.000,0.000
1605105987349134848,10.0.1.131,485,move_up,-0.490,-0.490,-0.490,0.000,0.000,0.000
1605105988843019008,10.0.1.131,415,move_up,-0.470,-0.470,-0.470,0.000,0.000,0.000
1605105990301506048,10.0.1.131,428,move_up,-0.450,-0.450,-0.450,0.000,0.000,0.000
1605105991796024064,10.0.1.131,394,move_up,-0.430,-0.430,-0.430,0.000,0.000,0.000
1605105993285920000,10.0.1.131,415,move_up,-0.410,-0.410,-0.410,0.000,0.000,0.000
1605105994777359104,10.0.1.131,416,move_up,-0.390,-0.390,-0.390,0.000,0.000,0.000
1605105996309058048,10.0.1.131,448,move_up,-0.370,-0.370,-0.370,0.000,0.000,0.000
1605105997784070912,10.0.1.131,407,move_up,-0.350,-0.350,-0.350,0.000,0.000,0.000
1605105999327656960,10.0.1.131,469,move_up,-0.330,-0.330,-0.330,0.000,0.000,0.000
1605106000866208000,10.0.1.131,451,move_up,-0.310,-0.310,-0.310,0.000,0.000,0.000
1605106002388165120,10.0.1.131,469,move_up,-0.290,-0.290,-0.290,0.000,0.000,0.000
1605106003933878016,10.0.1.131,445,move_up,-0.270,-0.270,-0.270,0.000,0.000,0.000
1605106005448299776,10.0.1.131,444,move_up,-0.250,-0.250,-0.250,0.000,0.000,0.000
1605106006934812160,10.0.1.131,441,move_up,-0.230,-0.230,-0.230,0.000,0.000,0.000
1605106008417402112,10.0.1.131,433,move_up,-0.210,-0.210,-0.210,0.000,0.000,0.000
1605106009857904896,10.0.1.131,409,move_up,-0.190,-0.190,-0.190,0.000,0.000,0.000
1605106010925928960,10.0.1.131,48,place,-0.180,-0.180,-0.180,0.000,0.000,0.000
1605106011926693888,10.0.1.131,47,place,-0.170,-0.170,-0.170,0.000,0.000,0.000
1605106012933753856,10.0.1.131,48,place,-0.160,-0.160,-0.160,0.000,0.000,0.000
1605106013934814976,10.0.1.131,47,place,-0.150,-0.150,-0.150,0.000,0.000,0.000
1605106014928715008,10.0.1.131,40,place,-0.140,-0.140,-0.140,0.000,0.000,0.000
1605106015928203008,10.0.1.131,38,place,-0.130,-0.130,-0.130,0.000,0.000,0.000
1605106016949716992,10.0.1.131,54,place,-0.120,-0.120,-0.120,0.000,0.000,0.000
1605106017955913984,10.0.1.131,60,place,-0.110,-0.110,-0.110,0.000,0.000,0.000
1605106018954356992,10.0.1.131,54,place,-0.100,-0.100,-0.100,0.000,0.000,0.000
1605106019962383872,10.0.1.131,52,place,-0.090,-0.090,-0.090,0.000,0.000,0.000
1605106020944837120,10.0.1.131,33,place,-0.080,-0.080,-0.080,0.000,0.000,0.000
1605106021947611136,10.0.1.131,36,place,-0.070,-0.070,-0.070,0.000,0.000,0.000
1605106022946072064,10.0.1.131,33,place,-0.060,-0.060,-0.060,0.000,0.000,0.000
1605106023982817792,10.0.1.131,68,place,-0.050,-0.050,-0.050,0.000,0.000,0.000
1605106024966916096,10.0.1.131,50,place,-0.040,-0.040,-0.040,0.000,0.000,0.000
1605106025973264896,10.0.1.131,47,place,-0.030,-0.030,-0.030,0.000,0.000,0.000
1605106026964442112,10.0.1.131,37,place,-0.020,-0.020,-0.020,0.000,0.000,0.000
1605106027965549824,10.0.1.131,37,place,-0.010,-0.010,-0.010,0.000,0.000,0.000
1605106028968257024,10.0.1.131,38,place,0.000,0.000,0.000,0.000,0.000,0.000
1605106030396019968,10.0.1.131,465,move_down,-0.020,-0.020,-0.020,0.000,0.000,0.000
1605106031996526080,10.0.1.131,524,move_down,-0.040,-0.040,-0.040,0.000,0.000,0.000
1605106033493660928,10.0.1.131,411,move_down,-0.060,-0.060,-0.060,0.000,0.000,0.000
1605106034989358848,10.0.1.131,419,move_down,-0.080,-0.080,-0.080,0.000,0.000,0.000
1605106036532965888,10.0.1.131,479,move_down,-0.100,-0.100,-0.100,0.000,0.000,0.000
1605106038007732992,10.0.1.131,416,move_down,-0.120,-0.120,-0.120,0.000,0.000,0.000
1605106039702914048,10.0.1.131,598,move_down,-0.140,-0.140,-0.140,0.000,0.000,0.000
1605106041229562880,10.0.1.131,453,move_down,-0.160,-0.160,-0.160,0.000,0.000,0.000
1605106042849904896,10.0.1.131,529,move_down,-0.180,-0.180,-0.180,0.000,0.000,0.000
1605106044376033024,10.0.1.131,483,move_down,-0.200,-0.200,-0.200,0.000,0.000,0.000
1605106045899209984,10.0.1.131,459,move_down,-0.220,-0.220,-0.220,0.000,0.000,0.000
1605106047468592896,10.0.1.131,474,move_down,-0.240,-0.240,-0.240,0.000,0.000,0.000
1605106048980915968,10.0.1.131,453,move_down,-0.260,-0.260,-0.260,0.000,0.000,0.000
1605106050606465024,10.0.1.131,526,move_down,-0.280,-0.280,-0.280,0.000,0.000,0.000
1605106052206358784,10.0.1.131,498,move_down,-0.300,-0.300,-0.300,0.000,0.000,0.000
1605106053733510912,10.0.1.131,472,move_down,-0.320,-0.320,-0.320,0.000,0.000,0.000
1605106055283528192,10.0.1.131,463,move_down,-0.340,-0.340,-0.340,0.000,0.000,0.000
1605106056810745088,10.0.1.131,455,move_down,-0.360,-0.360,-0.360,0.000,0.000,0.000
1605106058397072128,10.0.1.131,530,move_down,-0.380,-0.380,-0.380,0.000,0.000,0.000
1605106059980037888,10.0.1.131,508,move_down,-0.400,-0.400,-0.400,0.000,0.000,0.000
1605106061455437056,10.0.1.131,418,move_down,-0.420,-0.420,-0.420,0.000,0.000,0.000
1605106062936630016,10.0.1.131,419,move_down,-0.440,-0.440,-0.440,0.000,0.000,0.000
1605106064515265024,10.0.1.131,460,move_down,-0.460,-0.460,-0.460,0.000,0.000,0.000
1605106065954284800,10.0.1.131,407,move_down,-0.480,-0.480,-0.480,0.000,0.000,0.000
1605106067405335040,10.0.1.131,390,move_down,-0.500,-0.500,-0.500,0.000,0.000,0.000
1605106068948982016,10.0.1.131,445,move_down,-0.520,-0.520,-0.520,0.000,0.000,0.000
1605106070433396992,10.0.1.131,402,move_down,-0.540,-0.540,-0.540,0.000,0.000,0.000
1605106071961954048,10.0.1.131,447,move_down,-0.560,-0.560,-0.560,0.000,0.000,0.000
1605106073431962880,10.0.1.131,383,move_down,-0.580,-0.580,-0.580,0.000,0.000,0.000
1605106074580692992,10.0.1.131,54,pick,-0.590,-0.590,-0.590,0.000,0.000,0.000
1605106075572814080,10.0.1.131,44,pick,-0.600,-0.600,-0.600,0.000,0.000,0.000
1605106076575151872,10.0.1.131,45,pick,-0.610,-0.610,-0.610,0.000,0.000,0.000
1605106077572352768,10.0.1.131,41,pick,-0.620,-0.620,-0.620,0.000,0.000,0.000
1605106078577213952,10.0.1.131,45,pick,-0.630,-0.630,-0.630,0.000,0.000,0.000
1605106079581080832,10.0.1.131,48,pick,-0.640,-0.640,-0.640,0.000,0.000,0.000
1605106080585752064,10.0.1.131,51,pick,-0.650,-0.650,-0.650,0.000,0.000,0.000
1605106082572969984,10.0.1.131,35,pick,-0.670,-0.670,-0.670,0.000,0.000,0.000
1605106083586390016,10.0.1.131,47,pick,-0.680,-0.680,-0.680,0.000,0.000,0.000
1605106084572852992,10.0.1.131,32,pick,-0.690,-0.690,-0.690,0.000,0.000,0.000
1605106085573040896,10.0.1.131,31,pick,-0.700,-0.700,-0.700,0.000,0.000,0.000
1605106086592779008,10.0.1.131,42,pick,-0.710,-0.710,-0.710,0.000,0.000,0.000
1605106087593369088,10.0.1.131,42,pick,-0.720,-0.720,-0.720,0.000,0.000,0.000
1605106088592410112,10.0.1.131,39,pick,-0.730,-0.730,-0.730,0.000,0.000,0.000
1605106089601181952,10.0.1.131,47,pick,-0.740,-0.740,-0.740,0.000,0.000,0.000
1605106090620666880,10.0.1.131,65,pick,-0.750,-0.750,-0.750,0.000,0.000,0.000
1605106091598052096,10.0.1.131,40,pick,-0.760,-0.760,-0.760,0.000,0.000,0.000
1605106092604013824,10.0.1.131,44,pick,-0.770,-0.770,-0.770,0.000,0.000,0.000
1605106094009373952,10.0.1.131,448,move_up,-0.750,-0.750,-0.750,0.000,0.000,0.000
1605106095457245952,10.0.1.131,387,move_up,-0.730,-0.730,-0.730,0.000,0.000,0.000
1605106096980276992,10.0.1.131,424,move_up,-0.710,-0.710,-0.710,0.000,0.000,0.000
1605106098461364992,10.0.1.131,405,move_up,-0.690,-0.690,-0.690,0.000,0.000,0.000
1605106099988680960,10.0.1.131,449,move_up,-0.670,-0.670,-0.670,0.000,0.000,0.000
1605106101503941888,10.0.1.131,424,move_up,-0.650,-0.650,-0.650,0.000,0.000,0.000
1605106103004050944,10.0.1.131,435,move_up,-0.630,-0.630,-0.630,0.000,0.000,0.000
1605106104516171008,10.0.1.131,456,move_up,-0.610,-0.610,-0.610,0.000,0.000,0.000
1605106106072803072,10.0.1.131,490,move_up,-0.590,-0.590,-0.590,0.000,0.000,0.000
1605106107599744000,10.0.1.131,430,move_up,-0.570,-0.570,-0.570,0.000,0.000,0.000
1605106109063456000,10.0.1.131,465,move_up,-0.550,-0.550,-0.550,0.000,0.000,0.000
1605106110589618944,10.0.1.131,466,move_up,-0.530,-0.530,-0.530,0.000,0.000,0.000
1605106112062526976,10.0.1.131,443,move_up,-0.510,-0.510,-0.510,0.000,0.000,0.000
1605106113602596096,10.0.1.131,467,move_up,-0.490,-0.490,-0.490,0.000,0.000,0.000
1605106115196999168,10.0.1.131,505,move_up,-0.470,-0.470,-0.470,0.000,0.000,0.000
1605106116692156160,10.0.1.131,439,move_up,-0.450,-0.450,-0.450,0.000,0.000,0.000
1605106118209731072,10.0.1.131,427,move_up,-0.430,-0.430,-0.430,0.000,0.000,0.000
1605106119780152064,10.0.1.131,485,move_up,-0.410,-0.410,-0.410,0.000,0.000,0.000
1605106121296801024,10.0.1.131,447,move_up,-0.390,-0.390,-0.390,0.000,0.000,0.000
1605106122807740928,10.0.1.131,444,move_up,-0.370,-0.370,-0.370,0.000,0.000,0.000
1605106124287794944,10.0.1.131,389,move_up,-0.350,-0.350,-0.350,0.000,0.000,0.000
1605106125776338176,10.0.1.131,424,move_up,-0.330,-0.330,-0.330,0.000,0.000,0.000
1605106127269974016,10.0.1.131,421,move_up,-0.310,-0.310,-0.310,0.000,0.000,0.000
1605106128772985856,10.0.1.131,440,move_up,-0.290,-0.290,-0.290,0.000,0.000,0.000
1605106130276393984,10.0.1.131,453,move_up,-0.270,-0.270,-0.270,0.000,0.000,0.000
1605106131778618112,10.0.1.131,432,move_up,-0.250,-0.250,-0.250,0.000,0.000,0.000
1605106133327016960,10.0.1.131,460,move_up,-0.230,-0.230,-0.230,0.000,0.000,0.000
1605106134810426880,10.0.1.131,450,move_up,-0.210,-0.210,-0.210,0.000,0.000,0.000
1605106136278914816,10.0.1.131,455,move_up,-0.190,-0.190,-0.190,0.000,0.000,0.000
1605106137346503936,10.0.1.131,40,place,-0.180,-0.180,-0.180,0.000,0.000,0.000
1605106138356389888,10.0.1.131,49,place,-0.170,-0.170,-0.170,0.000,0.000,0.000
1605106139355987968,10.0.1.131,48,place,-0.160,-0.160,-0.160,0.000,0.000,0.000
1605106140356535808,10.0.1.131,48,place,-0.150,-0.150,-0.150,0.000,0.000,0.000
1605106141356167936,10.0.1.131,46,place,-0.140,-0.140,-0.140,0.000,0.000,0.000
1605106142356026880,10.0.1.131,44,place,-0.130,-0.130,-0.130,0.000,0.000,0.000
1605106143363950080,10.0.1.131,49,place,-0.120,-0.120,-0.120,0.000,0.000,0.000
1605106144356643072,10.0.1.131,41,place,-0.110,-0.110,-0.110,0.000,0.000,0.000
1605106145358681856,10.0.1.131,41,place,-0.100,-0.100,-0.100,0.000,0.000,0.000
1605106146362484992,10.0.1.131,44,place,-0.090,-0.090,-0.090,0.000,0.000,0.000
1605106147372421888,10.0.1.131,52,place,-0.080,-0.080,-0.080,0.000,0.000,0.000
1605106148381114112,10.0.1.131,57,place,-0.070,-0.070,-0.070,0.000,0.000,0.000
1605106149378902016,10.0.1.131,53,place,-0.060,-0.060,-0.060,0.000,0.000,0.000
1605106151391134976,10.0.1.131,63,place,-0.040,-0.040,-0.040,0.000,0.000,0.000
1605106152379278848,10.0.1.131,50,place,-0.030,-0.030,-0.030,0.000,0.000,0.000
1605106154383932160,10.0.1.131,45,place,-0.010,-0.010,-0.010,0.000,0.000,0.000
1605106155374627072,10.0.1.131,34,place,0.000,0.000,0.000,0.000,0.000,0.000
1605106156851825920,10.0.1.131,510,move_down,-0.020,-0.020,-0.020,0.000,0.000,0.000
1605106158427449088,10.0.1.131,526,move_down,-0.040,-0.040,-0.040,0.000,0.000,0.000
1605106160034363904,10.0.1.131,573,move_down,-0.060,-0.060,-0.060,0.000,0.000,0.000
1605106161535620096,10.0.1.131,438,move_down,-0.080,-0.080,-0.080,0.000,0.000,0.000
1605106163071596032,10.0.1.131,473,move_down,-0.100,-0.100,-0.100,0.000,0.000,0.000
1605106164119702016,10.0.1.131,-1,move_down,-0.120,-0.120,-0.120,0.000,0.000,0.000
1605106166248421888,10.0.1.131,593,move_down,-0.140,-0.140,-0.140,0.000,0.000,0.000
1605106167888782080,10.0.1.131,557,move_down,-0.160,-0.160,-0.160,0.000,0.000,0.000
1605106169516403968,10.0.1.131,518,move_down,-0.180,-0.180,-0.180,0.000,0.000,0.000
1605106171100666112,10.0.1.131,455,move_down,-0.200,-0.200,-0.200,0.000,0.000,0.000
1605106172678400000,10.0.1.131,526,move_down,-0.220,-0.220,-0.220,0.000,0.000,0.000
1605106174221113856,10.0.1.131,490,move_down,-0.240,-0.240,-0.240,0.000,0.000,0.000
1605106175761508864,10.0.1.131,476,move_down,-0.260,-0.260,-0.260,0.000,0.000,0.000
1605106177377963008,10.0.1.131,546,move_down,-0.280,-0.280,-0.280,0.000,0.000,0.000
1605106178877046016,10.0.1.131,441,move_down,-0.300,-0.300,-0.300,0.000,0.000,0.000
1605106180563648000,10.0.1.131,596,move_down,-0.320,-0.320,-0.320,0.000,0.000,0.000
1605106182149223168,10.0.1.131,529,move_down,-0.340,-0.340,-0.340,0.000,0.000,0.000
1605106183683873024,10.0.1.131,449,move_down,-0.360,-0.360,-0.360,0.000,0.000,0.000
1605106185176183040,10.0.1.131,452,move_down,-0.380,-0.380,-0.380,0.000,0.000,0.000
1605106186743149056,10.0.1.131,505,move_down,-0.400,-0.400,-0.400,0.000,0.000,0.000
1605106188176472832,10.0.1.131,440,move_down,-0.420,-0.420,-0.420,0.000,0.000,0.000
1605106189756923904,10.0.1.131,489,move_down,-0.440,-0.440,-0.440,0.000,0.000,0.000
1605106191386279936,10.0.1.131,468,move_down,-0.460,-0.460,-0.460,0.000,0.000,0.000
1605106192866924032,10.0.1.131,435,move_down,-0.480,-0.480,-0.480,0.000,0.000,0.000
1605106194393430016,10.0.1.131,433,move_down,-0.500,-0.500,-0.500,0.000,0.000,0.000
1605106195986710016,10.0.1.131,545,move_down,-0.520,-0.520,-0.520,0.000,0.000,0.000
1605106197490053888,10.0.1.131,423,move_down,-0.540,-0.540,-0.540,0.000,0.000,0.000
1605106198992211968,10.0.1.131,467,move_down,-0.560,-0.560,-0.560,0.000,0.000,0.000
1605106200476820992,10.0.1.131,457,move_down,-0.580,-0.580,-0.580,0.000,0.000,0.000
1605106201519655936,10.0.1.131,53,pick,-0.590,-0.590,-0.590,0.000,0.000,0.000
1605106202521330944,10.0.1.131,53,pick,-0.600,-0.600,-0.600,0.000,0.000,0.000
1605106203518277888,10.0.1.131,49,pick,-0.610,-0.610,-0.610,0.000,0.000,0.000
1605106204527784192,10.0.1.131,54,pick,-0.620,-0.620,-0.620,0.000,0.000,0.000
1605106205508407040,10.0.1.131,33,pick,-0.630,-0.630,-0.630,0.000,0.000,0.000
1605106206527062784,10.0.1.131,47,pick,-0.640,-0.640,-0.640,0.000,0.000,0.000
1605106207529937152,10.0.1.131,48,pick,-0.650,-0.650,-0.650,0.000,0.000,0.000
1605106208529174016,10.0.1.131,46,pick,-0.660,-0.660,-0.660,0.000,0.000,0.000
1605106209525039872,10.0.1.131,41,pick,-0.670,-0.670,-0.670,0.000,0.000,0.000
1605106210529197056,10.0.1.131,44,pick,-0.680,-0.680,-0.680,0.000,0.000,0.000
1605106211532582144,10.0.1.131,46,pick,-0.690,-0.690,-0.690,0.000,0.000,0.000
1605106212526472192,10.0.1.131,35,pick,-0.700,-0.700,-0.700,0.000,0.000,0.000
1605106213528755968,10.0.1.131,37,pick,-0.710,-0.710,-0.710,0.000,0.000,0.000
1605106214532556032,10.0.1.131,36,pick,-0.720,-0.720,-0.720,0.000,0.000,0.000
1605106215543291136,10.0.1.131,46,pick,-0.730,-0.730,-0.730,0.000,0.000,0.000
1605106216555011072,10.0.1.131,52,pick,-0.740,-0.740,-0.740,0.000,0.000,0.000
1605106217553096960,10.0.1.131,50,pick,-0.750,-0.750,-0.750,0.000,0.000,0.000
1605106218546500864,10.0.1.131,34,pick,-0.760,-0.760,-0.760,0.000,0.000,0.000
1605106220926237952,10.0.1.131,374,move_up,-0.750,-0.750,-0.750,0.000,0.000,0.000
1605106222495843840,10.0.1.131,453,move_up,-0.730,-0.730,-0.730,0.000,0.000,0.000
1605106224048198912,10.0.1.131,472,move_up,-0.710,-0.710,-0.710,0.000,0.000,0.000
1605106225505798144,10.0.1.131,406,move_up,-0.690,-0.690,-0.690,0.000,0.000,0.000
1605106227011872000,10.0.1.131,444,move_up,-0.670,-0.670,-0.670,0.000,0.000,0.000
1605106228538817024,10.0.1.131,470,move_up,-0.650,-0.650,-0.650,0.000,0.000,0.000
1605106230008750848,10.0.1.131,403,move_up,-0.630,-0.630,-0.630,0.000,0.000,0.000
1605106231533454848,10.0.1.131,409,move_up,-0.610,-0.610,-0.610,0.000,0.000,0.000
1605106233027878912,10.0.1.131,413,move_up,-0.590,-0.590,-0.590,0.000,0.000,0.000
1605106234554199808,10.0.1.131,454,move_up,-0.570,-0.570,-0.570,0.000,0.000,0.000
1605106236024521216,10.0.1.131,432,move_up,-0.550,-0.550,-0.550,0.000,0.000,0.000
1605106237550221824,10.0.1.131,405,move_up,-0.530,-0.530,-0.530,0.000,0.000,0.000
1605106238998366976,10.0.1.131,391,move_up,-0.510,-0.510,-0.510,0.000,0.000,0.000
1605106240540570112,10.0.1.131,494,move_up,-0.490,-0.490,-0.490,0.000,0.000,0.000
1605106242058772992,10.0.1.131,461,move_up,-0.470,-0.470,-0.470,0.000,0.000,0.000
1605106243566337024,10.0.1.131,433,move_up,-0.450,-0.450,-0.450,0.000,0.000,0.000
1605106245049935104,10.0.1.131,408,move_up,-0.430,-0.430,-0.430,0.000,0.000,0.000
1605106246580563968,10.0.1.131,513,move_up,-0.410,-0.410,-0.410,0.000,0.000,0.000
1605106248151611136,10.0.1.131,503,move_up,-0.390,-0.390,-0.390,0.000,0.000,0.000
1605106249762234880,10.0.1.131,474,move_up,-0.370,-0.370,-0.370,0.000,0.000,0.000
1605106251284698112,10.0.1.131,477,move_up,-0.350,-0.350,-0.350,0.000,0.000,0.000
1605106252849600000,10.0.1.131,490,move_up,-0.330,-0.330,-0.330,0.000,0.000,0.000
1605106254413350144,10.0.1.131,519,move_up,-0.310,-0.310,-0.310,0.000,0.000,0.000
1605106255959043072,10.0.1.131,453,move_up,-0.290,-0.290,-0.290,0.000,0.000,0.000
1605106257484626176,10.0.1.131,433,move_up,-0.270,-0.270,-0.270,0.000,0.000,0.000
1605106259114214912,10.0.1.131,566,move_up,-0.250,-0.250,-0.250,0.000,0.000,0.000
1605106260670522880,10.0.1.131,462,move_up,-0.230,-0.230,-0.230,0.000,0.000,0.000
1605106262253377024,10.0.1.131,493,move_up,-0.210,-0.210,-0.210,0.000,0.000,0.000
1605106263785583872,10.0.1.131,437,move_up,-0.190,-0.190,-0.190,0.000,0.000,0.000
1605106264924415232,10.0.1.131,44,place,-0.180,-0.180,-0.180,0.000,0.000,0.000
1605106265929812992,10.0.1.131,48,place,-0.170,-0.170,-0.170,0.000,0.000,0.000
1605106266932445952,10.0.1.131,49,place,-0.160,-0.160,-0.160,0.000,0.000,0.000
1605106267926278144,10.0.1.131,41,place,-0.150,-0.150,-0.150,0.000,0.000,0.000
1605106268925744128,10.0.1.131,39,place,-0.140,-0.140,-0.140,0.000,0.000,0.000
1605106269948156160,10.0.1.131,60,place,-0.130,-0.130,-0.130,0.000,0.000,0.000
1605106270926386944,10.0.1.131,37,place,-0.120,-0.120,-0.120,0.000,0.000,0.000
1605106271940464128,10.0.1.131,50,place,-0.110,-0.110,-0.110,0.000,0.000,0.000
1605106272950831872,10.0.1.131,59,place,-0.100,-0.100,-0.100,0.000,0.000,0.000
1605106273950797056,10.0.1.131,57,place,-0.090,-0.090,-0.090,0.000,0.000,0.000
1605106274947948032,10.0.1.131,53,place,-0.080,-0.080,-0.080,0.000,0.000,0.000
1605106275945723136,10.0.1.131,49,place,-0.070,-0.070,-0.070,0.000,0.000,0.000
1605106276947848192,10.0.1.131,50,place,-0.060,-0.060,-0.060,0.000,0.000,0.000
1605106277951692032,10.0.1.131,53,place,-0.050,-0.050,-0.050,0.000,0.000,0.000
1605106278956176896,10.0.1.131,56,place,-0.040,-0.040,-0.040,0.000,0.000,0.000
1605106279961725952,10.0.1.131,60,place,-0.030,-0.030,-0.030,0.000,0.000,0.000
1605106280945400832,10.0.1.131,43,place,-0.020,-0.020,-0.020,0.000,0.000,0.000
1605106281945561856,10.0.1.131,42,place,-0.010,-0.010,-0.010,0.000,0.000,0.000
1605106282941524992,10.0.1.131,37,place,0.000,0.000,0.000,0.000,0.000,0.000
1605106284346638080,10.0.1.131,441,move_down,-0.020,-0.020,-0.020,0.000,0.000,0.000
1605106285851059968,10.0.1.131,431,move_down,-0.040,-0.040,-0.040,0.000,0.000,0.000
1605106287379798016,10.0.1.131,495,move_down,-0.060,-0.060,-0.060,0.000,0.000,0.000
1605106288872088832,10.0.1.131,451,move_down,-0.080,-0.080,-0.080,0.000,0.000,0.000
1605106290352062976,10.0.1.131,414,move_down,-0.100,-0.100,-0.100,0.000,0.000,0.000
1605106291856744960,10.0.1.131,474,move_down,-0.120,-0.120,-0.120,0.000,0.000,0.000
1605106293447668992,10.0.1.131,466,move_down,-0.140,-0.140,-0.140,0.000,0.000,0.000
1605106295078041088,10.0.1.131,511,move_down,-0.160,-0.160,-0.160,0.000,0.000,0.000
1605106296728167168,10.0.1.131,521,move_down,-0.180,-0.180,-0.180,0.000,0.000,0.000
1605106298190567936,10.0.1.131,417,move_down,-0.200,-0.200,-0.200,0.000,0.000,0.000
1605106299779543040,10.0.1.131,492,move_down,-0.220,-0.220,-0.220,0.000,0.000,0.000
1605106301341029888,10.0.1.131,483,move_down,-0.240,-0.240,-0.240,0.000,0.000,0.000
1605106302904534016,10.0.1.131,499,move_down,-0.260,-0.260,-0.260,0.000,0.000,0.000
1605106304453795072,10.0.1.131,459,move_down,-0.280,-0.280,-0.280,0.000,0.000,0.000
1605106306024163840,10.0.1.131,496,move_down,-0.300,-0.300,-0.300,0.000,0.000,0.000
1605106307578685952,10.0.1.131,493,move_down,-0.320,-0.320,-0.320,0.000,0.000,0.000
1605106309048891136,10.0.1.131,439,move_down,-0.340,-0.340,-0.340,0.000,0.000,0.000
1605106310594856960,10.0.1.131,477,move_down,-0.360,-0.360,-0.360,0.000,0.000,0.000
1605106312038022912,10.0.1.131,403,move_down,-0.380,-0.380,-0.380,0.000,0.000,0.000
1605106313476780800,10.0.1.131,437,move_down,-0.400,-0.400,-0.400,0.000,0.000,0.000
1605106314977012992,10.0.1.131,412,move_down,-0.420,-0.420,-0.420,0.000,0.000,0.000
1605106316495959040,10.0.1.131,443,move_down,-0.440,-0.440,-0.440,0.000,0.000,0.000
1605106318006287104,10.0.1.131,428,move_down,-0.460,-0.460,-0.460,0.000,0.000,0.000
1605106319599908096,10.0.1.131,495,move_down,-0.480,-0.480,-0.480,0.000,0.000,0.000
1605106321159740928,10.0.1.131,493,move_down,-0.500,-0.500,-0.500,0.000,0.000,0.000
1605106322986803968,10.0.1.131,695,move_down,-0.520,-0.520,-0.520,0.000,0.000,0.000
1605106324455645184,10.0.1.131,426,move_down,-0.540,-0.540,-0.540,0.000,0.000,0.000
1605106326100289024,10.0.1.131,565,move_down,-0.560,-0.560,-0.560,0.000,0.000,0.000
1605106327682259200,10.0.1.131,464,move_down,-0.580,-0.580,-0.580,0.000,0.000,0.000
1605106328842392832,10.0.1.131,35,pick,-0.590,-0.590,-0.590,0.000,0.000,0.000
1605106329864159232,10.0.1.131,53,pick,-0.600,-0.600,-0.600,0.000,0.000,0.000
1605106330842472960,10.0.1.131,30,pick,-0.610,-0.610,-0.610,0.000,0.000,0.000
1605106331861283072,10.0.1.131,46,pick,-0.620,-0.620,-0.620,0.000,0.000,0.000
1605106332885908992,10.0.1.131,64,pick,-0.630,-0.630,-0.630,0.000,0.000,0.000
1605106333883855104,10.0.1.131,61,pick,-0.640,-0.640,-0.640,0.000,0.000,0.000
1605106334860491008,10.0.1.131,37,pick,-0.650,-0.650,-0.650,0.000,0.000,0.000
1605106335860232960,10.0.1.131,36,pick,-0.660,-0.660,-0.660,0.000,0.000,0.000
1605106336862138112,10.0.1.131,37,pick,-0.670,-0.670,-0.670,0.000,0.000,0.000
1605106337860240896,10.0.1.131,33,pick,-0.680,-0.680,-0.680,0.000,0.000,0.000
1605106338862819840,10.0.1.131,34,pick,-0.690,-0.690,-0.690,0.000,0.000,0.000
1605106339861031168,10.0.1.131,31,pick,-0.700,-0.700,-0.700,0.000,0.000,0.000
1605106340890883072,10.0.1.131,59,pick,-0.710,-0.710,-0.710,0.000,0.000,0.000
1605106341881645824,10.0.1.131,49,pick,-0.720,-0.720,-0.720,0.000,0.000,0.000
1605106342882553088,10.0.1.131,49,pick,-0.730,-0.730,-0.730,0.000,0.000,0.000
1605106343885103104,10.0.1.131,50,pick,-0.740,-0.740,-0.740,0.000,0.000,0.000
1605106344887456000,10.0.1.131,51,pick,-0.750,-0.750,-0.750,0.000,0.000,0.000
1605106345893367040,10.0.1.131,55,pick,-0.760,-0.760,-0.760,0.000,0.000,0.000
1605106346881190912,10.0.1.131,42,pick,-0.770,-0.770,-0.770,0.000,0.000,0.000
1605106348320049152,10.0.1.131,480,move_up,-0.750,-0.750,-0.750,0.000,0.000,0.000
1605106349953272064,10.0.1.131,590,move_up,-0.730,-0.730,-0.730,0.000,0.000,0.000
1605106351582415104,10.0.1.131,550,move_up,-0.710,-0.710,-0.710,0.000,0.000,0.000
1605106353148036864,10.0.1.131,524,move_up,-0.690,-0.690,-0.690,0.000,0.000,0.000
1605106354737158912,10.0.1.131,510,move_up,-0.670,-0.670,-0.670,0.000,0.000,0.000
1605106356331631872,10.0.1.131,505,move_up,-0.650,-0.650,-0.650,0.000,0.000,0.000
1605106357942783232,10.0.1.131,519,move_up,-0.630,-0.630,-0.630,0.000,0.000,0.000
1605106359579802112,10.0.1.131,551,move_up,-0.610,-0.610,-0.610,0.000,0.000,0.000
1605106361123891200,10.0.1.131,476,move_up,-0.590,-0.590,-0.590,0.000,0.000,0.000
1605106362814157056,10.0.1.131,603,move_up,-0.570,-0.570,-0.570,0.000,0.000,0.000
1605106364469927936,10.0.1.131,595,move_up,-0.550,-0.550,-0.550,0.000,0.000,0.000
1605106366065985792,10.0.1.131,521,move_up,-0.530,-0.530,-0.530,0.000,0.000,0.000
1605106367695794176,10.0.1.131,604,move_up,-0.510,-0.510,-0.510,0.000,0.000,0.000
1605106369184143104,10.0.1.131,449,move_up,-0.490,-0.490,-0.490,0.000,0.000,0.000
1605106370759939840,10.0.1.131,499,move_up,-0.470,-0.470,-0.470,0.000,0.000,0.000
1605106372502952192,10.0.1.131,630,move_up,-0.450,-0.450,-0.450,0.000,0.000,0.000
1605106374418898176,10.0.1.131,449,move_up,-0.430,-0.430,-0.430,0.000,0.000,0.000
1605106376004237056,10.0.1.131,504,move_up,-0.410,-0.410,-0.410,0.000,0.000,0.000
1605106377543972864,10.0.1.131,484,move_up,-0.390,-0.390,-0.390,0.000,0.000,0.000
1605106379186096896,10.0.1.131,590,move_up,-0.370,-0.370,-0.370,0.000,0.000,0.000
1605106380619705088,10.0.1.131,430,move_up,-0.350,-0.350,-0.350,0.000,0.000,0.000
1605106382218305024,10.0.1.131,503,move_up,-0.330,-0.330,-0.330,0.000,0.000,0.000
1605106383736241152,10.0.1.131,466,move_up,-0.310,-0.310,-0.310,0.000,0.000,0.000
1605106385355771136,10.0.1.131,539,move_up,-0.290,-0.290,-0.290,0.000,0.000,0.000
1605106386955889920,10.0.1.131,525,move_up,-0.270,-0.270,-0.270,0.000,0.000,0.000
1605106388437641984,10.0.1.131,426,move_up,-0.250,-0.250,-0.250,0.000,0.000,0.000
1605106389993422080,10.0.1.131,489,move_up,-0.230,-0.230,-0.230,0.000,0.000,0.000
1605106391549079040,10.0.1.131,485,move_up,-0.210,-0.210,-0.210,0.000,0.000,0.000
1605106393213709056,10.0.1.131,581,move_up,-0.190,-0.190,-0.190,0.000,0.000,0.000
1605106394327291136,10.0.1.131,60,place,-0.180,-0.180,-0.180,0.000,0.000,0.000
1605106395323697920,10.0.1.131,56,place,-0.170,-0.170,-0.170,0.000,0.000,0.000
1605106396334892032,10.0.1.131,58,place,-0.160,-0.160,-0.160,0.000,0.000,0.000
1605106397333033984,10.0.1.131,55,place,-0.150,-0.150,-0.150,0.000,0.000,0.000
1605106398343799040,10.0.1.131,63,place,-0.140,-0.140,-0.140,0.000,0.000,0.000
1605106399323086080,10.0.1.131,39,place,-0.130,-0.130,-0.130,0.000,0.000,0.000
1605106400331976960,10.0.1.131,48,place,-0.120,-0.120,-0.120,0.000,0.000,0.000
1605106401318434048,10.0.1.131,33,place,-0.110,-0.110,-0.110,0.000,0.000,0.000
1605106402343741952,10.0.1.131,57,place,-0.100,-0.100,-0.100,0.000,0.000,0.000
1605106403354824960,10.0.1.131,67,place,-0.090,-0.090,-0.090,0.000,0.000,0.000
1605106404340029952,10.0.1.131,50,place,-0.080,-0.080,-0.080,0.000,0.000,0.000
1605106405339454976,10.0.1.131,49,place,-0.070,-0.070,-0.070,0.000,0.000,0.000
1605106406342278912,10.0.1.131,50,place,-0.060,-0.060,-0.060,0.000,0.000,0.000
1605106407345808896,10.0.1.131,52,place,-0.050,-0.050,-0.050,0.000,0.000,0.000
1605106408347571968,10.0.1.131,53,place,-0.040,-0.040,-0.040,0.000,0.000,0.000
1605106409339611904,10.0.1.131,44,place,-0.030,-0.030,-0.030,0.000,0.000,0.000
1605106411362402816,10.0.1.131,59,place,-0.010,-0.010,-0.010,0.000,0.000,0.000
1605106412354383104,10.0.1.131,49,place,0.000,0.000,0.000,0.000,0.000,0.000
1605106413818542848,10.0.1.131,512,move_down,-0.020,-0.020,-0.020,0.000,0.000,0.000
1605106415410740992,10.0.1.131,532,move_down,-0.040,-0.040,-0.040,0.000,0.000,0.000
1605106417125969920,10.0.1.131,588,move_down,-0.060,-0.060,-0.060,0.000,0.000,0.000
1605106418734802944,10.0.1.131,519,move_down,-0.080,-0.080,-0.080,0.000,0.000,0.000
1605106420434465792,10.0.1.131,611,move_down,-0.100,-0.100,-0.100,0.000,0.000,0.000
1605106422176673792,10.0.1.131,571,move_down,-0.120,-0.120,-0.120,0.000,0.000,0.000
1605106423851175936,10.0.1.131,602,move_down,-0.140,-0.140,-0.140,0.000,0.000,0.000
1605106425527170816,10.0.1.131,597,move_down,-0.160,-0.160,-0.160,0.000,0.000,0.000
1605106427032751104,10.0.1.131,421,move_down,-0.180,-0.180,-0.180,0.000,0.000,0.000
1605106428563333120,10.0.1.131,476,move_down,-0.200,-0.200,-0.200,0.000,0.000,0.000
1605106430201368064,10.0.1.131,586,move_down,-0.220,-0.220,-0.220,0.000,0.000,0.000
1605106431793064960,10.0.1.131,495,move_down,-0.240,-0.240,-0.240,0.000,0.000,0.000
1605106433432708864,10.0.1.131,598,move_down,-0.260,-0.260,-0.260,0.000,0.000,0.000
1605106434863638016,10.0.1.131,466,move_down,-0.280,-0.280,-0.280,0.000,0.000,0.000
1605106436440313088,10.0.1.131,493,move_down,-0.300,-0.300,-0.300,0.000,0.000,0.000
1605106438008753152,10.0.1.131,477,move_down,-0.320,-0.320,-0.320,0.000,0.000,0.000
1605106439597532928,10.0.1.131,519,move_down,-0.340,-0.340,-0.340,0.000,0.000,0.000
1605106441182279168,10.0.1.131,538,move_down,-0.360,-0.360,-0.360,0.000,0.000,0.000
1605106442694304000,10.0.1.131,432,move_down,-0.380,-0.380,-0.380,0.000,0.000,0.000
1605106444314609920,10.0.1.131,507,move_down,-0.400,-0.400,-0.400,0.000,0.000,0.000
1605106445894257152,10.0.1.131,486,move_down,-0.420,-0.420,-0.420,0.000,0.000,0.000
1605106447516984064,10.0.1.131,515,move_down,-0.440,-0.440,-0.440,0.000,0.000,0.000
1605106449094615040,10.0.1.131,454,move_down,-0.460,-0.460,-0.460,0.000,0.000,0.000
1605106450746948096,10.0.1.131,556,move_down,-0.480,-0.480,-0.480,0.000,0.000,0.000
1605106452246990080,10.0.1.131,477,move_down,-0.500,-0.500,-0.500,0.000,0.000,0.000
1605106453962560768,10.0.1.131,642,move_down,-0.520,-0.520,-0.520,0.000,0.000,0.000
1605106455629467904,10.0.1.131,517,move_down,-0.540,-0.540,-0.540,0.000,0.000,0.000
1605106457236303104,10.0.1.131,535,move_down,-0.560,-0.560,-0.560,0.000,0.000,0.000
1605106458827074048,10.0.1.131,468,move_down,-0.580,-0.580,-0.580,0.000,0.000,0.000
1605106459950889984,10.0.1.131,39,pick,-0.590,-0.590,-0.590,0.000,0.000,0.000
1605106460961291008,10.0.1.131,48,pick,-0.600,-0.600,-0.600,0.000,0.000,0.000
1605106461973483008,10.0.1.131,52,pick,-0.610,-0.610,-0.610,0.000,0.000,0.000
1605106462969522944,10.0.1.131,45,pick,-0.620,-0.620,-0.620,0.000,0.000,0.000
1605106463974500864,10.0.1.131,45,pick,-0.630,-0.630,-0.630,0.000,0.000,0.000
1605106464968918016,10.0.1.131,33,pick,-0.640,-0.640,-0.640,0.000,0.000,0.000
1605106465988828928,10.0.1.131,51,pick,-0.650,-0.650,-0.650,0.000,0.000,0.000
1605106466994215936,10.0.1.131,55,pick,-0.660,-0.660,-0.660,0.000,0.000,0.000
1605106467991849984,10.0.1.131,52,pick,-0.670,-0.670,-0.670,0.000,0.000,0.000
1605106469989052928,10.0.1.131,46,pick,-0.690,-0.690,-0.690,0.000,0.000,0.000
1605106470993652992,10.0.1.131,48,pick,-0.700,-0.700,-0.700,0.000,0.000,0.000
1605106471996366080,10.0.1.131,49,pick,-0.710,-0.710,-0.710,0.000,0.000,0.000
1605106472992801024,10.0.1.131,42,pick,-0.720,-0.720,-0.720,0.000,0.000,0.000
1605106473990356992,10.0.1.131,39,pick,-0.730,-0.730,-0.730,0.000,0.000,0.000
1605106474990260992,10.0.1.131,37,pick,-0.740,-0.740,-0.740,0.000,0.000,0.000
1605106475991244032,10.0.1.131,37,pick,-0.750,-0.750,-0.750,0.000,0.000,0.000
1605106477008169984,10.0.1.131,50,pick,-0.760,-0.760,-0.760,0.000,0.000,0.000
1605106478002685952,10.0.1.131,44,pick,-0.770,-0.770,-0.770,0.000,0.000,0.000
1605106479528438016,10.0.1.131,567,move_up,-0.750,-0.750,-0.750,0.000,0.000,0.000
1605106481063885056,10.0.1.131,460,move_up,-0.730,-0.730,-0.730,0.000,0.000,0.000
1605106482620774912,10.0.1.131,508,move_up,-0.710,-0.710,-0.710,0.000,0.000,0.000
1605106484176256768,10.0.1.131,488,move_up,-0.690,-0.690,-0.690,0.000,0.000,0.000
1605106485761192960,10.0.1.131,499,move_up,-0.670,-0.670,-0.670,0.000,0.000,0.000
1605106487417024000,10.0.1.131,540,move_up,-0.650,-0.650,-0.650,0.000,0.000,0.000
1605106488915738112,10.0.1.131,473,move_up,-0.630,-0.630,-0.630,0.000,0.000,0.000
1605106490440980992,10.0.1.131,508,move_up,-0.610,-0.610,-0.610,0.000,0.000,0.000
1605106491975543040,10.0.1.131,442,move_up,-0.590,-0.590,-0.590,0.000,0.000,0.000
1605106493637620992,10.0.1.131,580,move_up,-0.570,-0.570,-0.570,0.000,0.000,0.000
1605106495187364096,10.0.1.131,503,move_up,-0.550,-0.550,-0.550,0.000,0.000,0.000
1605106496776026112,10.0.1.131,520,move_up,-0.530,-0.530,-0.530,0.000,0.000,0.000
1605106498437766912,10.0.1.131,613,move_up,-0.510,-0.510,-0.510,0.000,0.000,0.000
1605106500092000000,10.0.1.131,564,move_up,-0.490,-0.490,-0.490,0.000,0.000,0.000
1605106501803035904,10.0.1.131,543,move_up,-0.470,-0.470,-0.470,0.000,0.000,0.000
1605106503275296000,10.0.1.131,424,move_up,-0.450,-0.450,-0.450,0.000,0.000,0.000
1605106504866323968,10.0.1.131,491,move_up,-0.430,-0.430,-0.430,0.000,0.000,0.000
1605106506407022080,10.0.1.131,539,move_up,-0.410,-0.410,-0.410,0.000,0.000,0.000
1605106508007361024,10.0.1.131,572,move_up,-0.390,-0.390,-0.390,0.000,0.000,0.000
1605106509688433920,10.0.1.131,510,move_up,-0.370,-0.370,-0.370,0.000,0.000,0.000
1605106511281968128,10.0.1.131,464,move_up,-0.350,-0.350,-0.350,0.000,0.000,0.000
1605106512846905088,10.0.1.131,496,move_up,-0.330,-0.330,-0.330,0.000,0.000,0.000
1605106514445935872,10.0.1.131,462,move_up,-0.310,-0.310,-0.310,0.000,0.000,0.000
1605106515960508160,10.0.1.131,431,move_up,-0.290,-0.290,-0.290,0.000,0.000,0.000
1605106517497453824,10.0.1.131,439,move_up,-0.270,-0.270,-0.270,0.000,0.000,0.000
1605106519017358080,10.0.1.131,439,move_up,-0.250,-0.250,-0.250,0.000,0.000,0.000
1605106520620310016,10.0.1.131,513,move_up,-0.230,-0.230,-0.230,0.000,0.000,0.000
1605106522233426944,10.0.1.131,472,move_up,-0.210,-0.210,-0.210,0.000,0.000,0.000
1605106523823286016,10.0.1.131,489,move_up,-0.190,-0.190,-0.190,0.000,0.000,0.000
1605106524872090112,10.0.1.131,53,place,-0.180,-0.180,-0.180,0.000,0.000,0.000
1605106525867137024,10.0.1.131,47,place,-0.170,-0.170,-0.170,0.000,0.000,0.000
1605106526861285888,10.0.1.131,40,place,-0.160,-0.160,-0.160,0.000,0.000,0.000
1605106527865123072,10.0.1.131,42,place,-0.150,-0.150,-0.150,0.000,0.000,0.000
1605106528859889920,10.0.1.131,36,place,-0.140,-0.140,-0.140,0.000,0.000,0.000
1605106529859726848,10.0.1.131,33,place,-0.130,-0.130,-0.130,0.000,0.000,0.000
1605106530867304960,10.0.1.131,40,place,-0.120,-0.120,-0.120,0.000,0.000,0.000
1605106531863221760,10.0.1.131,35,place,-0.110,-0.110,-0.110,0.000,0.000,0.000
1605106532863287808,10.0.1.131,31,place,-0.100,-0.100,-0.100,0.000,0.000,0.000
1605106533882417920,10.0.1.131,48,place,-0.090,-0.090,-0.090,0.000,0.000,0.000
1605106534882280960,10.0.1.131,46,place,-0.080,-0.080,-0.080,0.000,0.000,0.000
1605106535883467008,10.0.1.131,46,place,-0.070,-0.070,-0.070,0.000,0.000,0.000
1605106536882415104,10.0.1.131,44,place,-0.060,-0.060,-0.060,0.000,0.000,0.000
1605106537884006144,10.0.1.131,44,place,-0.050,-0.050,-0.050,0.000,0.000,0.000
1605106538881452032,10.0.1.131,40,place,-0.040,-0.040,-0.040,0.000,0.000,0.000
1605106539881360896,10.0.1.131,38,place,-0.030,-0.030,-0.030,0.000,0.000,0.000
1605106540893165056,10.0.1.131,48,place,-0.020,-0.020,-0.020,0.000,0.000,0.000
1605106541882800128,10.0.1.131,37,place,-0.010,-0.010,-0.010,0.000,0.000,0.000
1605106542883856896,10.0.1.131,36,place,0.000,0.000,0.000,0.000,0.000,0.000
1605106544346221824,10.0.1.131,496,move_down,-0.020,-0.020,-0.020,0.000,0.000,0.000
1605106545866576896,10.0.1.131,431,move_down,-0.040,-0.040,-0.040,0.000,0.000,0.000
1605106547447618048,10.0.1.131,481,move_down,-0.060,-0.060,-0.060,0.000,0.000,0.000
1605106548985101824,10.0.1.131,484,move_down,-0.080,-0.080,-0.080,0.000,0.000,0.000
1605106550588187904,10.0.1.131,516,move_down,-0.100,-0.100,-0.100,0.000,0.000,0.000
1605106552133766912,10.0.1.131,486,move_down,-0.120,-0.120,-0.120,0.000,0.000,0.000
1605106553681083904,10.0.1.131,523,move_down,-0.140,-0.140,-0.140,0.000,0.000,0.000
1605106555359600896,10.0.1.131,588,move_down,-0.160,-0.160,-0.160,0.000,0.000,0.000
1605106556990013952,10.0.1.131,462,move_down,-0.180,-0.180,-0.180,0.000,0.000,0.000
1605106558573824768,10.0.1.131,551,move_down,-0.200,-0.200,-0.200,0.000,0.000,0.000
1605106560130084864,10.0.1.131,523,move_down,-0.220,-0.220,-0.220,0.000,0.000,0.000
1605106561802562048,10.0.1.131,608,move_down,-0.240,-0.240,-0.240,0.000,0.000,0.000
1605106563299896832,10.0.1.131,441,move_down,-0.260,-0.260,-0.260,0.000,0.000,0.000
1605106564885436928,10.0.1.131,467,move_down,-0.280,-0.280,-0.280,0.000,0.000,0.000
1605106566465198080,10.0.1.131,489,move_down,-0.300,-0.300,-0.300,0.000,0.000,0.000
1605106568031930880,10.0.1.131,430,move_down,-0.320,-0.320,-0.320,0.000,0.000,0.000
1605106569620317952,10.0.1.131,552,move_down,-0.340,-0.340,-0.340,0.000,0.000,0.000
1605106571154809088,10.0.1.131,504,move_down,-0.360,-0.360,-0.360,0.000,0.000,0.000
1605106572773938944,10.0.1.131,527,move_down,-0.380,-0.380,-0.380,0.000,0.000,0.000
1605106574345017856,10.0.1.131,475,move_down,-0.400,-0.400,-0.400,0.000,0.000,0.000
1605106576030756864,10.0.1.131,619,move_down,-0.420,-0.420,-0.420,0.000,0.000,0.000
1605106577706660096,10.0.1.131,615,move_down,-0.440,-0.440,-0.440,0.000,0.000,0.000
1605106579270860032,10.0.1.131,452,move_down,-0.460,-0.460,-0.460,0.000,0.000,0.000
1605106580936657920,10.0.1.131,566,move_down,-0.480,-0.480,-0.480,0.000,0.000,0.000
1605106582465758208,10.0.1.131,497,move_down,-0.500,-0.500,-0.500,0.000,0.000,0.000
1605106584034562048,10.0.1.131,503,move_down,-0.520,-0.520,-0.520,0.000,0.000,0.000
1605106585632001024,10.0.1.131,500,move_down,-0.540,-0.540,-0.540,0.000,0.000,0.000
1605106587292304128,10.0.1.131,565,move_down,-0.560,-0.560,-0.560,0.000,0.000,0.000
1605106588871269888,10.0.1.131,459,move_down,-0.580,-0.580,-0.580,0.000,0.000,0.000
1605106591091186944,10.0.1.131,60,pick,-0.600,-0.600,-0.600,0.000,0.000,0.000
1605106592075102976,10.0.1.131,43,pick,-0.610,-0.610,-0.610,0.000,0.000,0.000
1605106593069710848,10.0.1.131,36,pick,-0.620,-0.620,-0.620,0.000,0.000,0.000
1605106594070498048,10.0.1.131,36,pick,-0.630,-0.630,-0.630,0.000,0.000,0.000
1605106595075789824,10.0.1.131,39,pick,-0.640,-0.640,-0.640,0.000,0.000,0.000
1605106596078854144,10.0.1.131,37,pick,-0.650,-0.650,-0.650,0.000,0.000,0.000
1605106597090413056,10.0.1.131,47,pick,-0.660,-0.660,-0.660,0.000,0.000,0.000
1605106598094331136,10.0.1.131,50,pick,-0.670,-0.670,-0.670,0.000,0.000,0.000
1605106599089842176,10.0.1.131,44,pick,-0.680,-0.680,-0.680,0.000,0.000,0.000
1605106600101682944,10.0.1.131,55,pick,-0.690,-0.690,-0.690,0.000,0.000,0.000
1605106601090823936,10.0.1.131,43,pick,-0.700,-0.700,-0.700,0.000,0.000,0.000
1605106602097934848,10.0.1.131,48,pick,-0.710,-0.710,-0.710,0.000,0.000,0.000
1605106603100233984,10.0.1.131,49,pick,-0.720,-0.720,-0.720,0.000,0.000,0.000
1605106604100553984,10.0.1.131,48,pick,-0.730,-0.730,-0.730,0.000,0.000,0.000
1605106605113327104,10.0.1.131,57,pick,-0.740,-0.740,-0.740,0.000,0.000,0.000
1605106606096025856,10.0.1.131,39,pick,-0.750,-0.750,-0.750,0.000,0.000,0.000
1605106607094531072,10.0.1.131,36,pick,-0.760,-0.760,-0.760,0.000,0.000,0.000
1605106609568257024,10.0.1.131,507,move_up,-0.750,-0.750,-0.750,0.000,0.000,0.000
1605106611068942080,10.0.1.131,471,move_up,-0.730,-0.730,-0.730,0.000,0.000,0.000
1605106612614136064,10.0.1.131,516,move_up,-0.710,-0.710,-0.710,0.000,0.000,0.000
1605106614154089984,10.0.1.131,469,move_up,-0.690,-0.690,-0.690,0.000,0.000,0.000
1605106615736183808,10.0.1.131,509,move_up,-0.670,-0.670,-0.670,0.000,0.000,0.000
1605106617334235904,10.0.1.131,500,move_up,-0.650,-0.650,-0.650,0.000,0.000,0.000
1605106618998023936,10.0.1.131,588,move_up,-0.630,-0.630,-0.630,0.000,0.000,0.000
1605106620609127168,10.0.1.131,524,move_up,-0.610,-0.610,-0.610,0.000,0.000,0.000
1605106622128148992,10.0.1.131,479,move_up,-0.590,-0.590,-0.590,0.000,0.000,0.000
1605106623658211072,10.0.1.131,485,move_up,-0.570,-0.570,-0.570,0.000,0.000,0.000
1605106625187799808,10.0.1.131,484,move_up,-0.550,-0.550,-0.550,0.000,0.000,0.000
1605106626825732864,10.0.1.131,555,move_up,-0.530,-0.530,-0.530,0.000,0.000,0.000
1605106628363205888,10.0.1.131,508,move_up,-0.510,-0.510,-0.510,0.000,0.000,0.000
1605106629983309056,10.0.1.131,541,move_up,-0.490,-0.490,-0.490,0.000,0.000,0.000
1605106631601948928,10.0.1.131,567,move_up,-0.470,-0.470,-0.470,0.000,0.000,0.000
1605106633102541056,10.0.1.131,511,move_up,-0.450,-0.450,-0.450,0.000,0.000,0.000
1605106634799879168,10.0.1.131,560,move_up,-0.430,-0.430,-0.430,0.000,0.000,0.000
1605106636326589952,10.0.1.131,463,move_up,-0.410,-0.410,-0.410,0.000,0.000,0.000
1605106637944528128,10.0.1.131,479,move_up,-0.390,-0.390,-0.390,0.000,0.000,0.000
1605106639519564032,10.0.1.131,495,move_up,-0.370,-0.370,-0.370,0.000,0.000,0.000
1605106641124275968,10.0.1.131,538,move_up,-0.350,-0.350,-0.350,0.000,0.000,0.000
1605106642796827904,10.0.1.131,576,move_up,-0.330,-0.330,-0.330,0.000,0.000,0.000
1605106644748371968,10.0.1.131,902,move_up,-0.310,-0.310,-0.310,0.000,0.000,0.000
1605106646329367040,10.0.1.131,446,move_up,-0.290,-0.290,-0.290,0.000,0.000,0.000
1605106647838520064,10.0.1.131,457,move_up,-0.270,-0.270,-0.270,0.000,0.000,0.000
1605106649420082176,10.0.1.131,520,move_up,-0.250,-0.250,-0.250,0.000,0.000,0.000
1605106650922893056,10.0.1.131,440,move_up,-0.230,-0.230,-0.230,0.000,0.000,0.000
1605106652506792192,10.0.1.131,473,move_up,-0.210,-0.210,-0.210,0.000,0.000,0.000
1605106654122993920,10.0.1.131,486,move_up,-0.190,-0.190,-0.190,0.000,0.000,0.000
1605106655259396096,10.0.1.131,40,place,-0.180,-0.180,-0.180,0.000,0.000,0.000
1605106656262339072,10.0.1.131,41,place,-0.170,-0.170,-0.170,0.000,0.000,0.000
1605106657257581056,10.0.1.131,35,place,-0.160,-0.160,-0.160,0.000,0.000,0.000
1605106658257714944,10.0.1.131,34,place,-0.150,-0.150,-0.150,0.000,0.000,0.000
1605106659280504832,10.0.1.131,55,place,-0.140,-0.140,-0.140,0.000,0.000,0.000
1605106660259964928,10.0.1.131,34,place,-0.130,-0.130,-0.130,0.000,0.000,0.000
1605106661280209152,10.0.1.131,47,place,-0.120,-0.120,-0.120,0.000,0.000,0.000
1605106662282247168,10.0.1.131,48,place,-0.110,-0.110,-0.110,0.000,0.000,0.000
1605106663302642176,10.0.1.131,62,place,-0.100,-0.100,-0.100,0.000,0.000,0.000
1605106664278688000,10.0.1.131,35,place,-0.090,-0.090,-0.090,0.000,0.000,0.000
1605106665289989888,10.0.1.131,40,place,-0.080,-0.080,-0.080,0.000,0.000,0.000
1605106666305195008,10.0.1.131,52,place,-0.070,-0.070,-0.070,0.000,0.000,0.000
1605106667304035072,10.0.1.131,49,place,-0.060,-0.060,-0.060,0.000,0.000,0.000
1605106668309420032,10.0.1.131,53,place,-0.050,-0.050,-0.050,0.000,0.000,0.000
1605106669301508864,10.0.1.131,43,place,-0.040,-0.040,-0.040,0.000,0.000,0.000
1605106670299238912,10.0.1.131,35,place,-0.030,-0.030,-0.030,0.000,0.000,0.000
1605106671305963008,10.0.1.131,40,place,-0.020,-0.020,-0.020,0.000,0.000,0.000
1605106672331038976,10.0.1.131,61,place,-0.010,-0.010,-0.010,0.000,0.000,0.000
1605106673317598976,10.0.1.131,46,place,0.000,0.000,0.000,0.000,0.000,0.000
1605106674697947904,10.0.1.131,425,move_down,-0.020,-0.020,-0.020,0.000,0.000,0.000
1605106676268770816,10.0.1.131,505,move_down,-0.040,-0.040,-0.040,0.000,0.000,0.000
1605106677899617024,10.0.1.131,577,move_down,-0.060,-0.060,-0.060,0.000,0.000,0.000
1605106679549911040,10.0.1.131,590,move_down,-0.080,-0.080,-0.080,0.000,0.000,0.000
1605106681180756992,10.0.1.131,570,move_down,-0.100,-0.100,-0.100,0.000,0.000,0.000
1605106682764264960,10.0.1.131,507,move_down,-0.120,-0.120,-0.120,0.000,0.000,0.000
1605106684377926144,10.0.1.131,491,move_down,-0.140,-0.140,-0.140,0.000,0.000,0.000
1605106685895987968,10.0.1.131,456,move_down,-0.160,-0.160,-0.160,0.000,0.000,0.000
1605106687597342976,10.0.1.131,581,move_down,-0.180,-0.180,-0.180,0.000,0.000,0.000
1605106689313293056,10.0.1.131,631,move_down,-0.200,-0.200,-0.200,0.000,0.000,0.000
1605106690924596992,10.0.1.131,532,move_down,-0.220,-0.220,-0.220,0.000,0.000,0.000
1605106692582480896,10.0.1.131,545,move_down,-0.240,-0.240,-0.240,0.000,0.000,0.000
1605106694181277952,10.0.1.131,561,move_down,-0.260,-0.260,-0.260,0.000,0.000,0.000
1605106695761768192,10.0.1.131,489,move_down,-0.280,-0.280,-0.280,0.000,0.000,0.000
1605106697657644032,10.0.1.131,778,move_down,-0.300,-0.300,-0.300,0.000,0.000,0.000
1605106699373275136,10.0.1.131,670,move_down,-0.320,-0.320,-0.320,0.000,0.000,0.000
1605106700953913856,10.0.1.131,555,move_down,-0.340,-0.340,-0.340,0.000,0.000,0.000
1605106702826414080,10.0.1.131,726,move_down,-0.360,-0.360,-0.360,0.000,0.000,0.000
1605106704364325120,10.0.1.131,479,move_down,-0.380,-0.380,-0.380,0.000,0.000,0.000
1605106706194603008,10.0.1.131,664,move_down,-0.400,-0.400,-0.400,0.000,0.000,0.000
1605106707904953088,10.0.1.131,618,move_down,-0.420,-0.420,-0.420,0.000,0.000,0.000
1605106709634499072,10.0.1.131,632,move_down,-0.440,-0.440,-0.440,0.000,0.000,0.000
1605106711433348864,10.0.1.131,612,move_down,-0.460,-0.460,-0.460,0.000,0.000,0.000
1605106713174520064,10.0.1.131,624,move_down,-0.480,-0.480,-0.480,0.000,0.000,0.000
1605106714871028992,10.0.1.131,603,move_down,-0.500,-0.500,-0.500,0.000,0.000,0.000
1605106716416559872,10.0.1.131,512,move_down,-0.520,-0.520,-0.520,0.000,0.000,0.000
1605106718010112000,10.0.1.131,526,move_down,-0.540,-0.540,-0.540,0.000,0.000,0.000
1605106719579195136,10.0.1.131,487,move_down,-0.560,-0.560,-0.560,0.000,0.000,0.000
1605106721111649024,10.0.1.131,453,move_down,-0.580,-0.580,-0.580,0.000,0.000,0.000
1605106723251937024,10.0.1.131,52,pick,-0.600,-0.600,-0.600,0.000,0.000,0.000
1605106724252436992,10.0.1.131,50,pick,-0.610,-0.610,-0.610,0.000,0.000,0.000
1605106725254493952,10.0.1.131,50,pick,-0.620,-0.620,-0.620,0.000,0.000,0.000
1605106728253587968,10.0.1.131,43,pick,-0.650,-0.650,-0.650,0.000,0.000,0.000
1605106730255414016,10.0.1.131,42,pick,-0.670,-0.670,-0.670,0.000,0.000,0.000
1605106731258571008,10.0.1.131,44,pick,-0.680,-0.680,-0.680,0.000,0.000,0.000
1605106732251655168,10.0.1.131,35,pick,-0.690,-0.690,-0.690,0.000,0.000,0.000
1605106733255247104,10.0.1.131,37,pick,-0.700,-0.700,-0.700,0.000,0.000,0.000
1605106734256346880,10.0.1.131,37,pick,-0.710,-0.710,-0.710,0.000,0.000,0.000
1605106735264625920,10.0.1.131,44,pick,-0.720,-0.720,-0.720,0.000,0.000,0.000
1605106736258894080,10.0.1.131,37,pick,-0.730,-0.730,-0.730,0.000,0.000,0.000
1605106737275268096,10.0.1.131,52,pick,-0.740,-0.740,-0.740,0.000,0.000,0.000
1605106738291625984,10.0.1.131,67,pick,-0.750,-0.750,-0.750,0.000,0.000,0.000
1605106739285011968,10.0.1.131,59,pick,-0.760,-0.760,-0.760,0.000,0.000,0.000
1605106740277545984,10.0.1.131,42,pick,-0.770,-0.770,-0.770,0.000,0.000,0.000
1605106741698565888,10.0.1.131,462,move_up,-0.750,-0.750,-0.750,0.000,0.000,0.000
1605106743330887168,10.0.1.131,539,move_up,-0.730,-0.730,-0.730,0.000,0.000,0.000
1605106744902955008,10.0.1.131,560,move_up,-0.710,-0.710,-0.710,0.000,0.000,0.000
1605106746367229952,10.0.1.131,435,move_up,-0.690,-0.690,-0.690,0.000,0.000,0.000
1605106748029000960,10.0.1.131,608,move_up,-0.670,-0.670,-0.670,0.000,0.000,0.000
1605106749684113152,10.0.1.131,572,move_up,-0.650,-0.650,-0.650,0.000,0.000,0.000
1605106751430991872,10.0.1.131,591,move_up,-0.630,-0.630,-0.630,0.000,0.000,0.000
1605106752983730176,10.0.1.131,545,move_up,-0.610,-0.610,-0.610,0.000,0.000,0.000
1605106754609161984,10.0.1.131,530,move_up,-0.590,-0.590,-0.590,0.000,0.000,0.000
1605106756188948992,10.0.1.131,491,move_up,-0.570,-0.570,-0.570,0.000,0.000,0.000
1605106757857284096,10.0.1.131,570,move_up,-0.550,-0.550,-0.550,0.000,0.000,0.000
1605106759360135168,10.0.1.131,490,move_up,-0.530,-0.530,-0.530,0.000,0.000,0.000
1605106760902139904,10.0.1.131,485,move_up,-0.510,-0.510,-0.510,0.000,0.000,0.000
1605106762653579008,10.0.1.131,670,move_up,-0.490,-0.490,-0.490,0.000,0.000,0.000
1605106764262303232,10.0.1.131,500,move_up,-0.470,-0.470,-0.470,0.000,0.000,0.000
1605106765923042048,10.0.1.131,575,move_up,-0.450,-0.450,-0.450,0.000,0.000,0.000
1605106767398371072,10.0.1.131,450,move_up,-0.430,-0.430,-0.430,0.000,0.000,0.000
1605106769107147008,10.0.1.131,647,move_up,-0.410,-0.410,-0.410,0.000,0.000,0.000
1605106770798825984,10.0.1.131,580,move_up,-0.390,-0.390,-0.390,0.000,0.000,0.000
1605106772444094976,10.0.1.131,589,move_up,-0.370,-0.370,-0.370,0.000,0.000,0.000
1605106774233805056,10.0.1.131,678,move_up,-0.350,-0.350,-0.350,0.000,0.000,0.000
1605106775832499968,10.0.1.131,568,move_up,-0.330,-0.330,-0.330,0.000,0.000,0.000
1605106777453940992,10.0.1.131,600,move_up,-0.310,-0.310,-0.310,0.000,0.000,0.000
1605106779172924928,10.0.1.131,644,move_up,-0.290,-0.290,-0.290,0.000,0.000,0.000
1605106780863037184,10.0.1.131,614,move_up,-0.270,-0.270,-0.270,0.000,0.000,0.000
1605106782570136064,10.0.1.131,596,move_up,-0.250,-0.250,-0.250,0.000,0.000,0.000
1605106784340260096,10.0.1.131,630,move_up,-0.230,-0.230,-0.230,0.000,0.000,0.000
1605106785949469952,10.0.1.131,518,move_up,-0.210,-0.210,-0.210,0.000,0.000,0.000
1605106787506139136,10.0.1.131,486,move_up,-0.190,-0.190,-0.190,0.000,0.000,0.000
1605106788630614016,10.0.1.131,50,place,-0.180,-0.180,-0.180,0.000,0.000,0.000
1605106789629225984,10.0.1.131,48,place,-0.170,-0.170,-0.170,0.000,0.000,0.000
1605106790629436928,10.0.1.131,47,place,-0.160,-0.160,-0.160,0.000,0.000,0.000
1605106791630539776,10.0.1.131,47,place,-0.150,-0.150,-0.150,0.000,0.000,0.000
1605106793626071808,10.0.1.131,37,place,-0.130,-0.130,-0.130,0.000,0.000,0.000
1605106794629071104,10.0.1.131,38,place,-0.120,-0.120,-0.120,0.000,0.000,0.000
1605106795631079936,10.0.1.131,39,place,-0.110,-0.110,-0.110,0.000,0.000,0.000
1605106797624609024,10.0.1.131,29,place,-0.090,-0.090,-0.090,0.000,0.000,0.000
1605106798640516096,10.0.1.131,44,place,-0.080,-0.080,-0.080,0.000,0.000,0.000
1605106799648788992,10.0.1.131,51,place,-0.070,-0.070,-0.070,0.000,0.000,0.000
1605106800647659008,10.0.1.131,48,place,-0.060,-0.060,-0.060,0.000,0.000,0.000
1605106801665005824,10.0.1.131,52,place,-0.050,-0.050,-0.050,0.000,0.000,0.000
1605106802670298112,10.0.1.131,56,place,-0.040,-0.040,-0.040,0.000,0.000,0.000
1605106803661438976,10.0.1.131,46,place,-0.030,-0.030,-0.030,0.000,0.000,0.000
1605106804664516864,10.0.1.131,48,place,-0.020,-0.020,-0.020,0.000,0.000,0.000
1605106805663186944,10.0.1.131,45,place,-0.010,-0.010,-0.010,0.000,0.000,0.000
1605106806664845824,10.0.1.131,45,place,0.000,0.000,0.000,0.000,0.000,0.000
1605106808149415936,10.0.1.131,529,move_down,-0.020,-0.020,-0.020,0.000,0.000,0.000
1605106809786451968,10.0.1.131,533,move_down,-0.040,-0.040,-0.040,0.000,0.000,0.000
1605106811574572032,10.0.1.131,643,move_down,-0.060,-0.060,-0.060,0.000,0.000,0.000
1605106813244826112,10.0.1.131,599,move_down,-0.080,-0.080,-0.080,0.000,0.000,0.000
1605106815027910912,10.0.1.131,699,move_down,-0.100,-0.100,-0.100,0.000,0.000,0.000
1605106816796096000,10.0.1.131,690,move_down,-0.120,-0.120,-0.120,0.000,0.000,0.000
1605106818556335872,10.0.1.131,630,move_down,-0.140,-0.140,-0.140,0.000,0.000,0.000
1605106820433836032,10.0.1.131,671,move_down,-0.160,-0.160,-0.160,0.000,0.000,0.000
1605106822208355840,10.0.1.131,661,move_down,-0.180,-0.180,-0.180,0.000,0.000,0.000
1605106823781477888,10.0.1.131,506,move_down,-0.200,-0.200,-0.200,0.000,0.000,0.000
1605106825695365888,10.0.1.131,713,move_down,-0.220,-0.220,-0.220,0.000,0.000,0.000
1605106827349859072,10.0.1.131,566,move_down,-0.240,-0.240,-0.240,0.000,0.000,0.000
1605106829197918976,10.0.1.131,751,move_down,-0.260,-0.260,-0.260,0.000,0.000,0.000
1605106831047481088,10.0.1.131,702,move_down,-0.280,-0.280,-0.280,0.000,0.000,0.000
1605106832643724032,10.0.1.131,561,move_down,-0.300,-0.300,-0.300,0.000,0.000,0.000
1605106834345423872,10.0.1.131,656,move_down,-0.320,-0.320,-0.320,0.000,0.000,0.000
1605106835949390848,10.0.1.131,493,move_down,-0.340,-0.340,-0.340,0.000,0.000,0.000
1605106837766618112,10.0.1.131,673,move_down,-0.360,-0.360,-0.360,0.000,0.000,0.000
1605106839637190144,10.0.1.131,749,move_down,-0.380,-0.380,-0.380,0.000,0.000,0.000
1605106841385339904,10.0.1.131,636,move_down,-0.400,-0.400,-0.400,0.000,0.000,0.000
1605106843053283072,10.0.1.131,622,move_down,-0.420,-0.420,-0.420,0.000,0.000,0.000
1605106844805673984,10.0.1.131,637,move_down,-0.440,-0.440,-0.440,0.000,0.000,0.000
1605106846559302144,10.0.1.131,675,move_down,-0.460,-0.460,-0.460,0.000,0.000,0.000
1605106848111857920,10.0.1.131,492,move_down,-0.480,-0.480,-0.480,0.000,0.000,0.000
1605106849828152064,10.0.1.131,642,move_down,-0.500,-0.500,-0.500,0.000,0.000,0.000
1605106851478508032,10.0.1.131,574,move_down,-0.520,-0.520,-0.520,0.000,0.000,0.000
1605106853111524096,10.0.1.131,543,move_down,-0.540,-0.540,-0.540,0.000,0.000,0.000
1605106854862045952,10.0.1.131,591,move_down,-0.560,-0.560,-0.560,0.000,0.000,0.000
1605106856532190208,10.0.1.131,566,move_down,-0.580,-0.580,-0.580,0.000,0.000,0.000
1605106857640186112,10.0.1.131,33,pick,-0.590,-0.590,-0.590,0.000,0.000,0.000
1605106858661453056,10.0.1.131,51,pick,-0.600,-0.600,-0.600,0.000,0.000,0.000
1605106859660034048,10.0.1.131,47,pick,-0.610,-0.610,-0.610,0.000,0.000,0.000
1605106860642662144,10.0.1.131,29,pick,-0.620,-0.620,-0.620,0.000,0.000,0.000
1605106863662899968,10.0.1.131,41,pick,-0.650,-0.650,-0.650,0.000,0.000,0.000
1605106864662939904,10.0.1.131,40,pick,-0.660,-0.660,-0.660,0.000,0.000,0.000
1605106865660652032,10.0.1.131,33,pick,-0.670,-0.670,-0.670,0.000,0.000,0.000
1605106866662425088,10.0.1.131,33,pick,-0.680,-0.680,-0.680,0.000,0.000,0.000
1605106867667686912,10.0.1.131,37,pick,-0.690,-0.690,-0.690,0.000,0.000,0.000
1605106868680710912,10.0.1.131,49,pick,-0.700,-0.700,-0.700,0.000,0.000,0.000
1605106869679411968,10.0.1.131,46,pick,-0.710,-0.710,-0.710,0.000,0.000,0.000
1605106870680936960,10.0.1.131,46,pick,-0.720,-0.720,-0.720,0.000,0.000,0.000
1605106872694616064,10.0.1.131,54,pick,-0.740,-0.740,-0.740,0.000,0.000,0.000
1605106873686199040,10.0.1.131,43,pick,-0.750,-0.750,-0.750,0.000,0.000,0.000
1605106874681458944,10.0.1.131,36,pick,-0.760,-0.760,-0.760,0.000,0.000,0.000
1605106877138829056,10.0.1.131,490,move_up,-0.750,-0.750,-0.750,0.000,0.000,0.000
1605106878844429056,10.0.1.131,525,move_up,-0.730,-0.730,-0.730,0.000,0.000,0.000
1605106880585074944,10.0.1.131,598,move_up,-0.710,-0.710,-0.710,0.000,0.000,0.000
1605106882079601920,10.0.1.131,458,move_up,-0.690,-0.690,-0.690,0.000,0.000,0.000
1605106883608276992,10.0.1.131,453,move_up,-0.670,-0.670,-0.670,0.000,0.000,0.000
1605106885365709056,10.0.1.131,673,move_up,-0.650,-0.650,-0.650,0.000,0.000,0.000
1605106886945808896,10.0.1.131,529,move_up,-0.630,-0.630,-0.630,0.000,0.000,0.000
1605106888628891904,10.0.1.131,541,move_up,-0.610,-0.610,-0.610,0.000,0.000,0.000
1605106890351026176,10.0.1.131,617,move_up,-0.590,-0.590,-0.590,0.000,0.000,0.000
1605106891863924992,10.0.1.131,430,move_up,-0.570,-0.570,-0.570,0.000,0.000,0.000
1605106893627970048,10.0.1.131,681,move_up,-0.550,-0.550,-0.550,0.000,0.000,0.000
1605106895225771776,10.0.1.131,500,move_up,-0.530,-0.530,-0.530,0.000,0.000,0.000
1605106896796083968,10.0.1.131,528,move_up,-0.510,-0.510,-0.510,0.000,0.000,0.000
1605106898500845056,10.0.1.131,646,move_up,-0.490,-0.490,-0.490,0.000,0.000,0.000
1605106900221774080,10.0.1.131,569,move_up,-0.470,-0.470,-0.470,0.000,0.000,0.000
1605106901962192896,10.0.1.131,702,move_up,-0.450,-0.450,-0.450,0.000,0.000,0.000
1605106903686265856,10.0.1.131,721,move_up,-0.430,-0.430,-0.430,0.000,0.000,0.000
1605106905397769984,10.0.1.131,687,move_up,-0.410,-0.410,-0.410,0.000,0.000,0.000
1605106907253822976,10.0.1.131,736,move_up,-0.390,-0.390,-0.390,0.000,0.000,0.000
1605106908825409792,10.0.1.131,529,move_up,-0.370,-0.370,-0.370,0.000,0.000,0.000
1605106910531104000,10.0.1.131,641,move_up,-0.350,-0.350,-0.350,0.000,0.000,0.000
1605106912072634880,10.0.1.131,513,move_up,-0.330,-0.330,-0.330,0.000,0.000,0.000
1605106913715729920,10.0.1.131,552,move_up,-0.310,-0.310,-0.310,0.000,0.000,0.000
1605106915347640064,10.0.1.131,501,move_up,-0.290,-0.290,-0.290,0.000,0.000,0.000
1605106917012186880,10.0.1.131,550,move_up,-0.270,-0.270,-0.270,0.000,0.000,0.000
1605106918534077952,10.0.1.131,553,move_up,-0.250,-0.250,-0.250,0.000,0.000,0.000
1605106920173125120,10.0.1.131,499,move_up,-0.230,-0.230,-0.230,0.000,0.000,0.000
1605106921925530880,10.0.1.131,648,move_up,-0.210,-0.210,-0.210,0.000,0.000,0.000
1605106923523049984,10.0.1.131,503,move_up,-0.190,-0.190,-0.190,0.000,0.000,0.000
1605106924655128832,10.0.1.131,50,place,-0.180,-0.180,-0.180,0.000,0.000,0.000
1605106926651918848,10.0.1.131,42,place,-0.160,-0.160,-0.160,0.000,0.000,0.000
1605106927676187904,10.0.1.131,59,place,-0.150,-0.150,-0.150,0.000,0.000,0.000
1605106928664002048,10.0.1.131,46,place,-0.140,-0.140,-0.140,0.000,0.000,0.000
1605106929688721920,10.0.1.131,70,place,-0.130,-0.130,-0.130,0.000,0.000,0.000
1605106930667718912,10.0.1.131,46,place,-0.120,-0.120,-0.120,0.000,0.000,0.000
1605106931664731904,10.0.1.131,42,place,-0.110,-0.110,-0.110,0.000,0.000,0.000
1605106932667680000,10.0.1.131,42,place,-0.100,-0.100,-0.100,0.000,0.000,0.000
1605106933669605888,10.0.1.131,42,place,-0.090,-0.090,-0.090,0.000,0.000,0.000
1605106934670928896,10.0.1.131,41,place,-0.080,-0.080,-0.080,0.000,0.000,0.000
1605106935674219008,10.0.1.131,43,place,-0.070,-0.070,-0.070,0.000,0.000,0.000
1605106936670780928,10.0.1.131,39,place,-0.060,-0.060,-0.060,0.000,0.000,0.000
1605106937676570880,10.0.1.131,42,place,-0.050,-0.050,-0.050,0.000,0.000,0.000
1605106939669553920,10.0.1.131,31,place,-0.030,-0.030,-0.030,0.000,0.000,0.000
1605106940697593856,10.0.1.131,57,place,-0.020,-0.020,-0.020,0.000,0.000,0.000
1605106941687954944,10.0.1.131,46,place,-0.010,-0.010,-0.010,0.000,0.000,0.000
1605106942695139840,10.0.1.131,52,place,0.000,0.000,0.000,0.000,0.000,0.000
1605106944221198080,10.0.1.131,577,move_down,-0.020,-0.020,-0.020,0.000,0.000,0.000
1605106945800525824,10.0.1.131,499,move_down,-0.040,-0.040,-0.040,0.000,0.000,0.000
1605106947506621952,10.0.1.131,606,move_down,-0.060,-0.060,-0.060,0.000,0.000,0.000
1605106949077400832,10.0.1.131,465,move_down,-0.080,-0.080,-0.080,0.000,0.000,0.000
1605106950728312064,10.0.1.131,499,move_down,-0.100,-0.100,-0.100,0.000,0.000,0.000
1605106952687345152,10.0.1.131,810,move_down,-0.120,-0.120,-0.120,0.000,0.000,0.000
1605106954350363904,10.0.1.131,566,move_down,-0.140,-0.140,-0.140,0.000,0.000,0.000
1605106955984059136,10.0.1.131,518,move_down,-0.160,-0.160,-0.160,0.000,0.000,0.000
1605106957813585152,10.0.1.131,769,move_down,-0.180,-0.180,-0.180,0.000,0.000,0.000
1605106959522238976,10.0.1.131,517,move_down,-0.200,-0.200,-0.200,0.000,0.000,0.000
1605106961122237952,10.0.1.131,520,move_down,-0.220,-0.220,-0.220,0.000,0.000,0.000
1605106963289741056,10.0.1.131,990,move_down,-0.240,-0.240,-0.240,0.000,0.000,0.000
1605106965031568896,10.0.1.131,604,move_down,-0.260,-0.260,-0.260,0.000,0.000,0.000
1605106966787170048,10.0.1.131,667,move_down,-0.280,-0.280,-0.280,0.000,0.000,0.000
1605106968299240960,10.0.1.131,470,move_down,-0.300,-0.300,-0.300,0.000,0.000,0.000
1605106970142891008,10.0.1.131,663,move_down,-0.320,-0.320,-0.320,0.000,0.000,0.000
1605106971976272128,10.0.1.131,813,move_down,-0.340,-0.340,-0.340,0.000,0.000,0.000
1605106973898103040,10.0.1.131,814,move_down,-0.360,-0.360,-0.360,0.000,0.000,0.000
1605106975928518912,10.0.1.131,944,move_down,-0.380,-0.380,-0.380,0.000,0.000,0.000
1605106977610001152,10.0.1.131,649,move_down,-0.400,-0.400,-0.400,0.000,0.000,0.000
1605106979270031872,10.0.1.131,543,move_down,-0.420,-0.420,-0.420,0.000,0.000,0.000
1605106980936284928,10.0.1.131,556,move_down,-0.440,-0.440,-0.440,0.000,0.000,0.000
1605106982648996096,10.0.1.131,641,move_down,-0.460,-0.460,-0.460,0.000,0.000,0.000
1605106984402508032,10.0.1.131,670,move_down,-0.480,-0.480,-0.480,0.000,0.000,0.000
1605106985997423872,10.0.1.131,509,move_down,-0.500,-0.500,-0.500,0.000,0.000,0.000
1605106987763066880,10.0.1.131,695,move_down,-0.520,-0.520,-0.520,0.000,0.000,0.000
1605106989464296192,10.0.1.131,596,move_down,-0.540,-0.540,-0.540,0.000,0.000,0.000
1605106991227623936,10.0.1.131,670,move_down,-0.560,-0.560,-0.560,0.000,0.000,0.000
1605106992942543872,10.0.1.131,588,move_down,-0.580,-0.580,-0.580,0.000,0.000,0.000
1605106995082343168,10.0.1.131,45,pick,-0.600,-0.600,-0.600,0.000,0.000,0.000
1605106996081394944,10.0.1.131,43,pick,-0.610,-0.610,-0.610,0.000,0.000,0.000
1605106997088423936,10.0.1.131,48,pick,-0.620,-0.620,-0.620,0.000,0.000,0.000
1605106998082851840,10.0.1.131,41,pick,-0.630,-0.630,-0.630,0.000,0.000,0.000
1605106999091753984,10.0.1.131,47,pick,-0.640,-0.640,-0.640,0.000,0.000,0.000
1605107000102619904,10.0.1.131,57,pick,-0.650,-0.650,-0.650,0.000,0.000,0.000
1605107002101041920,10.0.1.131,53,pick,-0.670,-0.670,-0.670,0.000,0.000,0.000
1605107003101236992,10.0.1.131,52,pick,-0.680,-0.680,-0.680,0.000,0.000,0.000
1605107004101691904,10.0.1.131,47,pick,-0.690,-0.690,-0.690,0.000,0.000,0.000
1605107006103761920,10.0.1.131,47,pick,-0.710,-0.710,-0.710,0.000,0.000,0.000
1605107007114664960,10.0.1.131,54,pick,-0.720,-0.720,-0.720,0.000,0.000,0.000
1605107008122692096,10.0.1.131,61,pick,-0.730,-0.730,-0.730,0.000,0.000,0.000
1605107009103924992,10.0.1.131,40,pick,-0.740,-0.740,-0.740,0.000,0.000,0.000
1605107011120079872,10.0.1.131,55,pick,-0.760,-0.760,-0.760,0.000,0.000,0.000
1605107012106158080,10.0.1.131,38,pick,-0.770,-0.770,-0.770,0.000,0.000,0.000
1605107013930976000,10.0.1.131,861,move_up,-0.750,-0.750,-0.750,0.000,0.000,0.000
1605107015770440960,10.0.1.131,679,move_up,-0.730,-0.730,-0.730,0.000,0.000,0.000
1605107017541934080,10.0.1.131,593,move_up,-0.710,-0.710,-0.710,0.000,0.000,0.000
1605107019281730048,10.0.1.131,690,move_up,-0.690,-0.690,-0.690,0.000,0.000,0.000
1605107020989998080,10.0.1.131,631,move_up,-0.670,-0.670,-0.670,0.000,0.000,0.000
1605107022632795136,10.0.1.131,573,move_up,-0.650,-0.650,-0.650,0.000,0.000,0.000
1605107024447796992,10.0.1.131,646,move_up,-0.630,-0.630,-0.630,0.000,0.000,0.000
1605107026203908864,10.0.1.131,657,move_up,-0.610,-0.610,-0.610,0.000,0.000,0.000
1605107027933521152,10.0.1.131,656,move_up,-0.590,-0.590,-0.590,0.000,0.000,0.000
1605107029658483968,10.0.1.131,644,move_up,-0.570,-0.570,-0.570,0.000,0.000,0.000
1605107031392923136,10.0.1.131,559,move_up,-0.550,-0.550,-0.550,0.000,0.000,0.000
1605107033373065984,10.0.1.131,869,move_up,-0.530,-0.530,-0.530,0.000,0.000,0.000
1605107034922051072,10.0.1.131,468,move_up,-0.510,-0.510,-0.510,0.000,0.000,0.000
1605107036656164864,10.0.1.131,576,move_up,-0.490,-0.490,-0.490,0.000,0.000,0.000
1605107038556390144,10.0.1.131,782,move_up,-0.470,-0.470,-0.470,0.000,0.000,0.000
1605107040306503168,10.0.1.131,494,move_up,-0.450,-0.450,-0.450,0.000,0.000,0.000
1605107041988238080,10.0.1.131,632,move_up,-0.430,-0.430,-0.430,0.000,0.000,0.000
1605107043570962944,10.0.1.131,489,move_up,-0.410,-0.410,-0.410,0.000,0.000,0.000
1605107045210809088,10.0.1.131,519,move_up,-0.390,-0.390,-0.390,0.000,0.000,0.000
1605107047011193088,10.0.1.131,667,move_up,-0.370,-0.370,-0.370,0.000,0.000,0.000
1605107048593988864,10.0.1.131,510,move_up,-0.350,-0.350,-0.350,0.000,0.000,0.000
1605107050359287040,10.0.1.131,741,move_up,-0.330,-0.330,-0.330,0.000,0.000,0.000
1605107052094487808,10.0.1.131,624,move_up,-0.310,-0.310,-0.310,0.000,0.000,0.000
1605107053931325952,10.0.1.131,654,move_up,-0.290,-0.290,-0.290,0.000,0.000,0.000
1605107055734825984,10.0.1.131,700,move_up,-0.270,-0.270,-0.270,0.000,0.000,0.000
1605107057468046848,10.0.1.131,623,move_up,-0.250,-0.250,-0.250,0.000,0.000,0.000
1605107059148314112,10.0.1.131,604,move_up,-0.230,-0.230,-0.230,0.000,0.000,0.000
1605107060739299072,10.0.1.131,510,move_up,-0.210,-0.210,-0.210,0.000,0.000,0.000
1605107062303005952,10.0.1.131,479,move_up,-0.190,-0.190,-0.190,0.000,0.000,0.000
1605107063553758976,10.0.1.131,70,place,-0.180,-0.180,-0.180,0.000,0.000,0.000
1605107064539316992,10.0.1.131,54,place,-0.170,-0.170,-0.170,0.000,0.000,0.000
1605107065558609920,10.0.1.131,72,place,-0.160,-0.160,-0.160,0.000,0.000,0.000
1605107066528393984,10.0.1.131,40,place,-0.150,-0.150,-0.150,0.000,0.000,0.000
1605107068531933184,10.0.1.131,37,place,-0.130,-0.130,-0.130,0.000,0.000,0.000
1605107070530616064,10.0.1.131,33,place,-0.110,-0.110,-0.110,0.000,0.000,0.000
1605107071532286976,10.0.1.131,32,place,-0.100,-0.100,-0.100,0.000,0.000,0.000
1605107072554073088,10.0.1.131,53,place,-0.090,-0.090,-0.090,0.000,0.000,0.000
1605107073557360896,10.0.1.131,55,place,-0.080,-0.080,-0.080,0.000,0.000,0.000
1605107074556348928,10.0.1.131,53,place,-0.070,-0.070,-0.070,0.000,0.000,0.000
1605107075546515968,10.0.1.131,41,place,-0.060,-0.060,-0.060,0.000,0.000,0.000
1605107076579375872,10.0.1.131,73,place,-0.050,-0.050,-0.050,0.000,0.000,0.000
1605107077554497024,10.0.1.131,46,place,-0.040,-0.040,-0.040,0.000,0.000,0.000
1605107078570862080,10.0.1.131,58,place,-0.030,-0.030,-0.030,0.000,0.000,0.000
1605107079566742784,10.0.1.131,38,place,-0.020,-0.020,-0.020,0.000,0.000,0.000
1605107081635606016,10.0.1.131,72,place,0.000,0.000,0.000,0.000,0.000,0.000
1605107083374131968,10.0.1.131,801,move_down,-0.020,-0.020,-0.020,0.000,0.000,0.000
1605107085280546816,10.0.1.131,817,move_down,-0.040,-0.040,-0.040,0.000,0.000,0.000
1605107087133457920,10.0.1.131,633,move_down,-0.060,-0.060,-0.060,0.000,0.000,0.000
1605107089234481152,10.0.1.131,779,move_down,-0.080,-0.080,-0.080,0.000,0.000,0.000
1605107090943195136,10.0.1.131,585,move_down,-0.100,-0.100,-0.100,0.000,0.000,0.000
1605107092727872000,10.0.1.131,666,move_down,-0.120,-0.120,-0.120,0.000,0.000,0.000
1605107094575436032,10.0.1.131,721,move_down,-0.140,-0.140,-0.140,0.000,0.000,0.000
1605107096208540928,10.0.1.131,614,move_down,-0.160,-0.160,-0.160,0.000,0.000,0.000
1605107098146893056,10.0.1.131,890,move_down,-0.180,-0.180,-0.180,0.000,0.000,0.000
1605107099822263040,10.0.1.131,554,move_down,-0.200,-0.200,-0.200,0.000,0.000,0.000
1605107101532971008,10.0.1.131,601,move_down,-0.220,-0.220,-0.220,0.000,0.000,0.000
1605107103549786112,10.0.1.131,871,move_down,-0.240,-0.240,-0.240,0.000,0.000,0.000
1605107105326952960,10.0.1.131,742,move_down,-0.260,-0.260,-0.260,0.000,0.000,0.000
1605107107298025984,10.0.1.131,845,move_down,-0.280,-0.280,-0.280,0.000,0.000,0.000
1605107109005404928,10.0.1.131,582,move_down,-0.300,-0.300,-0.300,0.000,0.000,0.000
1605107110678518016,10.0.1.131,606,move_down,-0.320,-0.320,-0.320,0.000,0.000,0.000
1605107112439718912,10.0.1.131,677,move_down,-0.340,-0.340,-0.340,0.000,0.000,0.000
1605107114134983936,10.0.1.131,653,move_down,-0.360,-0.360,-0.360,0.000,0.000,0.000
1605107115917829888,10.0.1.131,670,move_down,-0.380,-0.380,-0.380,0.000,0.000,0.000
1605107117597491968,10.0.1.131,608,move_down,-0.400,-0.400,-0.400,0.000,0.000,0.000
1605107119184721920,10.0.1.131,550,move_down,-0.420,-0.420,-0.420,0.000,0.000,0.000
1605107121187367936,10.0.1.131,819,move_down,-0.440,-0.440,-0.440,0.000,0.000,0.000
1605107122984989952,10.0.1.131,702,move_down,-0.460,-0.460,-0.460,0.000,0.000,0.000
1605107124853069056,10.0.1.131,752,move_down,-0.480,-0.480,-0.480,0.000,0.000,0.000
1605107126566934016,10.0.1.131,521,move_down,-0.500,-0.500,-0.500,0.000,0.000,0.000
1605107128299876096,10.0.1.131,671,move_down,-0.520,-0.520,-0.520,0.000,0.000,0.000
1605107129983147008,10.0.1.131,553,move_down,-0.540,-0.540,-0.540,0.000,0.000,0.000
1605107131753440000,10.0.1.131,558,move_down,-0.560,-0.560,-0.560,0.000,0.000,0.000
1605107133336240896,10.0.1.131,503,move_down,-0.580,-0.580,-0.580,0.000,0.000,0.000
1605107135478063104,10.0.1.131,55,pick,-0.600,-0.600,-0.600,0.000,0.000,0.000
1605107136480058880,10.0.1.131,55,pick,-0.610,-0.610,-0.610,0.000,0.000,0.000
1605107137472939008,10.0.1.131,45,pick,-0.620,-0.620,-0.620,0.000,0.000,0.000
1605107141489779968,10.0.1.131,56,pick,-0.660,-0.660,-0.660,0.000,0.000,0.000
1605107142512870912,10.0.1.131,77,pick,-0.670,-0.670,-0.670,0.000,0.000,0.000
1605107143490226944,10.0.1.131,53,pick,-0.680,-0.680,-0.680,0.000,0.000,0.000
1605107144484929024,10.0.1.131,46,pick,-0.690,-0.690,-0.690,0.000,0.000,0.000
1605107145529916160,10.0.1.131,89,pick,-0.700,-0.700,-0.700,0.000,0.000,0.000
1605107148496182016,10.0.1.131,52,pick,-0.730,-0.730,-0.730,0.000,0.000,0.000
1605107150543899136,10.0.1.131,88,pick,-0.750,-0.750,-0.750,0.000,0.000,0.000
1605107151528567040,10.0.1.131,68,pick,-0.760,-0.760,-0.760,0.000,0.000,0.000
1605107154073140992,10.0.1.131,593,move_up,-0.750,-0.750,-0.750,0.000,0.000,0.000
1605107155803400960,10.0.1.131,696,move_up,-0.730,-0.730,-0.730,0.000,0.000,0.000
1605107157532581120,10.0.1.131,657,move_up,-0.710,-0.710,-0.710,0.000,0.000,0.000
1605107159192643840,10.0.1.131,544,move_up,-0.690,-0.690,-0.690,0.000,0.000,0.000
1605107160933594112,10.0.1.131,673,move_up,-0.670,-0.670,-0.670,0.000,0.000,0.000
1605107162808478976,10.0.1.131,769,move_up,-0.650,-0.650,-0.650,0.000,0.000,0.000
1605107164729201920,10.0.1.131,905,move_up,-0.630,-0.630,-0.630,0.000,0.000,0.000
1605107166596712192,10.0.1.131,752,move_up,-0.610,-0.610,-0.610,0.000,0.000,0.000
1605107168231090176,10.0.1.131,531,move_up,-0.590,-0.590,-0.590,0.000,0.000,0.000
1605107169887606016,10.0.1.131,527,move_up,-0.570,-0.570,-0.570,0.000,0.000,0.000
1605107171703907072,10.0.1.131,671,move_up,-0.550,-0.550,-0.550,0.000,0.000,0.000
1605107173662208000,10.0.1.131,847,move_up,-0.530,-0.530,-0.530,0.000,0.000,0.000
1605107175340261888,10.0.1.131,549,move_up,-0.510,-0.510,-0.510,0.000,0.000,0.000
1605107176895361024,10.0.1.131,461,move_up,-0.490,-0.490,-0.490,0.000,0.000,0.000
1605107178649101056,10.0.1.131,674,move_up,-0.470,-0.470,-0.470,0.000,0.000,0.000
1605107180611105792,10.0.1.131,683,move_up,-0.450,-0.450,-0.450,0.000,0.000,0.000
1605107182474242816,10.0.1.131,737,move_up,-0.430,-0.430,-0.430,0.000,0.000,0.000
1605107184467046912,10.0.1.131,836,move_up,-0.410,-0.410,-0.410,0.000,0.000,0.000
1605107186333758976,10.0.1.131,712,move_up,-0.390,-0.390,-0.390,0.000,0.000,0.000
1605107188247952896,10.0.1.131,836,move_up,-0.370,-0.370,-0.370,0.000,0.000,0.000
1605107190084561152,10.0.1.131,759,move_up,-0.350,-0.350,-0.350,0.000,0.000,0.000
1605107191985108992,10.0.1.131,696,move_up,-0.330,-0.330,-0.330,0.000,0.000,0.000
1605107193816325888,10.0.1.131,704,move_up,-0.310,-0.310,-0.310,0.000,0.000,0.000
1605107195468535040,10.0.1.131,545,move_up,-0.290,-0.290,-0.290,0.000,0.000,0.000
1605107197419329792,10.0.1.131,745,move_up,-0.270,-0.270,-0.270,0.000,0.000,0.000
1605107199189021952,10.0.1.131,643,move_up,-0.250,-0.250,-0.250,0.000,0.000,0.000
1605107200858035968,10.0.1.131,519,move_up,-0.230,-0.230,-0.230,0.000,0.000,0.000
1605107202714378240,10.0.1.131,657,move_up,-0.210,-0.210,-0.210,0.000,0.000,0.000
1605107204311070976,10.0.1.131,483,move_up,-0.190,-0.190,-0.190,0.000,0.000,0.000
1605107205459192064,10.0.1.131,53,place,-0.180,-0.180,-0.180,0.000,0.000,0.000
1605107206459846144,10.0.1.131,53,place,-0.170,-0.170,-0.170,0.000,0.000,0.000
1605107208512212992,10.0.1.131,41,place,-0.150,-0.150,-0.150,0.000,0.000,0.000
1605107209522839040,10.0.1.131,49,place,-0.140,-0.140,-0.140,0.000,0.000,0.000
1605107210514434048,10.0.1.131,40,place,-0.130,-0.130,-0.130,0.000,0.000,0.000
1605107212529022976,10.0.1.131,50,place,-0.110,-0.110,-0.110,0.000,0.000,0.000
1605107213518956032,10.0.1.131,40,place,-0.100,-0.100,-0.100,0.000,0.000,0.000
1605107214535073024,10.0.1.131,54,place,-0.090,-0.090,-0.090,0.000,0.000,0.000
1605107215546166784,10.0.1.131,59,place,-0.080,-0.080,-0.080,0.000,0.000,0.000
1605107216556411136,10.0.1.131,68,place,-0.070,-0.070,-0.070,0.000,0.000,0.000
1605107217532815104,10.0.1.131,39,place,-0.060,-0.060,-0.060,0.000,0.000,0.000
1605107219568150016,10.0.1.131,71,place,-0.040,-0.040,-0.040,0.000,0.000,0.000
1605107221540731904,10.0.1.131,42,place,-0.020,-0.020,-0.020,0.000,0.000,0.000
1605107222553036032,10.0.1.131,53,place,-0.010,-0.010,-0.010,0.000,0.000,0.000
1605107223562062080,10.0.1.131,54,place,0.000,0.000,0.000,0.000,0.000,0.000
1605107225005036032,10.0.1.131,494,move_down,-0.020,-0.020,-0.020,0.000,0.000,0.000
1605107226649775872,10.0.1.131,555,move_down,-0.040,-0.040,-0.040,0.000,0.000,0.000
1605107228831710208,10.0.1.131,1102,move_down,-0.060,-0.060,-0.060,0.000,0.000,0.000
1605107230569089792,10.0.1.131,630,move_down,-0.080,-0.080,-0.080,0.000,0.000,0.000
1605107232365842176,10.0.1.131,696,move_down,-0.100,-0.100,-0.100,0.000,0.000,0.000
1605107234213577984,10.0.1.131,659,move_down,-0.120,-0.120,-0.120,0.000,0.000,0.000
1605107236176249088,10.0.1.131,817,move_down,-0.140,-0.140,-0.140,0.000,0.000,0.000
1605107238210444032,10.0.1.131,881,move_down,-0.160,-0.160,-0.160,0.000,0.000,0.000
1605107239947798016,10.0.1.131,578,move_down,-0.180,-0.180,-0.180,0.000,0.000,0.000
1605107241943394816,10.0.1.131,778,move_down,-0.200,-0.200,-0.200,0.000,0.000,0.000
1605107243600433152,10.0.1.131,621,move_down,-0.220,-0.220,-0.220,0.000,0.000,0.000
1605107245293953024,10.0.1.131,604,move_down,-0.240,-0.240,-0.240,0.000,0.000,0.000
1605107247182106880,10.0.1.131,759,move_down,-0.260,-0.260,-0.260,0.000,0.000,0.000
1605107248897888000,10.0.1.131,716,move_down,-0.280,-0.280,-0.280,0.000,0.000,0.000
1605107250907022080,10.0.1.131,750,move_down,-0.300,-0.300,-0.300,0.000,0.000,0.000
1605107252666893056,10.0.1.131,615,move_down,-0.320,-0.320,-0.320,0.000,0.000,0.000
1605107254563899136,10.0.1.131,799,move_down,-0.340,-0.340,-0.340,0.000,0.000,0.000
1605107256392796160,10.0.1.131,714,move_down,-0.360,-0.360,-0.360,0.000,0.000,0.000
1605107258298130944,10.0.1.131,838,move_down,-0.380,-0.380,-0.380,0.000,0.000,0.000
1605107260201777920,10.0.1.131,726,move_down,-0.400,-0.400,-0.400,0.000,0.000,0.000
1605107261997157120,10.0.1.131,652,move_down,-0.420,-0.420,-0.420,0.000,0.000,0.000
1605107263894176000,10.0.1.131,815,move_down,-0.440,-0.440,-0.440,0.000,0.000,0.000
1605107265717530880,10.0.1.131,715,move_down,-0.460,-0.460,-0.460,0.000,0.000,0.000
1605107267690139136,10.0.1.131,697,move_down,-0.480,-0.480,-0.480,0.000,0.000,0.000
1605107269562572032,10.0.1.131,779,move_down,-0.500,-0.500,-0.500,0.000,0.000,0.000
1605107271372928000,10.0.1.131,642,move_down,-0.520,-0.520,-0.520,0.000,0.000,0.000
1605107273384176128,10.0.1.131,733,move_down,-0.540,-0.540,-0.540,0.000,0.000,0.000
1605107275154851840,10.0.1.131,620,move_down,-0.560,-0.560,-0.560,0.000,0.000,0.000
1605107276707866880,10.0.1.131,514,move_down,-0.580,-0.580,-0.580,0.000,0.000,0.000
1605107279015950080,10.0.1.131,75,pick,-0.600,-0.600,-0.600,0.000,0.000,0.000
1605107280040355072,10.0.1.131,99,pick,-0.610,-0.610,-0.610,0.000,0.000,0.000
1605107281994200064,10.0.1.131,48,pick,-0.630,-0.630,-0.630,0.000,0.000,0.000
1605107282993990912,10.0.1.131,45,pick,-0.640,-0.640,-0.640,0.000,0.000,0.000
1605107284024861952,10.0.1.131,62,pick,-0.650,-0.650,-0.650,0.000,0.000,0.000
1605107285017389056,10.0.1.131,47,pick,-0.660,-0.660,-0.660,0.000,0.000,0.000
1605107286047760128,10.0.1.131,76,pick,-0.670,-0.670,-0.670,0.000,0.000,0.000
1605107287047937024,10.0.1.131,66,pick,-0.680,-0.680,-0.680,0.000,0.000,0.000
1605107288036174080,10.0.1.131,53,pick,-0.690,-0.690,-0.690,0.000,0.000,0.000
1605107289031641856,10.0.1.131,44,pick,-0.700,-0.700,-0.700,0.000,0.000,0.000
1605107290033273856,10.0.1.131,35,pick,-0.710,-0.710,-0.710,0.000,0.000,0.000
1605107291042996992,10.0.1.131,43,pick,-0.720,-0.720,-0.720,0.000,0.000,0.000
1605107292035339008,10.0.1.131,34,pick,-0.730,-0.730,-0.730,0.000,0.000,0.000
1605107295059547904,10.0.1.131,39,pick,-0.760,-0.760,-0.760,0.000,0.000,0.000
1605107296089402880,10.0.1.131,61,pick,-0.770,-0.770,-0.770,0.000,0.000,0.000
1605107297640396032,10.0.1.131,611,move_up,-0.750,-0.750,-0.750,0.000,0.000,0.000
1605107299373410048,10.0.1.131,680,move_up,-0.730,-0.730,-0.730,0.000,0.000,0.000
1605107301041724928,10.0.1.131,579,move_up,-0.710,-0.710,-0.710,0.000,0.000,0.000
1605107302843203072,10.0.1.131,675,move_up,-0.690,-0.690,-0.690,0.000,0.000,0.000
1605107304744424960,10.0.1.131,821,move_up,-0.670,-0.670,-0.670,0.000,0.000,0.000
1605107306555991040,10.0.1.131,671,move_up,-0.650,-0.650,-0.650,0.000,0.000,0.000
1605107308253548032,10.0.1.131,580,move_up,-0.630,-0.630,-0.630,0.000,0.000,0.000
1605107310007473920,10.0.1.131,679,move_up,-0.610,-0.610,-0.610,0.000,0.000,0.000
1605107311757043968,10.0.1.131,653,move_up,-0.590,-0.590,-0.590,0.000,0.000,0.000
1605107313617174016,10.0.1.131,669,move_up,-0.570,-0.570,-0.570,0.000,0.000,0.000
1605107315404731904,10.0.1.131,722,move_up,-0.550,-0.550,-0.550,0.000,0.000,0.000
1605107317152312064,10.0.1.131,563,move_up,-0.530,-0.530,-0.530,0.000,0.000,0.000
1605107318921686016,10.0.1.131,662,move_up,-0.510,-0.510,-0.510,0.000,0.000,0.000
1605107320566823936,10.0.1.131,579,move_up,-0.490,-0.490,-0.490,0.000,0.000,0.000
1605107322275450112,10.0.1.131,659,move_up,-0.470,-0.470,-0.470,0.000,0.000,0.000
1605107324093274112,10.0.1.131,692,move_up,-0.450,-0.450,-0.450,0.000,0.000,0.000
1605107326220453120,10.0.1.131,748,move_up,-0.430,-0.430,-0.430,0.000,0.000,0.000
1605107327945714944,10.0.1.131,659,move_up,-0.410,-0.410,-0.410,0.000,0.000,0.000
1605107329837792000,10.0.1.131,799,move_up,-0.390,-0.390,-0.390,0.000,0.000,0.000
1605107331645349888,10.0.1.131,622,move_up,-0.370,-0.370,-0.370,0.000,0.000,0.000
1605107333565527040,10.0.1.131,743,move_up,-0.350,-0.350,-0.350,0.000,0.000,0.000
1605107335328316928,10.0.1.131,621,move_up,-0.330,-0.330,-0.330,0.000,0.000,0.000
1605107337040168960,10.0.1.131,600,move_up,-0.310,-0.310,-0.310,0.000,0.000,0.000
1605107338655390976,10.0.1.131,559,move_up,-0.290,-0.290,-0.290,0.000,0.000,0.000
1605107340306952960,10.0.1.131,473,move_up,-0.270,-0.270,-0.270,0.000,0.000,0.000
1605107342028472832,10.0.1.131,584,move_up,-0.250,-0.250,-0.250,0.000,0.000,0.000
1605107343641860096,10.0.1.131,535,move_up,-0.230,-0.230,-0.230,0.000,0.000,0.000
1605107345220382976,10.0.1.131,543,move_up,-0.210,-0.210,-0.210,0.000,0.000,0.000
1605107347063257088,10.0.1.131,872,move_up,-0.190,-0.190,-0.190,0.000,0.000,0.000
1605107350228150016,10.0.1.131,37,place,-0.160,-0.160,-0.160,0.000,0.000,0.000
1605107351241926912,10.0.1.131,49,place,-0.150,-0.150,-0.150,0.000,0.000,0.000
1605107352261039104,10.0.1.131,65,place,-0.140,-0.140,-0.140,0.000,0.000,0.000
1605107353243750144,10.0.1.131,44,place,-0.130,-0.130,-0.130,0.000,0.000,0.000
1605107354243601152,10.0.1.131,43,place,-0.120,-0.120,-0.120,0.000,0.000,0.000
1605107355258814976,10.0.1.131,51,place,-0.110,-0.110,-0.110,0.000,0.000,0.000
1605107356244157952,10.0.1.131,36,place,-0.100,-0.100,-0.100,0.000,0.000,0.000
1605107358268402944,10.0.1.131,55,place,-0.080,-0.080,-0.080,0.000,0.000,0.000
1605107359276705024,10.0.1.131,57,place,-0.070,-0.070,-0.070,0.000,0.000,0.000
1605107360271698944,10.0.1.131,52,place,-0.060,-0.060,-0.060,0.000,0.000,0.000
1605107361270268928,10.0.1.131,45,place,-0.050,-0.050,-0.050,0.000,0.000,0.000
1605107362262929920,10.0.1.131,37,place,-0.040,-0.040,-0.040,0.000,0.000,0.000
1605107363265613056,10.0.1.131,38,place,-0.030,-0.030,-0.030,0.000,0.000,0.000
1605107364269267968,10.0.1.131,39,place,-0.020,-0.020,-0.020,0.000,0.000,0.000
1605107365290787072,10.0.1.131,59,place,-0.010,-0.010,-0.010,0.000,0.000,0.000
1605107366268584960,10.0.1.131,36,place,0.000,0.000,0.000,0.000,0.000,0.000
1605107367803916032,10.0.1.131,569,move_down,-0.020,-0.020,-0.020,0.000,0.000,0.000
1605107369785545216,10.0.1.131,768,move_down,-0.040,-0.040,-0.040,0.000,0.000,0.000
1605107371427365120,10.0.1.131,520,move_down,-0.060,-0.060,-0.060,0.000,0.000,0.000
1605107373428720896,10.0.1.131,961,move_down,-0.080,-0.080,-0.080,0.000,0.000,0.000
1605107375125526784,10.0.1.131,569,move_down,-0.100,-0.100,-0.100,0.000,0.000,0.000
1605107377275239936,10.0.1.131,1134,move_down,-0.120,-0.120,-0.120,0.000,0.000,0.000
1605107378988850176,10.0.1.131,636,move_down,-0.140,-0.140,-0.140,0.000,0.000,0.000
1605107380532882944,10.0.1.131,483,move_down,-0.160,-0.160,-0.160,0.000,0.000,0.000
1605107382400681984,10.0.1.131,667,move_down,-0.180,-0.180,-0.180,0.000,0.000,0.000
1605107384023757824,10.0.1.131,595,move_down,-0.200,-0.200,-0.200,0.000,0.000,0.000
1605107386022855168,10.0.1.131,854,move_down,-0.220,-0.220,-0.220,0.000,0.000,0.000
1605107387643474944,10.0.1.131,551,move_down,-0.240,-0.240,-0.240,0.000,0.000,0.000
1605107389491450112,10.0.1.131,723,move_down,-0.260,-0.260,-0.260,0.000,0.000,0.000
1605107391319684864,10.0.1.131,649,move_down,-0.280,-0.280,-0.280,0.000,0.000,0.000
