milangroshev/digital-twin-scalability/logs/run1-300s/10.0.1.140.csv
timestamp,node,latency,action,joint_1,joint_2,joint_3,joint_4,joint_5,joint_6
1605106782529803008,10.0.1.140,2020,,0.000,0.000,0.000,0.000,0.000,0.000
1605106785668535040,10.0.1.140,1140,move_down,-0.020,-0.020,-0.020,0.000,0.000,0.000
1605106787381733888,10.0.1.140,584,move_down,-0.040,-0.040,-0.040,0.000,0.000,0.000
1605106789065437184,10.0.1.140,633,move_down,-0.060,-0.060,-0.060,0.000,0.000,0.000
1605106790765767936,10.0.1.140,603,move_down,-0.080,-0.080,-0.080,0.000,0.000,0.000
1605106792375240192,10.0.1.140,482,move_down,-0.100,-0.100,-0.100,0.000,0.000,0.000
1605106793934142208,10.0.1.140,501,move_down,-0.120,-0.120,-0.120,0.000,0.000,0.000
1605106795430985984,10.0.1.140,419,move_down,-0.140,-0.140,-0.140,0.000,0.000,0.000
1605106797020178944,10.0.1.140,515,move_down,-0.160,-0.160,-0.160,0.000,0.000,0.000
1605106798710150912,10.0.1.140,613,move_down,-0.180,-0.180,-0.180,0.000,0.000,0.000
1605106800319835904,10.0.1.140,557,move_down,-0.200,-0.200,-0.200,0.000,0.000,0.000
1605106801810870784,10.0.1.140,445,move_down,-0.220,-0.220,-0.220,0.000,0.000,0.000
1605106803345542912,10.0.1.140,466,move_down,-0.240,-0.240,-0.240,0.000,0.000,0.000
1605106804958471936,10.0.1.140,557,move_down,-0.260,-0.260,-0.260,0.000,0.000,0.000
1605106806466712832,10.0.1.140,452,move_down,-0.280,-0.280,-0.280,0.000,0.000,0.000
1605106808221056000,10.0.1.140,683,move_down,-0.300,-0.300,-0.300,0.000,0.000,0.000
1605106809874732032,10.0.1.140,587,move_down,-0.320,-0.320,-0.320,0.000,0.000,0.000
1605106811913189888,10.0.1.140,912,move_down,-0.340,-0.340,-0.340,0.000,0.000,0.000
1605106813736844032,10.0.1.140,734,move_down,-0.360,-0.360,-0.360,0.000,0.000,0.000
1605106815290009856,10.0.1.140,488,move_down,-0.380,-0.380,-0.380,0.000,0.000,0.000
1605106816856079104,10.0.1.140,518,move_down,-0.400,-0.400,-0.400,0.000,0.000,0.000
1605106818559990016,10.0.1.140,677,move_down,-0.420,-0.420,-0.420,0.000,0.000,0.000
1605106820303358976,10.0.1.140,657,move_down,-0.440,-0.440,-0.440,0.000,0.000,0.000
1605106821927508992,10.0.1.140,573,move_down,-0.460,-0.460,-0.460,0.000,0.000,0.000
1605106823407331840,10.0.1.140,470,move_down,-0.480,-0.480,-0.480,0.000,0.000,0.000
1605106824902458880,10.0.1.140,506,move_down,-0.500,-0.500,-0.500,0.000,0.000,0.000
1605106826563158016,10.0.1.140,602,move_down,-0.520,-0.520,-0.520,0.000,0.000,0.000
1605106828185620992,10.0.1.140,557,move_down,-0.540,-0.540,-0.540,0.000,0.000,0.000
1605106829827554048,10.0.1.140,597,move_down,-0.560,-0.560,-0.560,0.000,0.000,0.000
1605106831500061952,10.0.1.140,551,move_down,-0.580,-0.580,-0.580,0.000,0.000,0.000
1605106832560858112,10.0.1.140,61,pick,-0.590,-0.590,-0.590,0.000,0.000,0.000
1605106833547736832,10.0.1.140,47,pick,-0.600,-0.600,-0.600,0.000,0.000,0.000
1605106834561378048,10.0.1.140,60,pick,-0.610,-0.610,-0.610,0.000,0.000,0.000
1605106835556660992,10.0.1.140,52,pick,-0.620,-0.620,-0.620,0.000,0.000,0.000
1605106836569297920,10.0.1.140,64,pick,-0.630,-0.630,-0.630,0.000,0.000,0.000
1605106837552797184,10.0.1.140,46,pick,-0.640,-0.640,-0.640,0.000,0.000,0.000
1605106839586718208,10.0.1.140,69,pick,-0.660,-0.660,-0.660,0.000,0.000,0.000
1605106840561515008,10.0.1.140,43,pick,-0.670,-0.670,-0.670,0.000,0.000,0.000
1605106841562736128,10.0.1.140,42,pick,-0.680,-0.680,-0.680,0.000,0.000,0.000
1605106842568284928,10.0.1.140,46,pick,-0.690,-0.690,-0.690,0.000,0.000,0.000
1605106843575810048,10.0.1.140,51,pick,-0.700,-0.700,-0.700,0.000,0.000,0.000
1605106844606029056,10.0.1.140,53,pick,-0.710,-0.710,-0.710,0.000,0.000,0.000
1605106845621664000,10.0.1.140,66,pick,-0.720,-0.720,-0.720,0.000,0.000,0.000
1605106846615041024,10.0.1.140,58,pick,-0.730,-0.730,-0.730,0.000,0.000,0.000
1605106847620965888,10.0.1.140,59,pick,-0.740,-0.740,-0.740,0.000,0.000,0.000
1605106848614181888,10.0.1.140,51,pick,-0.750,-0.750,-0.750,0.000,0.000,0.000
1605106849653769984,10.0.1.140,90,pick,-0.760,-0.760,-0.760,0.000,0.000,0.000
1605106850610178048,10.0.1.140,42,pick,-0.770,-0.770,-0.770,0.000,0.000,0.000
1605106852034913024,10.0.1.140,460,move_up,-0.750,-0.750,-0.750,0.000,0.000,0.000
1605106853790607872,10.0.1.140,648,move_up,-0.730,-0.730,-0.730,0.000,0.000,0.000
1605106855355068928,10.0.1.140,515,move_up,-0.710,-0.710,-0.710,0.000,0.000,0.000
1605106857037062912,10.0.1.140,601,move_up,-0.690,-0.690,-0.690,0.000,0.000,0.000
1605106858734119936,10.0.1.140,621,move_up,-0.670,-0.670,-0.670,0.000,0.000,0.000
1605106860310120192,10.0.1.140,483,move_up,-0.650,-0.650,-0.650,0.000,0.000,0.000
1605106861976612096,10.0.1.140,547,move_up,-0.630,-0.630,-0.630,0.000,0.000,0.000
1605106863583182080,10.0.1.140,519,move_up,-0.610,-0.610,-0.610,0.000,0.000,0.000
1605106865147262976,10.0.1.140,549,move_up,-0.590,-0.590,-0.590,0.000,0.000,0.000
1605106866768173824,10.0.1.140,510,move_up,-0.570,-0.570,-0.570,0.000,0.000,0.000
1605106868328735232,10.0.1.140,442,move_up,-0.550,-0.550,-0.550,0.000,0.000,0.000
1605106869999262976,10.0.1.140,523,move_up,-0.530,-0.530,-0.530,0.000,0.000,0.000
1605106871545732096,10.0.1.140,456,move_up,-0.510,-0.510,-0.510,0.000,0.000,0.000
1605106873189384960,10.0.1.140,555,move_up,-0.490,-0.490,-0.490,0.000,0.000,0.000
1605106874710990848,10.0.1.140,419,move_up,-0.470,-0.470,-0.470,0.000,0.000,0.000
1605106876406446848,10.0.1.140,585,move_up,-0.450,-0.450,-0.450,0.000,0.000,0.000
1605106878027034880,10.0.1.140,560,move_up,-0.430,-0.430,-0.430,0.000,0.000,0.000
1605106879673033984,10.0.1.140,521,move_up,-0.410,-0.410,-0.410,0.000,0.000,0.000
1605106881508439040,10.0.1.140,691,move_up,-0.390,-0.390,-0.390,0.000,0.000,0.000
1605106883184474112,10.0.1.140,592,move_up,-0.370,-0.370,-0.370,0.000,0.000,0.000
1605106884884990976,10.0.1.140,612,move_up,-0.350,-0.350,-0.350,0.000,0.000,0.000
1605106886606854912,10.0.1.140,553,move_up,-0.330,-0.330,-0.330,0.000,0.000,0.000
1605106888175776000,10.0.1.140,507,move_up,-0.310,-0.310,-0.310,0.000,0.000,0.000
1605106889958491136,10.0.1.140,645,move_up,-0.290,-0.290,-0.290,0.000,0.000,0.000
1605106891614330112,10.0.1.140,532,move_up,-0.270,-0.270,-0.270,0.000,0.000,0.000
1605106893259779840,10.0.1.140,566,move_up,-0.250,-0.250,-0.250,0.000,0.000,0.000
1605106894849443072,10.0.1.140,560,move_up,-0.230,-0.230,-0.230,0.000,0.000,0.000
1605106896582971136,10.0.1.140,650,move_up,-0.210,-0.210,-0.210,0.000,0.000,0.000
1605106898306319872,10.0.1.140,676,move_up,-0.190,-0.190,-0.190,0.000,0.000,0.000
1605106899405651200,10.0.1.140,38,place,-0.180,-0.180,-0.180,0.000,0.000,0.000
1605106900493805824,10.0.1.140,124,place,-0.170,-0.170,-0.170,0.000,0.000,0.000
1605106901427429888,10.0.1.140,46,place,-0.160,-0.160,-0.160,0.000,0.000,0.000
1605106902445787904,10.0.1.140,53,place,-0.150,-0.150,-0.150,0.000,0.000,0.000
1605106903457839872,10.0.1.140,53,place,-0.140,-0.140,-0.140,0.000,0.000,0.000
1605106904456898048,10.0.1.140,48,place,-0.130,-0.130,-0.130,0.000,0.000,0.000
1605106905487330048,10.0.1.140,61,place,-0.120,-0.120,-0.120,0.000,0.000,0.000
1605106906492221952,10.0.1.140,64,place,-0.110,-0.110,-0.110,0.000,0.000,0.000
1605106907488019968,10.0.1.140,58,place,-0.100,-0.100,-0.100,0.000,0.000,0.000
1605106908490597888,10.0.1.140,55,place,-0.090,-0.090,-0.090,0.000,0.000,0.000
1605106910491342080,10.0.1.140,42,place,-0.070,-0.070,-0.070,0.000,0.000,0.000
1605106911494520832,10.0.1.140,43,place,-0.060,-0.060,-0.060,0.000,0.000,0.000
1605106913544732160,10.0.1.140,76,place,-0.040,-0.040,-0.040,0.000,0.000,0.000
1605106914513104896,10.0.1.140,43,place,-0.030,-0.030,-0.030,0.000,0.000,0.000
1605106916513906944,10.0.1.140,41,place,-0.010,-0.010,-0.010,0.000,0.000,0.000
1605106918929626880,10.0.1.140,453,move_down,-0.020,-0.020,-0.020,0.000,0.000,0.000
1605106920431484928,10.0.1.140,464,move_down,-0.040,-0.040,-0.040,0.000,0.000,0.000
1605106922304177152,10.0.1.140,793,move_down,-0.060,-0.060,-0.060,0.000,0.000,0.000
1605106924205180928,10.0.1.140,791,move_down,-0.080,-0.080,-0.080,0.000,0.000,0.000
1605106925795695104,10.0.1.140,528,move_down,-0.100,-0.100,-0.100,0.000,0.000,0.000
1605106927444185088,10.0.1.140,576,move_down,-0.120,-0.120,-0.120,0.000,0.000,0.000
1605106929130774016,10.0.1.140,498,move_down,-0.140,-0.140,-0.140,0.000,0.000,0.000
1605106930724713984,10.0.1.140,489,move_down,-0.160,-0.160,-0.160,0.000,0.000,0.000
1605106932295702016,10.0.1.140,478,move_down,-0.180,-0.180,-0.180,0.000,0.000,0.000
1605106934023053824,10.0.1.140,575,move_down,-0.200,-0.200,-0.200,0.000,0.000,0.000
1605106935673236992,10.0.1.140,515,move_down,-0.220,-0.220,-0.220,0.000,0.000,0.000
1605106937238394880,10.0.1.140,460,move_down,-0.240,-0.240,-0.240,0.000,0.000,0.000
1605106938902880000,10.0.1.140,574,move_down,-0.260,-0.260,-0.260,0.000,0.000,0.000
1605106940470897920,10.0.1.140,548,move_down,-0.280,-0.280,-0.280,0.000,0.000,0.000
1605106942092582912,10.0.1.140,496,move_down,-0.300,-0.300,-0.300,0.000,0.000,0.000
1605106943636797952,10.0.1.140,462,move_down,-0.320,-0.320,-0.320,0.000,0.000,0.000
1605106945162674944,10.0.1.140,494,move_down,-0.340,-0.340,-0.340,0.000,0.000,0.000
1605106946764847104,10.0.1.140,579,move_down,-0.360,-0.360,-0.360,0.000,0.000,0.000
1605106948341219840,10.0.1.140,497,move_down,-0.380,-0.380,-0.380,0.000,0.000,0.000
1605106950096925952,10.0.1.140,707,move_down,-0.400,-0.400,-0.400,0.000,0.000,0.000
1605106951642102016,10.0.1.140,476,move_down,-0.420,-0.420,-0.420,0.000,0.000,0.000
1605106953421004032,10.0.1.140,656,move_down,-0.440,-0.440,-0.440,0.000,0.000,0.000
1605106955028013056,10.0.1.140,549,move_down,-0.460,-0.460,-0.460,0.000,0.000,0.000
1605106956646637824,10.0.1.140,534,move_down,-0.480,-0.480,-0.480,0.000,0.000,0.000
1605106958261261056,10.0.1.140,531,move_down,-0.500,-0.500,-0.500,0.000,0.000,0.000
1605106959890393088,10.0.1.140,564,move_down,-0.520,-0.520,-0.520,0.000,0.000,0.000
1605106961533658112,10.0.1.140,602,move_down,-0.540,-0.540,-0.540,0.000,0.000,0.000
1605106963218027008,10.0.1.140,601,move_down,-0.560,-0.560,-0.560,0.000,0.000,0.000
1605106964866857984,10.0.1.140,551,move_down,-0.580,-0.580,-0.580,0.000,0.000,0.000
1605106968004221952,10.0.1.140,39,pick,-0.610,-0.610,-0.610,0.000,0.000,0.000
1605106972064572160,10.0.1.140,50,pick,-0.650,-0.650,-0.650,0.000,0.000,0.000
1605106973063948032,10.0.1.140,48,pick,-0.660,-0.660,-0.660,0.000,0.000,0.000
1605106975064666112,10.0.1.140,45,pick,-0.680,-0.680,-0.680,0.000,0.000,0.000
1605106976059458048,10.0.1.140,38,pick,-0.690,-0.690,-0.690,0.000,0.000,0.000
1605106979128630016,10.0.1.140,77,pick,-0.720,-0.720,-0.720,0.000,0.000,0.000
1605106980130669056,10.0.1.140,77,pick,-0.730,-0.730,-0.730,0.000,0.000,0.000
1605106981097979904,10.0.1.140,43,pick,-0.740,-0.740,-0.740,0.000,0.000,0.000
1605106982119898112,10.0.1.140,64,pick,-0.750,-0.750,-0.750,0.000,0.000,0.000
1605106983114993152,10.0.1.140,55,pick,-0.760,-0.760,-0.760,0.000,0.000,0.000
1605106984136133888,10.0.1.140,75,pick,-0.770,-0.770,-0.770,0.000,0.000,0.000
1605106985663026176,10.0.1.140,599,move_up,-0.750,-0.750,-0.750,0.000,0.000,0.000
1605106987377152000,10.0.1.140,637,move_up,-0.730,-0.730,-0.730,0.000,0.000,0.000
1605106989032849152,10.0.1.140,601,move_up,-0.710,-0.710,-0.710,0.000,0.000,0.000
1605106990694679040,10.0.1.140,562,move_up,-0.690,-0.690,-0.690,0.000,0.000,0.000
1605106992363648768,10.0.1.140,591,move_up,-0.670,-0.670,-0.670,0.000,0.000,0.000
1605106993931169024,10.0.1.140,526,move_up,-0.650,-0.650,-0.650,0.000,0.000,0.000
1605106995692466944,10.0.1.140,635,move_up,-0.630,-0.630,-0.630,0.000,0.000,0.000
1605106997420399872,10.0.1.140,589,move_up,-0.610,-0.610,-0.610,0.000,0.000,0.000
1605106999067006208,10.0.1.140,559,move_up,-0.590,-0.590,-0.590,0.000,0.000,0.000
1605107000633965056,10.0.1.140,496,move_up,-0.570,-0.570,-0.570,0.000,0.000,0.000
1605107002212037120,10.0.1.140,524,move_up,-0.550,-0.550,-0.550,0.000,0.000,0.000
1605107003824358912,10.0.1.140,503,move_up,-0.530,-0.530,-0.530,0.000,0.000,0.000
1605107005603154944,10.0.1.140,680,move_up,-0.510,-0.510,-0.510,0.000,0.000,0.000
1605107007154028800,10.0.1.140,456,move_up,-0.490,-0.490,-0.490,0.000,0.000,0.000
1605107008898492160,10.0.1.140,634,move_up,-0.470,-0.470,-0.470,0.000,0.000,0.000
1605107010516064000,10.0.1.140,545,move_up,-0.450,-0.450,-0.450,0.000,0.000,0.000
1605107012160316928,10.0.1.140,480,move_up,-0.430,-0.430,-0.430,0.000,0.000,0.000
1605107013831699968,10.0.1.140,599,move_up,-0.410,-0.410,-0.410,0.000,0.000,0.000
1605107015352157952,10.0.1.140,471,move_up,-0.390,-0.390,-0.390,0.000,0.000,0.000
1605107016888782080,10.0.1.140,463,move_up,-0.370,-0.370,-0.370,0.000,0.000,0.000
1605107018434455040,10.0.1.140,528,move_up,-0.350,-0.350,-0.350,0.000,0.000,0.000
1605107019891345920,10.0.1.140,402,move_up,-0.330,-0.330,-0.330,0.000,0.000,0.000
1605107021566844928,10.0.1.140,586,move_up,-0.310,-0.310,-0.310,0.000,0.000,0.000
1605107023167732992,10.0.1.140,531,move_up,-0.290,-0.290,-0.290,0.000,0.000,0.000
1605107024925796864,10.0.1.140,612,move_up,-0.270,-0.270,-0.270,0.000,0.000,0.000
1605107026569379072,10.0.1.140,513,move_up,-0.250,-0.250,-0.250,0.000,0.000,0.000
1605107028181668096,10.0.1.140,542,move_up,-0.230,-0.230,-0.230,0.000,0.000,0.000
1605107029876370944,10.0.1.140,649,move_up,-0.210,-0.210,-0.210,0.000,0.000,0.000
1605107031489860096,10.0.1.140,520,move_up,-0.190,-0.190,-0.190,0.000,0.000,0.000
1605107032648291072,10.0.1.140,77,place,-0.180,-0.180,-0.180,0.000,0.000,0.000
1605107033621541120,10.0.1.140,49,place,-0.170,-0.170,-0.170,0.000,0.000,0.000
1605107034635941888,10.0.1.140,48,place,-0.160,-0.160,-0.160,0.000,0.000,0.000
1605107035656836864,10.0.1.140,68,place,-0.150,-0.150,-0.150,0.000,0.000,0.000
1605107036644519168,10.0.1.140,53,place,-0.140,-0.140,-0.140,0.000,0.000,0.000
1605107040668438016,10.0.1.140,44,place,-0.100,-0.100,-0.100,0.000,0.000,0.000
1605107042690778880,10.0.1.140,61,place,-0.080,-0.080,-0.080,0.000,0.000,0.000
1605107043694753024,10.0.1.140,46,place,-0.070,-0.070,-0.070,0.000,0.000,0.000
1605107045697938944,10.0.1.140,48,place,-0.050,-0.050,-0.050,0.000,0.000,0.000
1605107046715995904,10.0.1.140,52,place,-0.040,-0.040,-0.040,0.000,0.000,0.000
1605107047714607104,10.0.1.140,51,place,-0.030,-0.030,-0.030,0.000,0.000,0.000
1605107048735044096,10.0.1.140,70,place,-0.020,-0.020,-0.020,0.000,0.000,0.000
1605107049717651968,10.0.1.140,50,place,-0.010,-0.010,-0.010,0.000,0.000,0.000
1605107050708893952,10.0.1.140,38,place,0.000,0.000,0.000,0.000,0.000,0.000
1605107052220504064,10.0.1.140,547,move_down,-0.020,-0.020,-0.020,0.000,0.000,0.000
1605107053802102016,10.0.1.140,563,move_down,-0.040,-0.040,-0.040,0.000,0.000,0.000
1605107055530916096,10.0.1.140,676,move_down,-0.060,-0.060,-0.060,0.000,0.000,0.000
1605107057143083008,10.0.1.140,516,move_down,-0.080,-0.080,-0.080,0.000,0.000,0.000
1605107058835652096,10.0.1.140,632,move_down,-0.100,-0.100,-0.100,0.000,0.000,0.000
1605107060468483072,10.0.1.140,560,move_down,-0.120,-0.120,-0.120,0.000,0.000,0.000
1605107062046020864,10.0.1.140,495,move_down,-0.140,-0.140,-0.140,0.000,0.000,0.000
1605107063681911040,10.0.1.140,578,move_down,-0.160,-0.160,-0.160,0.000,0.000,0.000
1605107065269434880,10.0.1.140,474,move_down,-0.180,-0.180,-0.180,0.000,0.000,0.000
1605107066994502144,10.0.1.140,569,move_down,-0.200,-0.200,-0.200,0.000,0.000,0.000
1605107068714675968,10.0.1.140,597,move_down,-0.220,-0.220,-0.220,0.000,0.000,0.000
1605107070319004160,10.0.1.140,507,move_down,-0.240,-0.240,-0.240,0.000,0.000,0.000
1605107071836683008,10.0.1.140,418,move_down,-0.260,-0.260,-0.260,0.000,0.000,0.000
1605107073534145024,10.0.1.140,631,move_down,-0.280,-0.280,-0.280,0.000,0.000,0.000
1605107075120527104,10.0.1.140,526,move_down,-0.300,-0.300,-0.300,0.000,0.000,0.000
1605107076897139200,10.0.1.140,709,move_down,-0.320,-0.320,-0.320,0.000,0.000,0.000
1605107078812320000,10.0.1.140,711,move_down,-0.340,-0.340,-0.340,0.000,0.000,0.000
1605107080450083072,10.0.1.140,591,move_down,-0.360,-0.360,-0.360,0.000,0.000,0.000
1605107082370269184,10.0.1.140,783,move_down,-0.380,-0.380,-0.380,0.000,0.000,0.000
1605107084252271872,10.0.1.140,746,move_down,-0.400,-0.400,-0.400,0.000,0.000,0.000
1605107086098648064,10.0.1.140,818,move_down,-0.420,-0.420,-0.420,0.000,0.000,0.000
1605107087747486976,10.0.1.140,578,move_down,-0.440,-0.440,-0.440,0.000,0.000,0.000
1605107089547535872,10.0.1.140,589,move_down,-0.460,-0.460,-0.460,0.000,0.000,0.000
1605107091201804032,10.0.1.140,583,move_down,-0.480,-0.480,-0.480,0.000,0.000,0.000
1605107092882662144,10.0.1.140,593,move_down,-0.500,-0.500,-0.500,0.000,0.000,0.000
1605107094660417024,10.0.1.140,718,move_down,-0.520,-0.520,-0.520,0.000,0.000,0.000
1605107096412651008,10.0.1.140,612,move_down,-0.540,-0.540,-0.540,0.000,0.000,0.000
1605107098236084992,10.0.1.140,834,move_down,-0.560,-0.560,-0.560,0.000,0.000,0.000
1605107099910417152,10.0.1.140,500,move_down,-0.580,-0.580,-0.580,0.000,0.000,0.000
1605107102075019008,10.0.1.140,55,pick,-0.600,-0.600,-0.600,0.000,0.000,0.000
1605107103061037056,10.0.1.140,40,pick,-0.610,-0.610,-0.610,0.000,0.000,0.000
1605107104084787968,10.0.1.140,56,pick,-0.620,-0.620,-0.620,0.000,0.000,0.000
1605107105100528128,10.0.1.140,55,pick,-0.630,-0.630,-0.630,0.000,0.000,0.000
1605107106092914944,10.0.1.140,46,pick,-0.640,-0.640,-0.640,0.000,0.000,0.000
1605107107107918080,10.0.1.140,60,pick,-0.650,-0.650,-0.650,0.000,0.000,0.000
1605107108113295104,10.0.1.140,63,pick,-0.660,-0.660,-0.660,0.000,0.000,0.000
1605107109111608064,10.0.1.140,55,pick,-0.670,-0.670,-0.670,0.000,0.000,0.000
1605107110137619968,10.0.1.140,79,pick,-0.680,-0.680,-0.680,0.000,0.000,0.000
1605107111119824896,10.0.1.140,60,pick,-0.690,-0.690,-0.690,0.000,0.000,0.000
1605107113118237952,10.0.1.140,55,pick,-0.710,-0.710,-0.710,0.000,0.000,0.000
1605107114106802944,10.0.1.140,39,pick,-0.720,-0.720,-0.720,0.000,0.000,0.000
1605107116157921024,10.0.1.140,71,pick,-0.740,-0.740,-0.740,0.000,0.000,0.000
1605107117127094016,10.0.1.140,39,pick,-0.750,-0.750,-0.750,0.000,0.000,0.000
1605107118135941888,10.0.1.140,46,pick,-0.760,-0.760,-0.760,0.000,0.000,0.000
1605107119127453952,10.0.1.140,37,pick,-0.770,-0.770,-0.770,0.000,0.000,0.000
1605107120888529152,10.0.1.140,794,move_up,-0.750,-0.750,-0.750,0.000,0.000,0.000
1605107122727956992,10.0.1.140,738,move_up,-0.730,-0.730,-0.730,0.000,0.000,0.000
1605107124409432832,10.0.1.140,568,move_up,-0.710,-0.710,-0.710,0.000,0.000,0.000
1605107126089103872,10.0.1.140,621,move_up,-0.690,-0.690,-0.690,0.000,0.000,0.000
1605107128013283840,10.0.1.140,817,move_up,-0.670,-0.670,-0.670,0.000,0.000,0.000
1605107129744716032,10.0.1.140,653,move_up,-0.650,-0.650,-0.650,0.000,0.000,0.000
1605107131398766080,10.0.1.140,573,move_up,-0.630,-0.630,-0.630,0.000,0.000,0.000
1605107133042393856,10.0.1.140,579,move_up,-0.610,-0.610,-0.610,0.000,0.000,0.000
1605107134788037888,10.0.1.140,604,move_up,-0.590,-0.590,-0.590,0.000,0.000,0.000
1605107136436968192,10.0.1.140,600,move_up,-0.570,-0.570,-0.570,0.000,0.000,0.000
1605107138077774080,10.0.1.140,544,move_up,-0.550,-0.550,-0.550,0.000,0.000,0.000
1605107139686248192,10.0.1.140,478,move_up,-0.530,-0.530,-0.530,0.000,0.000,0.000
1605107141345048064,10.0.1.140,556,move_up,-0.510,-0.510,-0.510,0.000,0.000,0.000
1605107142984855040,10.0.1.140,577,move_up,-0.490,-0.490,-0.490,0.000,0.000,0.000
1605107144580425984,10.0.1.140,577,move_up,-0.470,-0.470,-0.470,0.000,0.000,0.000
1605107146260369920,10.0.1.140,632,move_up,-0.450,-0.450,-0.450,0.000,0.000,0.000
1605107147806654976,10.0.1.140,543,move_up,-0.430,-0.430,-0.430,0.000,0.000,0.000
1605107149565896960,10.0.1.140,678,move_up,-0.410,-0.410,-0.410,0.000,0.000,0.000
1605107151334018048,10.0.1.140,769,move_up,-0.390,-0.390,-0.390,0.000,0.000,0.000
1605107153080270080,10.0.1.140,630,move_up,-0.370,-0.370,-0.370,0.000,0.000,0.000
1605107154879218944,10.0.1.140,660,move_up,-0.350,-0.350,-0.350,0.000,0.000,0.000
1605107156515019008,10.0.1.140,605,move_up,-0.330,-0.330,-0.330,0.000,0.000,0.000
1605107158242206208,10.0.1.140,624,move_up,-0.310,-0.310,-0.310,0.000,0.000,0.000
1605107159944487168,10.0.1.140,635,move_up,-0.290,-0.290,-0.290,0.000,0.000,0.000
1605107161935292928,10.0.1.140,910,move_up,-0.270,-0.270,-0.270,0.000,0.000,0.000
1605107163661001984,10.0.1.140,660,move_up,-0.250,-0.250,-0.250,0.000,0.000,0.000
1605107165412344064,10.0.1.140,538,move_up,-0.230,-0.230,-0.230,0.000,0.000,0.000
1605107167227318016,10.0.1.140,687,move_up,-0.210,-0.210,-0.210,0.000,0.000,0.000
1605107169036769024,10.0.1.140,771,move_up,-0.190,-0.190,-0.190,0.000,0.000,0.000
1605107170218981120,10.0.1.140,55,place,-0.180,-0.180,-0.180,0.000,0.000,0.000
1605107172234266112,10.0.1.140,50,place,-0.160,-0.160,-0.160,0.000,0.000,0.000
1605107173226479104,10.0.1.140,30,place,-0.150,-0.150,-0.150,0.000,0.000,0.000
1605107174231832064,10.0.1.140,35,place,-0.140,-0.140,-0.140,0.000,0.000,0.000
1605107176276814848,10.0.1.140,75,place,-0.120,-0.120,-0.120,0.000,0.000,0.000
1605107177252826880,10.0.1.140,50,place,-0.110,-0.110,-0.110,0.000,0.000,0.000
1605107178253259776,10.0.1.140,49,place,-0.100,-0.100,-0.100,0.000,0.000,0.000
1605107179250354944,10.0.1.140,45,place,-0.090,-0.090,-0.090,0.000,0.000,0.000
1605107180277038080,10.0.1.140,53,place,-0.080,-0.080,-0.080,0.000,0.000,0.000
1605107181270558976,10.0.1.140,44,place,-0.070,-0.070,-0.070,0.000,0.000,0.000
1605107183275528960,10.0.1.140,41,place,-0.050,-0.050,-0.050,0.000,0.000,0.000
1605107185269774080,10.0.1.140,32,place,-0.030,-0.030,-0.030,0.000,0.000,0.000
1605107186295977984,10.0.1.140,57,place,-0.020,-0.020,-0.020,0.000,0.000,0.000
1605107187271481088,10.0.1.140,31,place,-0.010,-0.010,-0.010,0.000,0.000,0.000
1605107189951217920,10.0.1.140,707,move_down,-0.020,-0.020,-0.020,0.000,0.000,0.000
1605107191984385024,10.0.1.140,919,move_down,-0.040,-0.040,-0.040,0.000,0.000,0.000
1605107193969584896,10.0.1.140,891,move_down,-0.060,-0.060,-0.060,0.000,0.000,0.000
1605107195578491904,10.0.1.140,530,move_down,-0.080,-0.080,-0.080,0.000,0.000,0.000
1605107197304160000,10.0.1.140,522,move_down,-0.100,-0.100,-0.100,0.000,0.000,0.000
1605107198971163904,10.0.1.140,639,move_down,-0.120,-0.120,-0.120,0.000,0.000,0.000
1605107200598177024,10.0.1.140,599,move_down,-0.140,-0.140,-0.140,0.000,0.000,0.000
1605107202332025088,10.0.1.140,652,move_down,-0.160,-0.160,-0.160,0.000,0.000,0.000
1605107203980196864,10.0.1.140,616,move_down,-0.180,-0.180,-0.180,0.000,0.000,0.000
1605107205628710144,10.0.1.140,564,move_down,-0.200,-0.200,-0.200,0.000,0.000,0.000
1605107207387070976,10.0.1.140,718,move_down,-0.220,-0.220,-0.220,0.000,0.000,0.000
1605107208922266880,10.0.1.140,481,move_down,-0.240,-0.240,-0.240,0.000,0.000,0.000
1605107210746195968,10.0.1.140,698,move_down,-0.260,-0.260,-0.260,0.000,0.000,0.000
1605107212376862976,10.0.1.140,537,move_down,-0.280,-0.280,-0.280,0.000,0.000,0.000
1605107214025580032,10.0.1.140,546,move_down,-0.300,-0.300,-0.300,0.000,0.000,0.000
1605107215767604992,10.0.1.140,713,move_down,-0.320,-0.320,-0.320,0.000,0.000,0.000
1605107217308162048,10.0.1.140,458,move_down,-0.340,-0.340,-0.340,0.000,0.000,0.000
1605107219030078976,10.0.1.140,630,move_down,-0.360,-0.360,-0.360,0.000,0.000,0.000
1605107220658961920,10.0.1.140,599,move_down,-0.380,-0.380,-0.380,0.000,0.000,0.000
1605107222334853888,10.0.1.140,560,move_down,-0.400,-0.400,-0.400,0.000,0.000,0.000
1605107223997106176,10.0.1.140,575,move_down,-0.420,-0.420,-0.420,0.000,0.000,0.000
1605107225622846976,10.0.1.140,573,move_down,-0.440,-0.440,-0.440,0.000,0.000,0.000
1605107227213686016,10.0.1.140,523,move_down,-0.460,-0.460,-0.460,0.000,0.000,0.000
1605107228819973888,10.0.1.140,563,move_down,-0.480,-0.480,-0.480,0.000,0.000,0.000
1605107230510340864,10.0.1.140,622,move_down,-0.500,-0.500,-0.500,0.000,0.000,0.000
1605107232224876032,10.0.1.140,610,move_down,-0.520,-0.520,-0.520,0.000,0.000,0.000
1605107234162172160,10.0.1.140,808,move_down,-0.540,-0.540,-0.540,0.000,0.000,0.000
1605107236336502016,10.0.1.140,1058,move_down,-0.560,-0.560,-0.560,0.000,0.000,0.000
1605107238328058112,10.0.1.140,886,move_down,-0.580,-0.580,-0.580,0.000,0.000,0.000
1605107239497864960,10.0.1.140,69,pick,-0.590,-0.590,-0.590,0.000,0.000,0.000
1605107241472585984,10.0.1.140,41,pick,-0.610,-0.610,-0.610,0.000,0.000,0.000
1605107244488601088,10.0.1.140,52,pick,-0.640,-0.640,-0.640,0.000,0.000,0.000
1605107245505111808,10.0.1.140,66,pick,-0.650,-0.650,-0.650,0.000,0.000,0.000
1605107246489753088,10.0.1.140,48,pick,-0.660,-0.660,-0.660,0.000,0.000,0.000
1605107247492722944,10.0.1.140,50,pick,-0.670,-0.670,-0.670,0.000,0.000,0.000
1605107248512082176,10.0.1.140,67,pick,-0.680,-0.680,-0.680,0.000,0.000,0.000
1605107249491323904,10.0.1.140,45,pick,-0.690,-0.690,-0.690,0.000,0.000,0.000
1605107250503297024,10.0.1.140,55,pick,-0.700,-0.700,-0.700,0.000,0.000,0.000
1605107251525325056,10.0.1.140,72,pick,-0.710,-0.710,-0.710,0.000,0.000,0.000
1605107252536623104,10.0.1.140,76,pick,-0.720,-0.720,-0.720,0.000,0.000,0.000
1605107253501174016,10.0.1.140,40,pick,-0.730,-0.730,-0.730,0.000,0.000,0.000
1605107254536890880,10.0.1.140,70,pick,-0.740,-0.740,-0.740,0.000,0.000,0.000
1605107256546834944,10.0.1.140,76,pick,-0.760,-0.760,-0.760,0.000,0.000,0.000
1605107257554555904,10.0.1.140,73,pick,-0.770,-0.770,-0.770,0.000,0.000,0.000
1605107259149868032,10.0.1.140,661,move_up,-0.750,-0.750,-0.750,0.000,0.000,0.000
1605107260792423936,10.0.1.140,595,move_up,-0.730,-0.730,-0.730,0.000,0.000,0.000
1605107262779872768,10.0.1.140,892,move_up,-0.710,-0.710,-0.710,0.000,0.000,0.000
1605107264427357952,10.0.1.140,604,move_up,-0.690,-0.690,-0.690,0.000,0.000,0.000
1605107266380027136,10.0.1.140,700,move_up,-0.670,-0.670,-0.670,0.000,0.000,0.000
1605107267906446848,10.0.1.140,484,move_up,-0.650,-0.650,-0.650,0.000,0.000,0.000
1605107269848750080,10.0.1.140,858,move_up,-0.630,-0.630,-0.630,0.000,0.000,0.000
1605107271449893120,10.0.1.140,540,move_up,-0.610,-0.610,-0.610,0.000,0.000,0.000
1605107273124806912,10.0.1.140,599,move_up,-0.590,-0.590,-0.590,0.000,0.000,0.000
1605107274795245824,10.0.1.140,614,move_up,-0.570,-0.570,-0.570,0.000,0.000,0.000
1605107276659902976,10.0.1.140,734,move_up,-0.550,-0.550,-0.550,0.000,0.000,0.000
1605107278825006848,10.0.1.140,726,move_up,-0.530,-0.530,-0.530,0.000,0.000,0.000
1605107280473767936,10.0.1.140,556,move_up,-0.510,-0.510,-0.510,0.000,0.000,0.000
1605107282441521920,10.0.1.140,765,move_up,-0.490,-0.490,-0.490,0.000,0.000,0.000
1605107284051239936,10.0.1.140,589,move_up,-0.470,-0.470,-0.470,0.000,0.000,0.000
1605107285887036160,10.0.1.140,513,move_up,-0.450,-0.450,-0.450,0.000,0.000,0.000
1605107287586615040,10.0.1.140,523,move_up,-0.430,-0.430,-0.430,0.000,0.000,0.000
1605107289228923136,10.0.1.140,561,move_up,-0.410,-0.410,-0.410,0.000,0.000,0.000
1605107291219803136,10.0.1.140,964,move_up,-0.390,-0.390,-0.390,0.000,0.000,0.000
1605107292706262016,10.0.1.140,467,move_up,-0.370,-0.370,-0.370,0.000,0.000,0.000
1605107294481348864,10.0.1.140,598,move_up,-0.350,-0.350,-0.350,0.000,0.000,0.000
1605107296786174976,10.0.1.140,835,move_up,-0.330,-0.330,-0.330,0.000,0.000,0.000
1605107298581264128,10.0.1.140,683,move_up,-0.310,-0.310,-0.310,0.000,0.000,0.000
1605107300571634176,10.0.1.140,915,move_up,-0.290,-0.290,-0.290,0.000,0.000,0.000
1605107302319642112,10.0.1.140,657,move_up,-0.270,-0.270,-0.270,0.000,0.000,0.000
1605107304231378944,10.0.1.140,815,move_up,-0.250,-0.250,-0.250,0.000,0.000,0.000
1605107305834379008,10.0.1.140,576,move_up,-0.230,-0.230,-0.230,0.000,0.000,0.000
1605107307702088192,10.0.1.140,766,move_up,-0.210,-0.210,-0.210,0.000,0.000,0.000
1605107309465470976,10.0.1.140,701,move_up,-0.190,-0.190,-0.190,0.000,0.000,0.000
1605107312568631808,10.0.1.140,42,place,-0.160,-0.160,-0.160,0.000,0.000,0.000
1605107313577943040,10.0.1.140,50,place,-0.150,-0.150,-0.150,0.000,0.000,0.000
1605107314670171136,10.0.1.140,57,place,-0.140,-0.140,-0.140,0.000,0.000,0.000
1605107315659385856,10.0.1.140,44,place,-0.130,-0.130,-0.130,0.000,0.000,0.000
1605107317654908928,10.0.1.140,37,place,-0.110,-0.110,-0.110,0.000,0.000,0.000
1605107319677124864,10.0.1.140,51,place,-0.090,-0.090,-0.090,0.000,0.000,0.000
1605107320696256000,10.0.1.140,69,place,-0.080,-0.080,-0.080,0.000,0.000,0.000
1605107321671364096,10.0.1.140,41,place,-0.070,-0.070,-0.070,0.000,0.000,0.000
1605107322678950144,10.0.1.140,47,place,-0.060,-0.060,-0.060,0.000,0.000,0.000
1605107324692232960,10.0.1.140,55,place,-0.040,-0.040,-0.040,0.000,0.000,0.000
1605107325681369088,10.0.1.140,39,place,-0.030,-0.030,-0.030,0.000,0.000,0.000
1605107326679621888,10.0.1.140,36,place,-0.020,-0.020,-0.020,0.000,0.000,0.000
1605107327701240064,10.0.1.140,54,place,-0.010,-0.010,-0.010,0.000,0.000,0.000
1605107328709268992,10.0.1.140,55,place,0.000,0.000,0.000,0.000,0.000,0.000
1605107330272384768,10.0.1.140,615,move_down,-0.020,-0.020,-0.020,0.000,0.000,0.000
1605107332190532096,10.0.1.140,750,move_down,-0.040,-0.040,-0.040,0.000,0.000,0.000
1605107333951960064,10.0.1.140,670,move_down,-0.060,-0.060,-0.060,0.000,0.000,0.000
1605107335507633920,10.0.1.140,507,move_down,-0.080,-0.080,-0.080,0.000,0.000,0.000
1605107337453093120,10.0.1.140,659,move_down,-0.100,-0.100,-0.100,0.000,0.000,0.000
1605107339161051904,10.0.1.140,690,move_down,-0.120,-0.120,-0.120,0.000,0.000,0.000
1605107340740442880,10.0.1.140,515,move_down,-0.140,-0.140,-0.140,0.000,0.000,0.000
1605107342343524096,10.0.1.140,549,move_down,-0.160,-0.160,-0.160,0.000,0.000,0.000
1605107344001061888,10.0.1.140,591,move_down,-0.180,-0.180,-0.180,0.000,0.000,0.000
1605107345788527872,10.0.1.140,687,move_down,-0.200,-0.200,-0.200,0.000,0.000,0.000
1605107347455930880,10.0.1.140,611,move_down,-0.220,-0.220,-0.220,0.000,0.000,0.000
1605107349191988992,10.0.1.140,572,move_down,-0.240,-0.240,-0.240,0.000,0.000,0.000
1605107350954348032,10.0.1.140,673,move_down,-0.260,-0.260,-0.260,0.000,0.000,0.000
1605107352830560000,10.0.1.140,768,move_down,-0.280,-0.280,-0.280,0.000,0.000,0.000
1605107354637722880,10.0.1.140,680,move_down,-0.300,-0.300,-0.300,0.000,0.000,0.000
1605107356282040064,10.0.1.140,552,move_down,-0.320,-0.320,-0.320,0.000,0.000,0.000
1605107357900548096,10.0.1.140,516,move_down,-0.340,-0.340,-0.340,0.000,0.000,0.000
1605107359570043136,10.0.1.140,556,move_down,-0.360,-0.360,-0.360,0.000,0.000,0.000
1605107361110850048,10.0.1.140,512,move_down,-0.380,-0.380,-0.380,0.000,0.000,0.000
1605107362957315840,10.0.1.140,806,move_down,-0.400,-0.400,-0.400,0.000,0.000,0.000
1605107364679110144,10.0.1.140,614,move_down,-0.420,-0.420,-0.420,0.000,0.000,0.000
1605107366406472960,10.0.1.140,624,move_down,-0.440,-0.440,-0.440,0.000,0.000,0.000
1605107368177812224,10.0.1.140,696,move_down,-0.460,-0.460,-0.460,0.000,0.000,0.000
1605107370047241984,10.0.1.140,786,move_down,-0.480,-0.480,-0.480,0.000,0.000,0.000
1605107371912029952,10.0.1.140,836,move_down,-0.500,-0.500,-0.500,0.000,0.000,0.000
1605107373553046016,10.0.1.140,533,move_down,-0.520,-0.520,-0.520,0.000,0.000,0.000
1605107375288933120,10.0.1.140,601,move_down,-0.540,-0.540,-0.540,0.000,0.000,0.000
1605107377232162048,10.0.1.140,847,move_down,-0.560,-0.560,-0.560,0.000,0.000,0.000
1605107379009417984,10.0.1.140,709,move_down,-0.580,-0.580,-0.580,0.000,0.000,0.000
1605107380157495040,10.0.1.140,43,pick,-0.590,-0.590,-0.590,0.000,0.000,0.000
1605107381184428032,10.0.1.140,69,pick,-0.600,-0.600,-0.600,0.000,0.000,0.000
1605107382216945920,10.0.1.140,100,pick,-0.610,-0.610,-0.610,0.000,0.000,0.000
1605107383165571072,10.0.1.140,42,pick,-0.620,-0.620,-0.620,0.000,0.000,0.000
1605107385208192000,10.0.1.140,83,pick,-0.640,-0.640,-0.640,0.000,0.000,0.000
1605107386213789952,10.0.1.140,80,pick,-0.650,-0.650,-0.650,0.000,0.000,0.000
1605107387249892096,10.0.1.140,70,pick,-0.660,-0.660,-0.660,0.000,0.000,0.000
1605107389281992960,10.0.1.140,45,pick,-0.680,-0.680,-0.680,0.000,0.000,0.000
1605107390278536192,10.0.1.140,41,pick,-0.690,-0.690,-0.690,0.000,0.000,0.000
1605107392273632000,10.0.1.140,33,pick,-0.710,-0.710,-0.710,0.000,0.000,0.000
1605107393277667072,10.0.1.140,36,pick,-0.720,-0.720,-0.720,0.000,0.000,0.000
1605107394292450048,10.0.1.140,48,pick,-0.730,-0.730,-0.730,0.000,0.000,0.000
1605107395281681152,10.0.1.140,36,pick,-0.740,-0.740,-0.740,0.000,0.000,0.000
1605107396366484992,10.0.1.140,119,pick,-0.750,-0.750,-0.750,0.000,0.000,0.000
1605107397283929088,10.0.1.140,35,pick,-0.760,-0.760,-0.760,0.000,0.000,0.000
1605107398289336832,10.0.1.140,39,pick,-0.770,-0.770,-0.770,0.000,0.000,0.000
1605107400199768064,10.0.1.140,948,move_up,-0.750,-0.750,-0.750,0.000,0.000,0.000
1605107402055005184,10.0.1.140,654,move_up,-0.730,-0.730,-0.730,0.000,0.000,0.000
1605107403678169856,10.0.1.140,570,move_up,-0.710,-0.710,-0.710,0.000,0.000,0.000
1605107405587770880,10.0.1.140,754,move_up,-0.690,-0.690,-0.690,0.000,0.000,0.000
1605107407500817152,10.0.1.140,805,move_up,-0.670,-0.670,-0.670,0.000,0.000,0.000
1605107409480595968,10.0.1.140,963,move_up,-0.650,-0.650,-0.650,0.000,0.000,0.000
1605107411584781056,10.0.1.140,943,move_up,-0.630,-0.630,-0.630,0.000,0.000,0.000
1605107413514606848,10.0.1.140,755,move_up,-0.610,-0.610,-0.610,0.000,0.000,0.000
1605107415307195904,10.0.1.140,693,move_up,-0.590,-0.590,-0.590,0.000,0.000,0.000
1605107416944248064,10.0.1.140,552,move_up,-0.570,-0.570,-0.570,0.000,0.000,0.000
1605107418888657920,10.0.1.140,715,move_up,-0.550,-0.550,-0.550,0.000,0.000,0.000
1605107420710392064,10.0.1.140,722,move_up,-0.530,-0.530,-0.530,0.000,0.000,0.000
1605107422504486144,10.0.1.140,702,move_up,-0.510,-0.510,-0.510,0.000,0.000,0.000
1605107424151714048,10.0.1.140,632,move_up,-0.490,-0.490,-0.490,0.000,0.000,0.000
1605107425732121856,10.0.1.140,525,move_up,-0.470,-0.470,-0.470,0.000,0.000,0.000
1605107427354320128,10.0.1.140,549,move_up,-0.450,-0.450,-0.450,0.000,0.000,0.000
1605107429247760128,10.0.1.140,831,move_up,-0.430,-0.430,-0.430,0.000,0.000,0.000
1605107431009312000,10.0.1.140,583,move_up,-0.410,-0.410,-0.410,0.000,0.000,0.000
1605107432682782976,10.0.1.140,590,move_up,-0.390,-0.390,-0.390,0.000,0.000,0.000
1605107434183330048,10.0.1.140,463,move_up,-0.370,-0.370,-0.370,0.000,0.000,0.000
1605107436025122048,10.0.1.140,755,move_up,-0.350,-0.350,-0.350,0.000,0.000,0.000
1605107438101752064,10.0.1.140,695,move_up,-0.330,-0.330,-0.330,0.000,0.000,0.000
1605107439925523968,10.0.1.140,767,move_up,-0.310,-0.310,-0.310,0.000,0.000,0.000
1605107441643728896,10.0.1.140,621,move_up,-0.290,-0.290,-0.290,0.000,0.000,0.000
1605107443409323008,10.0.1.140,708,move_up,-0.270,-0.270,-0.270,0.000,0.000,0.000
1605107445035422976,10.0.1.140,595,move_up,-0.250,-0.250,-0.250,0.000,0.000,0.000
1605107446718245888,10.0.1.140,477,move_up,-0.230,-0.230,-0.230,0.000,0.000,0.000
1605107448317511936,10.0.1.140,511,move_up,-0.210,-0.210,-0.210,0.000,0.000,0.000
1605107450356082944,10.0.1.140,918,move_up,-0.190,-0.190,-0.190,0.000,0.000,0.000
1605107452524940032,10.0.1.140,59,place,-0.170,-0.170,-0.170,0.000,0.000,0.000
1605107454544726016,10.0.1.140,58,place,-0.150,-0.150,-0.150,0.000,0.000,0.000
1605107455535696896,10.0.1.140,48,place,-0.140,-0.140,-0.140,0.000,0.000,0.000
1605107456566787072,10.0.1.140,77,place,-0.130,-0.130,-0.130,0.000,0.000,0.000
1605107458552858112,10.0.1.140,60,place,-0.110,-0.110,-0.110,0.000,0.000,0.000
1605107459583997952,10.0.1.140,88,place,-0.100,-0.100,-0.100,0.000,0.000,0.000
1605107460607651072,10.0.1.140,110,place,-0.090,-0.090,-0.090,0.000,0.000,0.000
1605107462558647040,10.0.1.140,56,place,-0.070,-0.070,-0.070,0.000,0.000,0.000
1605107463564260096,10.0.1.140,60,place,-0.060,-0.060,-0.060,0.000,0.000,0.000
1605107465601017856,10.0.1.140,86,place,-0.040,-0.040,-0.040,0.000,0.000,0.000
1605107466588870144,10.0.1.140,73,place,-0.030,-0.030,-0.030,0.000,0.000,0.000
1605107467592425984,10.0.1.140,75,place,-0.020,-0.020,-0.020,0.000,0.000,0.000
1605107468575020032,10.0.1.140,52,place,-0.010,-0.010,-0.010,0.000,0.000,0.000
1605107469632952832,10.0.1.140,103,place,0.000,0.000,0.000,0.000,0.000,0.000
1605107471341392128,10.0.1.140,797,move_down,-0.020,-0.020,-0.020,0.000,0.000,0.000
1605107473410278912,10.0.1.140,874,move_down,-0.040,-0.040,-0.040,0.000,0.000,0.000
1605107475049877760,10.0.1.140,593,move_down,-0.060,-0.060,-0.060,0.000,0.000,0.000
1605107477052982016,10.0.1.140,905,move_down,-0.080,-0.080,-0.080,0.000,0.000,0.000
1605107478933597952,10.0.1.140,797,move_down,-0.100,-0.100,-0.100,0.000,0.000,0.000
1605107480577730048,10.0.1.140,543,move_down,-0.120,-0.120,-0.120,0.000,0.000,0.000
1605107482802889216,10.0.1.140,1157,move_down,-0.140,-0.140,-0.140,0.000,0.000,0.000
1605107484659964160,10.0.1.140,840,move_down,-0.160,-0.160,-0.160,0.000,0.000,0.000
1605107486425359104,10.0.1.140,698,move_down,-0.180,-0.180,-0.180,0.000,0.000,0.000
1605107488189091840,10.0.1.140,720,move_down,-0.200,-0.200,-0.200,0.000,0.000,0.000
1605107490059905024,10.0.1.140,821,move_down,-0.220,-0.220,-0.220,0.000,0.000,0.000
1605107492003979008,10.0.1.140,859,move_down,-0.240,-0.240,-0.240,0.000,0.000,0.000
1605107493691611904,10.0.1.140,712,move_down,-0.260,-0.260,-0.260,0.000,0.000,0.000
1605107495494605056,10.0.1.140,678,move_down,-0.280,-0.280,-0.280,0.000,0.000,0.000
1605107497334504960,10.0.1.140,674,move_down,-0.300,-0.300,-0.300,0.000,0.000,0.000
1605107499137159168,10.0.1.140,709,move_down,-0.320,-0.320,-0.320,0.000,0.000,0.000
1605107501001702144,10.0.1.140,743,move_down,-0.340,-0.340,-0.340,0.000,0.000,0.000
1605107502621515008,10.0.1.140,580,move_down,-0.360,-0.360,-0.360,0.000,0.000,0.000
1605107504713545984,10.0.1.140,1037,move_down,-0.380,-0.380,-0.380,0.000,0.000,0.000
1605107506465091072,10.0.1.140,694,move_down,-0.400,-0.400,-0.400,0.000,0.000,0.000
1605107508460877824,10.0.1.140,835,move_down,-0.420,-0.420,-0.420,0.000,0.000,0.000
1605107510054142976,10.0.1.140,572,move_down,-0.440,-0.440,-0.440,0.000,0.000,0.000
1605107511818989056,10.0.1.140,603,move_down,-0.460,-0.460,-0.460,0.000,0.000,0.000
1605107513539593984,10.0.1.140,656,move_down,-0.480,-0.480,-0.480,0.000,0.000,0.000
1605107515275206144,10.0.1.140,701,move_down,-0.500,-0.500,-0.500,0.000,0.000,0.000
1605107516991584000,10.0.1.140,641,move_down,-0.520,-0.520,-0.520,0.000,0.000,0.000
1605107518616560896,10.0.1.140,567,move_down,-0.540,-0.540,-0.540,0.000,0.000,0.000
1605107520437339904,10.0.1.140,728,move_down,-0.560,-0.560,-0.560,0.000,0.000,0.000
1605107522339021824,10.0.1.140,840,move_down,-0.580,-0.580,-0.580,0.000,0.000,0.000
1605107526473483008,10.0.1.140,53,pick,-0.620,-0.620,-0.620,0.000,0.000,0.000
1605107527476301824,10.0.1.140,42,pick,-0.630,-0.630,-0.630,0.000,0.000,0.000
1605107529541647872,10.0.1.140,103,pick,-0.650,-0.650,-0.650,0.000,0.000,0.000
1605107531572891904,10.0.1.140,121,pick,-0.670,-0.670,-0.670,0.000,0.000,0.000
1605107532493140992,10.0.1.140,40,pick,-0.680,-0.680,-0.680,0.000,0.000,0.000
1605107533527486208,10.0.1.140,74,pick,-0.690,-0.690,-0.690,0.000,0.000,0.000
1605107539550667008,10.0.1.140,63,pick,-0.750,-0.750,-0.750,0.000,0.000,0.000
1605107542512350208,10.0.1.140,2,move_up,-0.750,-0.750,-0.750,0.000,0.000,0.000
1605107545199037952,10.0.1.140,927,move_up,-0.730,-0.730,-0.730,0.000,0.000,0.000
1605107547050653952,10.0.1.140,690,move_up,-0.710,-0.710,-0.710,0.000,0.000,0.000
1605107549089164032,10.0.1.140,955,move_up,-0.690,-0.690,-0.690,0.000,0.000,0.000
1605107551029532928,10.0.1.140,866,move_up,-0.670,-0.670,-0.670,0.000,0.000,0.000
1605107553286003968,10.0.1.140,1179,move_up,-0.650,-0.650,-0.650,0.000,0.000,0.000
1605107555536592896,10.0.1.140,1138,move_up,-0.630,-0.630,-0.630,0.000,0.000,0.000
1605107557702523904,10.0.1.140,1053,move_up,-0.610,-0.610,-0.610,0.000,0.000,0.000
1605107559381143040,10.0.1.140,612,move_up,-0.590,-0.590,-0.590,0.000,0.000,0.000
1605107560968185856,10.0.1.140,517,move_up,-0.570,-0.570,-0.570,0.000,0.000,0.000
1605107562969495040,10.0.1.140,775,move_up,-0.550,-0.550,-0.550,0.000,0.000,0.000
1605107564917093120,10.0.1.140,784,move_up,-0.530,-0.530,-0.530,0.000,0.000,0.000
1605107566859284992,10.0.1.140,851,move_up,-0.510,-0.510,-0.510,0.000,0.000,0.000
1605107568853691136,10.0.1.140,754,move_up,-0.490,-0.490,-0.490,0.000,0.000,0.000
1605107571197398784,10.0.1.140,1331,move_up,-0.470,-0.470,-0.470,0.000,0.000,0.000
1605107573037617920,10.0.1.140,781,move_up,-0.450,-0.450,-0.450,0.000,0.000,0.000
1605107575026097920,10.0.1.140,709,move_up,-0.430,-0.430,-0.430,0.000,0.000,0.000
1605107577012897024,10.0.1.140,881,move_up,-0.410,-0.410,-0.410,0.000,0.000,0.000
1605107578831187968,10.0.1.140,736,move_up,-0.390,-0.390,-0.390,0.000,0.000,0.000
1605107580781639936,10.0.1.140,903,move_up,-0.370,-0.370,-0.370,0.000,0.000,0.000
1605107582643819008,10.0.1.140,738,move_up,-0.350,-0.350,-0.350,0.000,0.000,0.000
1605107584271104000,10.0.1.140,564,move_up,-0.330,-0.330,-0.330,0.000,0.000,0.000
1605107586238873088,10.0.1.140,903,move_up,-0.310,-0.310,-0.310,0.000,0.000,0.000
1605107588130543872,10.0.1.140,701,move_up,-0.290,-0.290,-0.290,0.000,0.000,0.000
1605107589992704000,10.0.1.140,764,move_up,-0.270,-0.270,-0.270,0.000,0.000,0.000
1605107591703659008,10.0.1.140,608,move_up,-0.250,-0.250,-0.250,0.000,0.000,0.000
1605107593437385984,10.0.1.140,602,move_up,-0.230,-0.230,-0.230,0.000,0.000,0.000
1605107595318034944,10.0.1.140,706,move_up,-0.210,-0.210,-0.210,0.000,0.000,0.000
1605107596991811072,10.0.1.140,571,move_up,-0.190,-0.190,-0.190,0.000,0.000,0.000
1605107598119738112,10.0.1.140,75,place,-0.180,-0.180,-0.180,0.000,0.000,0.000
1605107599104742912,10.0.1.140,59,place,-0.170,-0.170,-0.170,0.000,0.000,0.000
1605107600143261952,10.0.1.140,90,place,-0.160,-0.160,-0.160,0.000,0.000,0.000
1605107602153104896,10.0.1.140,97,place,-0.140,-0.140,-0.140,0.000,0.000,0.000
1605107603193474048,10.0.1.140,55,place,-0.130,-0.130,-0.130,0.000,0.000,0.000
1605107604226844928,10.0.1.140,84,place,-0.120,-0.120,-0.120,0.000,0.000,0.000
1605107605189932032,10.0.1.140,43,place,-0.110,-0.110,-0.110,0.000,0.000,0.000
1605107606213697024,10.0.1.140,66,place,-0.100,-0.100,-0.100,0.000,0.000,0.000
1605107607183311104,10.0.1.140,33,place,-0.090,-0.090,-0.090,0.000,0.000,0.000
1605107609229197056,10.0.1.140,57,place,-0.070,-0.070,-0.070,0.000,0.000,0.000
1605107610207845888,10.0.1.140,35,place,-0.060,-0.060,-0.060,0.000,0.000,0.000
1605107611221993984,10.0.1.140,47,place,-0.050,-0.050,-0.050,0.000,0.000,0.000
1605107612249530112,10.0.1.140,73,place,-0.040,-0.040,-0.040,0.000,0.000,0.000
1605107613232695040,10.0.1.140,53,place,-0.030,-0.030,-0.030,0.000,0.000,0.000
1605107614226948096,10.0.1.140,44,place,-0.020,-0.020,-0.020,0.000,0.000,0.000
1605107616248739840,10.0.1.140,35,place,0.000,0.000,0.000,0.000,0.000,0.000
1605107618304263168,10.0.1.140,1089,move_down,-0.020,-0.020,-0.020,0.000,0.000,0.000
1605107620283894016,10.0.1.140,865,move_down,-0.040,-0.040,-0.040,0.000,0.000,0.000
1605107622220798976,10.0.1.140,734,move_down,-0.060,-0.060,-0.060,0.000,0.000,0.000
1605107624294189056,10.0.1.140,948,move_down,-0.080,-0.080,-0.080,0.000,0.000,0.000
1605107626368036096,10.0.1.140,795,move_down,-0.100,-0.100,-0.100,0.000,0.000,0.000
1605107628234980096,10.0.1.140,739,move_down,-0.120,-0.120,-0.120,0.000,0.000,0.000
1605107630296916992,10.0.1.140,902,move_down,-0.140,-0.140,-0.140,0.000,0.000,0.000
1605107632330804992,10.0.1.140,945,move_down,-0.160,-0.160,-0.160,0.000,0.000,0.000
1605107634055854080,10.0.1.140,623,move_down,-0.180,-0.180,-0.180,0.000,0.000,0.000
1605107635916143872,10.0.1.140,778,move_down,-0.200,-0.200,-0.200,0.000,0.000,0.000
1605107637547425024,10.0.1.140,614,move_down,-0.220,-0.220,-0.220,0.000,0.000,0.000
1605107639361906944,10.0.1.140,702,move_down,-0.240,-0.240,-0.240,0.000,0.000,0.000
1605107641250035968,10.0.1.140,707,move_down,-0.260,-0.260,-0.260,0.000,0.000,0.000
1605107642996649984,10.0.1.140,721,move_down,-0.280,-0.280,-0.280,0.000,0.000,0.000
1605107645160779008,10.0.1.140,980,move_down,-0.300,-0.300,-0.300,0.000,0.000,0.000
1605107647248883968,10.0.1.140,1003,move_down,-0.320,-0.320,-0.320,0.000,0.000,0.000
1605107649043212032,10.0.1.140,688,move_down,-0.340,-0.340,-0.340,0.000,0.000,0.000
1605107651078138112,10.0.1.140,726,move_down,-0.360,-0.360,-0.360,0.000,0.000,0.000
1605107652681413888,10.0.1.140,531,move_down,-0.380,-0.380,-0.380,0.000,0.000,0.000
1605107654730427904,10.0.1.140,967,move_down,-0.400,-0.400,-0.400,0.000,0.000,0.000
1605107656401726976,10.0.1.140,611,move_down,-0.420,-0.420,-0.420,0.000,0.000,0.000
1605107658812092160,10.0.1.140,1329,move_down,-0.440,-0.440,-0.440,0.000,0.000,0.000
1605107660625161984,10.0.1.140,576,move_down,-0.460,-0.460,-0.460,0.000,0.000,0.000
1605107662367356928,10.0.1.140,683,move_down,-0.480,-0.480,-0.480,0.000,0.000,0.000
1605107664244726016,10.0.1.140,754,move_down,-0.500,-0.500,-0.500,0.000,0.000,0.000
1605107666176965888,10.0.1.140,834,move_down,-0.520,-0.520,-0.520,0.000,0.000,0.000
1605107668281436928,10.0.1.140,947,move_down,-0.540,-0.540,-0.540,0.000,0.000,0.000
1605107670284077824,10.0.1.140,926,move_down,-0.560,-0.560,-0.560,0.000,0.000,0.000
1605107672325438976,10.0.1.140,933,move_down,-0.580,-0.580,-0.580,0.000,0.000,0.000
1605107673533070080,10.0.1.140,47,pick,-0.590,-0.590,-0.590,0.000,0.000,0.000
1605107675589485824,10.0.1.140,101,pick,-0.610,-0.610,-0.610,0.000,0.000,0.000
1605107676583962880,10.0.1.140,91,pick,-0.620,-0.620,-0.620,0.000,0.000,0.000
1605107677542247168,10.0.1.140,48,pick,-0.630,-0.630,-0.630,0.000,0.000,0.000
1605107680583571968,10.0.1.140,40,pick,-0.660,-0.660,-0.660,0.000,0.000,0.000
1605107681615309056,10.0.1.140,60,pick,-0.670,-0.670,-0.670,0.000,0.000,0.000
1605107682617218048,10.0.1.140,55,pick,-0.680,-0.680,-0.680,0.000,0.000,0.000
1605107683637571072,10.0.1.140,73,pick,-0.690,-0.690,-0.690,0.000,0.000,0.000
1605107684616448000,10.0.1.140,50,pick,-0.700,-0.700,-0.700,0.000,0.000,0.000
1605107685605697024,10.0.1.140,38,pick,-0.710,-0.710,-0.710,0.000,0.000,0.000
1605107686601017088,10.0.1.140,33,pick,-0.720,-0.720,-0.720,0.000,0.000,0.000
1605107688622859008,10.0.1.140,52,pick,-0.740,-0.740,-0.740,0.000,0.000,0.000
1605107689629888000,10.0.1.140,59,pick,-0.750,-0.750,-0.750,0.000,0.000,0.000
1605107690627973120,10.0.1.140,49,pick,-0.760,-0.760,-0.760,0.000,0.000,0.000
1605107691641889024,10.0.1.140,55,pick,-0.770,-0.770,-0.770,0.000,0.000,0.000
1605107693509409792,10.0.1.140,919,move_up,-0.750,-0.750,-0.750,0.000,0.000,0.000
1605107695672741888,10.0.1.140,1043,move_up,-0.730,-0.730,-0.730,0.000,0.000,0.000
1605107697716325120,10.0.1.140,925,move_up,-0.710,-0.710,-0.710,0.000,0.000,0.000
1605107699980453120,10.0.1.140,1189,move_up,-0.690,-0.690,-0.690,0.000,0.000,0.000
1605107701916395008,10.0.1.140,924,move_up,-0.670,-0.670,-0.670,0.000,0.000,0.000
1605107703906212096,10.0.1.140,727,move_up,-0.650,-0.650,-0.650,0.000,0.000,0.000
1605107705640742912,10.0.1.140,641,move_up,-0.630,-0.630,-0.630,0.000,0.000,0.000
1605107707628678912,10.0.1.140,858,move_up,-0.610,-0.610,-0.610,0.000,0.000,0.000
1605107710247844864,10.0.1.140,1559,move_up,-0.590,-0.590,-0.590,0.000,0.000,0.000
1605107711931987968,10.0.1.140,601,move_up,-0.570,-0.570,-0.570,0.000,0.000,0.000
1605107713931122944,10.0.1.140,717,move_up,-0.550,-0.550,-0.550,0.000,0.000,0.000
1605107716307794176,10.0.1.140,1286,move_up,-0.530,-0.530,-0.530,0.000,0.000,0.000
1605107718464046080,10.0.1.140,1099,move_up,-0.510,-0.510,-0.510,0.000,0.000,0.000
1605107720887912960,10.0.1.140,1184,move_up,-0.490,-0.490,-0.490,0.000,0.000,0.000
1605107722782910976,10.0.1.140,748,move_up,-0.470,-0.470,-0.470,0.000,0.000,0.000
1605107724697770240,10.0.1.140,782,move_up,-0.450,-0.450,-0.450,0.000,0.000,0.000
1605107726645340928,10.0.1.140,884,move_up,-0.430,-0.430,-0.430,0.000,0.000,0.000
1605107728443737088,10.0.1.140,697,move_up,-0.410,-0.410,-0.410,0.000,0.000,0.000
1605107730194808064,10.0.1.140,555,move_up,-0.390,-0.390,-0.390,0.000,0.000,0.000
1605107732061028096,10.0.1.140,777,move_up,-0.370,-0.370,-0.370,0.000,0.000,0.000
1605107734001750016,10.0.1.140,643,move_up,-0.350,-0.350,-0.350,0.000,0.000,0.000
1605107735988472832,10.0.1.140,863,move_up,-0.330,-0.330,-0.330,0.000,0.000,0.000
1605107737961368064,10.0.1.140,709,move_up,-0.310,-0.310,-0.310,0.000,0.000,0.000
1605107743592928768,10.0.1.140,809,move_up,-0.290,-0.290,-0.290,0.000,0.000,0.000
1605107745882503936,10.0.1.140,1230,move_up,-0.270,-0.270,-0.270,0.000,0.000,0.000
1605107748373053952,10.0.1.140,1312,move_up,-0.250,-0.250,-0.250,0.000,0.000,0.000
1605107751007931904,10.0.1.140,1092,move_up,-0.230,-0.230,-0.230,0.000,0.000,0.000
1605107752835532800,10.0.1.140,661,move_up,-0.210,-0.210,-0.210,0.000,0.000,0.000
1605107755152928000,10.0.1.140,1216,move_up,-0.190,-0.190,-0.190,0.000,0.000,0.000
1605107757352532992,10.0.1.140,59,place,-0.170,-0.170,-0.170,0.000,0.000,0.000
1605107758355405056,10.0.1.140,53,place,-0.160,-0.160,-0.160,0.000,0.000,0.000
1605107759387213056,10.0.1.140,84,place,-0.150,-0.150,-0.150,0.000,0.000,0.000
1605107760372216064,10.0.1.140,68,place,-0.140,-0.140,-0.140,0.000,0.000,0.000
1605107761367357952,10.0.1.140,55,place,-0.130,-0.130,-0.130,0.000,0.000,0.000
1605107762375795968,10.0.1.140,56,place,-0.120,-0.120,-0.120,0.000,0.000,0.000
1605107763384731136,10.0.1.140,64,place,-0.110,-0.110,-0.110,0.000,0.000,0.000
1605107765365131008,10.0.1.140,40,place,-0.090,-0.090,-0.090,0.000,0.000,0.000
1605107766400474112,10.0.1.140,66,place,-0.080,-0.080,-0.080,0.000,0.000,0.000
1605107767410361088,10.0.1.140,62,place,-0.070,-0.070,-0.070,0.000,0.000,0.000
1605107768397268992,10.0.1.140,48,place,-0.060,-0.060,-0.060,0.000,0.000,0.000
1605107769417577984,10.0.1.140,67,place,-0.050,-0.050,-0.050,0.000,0.000,0.000
1605107771407589888,10.0.1.140,54,place,-0.030,-0.030,-0.030,0.000,0.000,0.000
1605107772410809088,10.0.1.140,57,place,-0.020,-0.020,-0.020,0.000,0.000,0.000
1605107773448898048,10.0.1.140,91,place,-0.010,-0.010,-0.010,0.000,0.000,0.000
1605107774433132032,10.0.1.140,74,place,0.000,0.000,0.000,0.000,0.000,0.000
1605107776171791104,10.0.1.140,809,move_down,-0.020,-0.020,-0.020,0.000,0.000,0.000
1605107778343553024,10.0.1.140,985,move_down,-0.040,-0.040,-0.040,0.000,0.000,0.000
1605107780221576960,10.0.1.140,790,move_down,-0.060,-0.060,-0.060,0.000,0.000,0.000
1605107782040433920,10.0.1.140,780,move_down,-0.080,-0.080,-0.080,0.000,0.000,0.000
1605107784005945856,10.0.1.140,902,move_down,-0.100,-0.100,-0.100,0.000,0.000,0.000
1605107786236013824,10.0.1.140,1169,move_down,-0.120,-0.120,-0.120,0.000,0.000,0.000
1605107788247090176,10.0.1.140,968,move_down,-0.140,-0.140,-0.140,0.000,0.000,0.000
1605107790083342080,10.0.1.140,670,move_down,-0.160,-0.160,-0.160,0.000,0.000,0.000
1605107792313617920,10.0.1.140,1150,move_down,-0.180,-0.180,-0.180,0.000,0.000,0.000
1605107794258831104,10.0.1.140,793,move_down,-0.200,-0.200,-0.200,0.000,0.000,0.000
1605107797025731072,10.0.1.140,1619,move_down,-0.220,-0.220,-0.220,0.000,0.000,0.000
1605107799054450944,10.0.1.140,924,move_down,-0.240,-0.240,-0.240,0.000,0.000,0.000
1605107801049555968,10.0.1.140,849,move_down,-0.260,-0.260,-0.260,0.000,0.000,0.000
1605107803592710144,10.0.1.140,1141,move_down,-0.280,-0.280,-0.280,0.000,0.000,0.000
1605107805364553984,10.0.1.140,706,move_down,-0.300,-0.300,-0.300,0.000,0.000,0.000
1605107807544260096,10.0.1.140,1024,move_down,-0.320,-0.320,-0.320,0.000,0.000,0.000
1605107809405796096,10.0.1.140,730,move_down,-0.340,-0.340,-0.340,0.000,0.000,0.000
1605107811379375872,10.0.1.140,868,move_down,-0.360,-0.360,-0.360,0.000,0.000,0.000
1605107813476276992,10.0.1.140,960,move_down,-0.380,-0.380,-0.380,0.000,0.000,0.000
1605107815196033024,10.0.1.140,606,move_down,-0.400,-0.400,-0.400,0.000,0.000,0.000
1605107816912823808,10.0.1.140,644,move_down,-0.420,-0.420,-0.420,0.000,0.000,0.000
1605107818920648192,10.0.1.140,827,move_down,-0.440,-0.440,-0.440,0.000,0.000,0.000
1605107821344890112,10.0.1.140,1154,move_down,-0.460,-0.460,-0.460,0.000,0.000,0.000
1605107823548398848,10.0.1.140,1182,move_down,-0.480,-0.480,-0.480,0.000,0.000,0.000
1605107825504815104,10.0.1.140,614,move_down,-0.500,-0.500,-0.500,0.000,0.000,0.000
1605107827789662976,10.0.1.140,1091,move_down,-0.520,-0.520,-0.520,0.000,0.000,0.000
1605107829755078912,10.0.1.140,828,move_down,-0.540,-0.540,-0.540,0.000,0.000,0.000
1605107831504143872,10.0.1.140,650,move_down,-0.560,-0.560,-0.560,0.000,0.000,0.000
1605107833350327040,10.0.1.140,816,move_down,-0.580,-0.580,-0.580,0.000,0.000,0.000
1605107836613740032,10.0.1.140,54,pick,-0.610,-0.610,-0.610,0.000,0.000,0.000
1605107838731798016,10.0.1.140,159,pick,-0.630,-0.630,-0.630,0.000,0.000,0.000
1605107841637940992,10.0.1.140,58,pick,-0.660,-0.660,-0.660,0.000,0.000,0.000
1605107842625668096,10.0.1.140,43,pick,-0.670,-0.670,-0.670,0.000,0.000,0.000
1605107843636194048,10.0.1.140,53,pick,-0.680,-0.680,-0.680,0.000,0.000,0.000
1605107844681006080,10.0.1.140,97,pick,-0.690,-0.690,-0.690,0.000,0.000,0.000
1605107845652313088,10.0.1.140,65,pick,-0.700,-0.700,-0.700,0.000,0.000,0.000
1605107846684075008,10.0.1.140,96,pick,-0.710,-0.710,-0.710,0.000,0.000,0.000
1605107847632706048,10.0.1.140,44,pick,-0.720,-0.720,-0.720,0.000,0.000,0.000
1605107848639458048,10.0.1.140,49,pick,-0.730,-0.730,-0.730,0.000,0.000,0.000
1605107850716510976,10.0.1.140,107,pick,-0.750,-0.750,-0.750,0.000,0.000,0.000
1605107852770189056,10.0.1.140,158,pick,-0.770,-0.770,-0.770,0.000,0.000,0.000
1605107854646621952,10.0.1.140,1033,move_up,-0.750,-0.750,-0.750,0.000,0.000,0.000
1605107856419076864,10.0.1.140,629,move_up,-0.730,-0.730,-0.730,0.000,0.000,0.000
1605107859000333056,10.0.1.140,1447,move_up,-0.710,-0.710,-0.710,0.000,0.000,0.000
1605107861240467968,10.0.1.140,1168,move_up,-0.690,-0.690,-0.690,0.000,0.000,0.000
1605107863508150016,10.0.1.140,1087,move_up,-0.670,-0.670,-0.670,0.000,0.000,0.000
1605107866172497920,10.0.1.140,1402,move_up,-0.650,-0.650,-0.650,0.000,0.000,0.000
1605107868147675136,10.0.1.140,914,move_up,-0.630,-0.630,-0.630,0.000,0.000,0.000
1605107870109709056,10.0.1.140,853,move_up,-0.610,-0.610,-0.610,0.000,0.000,0.000
1605107872807429120,10.0.1.140,1449,move_up,-0.590,-0.590,-0.590,0.000,0.000,0.000
1605107874915482880,10.0.1.140,999,move_up,-0.570,-0.570,-0.570,0.000,0.000,0.000
1605107877321126912,10.0.1.140,1248,move_up,-0.550,-0.550,-0.550,0.000,0.000,0.000
1605107879807898112,10.0.1.140,1430,move_up,-0.530,-0.530,-0.530,0.000,0.000,0.000
1605107882285635840,10.0.1.140,1276,move_up,-0.510,-0.510,-0.510,0.000,0.000,0.000
1605107884597875200,10.0.1.140,1183,move_up,-0.490,-0.490,-0.490,0.000,0.000,0.000
1605107887023753984,10.0.1.140,1370,move_up,-0.470,-0.470,-0.470,0.000,0.000,0.000
1605107889338670080,10.0.1.140,1011,move_up,-0.450,-0.450,-0.450,0.000,0.000,0.000
1605107892014134016,10.0.1.140,1422,move_up,-0.430,-0.430,-0.430,0.000,0.000,0.000
1605107894328486912,10.0.1.140,1291,move_up,-0.410,-0.410,-0.410,0.000,0.000,0.000
1605107896579966976,10.0.1.140,1091,move_up,-0.390,-0.390,-0.390,0.000,0.000,0.000
1605107898854509056,10.0.1.140,0,move_down,-0.390,-0.390,-0.390,0.000,0.000,0.000
1605107902189249024,10.0.1.140,1162,move_down,-0.410,-0.410,-0.410,0.000,0.000,0.000
1605107904425675008,10.0.1.140,1017,move_down,-0.430,-0.430,-0.430,0.000,0.000,0.000
1605107906580347904,10.0.1.140,1092,move_down,-0.450,-0.450,-0.450,0.000,0.000,0.000
1605107908808280832,10.0.1.140,1066,move_down,-0.470,-0.470,-0.470,0.000,0.000,0.000
1605107910847377920,10.0.1.140,1013,move_down,-0.490,-0.490,-0.490,0.000,0.000,0.000
1605107913359479040,10.0.1.140,1402,move_down,-0.510,-0.510,-0.510,0.000,0.000,0.000
1605107915448997120,10.0.1.140,1040,move_down,-0.530,-0.530,-0.530,0.000,0.000,0.000
1605107918136333824,10.0.1.140,1380,move_down,-0.550,-0.550,-0.550,0.000,0.000,0.000
1605107920398377984,10.0.1.140,1112,move_down,-0.570,-0.570,-0.570,0.000,0.000,0.000
1605107922584530944,10.0.1.140,1132,move_down,-0.590,-0.590,-0.590,0.000,0.000,0.000
1605107924622555136,10.0.1.140,915,move_down,-0.610,-0.610,-0.610,0.000,0.000,0.000
1605107926586482176,10.0.1.140,915,move_down,-0.630,-0.630,-0.630,0.000,0.000,0.000
1605107928668915968,10.0.1.140,885,move_down,-0.650,-0.650,-0.650,0.000,0.000,0.000
1605107930686193920,10.0.1.140,1015,move_down,-0.670,-0.670,-0.670,0.000,0.000,0.000
1605107932828125952,10.0.1.140,985,move_down,-0.690,-0.690,-0.690,0.000,0.000,0.000
1605107934619145984,10.0.1.140,740,move_down,-0.710,-0.710,-0.710,0.000,0.000,0.000
1605107936591353856,10.0.1.140,872,move_down,-0.730,-0.730,-0.730,0.000,0.000,0.000
1605107938663217152,10.0.1.140,716,move_down,-0.750,-0.750,-0.750,0.000,0.000,0.000
1605107940452211968,10.0.1.140,705,move_down,-0.770,-0.770,-0.770,0.000,0.000,0.000
1605107943841911040,10.0.1.140,1053,move_down,-0.810,-0.810,-0.810,0.000,0.000,0.000
1605107945915142912,10.0.1.140,866,move_down,-0.830,-0.830,-0.830,0.000,0.000,0.000
1605107948004368896,10.0.1.140,823,move_down,-0.850,-0.850,-0.850,0.000,0.000,0.000
1605107949912275200,10.0.1.140,869,move_down,-0.870,-0.870,-0.870,0.000,0.000,0.000
