milangroshev/digital-twin-scalability/logs/run1-300s/10.0.1.134.csv
timestamp,node,latency,action,joint_1,joint_2,joint_3,joint_4,joint_5,joint_6
1605106027489165056,10.0.1.134,2005,,0.000,0.000,0.000,0.000,0.000,0.000
1605106030164241920,10.0.1.134,678,move_down,-0.020,-0.020,-0.020,0.000,0.000,0.000
1605106031677715968,10.0.1.134,425,move_down,-0.040,-0.040,-0.040,0.000,0.000,0.000
1605106033180919040,10.0.1.134,449,move_down,-0.060,-0.060,-0.060,0.000,0.000,0.000
1605106034681725952,10.0.1.134,392,move_down,-0.080,-0.080,-0.080,0.000,0.000,0.000
1605106036223911168,10.0.1.134,443,move_down,-0.100,-0.100,-0.100,0.000,0.000,0.000
1605106037774075904,10.0.1.134,470,move_down,-0.120,-0.120,-0.120,0.000,0.000,0.000
1605106039280633088,10.0.1.134,430,move_down,-0.140,-0.140,-0.140,0.000,0.000,0.000
1605106040806036992,10.0.1.134,431,move_down,-0.160,-0.160,-0.160,0.000,0.000,0.000
1605106042303877120,10.0.1.134,444,move_down,-0.180,-0.180,-0.180,0.000,0.000,0.000
1605106043820580864,10.0.1.134,454,move_down,-0.200,-0.200,-0.200,0.000,0.000,0.000
1605106045343712000,10.0.1.134,443,move_down,-0.220,-0.220,-0.220,0.000,0.000,0.000
1605106046952339968,10.0.1.134,516,move_down,-0.240,-0.240,-0.240,0.000,0.000,0.000
1605106048424606976,10.0.1.134,425,move_down,-0.260,-0.260,-0.260,0.000,0.000,0.000
1605106049935426048,10.0.1.134,418,move_down,-0.280,-0.280,-0.280,0.000,0.000,0.000
1605106051424505856,10.0.1.134,420,move_down,-0.300,-0.300,-0.300,0.000,0.000,0.000
1605106052962800896,10.0.1.134,463,move_down,-0.320,-0.320,-0.320,0.000,0.000,0.000
1605106054385519872,10.0.1.134,369,move_down,-0.340,-0.340,-0.340,0.000,0.000,0.000
1605106055955200000,10.0.1.134,456,move_down,-0.360,-0.360,-0.360,0.000,0.000,0.000
1605106057461937920,10.0.1.134,408,move_down,-0.380,-0.380,-0.380,0.000,0.000,0.000
1605106059053410048,10.0.1.134,484,move_down,-0.400,-0.400,-0.400,0.000,0.000,0.000
1605106060582118144,10.0.1.134,445,move_down,-0.420,-0.420,-0.420,0.000,0.000,0.000
1605106062148278016,10.0.1.134,461,move_down,-0.440,-0.440,-0.440,0.000,0.000,0.000
1605106063630661888,10.0.1.134,435,move_down,-0.460,-0.460,-0.460,0.000,0.000,0.000
1605106065169243136,10.0.1.134,439,move_down,-0.480,-0.480,-0.480,0.000,0.000,0.000
1605106066746130944,10.0.1.134,471,move_down,-0.500,-0.500,-0.500,0.000,0.000,0.000
1605106068191318016,10.0.1.134,407,move_down,-0.520,-0.520,-0.520,0.000,0.000,0.000
1605106069691534080,10.0.1.134,431,move_down,-0.540,-0.540,-0.540,0.000,0.000,0.000
1605106071191858944,10.0.1.134,440,move_down,-0.560,-0.560,-0.560,0.000,0.000,0.000
1605106072755374080,10.0.1.134,465,move_down,-0.580,-0.580,-0.580,0.000,0.000,0.000
1605106073844197888,10.0.1.134,39,pick,-0.590,-0.590,-0.590,0.000,0.000,0.000
1605106074841924864,10.0.1.134,36,pick,-0.600,-0.600,-0.600,0.000,0.000,0.000
1605106075841711104,10.0.1.134,34,pick,-0.610,-0.610,-0.610,0.000,0.000,0.000
1605106076841939968,10.0.1.134,33,pick,-0.620,-0.620,-0.620,0.000,0.000,0.000
1605106077862072832,10.0.1.134,51,pick,-0.630,-0.630,-0.630,0.000,0.000,0.000
1605106078862514944,10.0.1.134,49,pick,-0.640,-0.640,-0.640,0.000,0.000,0.000
1605106079866923008,10.0.1.134,52,pick,-0.650,-0.650,-0.650,0.000,0.000,0.000
1605106080863114240,10.0.1.134,47,pick,-0.660,-0.660,-0.660,0.000,0.000,0.000
1605106081873683968,10.0.1.134,56,pick,-0.670,-0.670,-0.670,0.000,0.000,0.000
1605106082855531008,10.0.1.134,36,pick,-0.680,-0.680,-0.680,0.000,0.000,0.000
1605106083855258112,10.0.1.134,34,pick,-0.690,-0.690,-0.690,0.000,0.000,0.000
1605106084867976960,10.0.1.134,45,pick,-0.700,-0.700,-0.700,0.000,0.000,0.000
1605106085885005056,10.0.1.134,61,pick,-0.710,-0.710,-0.710,0.000,0.000,0.000
1605106086861329152,10.0.1.134,36,pick,-0.720,-0.720,-0.720,0.000,0.000,0.000
1605106087862313984,10.0.1.134,35,pick,-0.730,-0.730,-0.730,0.000,0.000,0.000
1605106088871607040,10.0.1.134,43,pick,-0.740,-0.740,-0.740,0.000,0.000,0.000
1605106089860663040,10.0.1.134,31,pick,-0.750,-0.750,-0.750,0.000,0.000,0.000
1605106090875631104,10.0.1.134,44,pick,-0.760,-0.760,-0.760,0.000,0.000,0.000
1605106091872648960,10.0.1.134,40,pick,-0.770,-0.770,-0.770,0.000,0.000,0.000
1605106093262113024,10.0.1.134,428,move_up,-0.750,-0.750,-0.750,0.000,0.000,0.000
1605106094785191936,10.0.1.134,462,move_up,-0.730,-0.730,-0.730,0.000,0.000,0.000
1605106096353804032,10.0.1.134,485,move_up,-0.710,-0.710,-0.710,0.000,0.000,0.000
1605106097824150016,10.0.1.134,424,move_up,-0.690,-0.690,-0.690,0.000,0.000,0.000
1605106099398277120,10.0.1.134,472,move_up,-0.670,-0.670,-0.670,0.000,0.000,0.000
1605106100952608000,10.0.1.134,480,move_up,-0.650,-0.650,-0.650,0.000,0.000,0.000
1605106102548279040,10.0.1.134,513,move_up,-0.630,-0.630,-0.630,0.000,0.000,0.000
1605106104064066048,10.0.1.134,471,move_up,-0.610,-0.610,-0.610,0.000,0.000,0.000
1605106105661606912,10.0.1.134,443,move_up,-0.590,-0.590,-0.590,0.000,0.000,0.000
1605106107253959936,10.0.1.134,514,move_up,-0.570,-0.570,-0.570,0.000,0.000,0.000
1605106108739845120,10.0.1.134,447,move_up,-0.550,-0.550,-0.550,0.000,0.000,0.000
1605106110252562944,10.0.1.134,422,move_up,-0.530,-0.530,-0.530,0.000,0.000,0.000
1605106111699140096,10.0.1.134,409,move_up,-0.510,-0.510,-0.510,0.000,0.000,0.000
1605106113218339840,10.0.1.134,432,move_up,-0.490,-0.490,-0.490,0.000,0.000,0.000
1605106114690758912,10.0.1.134,393,move_up,-0.470,-0.470,-0.470,0.000,0.000,0.000
1605106116242248960,10.0.1.134,479,move_up,-0.450,-0.450,-0.450,0.000,0.000,0.000
1605106117717137152,10.0.1.134,388,move_up,-0.430,-0.430,-0.430,0.000,0.000,0.000
1605106119255695104,10.0.1.134,437,move_up,-0.410,-0.410,-0.410,0.000,0.000,0.000
1605106120764939008,10.0.1.134,418,move_up,-0.390,-0.390,-0.390,0.000,0.000,0.000
1605106122234009856,10.0.1.134,452,move_up,-0.370,-0.370,-0.370,0.000,0.000,0.000
1605106123745403904,10.0.1.134,447,move_up,-0.350,-0.350,-0.350,0.000,0.000,0.000
1605106125263643136,10.0.1.134,455,move_up,-0.330,-0.330,-0.330,0.000,0.000,0.000
1605106126838594048,10.0.1.134,436,move_up,-0.310,-0.310,-0.310,0.000,0.000,0.000
1605106128410985984,10.0.1.134,460,move_up,-0.290,-0.290,-0.290,0.000,0.000,0.000
1605106129825552896,10.0.1.134,397,move_up,-0.270,-0.270,-0.270,0.000,0.000,0.000
1605106131369926912,10.0.1.134,461,move_up,-0.250,-0.250,-0.250,0.000,0.000,0.000
1605106132845430016,10.0.1.134,426,move_up,-0.230,-0.230,-0.230,0.000,0.000,0.000
1605106134375286016,10.0.1.134,438,move_up,-0.210,-0.210,-0.210,0.000,0.000,0.000
1605106135928965120,10.0.1.134,485,move_up,-0.190,-0.190,-0.190,0.000,0.000,0.000
1605106137032857856,10.0.1.134,34,place,-0.180,-0.180,-0.180,0.000,0.000,0.000
1605106138044012032,10.0.1.134,41,place,-0.170,-0.170,-0.170,0.000,0.000,0.000
1605106139053240064,10.0.1.134,49,place,-0.160,-0.160,-0.160,0.000,0.000,0.000
1605106140057818880,10.0.1.134,52,place,-0.150,-0.150,-0.150,0.000,0.000,0.000
1605106141053543168,10.0.1.134,47,place,-0.140,-0.140,-0.140,0.000,0.000,0.000
1605106142067619072,10.0.1.134,60,place,-0.130,-0.130,-0.130,0.000,0.000,0.000
1605106143054063104,10.0.1.134,46,place,-0.120,-0.120,-0.120,0.000,0.000,0.000
1605106144053422080,10.0.1.134,44,place,-0.110,-0.110,-0.110,0.000,0.000,0.000
1605106145054806016,10.0.1.134,44,place,-0.100,-0.100,-0.100,0.000,0.000,0.000
1605106146058326016,10.0.1.134,46,place,-0.090,-0.090,-0.090,0.000,0.000,0.000
1605106147062886912,10.0.1.134,48,place,-0.080,-0.080,-0.080,0.000,0.000,0.000
1605106148054206976,10.0.1.134,38,place,-0.070,-0.070,-0.070,0.000,0.000,0.000
1605106149056996096,10.0.1.134,40,place,-0.060,-0.060,-0.060,0.000,0.000,0.000
1605106150063714048,10.0.1.134,45,place,-0.050,-0.050,-0.050,0.000,0.000,0.000
1605106151054533888,10.0.1.134,35,place,-0.040,-0.040,-0.040,0.000,0.000,0.000
1605106152057737216,10.0.1.134,37,place,-0.030,-0.030,-0.030,0.000,0.000,0.000
1605106153055016960,10.0.1.134,33,place,-0.020,-0.020,-0.020,0.000,0.000,0.000
1605106155063810048,10.0.1.134,39,place,0.000,0.000,0.000,0.000,0.000,0.000
1605106156446854144,10.0.1.134,421,move_down,-0.020,-0.020,-0.020,0.000,0.000,0.000
1605106158087662848,10.0.1.134,470,move_down,-0.040,-0.040,-0.040,0.000,0.000,0.000
1605106159637170176,10.0.1.134,482,move_down,-0.060,-0.060,-0.060,0.000,0.000,0.000
1605106161057472000,10.0.1.134,390,move_down,-0.080,-0.080,-0.080,0.000,0.000,0.000
1605106162514377984,10.0.1.134,412,move_down,-0.100,-0.100,-0.100,0.000,0.000,0.000
1605106164071741184,10.0.1.134,448,move_down,-0.120,-0.120,-0.120,0.000,0.000,0.000
1605106165568792064,10.0.1.134,406,move_down,-0.140,-0.140,-0.140,0.000,0.000,0.000
1605106167114455040,10.0.1.134,463,move_down,-0.160,-0.160,-0.160,0.000,0.000,0.000
1605106168612884992,10.0.1.134,424,move_down,-0.180,-0.180,-0.180,0.000,0.000,0.000
1605106170246670848,10.0.1.134,569,move_down,-0.200,-0.200,-0.200,0.000,0.000,0.000
1605106171771603968,10.0.1.134,445,move_down,-0.220,-0.220,-0.220,0.000,0.000,0.000
1605106173290273024,10.0.1.134,466,move_down,-0.240,-0.240,-0.240,0.000,0.000,0.000
1605106174824002048,10.0.1.134,449,move_down,-0.260,-0.260,-0.260,0.000,0.000,0.000
1605106176376560896,10.0.1.134,482,move_down,-0.280,-0.280,-0.280,0.000,0.000,0.000
1605106177920169216,10.0.1.134,509,move_down,-0.300,-0.300,-0.300,0.000,0.000,0.000
1605106179431083008,10.0.1.134,481,move_down,-0.320,-0.320,-0.320,0.000,0.000,0.000
1605106181004193024,10.0.1.134,489,move_down,-0.340,-0.340,-0.340,0.000,0.000,0.000
1605106182629518080,10.0.1.134,534,move_down,-0.360,-0.360,-0.360,0.000,0.000,0.000
1605106184221312000,10.0.1.134,519,move_down,-0.380,-0.380,-0.380,0.000,0.000,0.000
1605106185796968960,10.0.1.134,483,move_down,-0.400,-0.400,-0.400,0.000,0.000,0.000
1605106187373312000,10.0.1.134,526,move_down,-0.420,-0.420,-0.420,0.000,0.000,0.000
1605106188936347904,10.0.1.134,480,move_down,-0.440,-0.440,-0.440,0.000,0.000,0.000
1605106190415378176,10.0.1.134,448,move_down,-0.460,-0.460,-0.460,0.000,0.000,0.000
1605106191931196928,10.0.1.134,474,move_down,-0.480,-0.480,-0.480,0.000,0.000,0.000
1605106193460599808,10.0.1.134,466,move_down,-0.500,-0.500,-0.500,0.000,0.000,0.000
1605106194985732096,10.0.1.134,474,move_down,-0.520,-0.520,-0.520,0.000,0.000,0.000
1605106196553602816,10.0.1.134,493,move_down,-0.540,-0.540,-0.540,0.000,0.000,0.000
1605106198041067008,10.0.1.134,443,move_down,-0.560,-0.560,-0.560,0.000,0.000,0.000
1605106199573515776,10.0.1.134,453,move_down,-0.580,-0.580,-0.580,0.000,0.000,0.000
1605106201698327040,10.0.1.134,48,pick,-0.600,-0.600,-0.600,0.000,0.000,0.000
1605106202693888000,10.0.1.134,42,pick,-0.610,-0.610,-0.610,0.000,0.000,0.000
1605106203695535872,10.0.1.134,42,pick,-0.620,-0.620,-0.620,0.000,0.000,0.000
1605106204694289920,10.0.1.134,40,pick,-0.630,-0.630,-0.630,0.000,0.000,0.000
1605106205696711168,10.0.1.134,39,pick,-0.640,-0.640,-0.640,0.000,0.000,0.000
1605106206690927104,10.0.1.134,32,pick,-0.650,-0.650,-0.650,0.000,0.000,0.000
1605106207697263104,10.0.1.134,36,pick,-0.660,-0.660,-0.660,0.000,0.000,0.000
1605106208718395904,10.0.1.134,55,pick,-0.670,-0.670,-0.670,0.000,0.000,0.000
1605106209714138880,10.0.1.134,50,pick,-0.680,-0.680,-0.680,0.000,0.000,0.000
1605106210722990080,10.0.1.134,57,pick,-0.690,-0.690,-0.690,0.000,0.000,0.000
1605106211716419072,10.0.1.134,49,pick,-0.700,-0.700,-0.700,0.000,0.000,0.000
1605106212715123968,10.0.1.134,47,pick,-0.710,-0.710,-0.710,0.000,0.000,0.000
1605106213717462016,10.0.1.134,48,pick,-0.720,-0.720,-0.720,0.000,0.000,0.000
1605106214719682048,10.0.1.134,49,pick,-0.730,-0.730,-0.730,0.000,0.000,0.000
1605106215723154944,10.0.1.134,51,pick,-0.740,-0.740,-0.740,0.000,0.000,0.000
1605106216722903040,10.0.1.134,49,pick,-0.750,-0.750,-0.750,0.000,0.000,0.000
1605106217720727040,10.0.1.134,45,pick,-0.760,-0.760,-0.760,0.000,0.000,0.000
1605106218725874944,10.0.1.134,50,pick,-0.770,-0.770,-0.770,0.000,0.000,0.000
1605106220154664960,10.0.1.134,474,move_up,-0.750,-0.750,-0.750,0.000,0.000,0.000
1605106221694076928,10.0.1.134,455,move_up,-0.730,-0.730,-0.730,0.000,0.000,0.000
1605106223317744128,10.0.1.134,526,move_up,-0.710,-0.710,-0.710,0.000,0.000,0.000
1605106224839046912,10.0.1.134,428,move_up,-0.690,-0.690,-0.690,0.000,0.000,0.000
1605106226395276032,10.0.1.134,449,move_up,-0.670,-0.670,-0.670,0.000,0.000,0.000
1605106227939217152,10.0.1.134,495,move_up,-0.650,-0.650,-0.650,0.000,0.000,0.000
1605106229477186048,10.0.1.134,411,move_up,-0.630,-0.630,-0.630,0.000,0.000,0.000
1605106230999314944,10.0.1.134,447,move_up,-0.610,-0.610,-0.610,0.000,0.000,0.000
1605106232463963904,10.0.1.134,402,move_up,-0.590,-0.590,-0.590,0.000,0.000,0.000
1605106233960843008,10.0.1.134,424,move_up,-0.570,-0.570,-0.570,0.000,0.000,0.000
1605106235507833856,10.0.1.134,427,move_up,-0.550,-0.550,-0.550,0.000,0.000,0.000
1605106237012666880,10.0.1.134,427,move_up,-0.530,-0.530,-0.530,0.000,0.000,0.000
1605106238595758080,10.0.1.134,458,move_up,-0.510,-0.510,-0.510,0.000,0.000,0.000
1605106240164300032,10.0.1.134,508,move_up,-0.490,-0.490,-0.490,0.000,0.000,0.000
1605106241804909824,10.0.1.134,475,move_up,-0.470,-0.470,-0.470,0.000,0.000,0.000
1605106243354223872,10.0.1.134,465,move_up,-0.450,-0.450,-0.450,0.000,0.000,0.000
1605106244989413120,10.0.1.134,477,move_up,-0.430,-0.430,-0.430,0.000,0.000,0.000
1605106246530029056,10.0.1.134,484,move_up,-0.410,-0.410,-0.410,0.000,0.000,0.000
1605106248129824000,10.0.1.134,511,move_up,-0.390,-0.390,-0.390,0.000,0.000,0.000
1605106249658425088,10.0.1.134,455,move_up,-0.370,-0.370,-0.370,0.000,0.000,0.000
1605106251181747968,10.0.1.134,482,move_up,-0.350,-0.350,-0.350,0.000,0.000,0.000
1605106252774100992,10.0.1.134,509,move_up,-0.330,-0.330,-0.330,0.000,0.000,0.000
1605106254316395008,10.0.1.134,488,move_up,-0.310,-0.310,-0.310,0.000,0.000,0.000
1605106255925165824,10.0.1.134,507,move_up,-0.290,-0.290,-0.290,0.000,0.000,0.000
1605106257477129984,10.0.1.134,526,move_up,-0.270,-0.270,-0.270,0.000,0.000,0.000
1605106259058110976,10.0.1.134,499,move_up,-0.250,-0.250,-0.250,0.000,0.000,0.000
1605106260621079040,10.0.1.134,464,move_up,-0.230,-0.230,-0.230,0.000,0.000,0.000
1605106262321558016,10.0.1.134,617,move_up,-0.210,-0.210,-0.210,0.000,0.000,0.000
1605106263869147904,10.0.1.134,461,move_up,-0.190,-0.190,-0.190,0.000,0.000,0.000
1605106264980356096,10.0.1.134,44,place,-0.180,-0.180,-0.180,0.000,0.000,0.000
1605106266985999104,10.0.1.134,47,place,-0.160,-0.160,-0.160,0.000,0.000,0.000
1605106267994344960,10.0.1.134,53,place,-0.150,-0.150,-0.150,0.000,0.000,0.000
1605106268991173120,10.0.1.134,38,place,-0.140,-0.140,-0.140,0.000,0.000,0.000
1605106269994631936,10.0.1.134,36,place,-0.130,-0.130,-0.130,0.000,0.000,0.000
1605106271010813952,10.0.1.134,50,place,-0.120,-0.120,-0.120,0.000,0.000,0.000
1605106272009181952,10.0.1.134,46,place,-0.110,-0.110,-0.110,0.000,0.000,0.000
1605106273016705024,10.0.1.134,52,place,-0.100,-0.100,-0.100,0.000,0.000,0.000
1605106274010241024,10.0.1.134,44,place,-0.090,-0.090,-0.090,0.000,0.000,0.000
1605106275012084992,10.0.1.134,42,place,-0.080,-0.080,-0.080,0.000,0.000,0.000
1605106276012375040,10.0.1.134,40,place,-0.070,-0.070,-0.070,0.000,0.000,0.000
1605106277022584832,10.0.1.134,49,place,-0.060,-0.060,-0.060,0.000,0.000,0.000
1605106278014713088,10.0.1.134,39,place,-0.050,-0.050,-0.050,0.000,0.000,0.000
1605106279011375872,10.0.1.134,35,place,-0.040,-0.040,-0.040,0.000,0.000,0.000
1605106280029954048,10.0.1.134,48,place,-0.030,-0.030,-0.030,0.000,0.000,0.000
1605106281029211904,10.0.1.134,45,place,-0.020,-0.020,-0.020,0.000,0.000,0.000
1605106282029064960,10.0.1.134,43,place,-0.010,-0.010,-0.010,0.000,0.000,0.000
1605106283029287168,10.0.1.134,43,place,0.000,0.000,0.000,0.000,0.000,0.000
1605106284435704064,10.0.1.134,448,move_down,-0.020,-0.020,-0.020,0.000,0.000,0.000
1605106285943904000,10.0.1.134,423,move_down,-0.040,-0.040,-0.040,0.000,0.000,0.000
1605106287530663936,10.0.1.134,499,move_down,-0.060,-0.060,-0.060,0.000,0.000,0.000
1605106289009605888,10.0.1.134,445,move_down,-0.080,-0.080,-0.080,0.000,0.000,0.000
1605106290523307008,10.0.1.134,462,move_down,-0.100,-0.100,-0.100,0.000,0.000,0.000
1605106292085773824,10.0.1.134,420,move_down,-0.120,-0.120,-0.120,0.000,0.000,0.000
1605106293562836992,10.0.1.134,458,move_down,-0.140,-0.140,-0.140,0.000,0.000,0.000
1605106295205108992,10.0.1.134,535,move_down,-0.160,-0.160,-0.160,0.000,0.000,0.000
1605106296782417920,10.0.1.134,546,move_down,-0.180,-0.180,-0.180,0.000,0.000,0.000
1605106298257174016,10.0.1.134,397,move_down,-0.200,-0.200,-0.200,0.000,0.000,0.000
1605106299795639040,10.0.1.134,504,move_down,-0.220,-0.220,-0.220,0.000,0.000,0.000
1605106301283296000,10.0.1.134,452,move_down,-0.240,-0.240,-0.240,0.000,0.000,0.000
1605106302823524864,10.0.1.134,467,move_down,-0.260,-0.260,-0.260,0.000,0.000,0.000
1605106304282445824,10.0.1.134,410,move_down,-0.280,-0.280,-0.280,0.000,0.000,0.000
1605106305795975936,10.0.1.134,425,move_down,-0.300,-0.300,-0.300,0.000,0.000,0.000
1605106307401626112,10.0.1.134,503,move_down,-0.320,-0.320,-0.320,0.000,0.000,0.000
1605106308898853120,10.0.1.134,433,move_down,-0.340,-0.340,-0.340,0.000,0.000,0.000
1605106310360583168,10.0.1.134,409,move_down,-0.360,-0.360,-0.360,0.000,0.000,0.000
1605106311860850176,10.0.1.134,414,move_down,-0.380,-0.380,-0.380,0.000,0.000,0.000
1605106313381223936,10.0.1.134,453,move_down,-0.400,-0.400,-0.400,0.000,0.000,0.000
1605106314962422016,10.0.1.134,493,move_down,-0.420,-0.420,-0.420,0.000,0.000,0.000
1605106316491819008,10.0.1.134,502,move_down,-0.440,-0.440,-0.440,0.000,0.000,0.000
1605106318028050944,10.0.1.134,474,move_down,-0.460,-0.460,-0.460,0.000,0.000,0.000
1605106319639131136,10.0.1.134,531,move_down,-0.480,-0.480,-0.480,0.000,0.000,0.000
1605106321210670848,10.0.1.134,510,move_down,-0.500,-0.500,-0.500,0.000,0.000,0.000
1605106322922245888,10.0.1.134,656,move_down,-0.520,-0.520,-0.520,0.000,0.000,0.000
1605106324462135040,10.0.1.134,460,move_down,-0.540,-0.540,-0.540,0.000,0.000,0.000
1605106326091819008,10.0.1.134,561,move_down,-0.560,-0.560,-0.560,0.000,0.000,0.000
1605106327671220992,10.0.1.134,453,move_down,-0.580,-0.580,-0.580,0.000,0.000,0.000
1605106328769409024,10.0.1.134,51,pick,-0.590,-0.590,-0.590,0.000,0.000,0.000
1605106329786696960,10.0.1.134,67,pick,-0.600,-0.600,-0.600,0.000,0.000,0.000
1605106330764924160,10.0.1.134,43,pick,-0.610,-0.610,-0.610,0.000,0.000,0.000
1605106333777547008,10.0.1.134,50,pick,-0.640,-0.640,-0.640,0.000,0.000,0.000
1605106334783958784,10.0.1.134,51,pick,-0.650,-0.650,-0.650,0.000,0.000,0.000
1605106335784569088,10.0.1.134,47,pick,-0.660,-0.660,-0.660,0.000,0.000,0.000
1605106336782494976,10.0.1.134,44,pick,-0.670,-0.670,-0.670,0.000,0.000,0.000
1605106337778659072,10.0.1.134,37,pick,-0.680,-0.680,-0.680,0.000,0.000,0.000
1605106338781667072,10.0.1.134,40,pick,-0.690,-0.690,-0.690,0.000,0.000,0.000
1605106339791098112,10.0.1.134,49,pick,-0.700,-0.700,-0.700,0.000,0.000,0.000
1605106340791518976,10.0.1.134,43,pick,-0.710,-0.710,-0.710,0.000,0.000,0.000
1605106341784823040,10.0.1.134,36,pick,-0.720,-0.720,-0.720,0.000,0.000,0.000
1605106342784058112,10.0.1.134,31,pick,-0.730,-0.730,-0.730,0.000,0.000,0.000
1605106343811207936,10.0.1.134,57,pick,-0.740,-0.740,-0.740,0.000,0.000,0.000
1605106344813136128,10.0.1.134,57,pick,-0.750,-0.750,-0.750,0.000,0.000,0.000
1605106345816598016,10.0.1.134,51,pick,-0.760,-0.760,-0.760,0.000,0.000,0.000
1605106346808140032,10.0.1.134,40,pick,-0.770,-0.770,-0.770,0.000,0.000,0.000
1605106348258912000,10.0.1.134,491,move_up,-0.750,-0.750,-0.750,0.000,0.000,0.000
1605106349907630080,10.0.1.134,556,move_up,-0.730,-0.730,-0.730,0.000,0.000,0.000
1605106351604397056,10.0.1.134,515,move_up,-0.710,-0.710,-0.710,0.000,0.000,0.000
1605106353186676992,10.0.1.134,459,move_up,-0.690,-0.690,-0.690,0.000,0.000,0.000
1605106354800568064,10.0.1.134,542,move_up,-0.670,-0.670,-0.670,0.000,0.000,0.000
1605106356296886016,10.0.1.134,463,move_up,-0.650,-0.650,-0.650,0.000,0.000,0.000
1605106357964446976,10.0.1.134,594,move_up,-0.630,-0.630,-0.630,0.000,0.000,0.000
1605106359486411008,10.0.1.134,489,move_up,-0.610,-0.610,-0.610,0.000,0.000,0.000
1605106361094780928,10.0.1.134,493,move_up,-0.590,-0.590,-0.590,0.000,0.000,0.000
1605106362752275968,10.0.1.134,573,move_up,-0.570,-0.570,-0.570,0.000,0.000,0.000
1605106364346699008,10.0.1.134,495,move_up,-0.550,-0.550,-0.550,0.000,0.000,0.000
1605106365938592000,10.0.1.134,527,move_up,-0.530,-0.530,-0.530,0.000,0.000,0.000
1605106367735002880,10.0.1.134,639,move_up,-0.510,-0.510,-0.510,0.000,0.000,0.000
1605106369297198080,10.0.1.134,476,move_up,-0.490,-0.490,-0.490,0.000,0.000,0.000
1605106370862055168,10.0.1.134,516,move_up,-0.470,-0.470,-0.470,0.000,0.000,0.000
1605106372469160192,10.0.1.134,552,move_up,-0.450,-0.450,-0.450,0.000,0.000,0.000
1605106373942763008,10.0.1.134,463,move_up,-0.430,-0.430,-0.430,0.000,0.000,0.000
1605106375430937088,10.0.1.134,438,move_up,-0.410,-0.410,-0.410,0.000,0.000,0.000
1605106377012169984,10.0.1.134,484,move_up,-0.390,-0.390,-0.390,0.000,0.000,0.000
1605106378635931904,10.0.1.134,523,move_up,-0.370,-0.370,-0.370,0.000,0.000,0.000
1605106380164905984,10.0.1.134,541,move_up,-0.350,-0.350,-0.350,0.000,0.000,0.000
1605106381657972992,10.0.1.134,494,move_up,-0.330,-0.330,-0.330,0.000,0.000,0.000
1605106383377662976,10.0.1.134,553,move_up,-0.310,-0.310,-0.310,0.000,0.000,0.000
1605106384985264128,10.0.1.134,523,move_up,-0.290,-0.290,-0.290,0.000,0.000,0.000
1605106386676067072,10.0.1.134,629,move_up,-0.270,-0.270,-0.270,0.000,0.000,0.000
1605106388226691840,10.0.1.134,475,move_up,-0.250,-0.250,-0.250,0.000,0.000,0.000
1605106389732532992,10.0.1.134,467,move_up,-0.230,-0.230,-0.230,0.000,0.000,0.000
1605106391253137152,10.0.1.134,455,move_up,-0.210,-0.210,-0.210,0.000,0.000,0.000
1605106392880846080,10.0.1.134,510,move_up,-0.190,-0.190,-0.190,0.000,0.000,0.000
1605106395028728064,10.0.1.134,53,place,-0.170,-0.170,-0.170,0.000,0.000,0.000
1605106396034797824,10.0.1.134,59,place,-0.160,-0.160,-0.160,0.000,0.000,0.000
1605106397048030976,10.0.1.134,67,place,-0.150,-0.150,-0.150,0.000,0.000,0.000
1605106398032535040,10.0.1.134,45,place,-0.140,-0.140,-0.140,0.000,0.000,0.000
1605106399044689920,10.0.1.134,54,place,-0.130,-0.130,-0.130,0.000,0.000,0.000
1605106400028104192,10.0.1.134,31,place,-0.120,-0.120,-0.120,0.000,0.000,0.000
1605106401043206912,10.0.1.134,45,place,-0.110,-0.110,-0.110,0.000,0.000,0.000
1605106402053767936,10.0.1.134,54,place,-0.100,-0.100,-0.100,0.000,0.000,0.000
1605106403048339968,10.0.1.134,47,place,-0.090,-0.090,-0.090,0.000,0.000,0.000
1605106404046636032,10.0.1.134,42,place,-0.080,-0.080,-0.080,0.000,0.000,0.000
1605106405054414080,10.0.1.134,49,place,-0.070,-0.070,-0.070,0.000,0.000,0.000
1605106406049437952,10.0.1.134,42,place,-0.060,-0.060,-0.060,0.000,0.000,0.000
1605106407050241024,10.0.1.134,42,place,-0.050,-0.050,-0.050,0.000,0.000,0.000
1605106408055166976,10.0.1.134,45,place,-0.040,-0.040,-0.040,0.000,0.000,0.000
1605106409058692864,10.0.1.134,46,place,-0.030,-0.030,-0.030,0.000,0.000,0.000
1605106410073568000,10.0.1.134,58,place,-0.020,-0.020,-0.020,0.000,0.000,0.000
1605106411051447040,10.0.1.134,34,place,-0.010,-0.010,-0.010,0.000,0.000,0.000
1605106412070216960,10.0.1.134,51,place,0.000,0.000,0.000,0.000,0.000,0.000
1605106413495385856,10.0.1.134,475,move_down,-0.020,-0.020,-0.020,0.000,0.000,0.000
1605106415094548992,10.0.1.134,526,move_down,-0.040,-0.040,-0.040,0.000,0.000,0.000
1605106416723428096,10.0.1.134,504,move_down,-0.060,-0.060,-0.060,0.000,0.000,0.000
1605106418334332928,10.0.1.134,510,move_down,-0.080,-0.080,-0.080,0.000,0.000,0.000
1605106420037714944,10.0.1.134,588,move_down,-0.100,-0.100,-0.100,0.000,0.000,0.000
1605106421632192000,10.0.1.134,544,move_down,-0.120,-0.120,-0.120,0.000,0.000,0.000
1605106423186786048,10.0.1.134,433,move_down,-0.140,-0.140,-0.140,0.000,0.000,0.000
1605106424811269120,10.0.1.134,541,move_down,-0.160,-0.160,-0.160,0.000,0.000,0.000
1605106426385602048,10.0.1.134,508,move_down,-0.180,-0.180,-0.180,0.000,0.000,0.000
1605106427927433984,10.0.1.134,496,move_down,-0.200,-0.200,-0.200,0.000,0.000,0.000
1605106429586263808,10.0.1.134,516,move_down,-0.220,-0.220,-0.220,0.000,0.000,0.000
1605106431227685888,10.0.1.134,542,move_down,-0.240,-0.240,-0.240,0.000,0.000,0.000
1605106432804073216,10.0.1.134,498,move_down,-0.260,-0.260,-0.260,0.000,0.000,0.000
1605106434287395840,10.0.1.134,445,move_down,-0.280,-0.280,-0.280,0.000,0.000,0.000
1605106435955941888,10.0.1.134,586,move_down,-0.300,-0.300,-0.300,0.000,0.000,0.000
1605106437510572800,10.0.1.134,504,move_down,-0.320,-0.320,-0.320,0.000,0.000,0.000
1605106439105878016,10.0.1.134,542,move_down,-0.340,-0.340,-0.340,0.000,0.000,0.000
1605106440617841920,10.0.1.134,450,move_down,-0.360,-0.360,-0.360,0.000,0.000,0.000
1605106442303444992,10.0.1.134,591,move_down,-0.380,-0.380,-0.380,0.000,0.000,0.000
1605106443916456960,10.0.1.134,525,move_down,-0.400,-0.400,-0.400,0.000,0.000,0.000
1605106445635627008,10.0.1.134,544,move_down,-0.420,-0.420,-0.420,0.000,0.000,0.000
1605106447210496000,10.0.1.134,520,move_down,-0.440,-0.440,-0.440,0.000,0.000,0.000
1605106448706852864,10.0.1.134,438,move_down,-0.460,-0.460,-0.460,0.000,0.000,0.000
1605106450299053824,10.0.1.134,494,move_down,-0.480,-0.480,-0.480,0.000,0.000,0.000
1605106451938721024,10.0.1.134,583,move_down,-0.500,-0.500,-0.500,0.000,0.000,0.000
1605106453581569792,10.0.1.134,536,move_down,-0.520,-0.520,-0.520,0.000,0.000,0.000
1605106455122194176,10.0.1.134,460,move_down,-0.540,-0.540,-0.540,0.000,0.000,0.000
1605106456743444992,10.0.1.134,503,move_down,-0.560,-0.560,-0.560,0.000,0.000,0.000
1605106458364494080,10.0.1.134,578,move_down,-0.580,-0.580,-0.580,0.000,0.000,0.000
1605106459443059968,10.0.1.134,40,pick,-0.590,-0.590,-0.590,0.000,0.000,0.000
1605106460443638016,10.0.1.134,39,pick,-0.600,-0.600,-0.600,0.000,0.000,0.000
1605106461440040960,10.0.1.134,34,pick,-0.610,-0.610,-0.610,0.000,0.000,0.000
1605106462443953152,10.0.1.134,36,pick,-0.620,-0.620,-0.620,0.000,0.000,0.000
1605106463461935872,10.0.1.134,52,pick,-0.630,-0.630,-0.630,0.000,0.000,0.000
1605106464468882944,10.0.1.134,58,pick,-0.640,-0.640,-0.640,0.000,0.000,0.000
1605106465460422912,10.0.1.134,48,pick,-0.650,-0.650,-0.650,0.000,0.000,0.000
1605106466460659968,10.0.1.134,45,pick,-0.660,-0.660,-0.660,0.000,0.000,0.000
1605106467463078912,10.0.1.134,41,pick,-0.670,-0.670,-0.670,0.000,0.000,0.000
1605106468465118976,10.0.1.134,41,pick,-0.680,-0.680,-0.680,0.000,0.000,0.000
1605106469466317824,10.0.1.134,39,pick,-0.690,-0.690,-0.690,0.000,0.000,0.000
1605106470460786176,10.0.1.134,32,pick,-0.700,-0.700,-0.700,0.000,0.000,0.000
1605106471479727104,10.0.1.134,50,pick,-0.710,-0.710,-0.710,0.000,0.000,0.000
1605106472480078848,10.0.1.134,49,pick,-0.720,-0.720,-0.720,0.000,0.000,0.000
1605106473482112768,10.0.1.134,50,pick,-0.730,-0.730,-0.730,0.000,0.000,0.000
1605106474483671040,10.0.1.134,49,pick,-0.740,-0.740,-0.740,0.000,0.000,0.000
1605106475483713024,10.0.1.134,47,pick,-0.750,-0.750,-0.750,0.000,0.000,0.000
1605106476500386048,10.0.1.134,62,pick,-0.760,-0.760,-0.760,0.000,0.000,0.000
1605106477485420032,10.0.1.134,46,pick,-0.770,-0.770,-0.770,0.000,0.000,0.000
1605106478941256960,10.0.1.134,498,move_up,-0.750,-0.750,-0.750,0.000,0.000,0.000
1605106480583255040,10.0.1.134,479,move_up,-0.730,-0.730,-0.730,0.000,0.000,0.000
1605106482165584128,10.0.1.134,532,move_up,-0.710,-0.710,-0.710,0.000,0.000,0.000
1605106483704196864,10.0.1.134,448,move_up,-0.690,-0.690,-0.690,0.000,0.000,0.000
1605106485277842944,10.0.1.134,496,move_up,-0.670,-0.670,-0.670,0.000,0.000,0.000
1605106486806413056,10.0.1.134,528,move_up,-0.650,-0.650,-0.650,0.000,0.000,0.000
1605106488347988992,10.0.1.134,469,move_up,-0.630,-0.630,-0.630,0.000,0.000,0.000
1605106489931755008,10.0.1.134,516,move_up,-0.610,-0.610,-0.610,0.000,0.000,0.000
1605106491599260928,10.0.1.134,591,move_up,-0.590,-0.590,-0.590,0.000,0.000,0.000
1605106493283681024,10.0.1.134,602,move_up,-0.570,-0.570,-0.570,0.000,0.000,0.000
1605106494908500992,10.0.1.134,564,move_up,-0.550,-0.550,-0.550,0.000,0.000,0.000
1605106496488327936,10.0.1.134,490,move_up,-0.530,-0.530,-0.530,0.000,0.000,0.000
1605106498139760128,10.0.1.134,539,move_up,-0.510,-0.510,-0.510,0.000,0.000,0.000
1605106499682224896,10.0.1.134,447,move_up,-0.490,-0.490,-0.490,0.000,0.000,0.000
1605106501284269056,10.0.1.134,459,move_up,-0.470,-0.470,-0.470,0.000,0.000,0.000
1605106502825558016,10.0.1.134,470,move_up,-0.450,-0.450,-0.450,0.000,0.000,0.000
1605106504363582976,10.0.1.134,471,move_up,-0.430,-0.430,-0.430,0.000,0.000,0.000
1605106505959873792,10.0.1.134,500,move_up,-0.410,-0.410,-0.410,0.000,0.000,0.000
1605106507574491904,10.0.1.134,526,move_up,-0.390,-0.390,-0.390,0.000,0.000,0.000
1605106509198626048,10.0.1.134,515,move_up,-0.370,-0.370,-0.370,0.000,0.000,0.000
1605106510698829056,10.0.1.134,442,move_up,-0.350,-0.350,-0.350,0.000,0.000,0.000
1605106512229871872,10.0.1.134,492,move_up,-0.330,-0.330,-0.330,0.000,0.000,0.000
1605106513814627840,10.0.1.134,468,move_up,-0.310,-0.310,-0.310,0.000,0.000,0.000
1605106515333607936,10.0.1.134,428,move_up,-0.290,-0.290,-0.290,0.000,0.000,0.000
1605106516930541056,10.0.1.134,480,move_up,-0.270,-0.270,-0.270,0.000,0.000,0.000
1605106518484466176,10.0.1.134,460,move_up,-0.250,-0.250,-0.250,0.000,0.000,0.000
1605106520066267904,10.0.1.134,486,move_up,-0.230,-0.230,-0.230,0.000,0.000,0.000
1605106521565357824,10.0.1.134,479,move_up,-0.210,-0.210,-0.210,0.000,0.000,0.000
1605106523045007104,10.0.1.134,452,move_up,-0.190,-0.190,-0.190,0.000,0.000,0.000
1605106524125537024,10.0.1.134,38,place,-0.180,-0.180,-0.180,0.000,0.000,0.000
1605106525128578048,10.0.1.134,40,place,-0.170,-0.170,-0.170,0.000,0.000,0.000
1605106526135927040,10.0.1.134,47,place,-0.160,-0.160,-0.160,0.000,0.000,0.000
1605106527150223104,10.0.1.134,60,place,-0.150,-0.150,-0.150,0.000,0.000,0.000
1605106528126349056,10.0.1.134,35,place,-0.140,-0.140,-0.140,0.000,0.000,0.000
1605106529151442176,10.0.1.134,52,place,-0.130,-0.130,-0.130,0.000,0.000,0.000
1605106530154225152,10.0.1.134,53,place,-0.120,-0.120,-0.120,0.000,0.000,0.000
1605106531149208064,10.0.1.134,47,place,-0.110,-0.110,-0.110,0.000,0.000,0.000
1605106532151982080,10.0.1.134,48,place,-0.100,-0.100,-0.100,0.000,0.000,0.000
1605106533151872000,10.0.1.134,47,place,-0.090,-0.090,-0.090,0.000,0.000,0.000
1605106534148761088,10.0.1.134,42,place,-0.080,-0.080,-0.080,0.000,0.000,0.000
1605106535161897984,10.0.1.134,54,place,-0.070,-0.070,-0.070,0.000,0.000,0.000
1605106536145891072,10.0.1.134,36,place,-0.060,-0.060,-0.060,0.000,0.000,0.000
1605106537165512960,10.0.1.134,51,place,-0.050,-0.050,-0.050,0.000,0.000,0.000
1605106538158247936,10.0.1.134,42,place,-0.040,-0.040,-0.040,0.000,0.000,0.000
1605106539161654016,10.0.1.134,45,place,-0.030,-0.030,-0.030,0.000,0.000,0.000
1605106540160012032,10.0.1.134,40,place,-0.020,-0.020,-0.020,0.000,0.000,0.000
1605106541159811072,10.0.1.134,39,place,-0.010,-0.010,-0.010,0.000,0.000,0.000
1605106542160325888,10.0.1.134,39,place,0.000,0.000,0.000,0.000,0.000,0.000
1605106543796678912,10.0.1.134,674,move_down,-0.020,-0.020,-0.020,0.000,0.000,0.000
1605106545329950208,10.0.1.134,451,move_down,-0.040,-0.040,-0.040,0.000,0.000,0.000
1605106546922727936,10.0.1.134,553,move_down,-0.060,-0.060,-0.060,0.000,0.000,0.000
1605106548522998016,10.0.1.134,498,move_down,-0.080,-0.080,-0.080,0.000,0.000,0.000
1605106550183916032,10.0.1.134,562,move_down,-0.100,-0.100,-0.100,0.000,0.000,0.000
1605106551797460992,10.0.1.134,510,move_down,-0.120,-0.120,-0.120,0.000,0.000,0.000
1605106553261444096,10.0.1.134,435,move_down,-0.140,-0.140,-0.140,0.000,0.000,0.000
1605106554837840128,10.0.1.134,511,move_down,-0.160,-0.160,-0.160,0.000,0.000,0.000
1605106556433459968,10.0.1.134,537,move_down,-0.180,-0.180,-0.180,0.000,0.000,0.000
1605106558003948800,10.0.1.134,511,move_down,-0.200,-0.200,-0.200,0.000,0.000,0.000
1605106559606148864,10.0.1.134,478,move_down,-0.220,-0.220,-0.220,0.000,0.000,0.000
1605106561211792896,10.0.1.134,480,move_down,-0.240,-0.240,-0.240,0.000,0.000,0.000
1605106562756122112,10.0.1.134,488,move_down,-0.260,-0.260,-0.260,0.000,0.000,0.000
1605106564298511872,10.0.1.134,440,move_down,-0.280,-0.280,-0.280,0.000,0.000,0.000
1605106565925092864,10.0.1.134,568,move_down,-0.300,-0.300,-0.300,0.000,0.000,0.000
1605106567565373952,10.0.1.134,531,move_down,-0.320,-0.320,-0.320,0.000,0.000,0.000
1605106569135038976,10.0.1.134,476,move_down,-0.340,-0.340,-0.340,0.000,0.000,0.000
1605106570690128128,10.0.1.134,555,move_down,-0.360,-0.360,-0.360,0.000,0.000,0.000
1605106572218336000,10.0.1.134,459,move_down,-0.380,-0.380,-0.380,0.000,0.000,0.000
1605106573849440000,10.0.1.134,553,move_down,-0.400,-0.400,-0.400,0.000,0.000,0.000
1605106575483209984,10.0.1.134,502,move_down,-0.420,-0.420,-0.420,0.000,0.000,0.000
1605106577142952960,10.0.1.134,522,move_down,-0.440,-0.440,-0.440,0.000,0.000,0.000
1605106578775724032,10.0.1.134,559,move_down,-0.460,-0.460,-0.460,0.000,0.000,0.000
1605106580563694080,10.0.1.134,687,move_down,-0.480,-0.480,-0.480,0.000,0.000,0.000
1605106582135996160,10.0.1.134,467,move_down,-0.500,-0.500,-0.500,0.000,0.000,0.000
1605106583687088128,10.0.1.134,448,move_down,-0.520,-0.520,-0.520,0.000,0.000,0.000
1605106585273901056,10.0.1.134,519,move_down,-0.540,-0.540,-0.540,0.000,0.000,0.000
1605106586910093056,10.0.1.134,541,move_down,-0.560,-0.560,-0.560,0.000,0.000,0.000
1605106588457249024,10.0.1.134,494,move_down,-0.580,-0.580,-0.580,0.000,0.000,0.000
1605106589568646912,10.0.1.134,57,pick,-0.590,-0.590,-0.590,0.000,0.000,0.000
1605106590577214976,10.0.1.134,65,pick,-0.600,-0.600,-0.600,0.000,0.000,0.000
1605106593574580992,10.0.1.134,53,pick,-0.630,-0.630,-0.630,0.000,0.000,0.000
1605106594577255936,10.0.1.134,54,pick,-0.640,-0.640,-0.640,0.000,0.000,0.000
1605106595576318976,10.0.1.134,47,pick,-0.650,-0.650,-0.650,0.000,0.000,0.000
1605106596581307904,10.0.1.134,47,pick,-0.660,-0.660,-0.660,0.000,0.000,0.000
1605106597576489984,10.0.1.134,41,pick,-0.670,-0.670,-0.670,0.000,0.000,0.000
1605106600597259008,10.0.1.134,55,pick,-0.700,-0.700,-0.700,0.000,0.000,0.000
1605106601606601984,10.0.1.134,62,pick,-0.710,-0.710,-0.710,0.000,0.000,0.000
1605106603586873088,10.0.1.134,39,pick,-0.730,-0.730,-0.730,0.000,0.000,0.000
1605106604603416832,10.0.1.134,55,pick,-0.740,-0.740,-0.740,0.000,0.000,0.000
1605106605602994944,10.0.1.134,54,pick,-0.750,-0.750,-0.750,0.000,0.000,0.000
1605106606609524992,10.0.1.134,57,pick,-0.760,-0.760,-0.760,0.000,0.000,0.000
1605106607607356160,10.0.1.134,55,pick,-0.770,-0.770,-0.770,0.000,0.000,0.000
1605106609104669952,10.0.1.134,549,move_up,-0.750,-0.750,-0.750,0.000,0.000,0.000
1605106610613468928,10.0.1.134,455,move_up,-0.730,-0.730,-0.730,0.000,0.000,0.000
1605106612144628992,10.0.1.134,473,move_up,-0.710,-0.710,-0.710,0.000,0.000,0.000
1605106613693888000,10.0.1.134,494,move_up,-0.690,-0.690,-0.690,0.000,0.000,0.000
1605106615209367040,10.0.1.134,463,move_up,-0.670,-0.670,-0.670,0.000,0.000,0.000
1605106617016520960,10.0.1.134,678,move_up,-0.650,-0.650,-0.650,0.000,0.000,0.000
1605106618672281088,10.0.1.134,578,move_up,-0.630,-0.630,-0.630,0.000,0.000,0.000
1605106620230254848,10.0.1.134,497,move_up,-0.610,-0.610,-0.610,0.000,0.000,0.000
1605106621814670080,10.0.1.134,480,move_up,-0.590,-0.590,-0.590,0.000,0.000,0.000
1605106623557321984,10.0.1.134,658,move_up,-0.570,-0.570,-0.570,0.000,0.000,0.000
1605106625061517056,10.0.1.134,433,move_up,-0.550,-0.550,-0.550,0.000,0.000,0.000
1605106626661633024,10.0.1.134,502,move_up,-0.530,-0.530,-0.530,0.000,0.000,0.000
1605106628189510144,10.0.1.134,485,move_up,-0.510,-0.510,-0.510,0.000,0.000,0.000
1605106629627741952,10.0.1.134,433,move_up,-0.490,-0.490,-0.490,0.000,0.000,0.000
1605106631354834176,10.0.1.134,625,move_up,-0.470,-0.470,-0.470,0.000,0.000,0.000
1605106632955828992,10.0.1.134,554,move_up,-0.450,-0.450,-0.450,0.000,0.000,0.000
1605106634487628032,10.0.1.134,506,move_up,-0.430,-0.430,-0.430,0.000,0.000,0.000
1605106636021565952,10.0.1.134,468,move_up,-0.410,-0.410,-0.410,0.000,0.000,0.000
1605106637557029888,10.0.1.134,489,move_up,-0.390,-0.390,-0.390,0.000,0.000,0.000
1605106639184769024,10.0.1.134,582,move_up,-0.370,-0.370,-0.370,0.000,0.000,0.000
1605106640798167040,10.0.1.134,526,move_up,-0.350,-0.350,-0.350,0.000,0.000,0.000
1605106642430008832,10.0.1.134,588,move_up,-0.330,-0.330,-0.330,0.000,0.000,0.000
1605106644006386944,10.0.1.134,515,move_up,-0.310,-0.310,-0.310,0.000,0.000,0.000
1605106645543966976,10.0.1.134,452,move_up,-0.290,-0.290,-0.290,0.000,0.000,0.000
1605106647050990080,10.0.1.134,444,move_up,-0.270,-0.270,-0.270,0.000,0.000,0.000
1605106648598125824,10.0.1.134,504,move_up,-0.250,-0.250,-0.250,0.000,0.000,0.000
1605106650198332160,10.0.1.134,560,move_up,-0.230,-0.230,-0.230,0.000,0.000,0.000
1605106651811996928,10.0.1.134,501,move_up,-0.210,-0.210,-0.210,0.000,0.000,0.000
1605106653353886976,10.0.1.134,450,move_up,-0.190,-0.190,-0.190,0.000,0.000,0.000
1605106654488208896,10.0.1.134,48,place,-0.180,-0.180,-0.180,0.000,0.000,0.000
1605106656489988096,10.0.1.134,45,place,-0.160,-0.160,-0.160,0.000,0.000,0.000
1605106657488510976,10.0.1.134,42,place,-0.150,-0.150,-0.150,0.000,0.000,0.000
1605106658488290048,10.0.1.134,40,place,-0.140,-0.140,-0.140,0.000,0.000,0.000
1605106659491194112,10.0.1.134,38,place,-0.130,-0.130,-0.130,0.000,0.000,0.000
1605106660494771968,10.0.1.134,35,place,-0.120,-0.120,-0.120,0.000,0.000,0.000
1605106661494396928,10.0.1.134,31,place,-0.110,-0.110,-0.110,0.000,0.000,0.000
1605106662534760960,10.0.1.134,70,place,-0.100,-0.100,-0.100,0.000,0.000,0.000
1605106663524209920,10.0.1.134,58,place,-0.090,-0.090,-0.090,0.000,0.000,0.000
1605106664521373952,10.0.1.134,54,place,-0.080,-0.080,-0.080,0.000,0.000,0.000
1605106665528377088,10.0.1.134,59,place,-0.070,-0.070,-0.070,0.000,0.000,0.000
1605106667526866944,10.0.1.134,53,place,-0.050,-0.050,-0.050,0.000,0.000,0.000
1605106668551207936,10.0.1.134,76,place,-0.040,-0.040,-0.040,0.000,0.000,0.000
1605106669537520896,10.0.1.134,60,place,-0.030,-0.030,-0.030,0.000,0.000,0.000
1605106671550409984,10.0.1.134,71,place,-0.010,-0.010,-0.010,0.000,0.000,0.000
1605106672527858944,10.0.1.134,46,place,0.000,0.000,0.000,0.000,0.000,0.000
1605106673987032064,10.0.1.134,500,move_down,-0.020,-0.020,-0.020,0.000,0.000,0.000
1605106675624262144,10.0.1.134,554,move_down,-0.040,-0.040,-0.040,0.000,0.000,0.000
1605106677175828992,10.0.1.134,489,move_down,-0.060,-0.060,-0.060,0.000,0.000,0.000
1605106678689048064,10.0.1.134,439,move_down,-0.080,-0.080,-0.080,0.000,0.000,0.000
1605106680227906816,10.0.1.134,487,move_down,-0.100,-0.100,-0.100,0.000,0.000,0.000
1605106681862387968,10.0.1.134,563,move_down,-0.120,-0.120,-0.120,0.000,0.000,0.000
1605106683487118080,10.0.1.134,529,move_down,-0.140,-0.140,-0.140,0.000,0.000,0.000
1605106685007654912,10.0.1.134,430,move_down,-0.160,-0.160,-0.160,0.000,0.000,0.000
1605106686633102848,10.0.1.134,541,move_down,-0.180,-0.180,-0.180,0.000,0.000,0.000
1605106688162252800,10.0.1.134,436,move_down,-0.200,-0.200,-0.200,0.000,0.000,0.000
1605106689704327168,10.0.1.134,483,move_down,-0.220,-0.220,-0.220,0.000,0.000,0.000
1605106691291716096,10.0.1.134,512,move_down,-0.240,-0.240,-0.240,0.000,0.000,0.000
1605106692948407040,10.0.1.134,596,move_down,-0.260,-0.260,-0.260,0.000,0.000,0.000
1605106694520926976,10.0.1.134,462,move_down,-0.280,-0.280,-0.280,0.000,0.000,0.000
1605106696236867072,10.0.1.134,578,move_down,-0.300,-0.300,-0.300,0.000,0.000,0.000
1605106698004784128,10.0.1.134,733,move_down,-0.320,-0.320,-0.320,0.000,0.000,0.000
1605106699749277952,10.0.1.134,684,move_down,-0.340,-0.340,-0.340,0.000,0.000,0.000
1605106701669169920,10.0.1.134,741,move_down,-0.360,-0.360,-0.360,0.000,0.000,0.000
1605106703450536960,10.0.1.134,658,move_down,-0.380,-0.380,-0.380,0.000,0.000,0.000
1605106705315344128,10.0.1.134,778,move_down,-0.400,-0.400,-0.400,0.000,0.000,0.000
1605106707186534912,10.0.1.134,754,move_down,-0.420,-0.420,-0.420,0.000,0.000,0.000
1605106708783691008,10.0.1.134,541,move_down,-0.440,-0.440,-0.440,0.000,0.000,0.000
1605106710412413952,10.0.1.134,601,move_down,-0.460,-0.460,-0.460,0.000,0.000,0.000
1605106712157286912,10.0.1.134,630,move_down,-0.480,-0.480,-0.480,0.000,0.000,0.000
1605106713886014976,10.0.1.134,563,move_down,-0.500,-0.500,-0.500,0.000,0.000,0.000
1605106715440280832,10.0.1.134,418,move_down,-0.520,-0.520,-0.520,0.000,0.000,0.000
1605106716994103040,10.0.1.134,454,move_down,-0.540,-0.540,-0.540,0.000,0.000,0.000
1605106718581317888,10.0.1.134,508,move_down,-0.560,-0.560,-0.560,0.000,0.000,0.000
1605106720133633024,10.0.1.134,503,move_down,-0.580,-0.580,-0.580,0.000,0.000,0.000
1605106721280306176,10.0.1.134,52,pick,-0.590,-0.590,-0.590,0.000,0.000,0.000
1605106722275779072,10.0.1.134,46,pick,-0.600,-0.600,-0.600,0.000,0.000,0.000
1605106723277896960,10.0.1.134,46,pick,-0.610,-0.610,-0.610,0.000,0.000,0.000
1605106724277051904,10.0.1.134,42,pick,-0.620,-0.620,-0.620,0.000,0.000,0.000
1605106725273360896,10.0.1.134,37,pick,-0.630,-0.630,-0.630,0.000,0.000,0.000
1605106726275945984,10.0.1.134,38,pick,-0.640,-0.640,-0.640,0.000,0.000,0.000
1605106727279619072,10.0.1.134,41,pick,-0.650,-0.650,-0.650,0.000,0.000,0.000
1605106728277093888,10.0.1.134,37,pick,-0.660,-0.660,-0.660,0.000,0.000,0.000
1605106729286281984,10.0.1.134,43,pick,-0.670,-0.670,-0.670,0.000,0.000,0.000
1605106730294158080,10.0.1.134,49,pick,-0.680,-0.680,-0.680,0.000,0.000,0.000
1605106731296845056,10.0.1.134,50,pick,-0.690,-0.690,-0.690,0.000,0.000,0.000
1605106732295785984,10.0.1.134,48,pick,-0.700,-0.700,-0.700,0.000,0.000,0.000
1605106733293509888,10.0.1.134,44,pick,-0.710,-0.710,-0.710,0.000,0.000,0.000
1605106734328265984,10.0.1.134,77,pick,-0.720,-0.720,-0.720,0.000,0.000,0.000
1605106735294267904,10.0.1.134,41,pick,-0.730,-0.730,-0.730,0.000,0.000,0.000
1605106736303710976,10.0.1.134,45,pick,-0.740,-0.740,-0.740,0.000,0.000,0.000
1605106737298842880,10.0.1.134,39,pick,-0.750,-0.750,-0.750,0.000,0.000,0.000
1605106739302365952,10.0.1.134,40,pick,-0.770,-0.770,-0.770,0.000,0.000,0.000
1605106740776242944,10.0.1.134,512,move_up,-0.750,-0.750,-0.750,0.000,0.000,0.000
1605106742426309120,10.0.1.134,549,move_up,-0.730,-0.730,-0.730,0.000,0.000,0.000
1605106744067404032,10.0.1.134,558,move_up,-0.710,-0.710,-0.710,0.000,0.000,0.000
1605106745716553984,10.0.1.134,588,move_up,-0.690,-0.690,-0.690,0.000,0.000,0.000
1605106747326278912,10.0.1.134,523,move_up,-0.670,-0.670,-0.670,0.000,0.000,0.000
1605106748896699904,10.0.1.134,493,move_up,-0.650,-0.650,-0.650,0.000,0.000,0.000
1605106750462161920,10.0.1.134,445,move_up,-0.630,-0.630,-0.630,0.000,0.000,0.000
1605106752126475008,10.0.1.134,619,move_up,-0.610,-0.610,-0.610,0.000,0.000,0.000
1605106753813036032,10.0.1.134,558,move_up,-0.590,-0.590,-0.590,0.000,0.000,0.000
1605106755361062144,10.0.1.134,501,move_up,-0.570,-0.570,-0.570,0.000,0.000,0.000
1605106757044051968,10.0.1.134,608,move_up,-0.550,-0.550,-0.550,0.000,0.000,0.000
1605106758546767872,10.0.1.134,486,move_up,-0.530,-0.530,-0.530,0.000,0.000,0.000
1605106760201929984,10.0.1.134,609,move_up,-0.510,-0.510,-0.510,0.000,0.000,0.000
1605106762119316224,10.0.1.134,699,move_up,-0.490,-0.490,-0.490,0.000,0.000,0.000
1605106763602878976,10.0.1.134,437,move_up,-0.470,-0.470,-0.470,0.000,0.000,0.000
1605106765237703168,10.0.1.134,573,move_up,-0.450,-0.450,-0.450,0.000,0.000,0.000
1605106766862471168,10.0.1.134,566,move_up,-0.430,-0.430,-0.430,0.000,0.000,0.000
1605106768785437184,10.0.1.134,826,move_up,-0.410,-0.410,-0.410,0.000,0.000,0.000
1605106770501044992,10.0.1.134,612,move_up,-0.390,-0.390,-0.390,0.000,0.000,0.000
1605106772279912960,10.0.1.134,727,move_up,-0.370,-0.370,-0.370,0.000,0.000,0.000
1605106774281467904,10.0.1.134,922,move_up,-0.350,-0.350,-0.350,0.000,0.000,0.000
1605106776030179072,10.0.1.134,596,move_up,-0.330,-0.330,-0.330,0.000,0.000,0.000
1605106777784125184,10.0.1.134,644,move_up,-0.310,-0.310,-0.310,0.000,0.000,0.000
1605106779334436864,10.0.1.134,484,move_up,-0.290,-0.290,-0.290,0.000,0.000,0.000
1605106780958201856,10.0.1.134,579,move_up,-0.270,-0.270,-0.270,0.000,0.000,0.000
1605106782646070016,10.0.1.134,634,move_up,-0.250,-0.250,-0.250,0.000,0.000,0.000
1605106784442131968,10.0.1.134,723,move_up,-0.230,-0.230,-0.230,0.000,0.000,0.000
1605106786088505088,10.0.1.134,595,move_up,-0.210,-0.210,-0.210,0.000,0.000,0.000
1605106787630281984,10.0.1.134,462,move_up,-0.190,-0.190,-0.190,0.000,0.000,0.000
1605106789769065984,10.0.1.134,56,place,-0.170,-0.170,-0.170,0.000,0.000,0.000
1605106790766546944,10.0.1.134,51,place,-0.160,-0.160,-0.160,0.000,0.000,0.000
1605106791775075840,10.0.1.134,59,place,-0.150,-0.150,-0.150,0.000,0.000,0.000
1605106792774961920,10.0.1.134,57,place,-0.140,-0.140,-0.140,0.000,0.000,0.000
1605106793776624896,10.0.1.134,57,place,-0.130,-0.130,-0.130,0.000,0.000,0.000
1605106794771612928,10.0.1.134,51,place,-0.120,-0.120,-0.120,0.000,0.000,0.000
1605106795765618944,10.0.1.134,44,place,-0.110,-0.110,-0.110,0.000,0.000,0.000
1605106796771467008,10.0.1.134,49,place,-0.100,-0.100,-0.100,0.000,0.000,0.000
1605106797770390016,10.0.1.134,47,place,-0.090,-0.090,-0.090,0.000,0.000,0.000
1605106798766089984,10.0.1.134,40,place,-0.080,-0.080,-0.080,0.000,0.000,0.000
1605106799781101056,10.0.1.134,54,place,-0.070,-0.070,-0.070,0.000,0.000,0.000
1605106801781882112,10.0.1.134,49,place,-0.050,-0.050,-0.050,0.000,0.000,0.000
1605106802781168896,10.0.1.134,47,place,-0.040,-0.040,-0.040,0.000,0.000,0.000
1605106803797851136,10.0.1.134,48,place,-0.030,-0.030,-0.030,0.000,0.000,0.000
1605106804807533056,10.0.1.134,54,place,-0.020,-0.020,-0.020,0.000,0.000,0.000
1605106805801722880,10.0.1.134,46,place,-0.010,-0.010,-0.010,0.000,0.000,0.000
1605106806784342016,10.0.1.134,27,place,0.000,0.000,0.000,0.000,0.000,0.000
1605106808335629824,10.0.1.134,578,move_down,-0.020,-0.020,-0.020,0.000,0.000,0.000
1605106809997423872,10.0.1.134,564,move_down,-0.040,-0.040,-0.040,0.000,0.000,0.000
1605106811562201856,10.0.1.134,529,move_down,-0.060,-0.060,-0.060,0.000,0.000,0.000
1605106813278012160,10.0.1.134,682,move_down,-0.080,-0.080,-0.080,0.000,0.000,0.000
1605106814975673088,10.0.1.134,595,move_down,-0.100,-0.100,-0.100,0.000,0.000,0.000
1605106816647703808,10.0.1.134,558,move_down,-0.120,-0.120,-0.120,0.000,0.000,0.000
1605106818329502976,10.0.1.134,598,move_down,-0.140,-0.140,-0.140,0.000,0.000,0.000
1605106820054996992,10.0.1.134,625,move_down,-0.160,-0.160,-0.160,0.000,0.000,0.000
1605106821773068800,10.0.1.134,563,move_down,-0.180,-0.180,-0.180,0.000,0.000,0.000
1605106823265690112,10.0.1.134,491,move_down,-0.200,-0.200,-0.200,0.000,0.000,0.000
1605106824936232960,10.0.1.134,596,move_down,-0.220,-0.220,-0.220,0.000,0.000,0.000
1605106826560190976,10.0.1.134,529,move_down,-0.240,-0.240,-0.240,0.000,0.000,0.000
1605106828193604096,10.0.1.134,559,move_down,-0.260,-0.260,-0.260,0.000,0.000,0.000
1605106829834464000,10.0.1.134,618,move_down,-0.280,-0.280,-0.280,0.000,0.000,0.000
1605106831510276096,10.0.1.134,622,move_down,-0.300,-0.300,-0.300,0.000,0.000,0.000
1605106833131383808,10.0.1.134,470,move_down,-0.320,-0.320,-0.320,0.000,0.000,0.000
1605106834787611904,10.0.1.134,509,move_down,-0.340,-0.340,-0.340,0.000,0.000,0.000
1605106836462671104,10.0.1.134,605,move_down,-0.360,-0.360,-0.360,0.000,0.000,0.000
1605106838078716928,10.0.1.134,544,move_down,-0.380,-0.380,-0.380,0.000,0.000,0.000
1605106839660641024,10.0.1.134,540,move_down,-0.400,-0.400,-0.400,0.000,0.000,0.000
1605106841361243136,10.0.1.134,625,move_down,-0.420,-0.420,-0.420,0.000,0.000,0.000
1605106843156468992,10.0.1.134,691,move_down,-0.440,-0.440,-0.440,0.000,0.000,0.000
1605106844902018048,10.0.1.134,604,move_down,-0.460,-0.460,-0.460,0.000,0.000,0.000
1605106846669060096,10.0.1.134,679,move_down,-0.480,-0.480,-0.480,0.000,0.000,0.000
1605106848196971776,10.0.1.134,486,move_down,-0.500,-0.500,-0.500,0.000,0.000,0.000
1605106850104865024,10.0.1.134,769,move_down,-0.520,-0.520,-0.520,0.000,0.000,0.000
1605106851812232960,10.0.1.134,600,move_down,-0.540,-0.540,-0.540,0.000,0.000,0.000
1605106853512252928,10.0.1.134,613,move_down,-0.560,-0.560,-0.560,0.000,0.000,0.000
1605106855088513024,10.0.1.134,526,move_down,-0.580,-0.580,-0.580,0.000,0.000,0.000
1605106856169574912,10.0.1.134,35,pick,-0.590,-0.590,-0.590,0.000,0.000,0.000
1605106857197665024,10.0.1.134,62,pick,-0.600,-0.600,-0.600,0.000,0.000,0.000
1605106858205286144,10.0.1.134,62,pick,-0.610,-0.610,-0.610,0.000,0.000,0.000
1605106859187213824,10.0.1.134,33,pick,-0.620,-0.620,-0.620,0.000,0.000,0.000
1605106861206070016,10.0.1.134,46,pick,-0.640,-0.640,-0.640,0.000,0.000,0.000
1605106862212045056,10.0.1.134,49,pick,-0.650,-0.650,-0.650,0.000,0.000,0.000
1605106863204130048,10.0.1.134,40,pick,-0.660,-0.660,-0.660,0.000,0.000,0.000
1605106864202231040,10.0.1.134,36,pick,-0.670,-0.670,-0.670,0.000,0.000,0.000
1605106865208382976,10.0.1.134,41,pick,-0.680,-0.680,-0.680,0.000,0.000,0.000
1605106866209511168,10.0.1.134,38,pick,-0.690,-0.690,-0.690,0.000,0.000,0.000
1605106867226209024,10.0.1.134,54,pick,-0.700,-0.700,-0.700,0.000,0.000,0.000
1605106868228420096,10.0.1.134,49,pick,-0.710,-0.710,-0.710,0.000,0.000,0.000
1605106869228894976,10.0.1.134,47,pick,-0.720,-0.720,-0.720,0.000,0.000,0.000
1605106871249857024,10.0.1.134,61,pick,-0.740,-0.740,-0.740,0.000,0.000,0.000
1605106872236192000,10.0.1.134,45,pick,-0.750,-0.750,-0.750,0.000,0.000,0.000
1605106873270489088,10.0.1.134,71,pick,-0.760,-0.760,-0.760,0.000,0.000,0.000
1605106874276099072,10.0.1.134,52,pick,-0.770,-0.770,-0.770,0.000,0.000,0.000
1605106875735729920,10.0.1.134,510,move_up,-0.750,-0.750,-0.750,0.000,0.000,0.000
1605106877323128832,10.0.1.134,486,move_up,-0.730,-0.730,-0.730,0.000,0.000,0.000
1605106878927220992,10.0.1.134,439,move_up,-0.710,-0.710,-0.710,0.000,0.000,0.000
1605106880847242240,10.0.1.134,790,move_up,-0.690,-0.690,-0.690,0.000,0.000,0.000
1605106882639019008,10.0.1.134,686,move_up,-0.670,-0.670,-0.670,0.000,0.000,0.000
1605106884429747200,10.0.1.134,716,move_up,-0.650,-0.650,-0.650,0.000,0.000,0.000
1605106886249355008,10.0.1.134,688,move_up,-0.630,-0.630,-0.630,0.000,0.000,0.000
1605106888027872000,10.0.1.134,675,move_up,-0.610,-0.610,-0.610,0.000,0.000,0.000
1605106889770016000,10.0.1.134,684,move_up,-0.590,-0.590,-0.590,0.000,0.000,0.000
1605106891352364032,10.0.1.134,558,move_up,-0.570,-0.570,-0.570,0.000,0.000,0.000
1605106893289756160,10.0.1.134,835,move_up,-0.550,-0.550,-0.550,0.000,0.000,0.000
1605106895032141056,10.0.1.134,665,move_up,-0.530,-0.530,-0.530,0.000,0.000,0.000
1605106896744350976,10.0.1.134,685,move_up,-0.510,-0.510,-0.510,0.000,0.000,0.000
1605106898636358912,10.0.1.134,856,move_up,-0.490,-0.490,-0.490,0.000,0.000,0.000
1605106900260345856,10.0.1.134,570,move_up,-0.470,-0.470,-0.470,0.000,0.000,0.000
1605106901964078848,10.0.1.134,631,move_up,-0.450,-0.450,-0.450,0.000,0.000,0.000
1605106903530211072,10.0.1.134,485,move_up,-0.430,-0.430,-0.430,0.000,0.000,0.000
1605106905299981056,10.0.1.134,675,move_up,-0.410,-0.410,-0.410,0.000,0.000,0.000
1605106907065264896,10.0.1.134,606,move_up,-0.390,-0.390,-0.390,0.000,0.000,0.000
1605106908694466048,10.0.1.134,493,move_up,-0.370,-0.370,-0.370,0.000,0.000,0.000
1605106910290673920,10.0.1.134,543,move_up,-0.350,-0.350,-0.350,0.000,0.000,0.000
1605106912230312960,10.0.1.134,748,move_up,-0.330,-0.330,-0.330,0.000,0.000,0.000
1605106913806183936,10.0.1.134,536,move_up,-0.310,-0.310,-0.310,0.000,0.000,0.000
1605106915469687040,10.0.1.134,500,move_up,-0.290,-0.290,-0.290,0.000,0.000,0.000
1605106917054006016,10.0.1.134,530,move_up,-0.270,-0.270,-0.270,0.000,0.000,0.000
1605106918841989888,10.0.1.134,668,move_up,-0.250,-0.250,-0.250,0.000,0.000,0.000
1605106920453479936,10.0.1.134,478,move_up,-0.230,-0.230,-0.230,0.000,0.000,0.000
1605106922194772992,10.0.1.134,665,move_up,-0.210,-0.210,-0.210,0.000,0.000,0.000
1605106923986617088,10.0.1.134,694,move_up,-0.190,-0.190,-0.190,0.000,0.000,0.000
1605106925101274880,10.0.1.134,57,place,-0.180,-0.180,-0.180,0.000,0.000,0.000
1605106926080261120,10.0.1.134,36,place,-0.170,-0.170,-0.170,0.000,0.000,0.000
1605106927086756864,10.0.1.134,40,place,-0.160,-0.160,-0.160,0.000,0.000,0.000
1605106928096535808,10.0.1.134,45,place,-0.150,-0.150,-0.150,0.000,0.000,0.000
1605106929108724992,10.0.1.134,56,place,-0.140,-0.140,-0.140,0.000,0.000,0.000
1605106930103337984,10.0.1.134,48,place,-0.130,-0.130,-0.130,0.000,0.000,0.000
1605106931101513984,10.0.1.134,45,place,-0.120,-0.120,-0.120,0.000,0.000,0.000
1605106932139240960,10.0.1.134,81,place,-0.110,-0.110,-0.110,0.000,0.000,0.000
1605106933101421056,10.0.1.134,42,place,-0.100,-0.100,-0.100,0.000,0.000,0.000
1605106934099783936,10.0.1.134,40,place,-0.090,-0.090,-0.090,0.000,0.000,0.000
1605106935125984000,10.0.1.134,65,place,-0.080,-0.080,-0.080,0.000,0.000,0.000
1605106936100256000,10.0.1.134,38,place,-0.070,-0.070,-0.070,0.000,0.000,0.000
1605106937102558976,10.0.1.134,39,place,-0.060,-0.060,-0.060,0.000,0.000,0.000
1605106938138370048,10.0.1.134,73,place,-0.050,-0.050,-0.050,0.000,0.000,0.000
1605106939162425088,10.0.1.134,88,place,-0.040,-0.040,-0.040,0.000,0.000,0.000
1605106940129337088,10.0.1.134,54,place,-0.030,-0.030,-0.030,0.000,0.000,0.000
1605106941124057088,10.0.1.134,47,place,-0.020,-0.020,-0.020,0.000,0.000,0.000
1605106942131717888,10.0.1.134,53,place,-0.010,-0.010,-0.010,0.000,0.000,0.000
1605106943121959936,10.0.1.134,43,place,0.000,0.000,0.000,0.000,0.000,0.000
1605106944661426944,10.0.1.134,577,move_down,-0.020,-0.020,-0.020,0.000,0.000,0.000
1605106946426688000,10.0.1.134,733,move_down,-0.040,-0.040,-0.040,0.000,0.000,0.000
1605106947914589952,10.0.1.134,430,move_down,-0.060,-0.060,-0.060,0.000,0.000,0.000
1605106949599750144,10.0.1.134,548,move_down,-0.080,-0.080,-0.080,0.000,0.000,0.000
1605106951201585152,10.0.1.134,567,move_down,-0.100,-0.100,-0.100,0.000,0.000,0.000
1605106952876147968,10.0.1.134,557,move_down,-0.120,-0.120,-0.120,0.000,0.000,0.000
1605106954680686080,10.0.1.134,525,move_down,-0.140,-0.140,-0.140,0.000,0.000,0.000
1605106956401076992,10.0.1.134,641,move_down,-0.160,-0.160,-0.160,0.000,0.000,0.000
1605106957937092096,10.0.1.134,513,move_down,-0.180,-0.180,-0.180,0.000,0.000,0.000
1605106959617697024,10.0.1.134,569,move_down,-0.200,-0.200,-0.200,0.000,0.000,0.000
1605106961283628032,10.0.1.134,617,move_down,-0.220,-0.220,-0.220,0.000,0.000,0.000
1605106963147001088,10.0.1.134,716,move_down,-0.240,-0.240,-0.240,0.000,0.000,0.000
1605106964734627840,10.0.1.134,550,move_down,-0.260,-0.260,-0.260,0.000,0.000,0.000
1605106966326006016,10.0.1.134,507,move_down,-0.280,-0.280,-0.280,0.000,0.000,0.000
1605106967930073856,10.0.1.134,528,move_down,-0.300,-0.300,-0.300,0.000,0.000,0.000
1605106969715877120,10.0.1.134,686,move_down,-0.320,-0.320,-0.320,0.000,0.000,0.000
1605106971529473024,10.0.1.134,683,move_down,-0.340,-0.340,-0.340,0.000,0.000,0.000
1605106973445317888,10.0.1.134,764,move_down,-0.360,-0.360,-0.360,0.000,0.000,0.000
1605106975534605056,10.0.1.134,863,move_down,-0.380,-0.380,-0.380,0.000,0.000,0.000
1605106977299442944,10.0.1.134,632,move_down,-0.400,-0.400,-0.400,0.000,0.000,0.000
1605106979166810112,10.0.1.134,727,move_down,-0.420,-0.420,-0.420,0.000,0.000,0.000
1605106980732631040,10.0.1.134,470,move_down,-0.440,-0.440,-0.440,0.000,0.000,0.000
1605106982292208896,10.0.1.134,481,move_down,-0.460,-0.460,-0.460,0.000,0.000,0.000
1605106984130032128,10.0.1.134,721,move_down,-0.480,-0.480,-0.480,0.000,0.000,0.000
1605106985900679168,10.0.1.134,683,move_down,-0.500,-0.500,-0.500,0.000,0.000,0.000
1605106987725094912,10.0.1.134,631,move_down,-0.520,-0.520,-0.520,0.000,0.000,0.000
1605106989529184000,10.0.1.134,670,move_down,-0.540,-0.540,-0.540,0.000,0.000,0.000
1605106991228485120,10.0.1.134,641,move_down,-0.560,-0.560,-0.560,0.000,0.000,0.000
1605106992853202944,10.0.1.134,546,move_down,-0.580,-0.580,-0.580,0.000,0.000,0.000
1605106995059026944,10.0.1.134,46,pick,-0.600,-0.600,-0.600,0.000,0.000,0.000
1605106996066812160,10.0.1.134,53,pick,-0.610,-0.610,-0.610,0.000,0.000,0.000
1605106997064229888,10.0.1.134,46,pick,-0.620,-0.620,-0.620,0.000,0.000,0.000
1605106998086028032,10.0.1.134,65,pick,-0.630,-0.630,-0.630,0.000,0.000,0.000
1605106999092719104,10.0.1.134,70,pick,-0.640,-0.640,-0.640,0.000,0.000,0.000
1605107000079169024,10.0.1.134,55,pick,-0.650,-0.650,-0.650,0.000,0.000,0.000
1605107001077923072,10.0.1.134,48,pick,-0.660,-0.660,-0.660,0.000,0.000,0.000
1605107002078433024,10.0.1.134,47,pick,-0.670,-0.670,-0.670,0.000,0.000,0.000
1605107003080544000,10.0.1.134,46,pick,-0.680,-0.680,-0.680,0.000,0.000,0.000
1605107004082906880,10.0.1.134,47,pick,-0.690,-0.690,-0.690,0.000,0.000,0.000
1605107005076560128,10.0.1.134,39,pick,-0.700,-0.700,-0.700,0.000,0.000,0.000
1605107006084676864,10.0.1.134,46,pick,-0.710,-0.710,-0.710,0.000,0.000,0.000
1605107007079992064,10.0.1.134,39,pick,-0.720,-0.720,-0.720,0.000,0.000,0.000
1605107008092328960,10.0.1.134,50,pick,-0.730,-0.730,-0.730,0.000,0.000,0.000
1605107009082142208,10.0.1.134,38,pick,-0.740,-0.740,-0.740,0.000,0.000,0.000
1605107010112718080,10.0.1.134,69,pick,-0.750,-0.750,-0.750,0.000,0.000,0.000
1605107011096224000,10.0.1.134,50,pick,-0.760,-0.760,-0.760,0.000,0.000,0.000
1605107012096256000,10.0.1.134,48,pick,-0.770,-0.770,-0.770,0.000,0.000,0.000
1605107013742720000,10.0.1.134,693,move_up,-0.750,-0.750,-0.750,0.000,0.000,0.000
1605107015364856832,10.0.1.134,543,move_up,-0.730,-0.730,-0.730,0.000,0.000,0.000
1605107016955559936,10.0.1.134,497,move_up,-0.710,-0.710,-0.710,0.000,0.000,0.000
1605107018629362176,10.0.1.134,547,move_up,-0.690,-0.690,-0.690,0.000,0.000,0.000
1605107020234580992,10.0.1.134,484,move_up,-0.670,-0.670,-0.670,0.000,0.000,0.000
1605107021955101952,10.0.1.134,617,move_up,-0.650,-0.650,-0.650,0.000,0.000,0.000
1605107023783094784,10.0.1.134,586,move_up,-0.630,-0.630,-0.630,0.000,0.000,0.000
1605107025375013120,10.0.1.134,484,move_up,-0.610,-0.610,-0.610,0.000,0.000,0.000
1605107027002183936,10.0.1.134,547,move_up,-0.590,-0.590,-0.590,0.000,0.000,0.000
1605107028647380224,10.0.1.134,543,move_up,-0.570,-0.570,-0.570,0.000,0.000,0.000
1605107030270801920,10.0.1.134,527,move_up,-0.550,-0.550,-0.550,0.000,0.000,0.000
1605107031889168128,10.0.1.134,553,move_up,-0.530,-0.530,-0.530,0.000,0.000,0.000
1605107033488128000,10.0.1.134,494,move_up,-0.510,-0.510,-0.510,0.000,0.000,0.000
1605107035052690944,10.0.1.134,556,move_up,-0.490,-0.490,-0.490,0.000,0.000,0.000
1605107036763414016,10.0.1.134,616,move_up,-0.470,-0.470,-0.470,0.000,0.000,0.000
1605107038640846848,10.0.1.134,849,move_up,-0.450,-0.450,-0.450,0.000,0.000,0.000
1605107040228849920,10.0.1.134,526,move_up,-0.430,-0.430,-0.430,0.000,0.000,0.000
1605107042023472128,10.0.1.134,639,move_up,-0.410,-0.410,-0.410,0.000,0.000,0.000
1605107043703659008,10.0.1.134,531,move_up,-0.390,-0.390,-0.390,0.000,0.000,0.000
1605107045439163904,10.0.1.134,649,move_up,-0.370,-0.370,-0.370,0.000,0.000,0.000
1605107047163932928,10.0.1.134,501,move_up,-0.350,-0.350,-0.350,0.000,0.000,0.000
1605107049099921920,10.0.1.134,756,move_up,-0.330,-0.330,-0.330,0.000,0.000,0.000
1605107051001931008,10.0.1.134,767,move_up,-0.310,-0.310,-0.310,0.000,0.000,0.000
1605107052620928000,10.0.1.134,552,move_up,-0.290,-0.290,-0.290,0.000,0.000,0.000
1605107054220307200,10.0.1.134,556,move_up,-0.270,-0.270,-0.270,0.000,0.000,0.000
1605107055979729920,10.0.1.134,584,move_up,-0.250,-0.250,-0.250,0.000,0.000,0.000
1605107057592039936,10.0.1.134,519,move_up,-0.230,-0.230,-0.230,0.000,0.000,0.000
1605107059349622016,10.0.1.134,621,move_up,-0.210,-0.210,-0.210,0.000,0.000,0.000
1605107061269917952,10.0.1.134,589,move_up,-0.190,-0.190,-0.190,0.000,0.000,0.000
1605107062433811968,10.0.1.134,50,place,-0.180,-0.180,-0.180,0.000,0.000,0.000
1605107063441512192,10.0.1.134,46,place,-0.170,-0.170,-0.170,0.000,0.000,0.000
1605107064445586944,10.0.1.134,47,place,-0.160,-0.160,-0.160,0.000,0.000,0.000
1605107065467390976,10.0.1.134,50,place,-0.150,-0.150,-0.150,0.000,0.000,0.000
1605107066449274112,10.0.1.134,31,place,-0.140,-0.140,-0.140,0.000,0.000,0.000
1605107067482333952,10.0.1.134,62,place,-0.130,-0.130,-0.130,0.000,0.000,0.000
1605107068483460864,10.0.1.134,49,place,-0.120,-0.120,-0.120,0.000,0.000,0.000
1605107069476315904,10.0.1.134,41,place,-0.110,-0.110,-0.110,0.000,0.000,0.000
1605107070500072960,10.0.1.134,59,place,-0.100,-0.100,-0.100,0.000,0.000,0.000
1605107072491659008,10.0.1.134,46,place,-0.080,-0.080,-0.080,0.000,0.000,0.000
1605107073490503936,10.0.1.134,44,place,-0.070,-0.070,-0.070,0.000,0.000,0.000
1605107074506206976,10.0.1.134,57,place,-0.060,-0.060,-0.060,0.000,0.000,0.000
1605107075489185024,10.0.1.134,39,place,-0.050,-0.050,-0.050,0.000,0.000,0.000
1605107076499428096,10.0.1.134,45,place,-0.040,-0.040,-0.040,0.000,0.000,0.000
1605107077495184896,10.0.1.134,39,place,-0.030,-0.030,-0.030,0.000,0.000,0.000
1605107078530467072,10.0.1.134,72,place,-0.020,-0.020,-0.020,0.000,0.000,0.000
1605107080571741952,10.0.1.134,108,place,0.000,0.000,0.000,0.000,0.000,0.000
1605107082088293120,10.0.1.134,613,move_down,-0.020,-0.020,-0.020,0.000,0.000,0.000
1605107083922894080,10.0.1.134,552,move_down,-0.040,-0.040,-0.040,0.000,0.000,0.000
1605107085622251008,10.0.1.134,606,move_down,-0.060,-0.060,-0.060,0.000,0.000,0.000
1605107087295700992,10.0.1.134,591,move_down,-0.080,-0.080,-0.080,0.000,0.000,0.000
1605107089199942144,10.0.1.134,749,move_down,-0.100,-0.100,-0.100,0.000,0.000,0.000
1605107091131602176,10.0.1.134,549,move_down,-0.120,-0.120,-0.120,0.000,0.000,0.000
1605107092950306816,10.0.1.134,716,move_down,-0.140,-0.140,-0.140,0.000,0.000,0.000
1605107094679158016,10.0.1.134,509,move_down,-0.160,-0.160,-0.160,0.000,0.000,0.000
1605107096392365056,10.0.1.134,668,move_down,-0.180,-0.180,-0.180,0.000,0.000,0.000
1605107098103454976,10.0.1.134,603,move_down,-0.200,-0.200,-0.200,0.000,0.000,0.000
1605107099681408000,10.0.1.134,491,move_down,-0.220,-0.220,-0.220,0.000,0.000,0.000
1605107101354103040,10.0.1.134,606,move_down,-0.240,-0.240,-0.240,0.000,0.000,0.000
1605107103037874944,10.0.1.134,603,move_down,-0.260,-0.260,-0.260,0.000,0.000,0.000
1605107104788169984,10.0.1.134,650,move_down,-0.280,-0.280,-0.280,0.000,0.000,0.000
1605107106519234816,10.0.1.134,645,move_down,-0.300,-0.300,-0.300,0.000,0.000,0.000
1605107108398520832,10.0.1.134,650,move_down,-0.320,-0.320,-0.320,0.000,0.000,0.000
1605107110206731008,10.0.1.134,659,move_down,-0.340,-0.340,-0.340,0.000,0.000,0.000
1605107111993989888,10.0.1.134,691,move_down,-0.360,-0.360,-0.360,0.000,0.000,0.000
1605107113770586880,10.0.1.134,603,move_down,-0.380,-0.380,-0.380,0.000,0.000,0.000
1605107115776026112,10.0.1.134,854,move_down,-0.400,-0.400,-0.400,0.000,0.000,0.000
1605107117401926144,10.0.1.134,574,move_down,-0.420,-0.420,-0.420,0.000,0.000,0.000
1605107119022319104,10.0.1.134,616,move_down,-0.440,-0.440,-0.440,0.000,0.000,0.000
1605107120878032896,10.0.1.134,710,move_down,-0.460,-0.460,-0.460,0.000,0.000,0.000
1605107122687886080,10.0.1.134,675,move_down,-0.480,-0.480,-0.480,0.000,0.000,0.000
1605107124408936960,10.0.1.134,634,move_down,-0.500,-0.500,-0.500,0.000,0.000,0.000
1605107126151386112,10.0.1.134,661,move_down,-0.520,-0.520,-0.520,0.000,0.000,0.000
1605107127998226944,10.0.1.134,762,move_down,-0.540,-0.540,-0.540,0.000,0.000,0.000
1605107129824733952,10.0.1.134,756,move_down,-0.560,-0.560,-0.560,0.000,0.000,0.000
1605107131458924032,10.0.1.134,588,move_down,-0.580,-0.580,-0.580,0.000,0.000,0.000
1605107132613764096,10.0.1.134,37,pick,-0.590,-0.590,-0.590,0.000,0.000,0.000
1605107133645582848,10.0.1.134,69,pick,-0.600,-0.600,-0.600,0.000,0.000,0.000
1605107137639863040,10.0.1.134,47,pick,-0.640,-0.640,-0.640,0.000,0.000,0.000
1605107139672673024,10.0.1.134,71,pick,-0.660,-0.660,-0.660,0.000,0.000,0.000
1605107140629949952,10.0.1.134,27,pick,-0.670,-0.670,-0.670,0.000,0.000,0.000
1605107141637125888,10.0.1.134,33,pick,-0.680,-0.680,-0.680,0.000,0.000,0.000
1605107142690715136,10.0.1.134,84,pick,-0.690,-0.690,-0.690,0.000,0.000,0.000
1605107144670437120,10.0.1.134,50,pick,-0.710,-0.710,-0.710,0.000,0.000,0.000
1605107145725605120,10.0.1.134,104,pick,-0.720,-0.720,-0.720,0.000,0.000,0.000
1605107148671405056,10.0.1.134,46,pick,-0.750,-0.750,-0.750,0.000,0.000,0.000
1605107150735325952,10.0.1.134,93,pick,-0.770,-0.770,-0.770,0.000,0.000,0.000
1605107152494568192,10.0.1.134,849,move_up,-0.750,-0.750,-0.750,0.000,0.000,0.000
1605107154265197056,10.0.1.134,658,move_up,-0.730,-0.730,-0.730,0.000,0.000,0.000
1605107155974097920,10.0.1.134,623,move_up,-0.710,-0.710,-0.710,0.000,0.000,0.000
1605107157807596032,10.0.1.134,601,move_up,-0.690,-0.690,-0.690,0.000,0.000,0.000
1605107159530985216,10.0.1.134,664,move_up,-0.670,-0.670,-0.670,0.000,0.000,0.000
1605107161415581952,10.0.1.134,736,move_up,-0.650,-0.650,-0.650,0.000,0.000,0.000
1605107163033790976,10.0.1.134,568,move_up,-0.630,-0.630,-0.630,0.000,0.000,0.000
1605107164845563904,10.0.1.134,628,move_up,-0.610,-0.610,-0.610,0.000,0.000,0.000
1605107166564536064,10.0.1.134,608,move_up,-0.590,-0.590,-0.590,0.000,0.000,0.000
1605107168175859968,10.0.1.134,524,move_up,-0.570,-0.570,-0.570,0.000,0.000,0.000
1605107169880924928,10.0.1.134,580,move_up,-0.550,-0.550,-0.550,0.000,0.000,0.000
1605107171813502976,10.0.1.134,807,move_up,-0.530,-0.530,-0.530,0.000,0.000,0.000
1605107173735976960,10.0.1.134,861,move_up,-0.510,-0.510,-0.510,0.000,0.000,0.000
1605107175401755136,10.0.1.134,606,move_up,-0.490,-0.490,-0.490,0.000,0.000,0.000
1605107176997492992,10.0.1.134,461,move_up,-0.470,-0.470,-0.470,0.000,0.000,0.000
1605107178721324032,10.0.1.134,668,move_up,-0.450,-0.450,-0.450,0.000,0.000,0.000
1605107180552843008,10.0.1.134,723,move_up,-0.430,-0.430,-0.430,0.000,0.000,0.000
1605107182345089792,10.0.1.134,658,move_up,-0.410,-0.410,-0.410,0.000,0.000,0.000
1605107183995710976,10.0.1.134,598,move_up,-0.390,-0.390,-0.390,0.000,0.000,0.000
1605107185633358080,10.0.1.134,569,move_up,-0.370,-0.370,-0.370,0.000,0.000,0.000
1605107187422743040,10.0.1.134,664,move_up,-0.350,-0.350,-0.350,0.000,0.000,0.000
1605107189248798976,10.0.1.134,758,move_up,-0.330,-0.330,-0.330,0.000,0.000,0.000
1605107190883590912,10.0.1.134,558,move_up,-0.310,-0.310,-0.310,0.000,0.000,0.000
1605107192619456000,10.0.1.134,676,move_up,-0.290,-0.290,-0.290,0.000,0.000,0.000
1605107194260487936,10.0.1.134,588,move_up,-0.270,-0.270,-0.270,0.000,0.000,0.000
1605107196271025920,10.0.1.134,911,move_up,-0.250,-0.250,-0.250,0.000,0.000,0.000
1605107198098520064,10.0.1.134,732,move_up,-0.230,-0.230,-0.230,0.000,0.000,0.000
1605107199840179968,10.0.1.134,672,move_up,-0.210,-0.210,-0.210,0.000,0.000,0.000
1605107201684793856,10.0.1.134,745,move_up,-0.190,-0.190,-0.190,0.000,0.000,0.000
1605107202838188800,10.0.1.134,53,place,-0.180,-0.180,-0.180,0.000,0.000,0.000
1605107203838498048,10.0.1.134,45,place,-0.170,-0.170,-0.170,0.000,0.000,0.000
1605107204852129024,10.0.1.134,57,place,-0.160,-0.160,-0.160,0.000,0.000,0.000
1605107205838504960,10.0.1.134,40,place,-0.150,-0.150,-0.150,0.000,0.000,0.000
1605107206850188032,10.0.1.134,51,place,-0.140,-0.140,-0.140,0.000,0.000,0.000
1605107207844371968,10.0.1.134,43,place,-0.130,-0.130,-0.130,0.000,0.000,0.000
1605107208838445056,10.0.1.134,35,place,-0.120,-0.120,-0.120,0.000,0.000,0.000
1605107209840524032,10.0.1.134,36,place,-0.110,-0.110,-0.110,0.000,0.000,0.000
1605107210860879872,10.0.1.134,48,place,-0.100,-0.100,-0.100,0.000,0.000,0.000
1605107211858427904,10.0.1.134,43,place,-0.090,-0.090,-0.090,0.000,0.000,0.000
1605107212857204992,10.0.1.134,40,place,-0.080,-0.080,-0.080,0.000,0.000,0.000
1605107213858555136,10.0.1.134,38,place,-0.070,-0.070,-0.070,0.000,0.000,0.000
1605107214873893888,10.0.1.134,52,place,-0.060,-0.060,-0.060,0.000,0.000,0.000
1605107215886710784,10.0.1.134,59,place,-0.050,-0.050,-0.050,0.000,0.000,0.000
1605107216882697984,10.0.1.134,52,place,-0.040,-0.040,-0.040,0.000,0.000,0.000
1605107217884162816,10.0.1.134,53,place,-0.030,-0.030,-0.030,0.000,0.000,0.000
1605107218875153152,10.0.1.134,42,place,-0.020,-0.020,-0.020,0.000,0.000,0.000
1605107219884332032,10.0.1.134,43,place,-0.010,-0.010,-0.010,0.000,0.000,0.000
1605107220894287104,10.0.1.134,50,place,0.000,0.000,0.000,0.000,0.000,0.000
1605107222543610112,10.0.1.134,688,move_down,-0.020,-0.020,-0.020,0.000,0.000,0.000
1605107224326308864,10.0.1.134,685,move_down,-0.040,-0.040,-0.040,0.000,0.000,0.000
1605107225883895040,10.0.1.134,518,move_down,-0.060,-0.060,-0.060,0.000,0.000,0.000
1605107227559784960,10.0.1.134,566,move_down,-0.080,-0.080,-0.080,0.000,0.000,0.000
1605107229205591808,10.0.1.134,598,move_down,-0.100,-0.100,-0.100,0.000,0.000,0.000
1605107230895281920,10.0.1.134,594,move_down,-0.120,-0.120,-0.120,0.000,0.000,0.000
1605107232610614016,10.0.1.134,591,move_down,-0.140,-0.140,-0.140,0.000,0.000,0.000
1605107234260147200,10.0.1.134,595,move_down,-0.160,-0.160,-0.160,0.000,0.000,0.000
1605107235948480000,10.0.1.134,597,move_down,-0.180,-0.180,-0.180,0.000,0.000,0.000
1605107237643784960,10.0.1.134,601,move_down,-0.200,-0.200,-0.200,0.000,0.000,0.000
1605107239382051072,10.0.1.134,629,move_down,-0.220,-0.220,-0.220,0.000,0.000,0.000
1605107241046245120,10.0.1.134,530,move_down,-0.240,-0.240,-0.240,0.000,0.000,0.000
1605107242667642112,10.0.1.134,550,move_down,-0.260,-0.260,-0.260,0.000,0.000,0.000
1605107244480133888,10.0.1.134,727,move_down,-0.280,-0.280,-0.280,0.000,0.000,0.000
1605107246234292992,10.0.1.134,684,move_down,-0.300,-0.300,-0.300,0.000,0.000,0.000
1605107247846632960,10.0.1.134,582,move_down,-0.320,-0.320,-0.320,0.000,0.000,0.000
1605107249458467072,10.0.1.134,596,move_down,-0.340,-0.340,-0.340,0.000,0.000,0.000
1605107251385890048,10.0.1.134,765,move_down,-0.360,-0.360,-0.360,0.000,0.000,0.000
1605107253306734080,10.0.1.134,862,move_down,-0.380,-0.380,-0.380,0.000,0.000,0.000
1605107255028815104,10.0.1.134,688,move_down,-0.400,-0.400,-0.400,0.000,0.000,0.000
1605107256724875008,10.0.1.134,677,move_down,-0.420,-0.420,-0.420,0.000,0.000,0.000
1605107258406409984,10.0.1.134,610,move_down,-0.440,-0.440,-0.440,0.000,0.000,0.000
1605107260620734976,10.0.1.134,1030,move_down,-0.460,-0.460,-0.460,0.000,0.000,0.000
1605107262508177920,10.0.1.134,845,move_down,-0.480,-0.480,-0.480,0.000,0.000,0.000
1605107264164169984,10.0.1.134,576,move_down,-0.500,-0.500,-0.500,0.000,0.000,0.000
1605107265796992000,10.0.1.134,564,move_down,-0.520,-0.520,-0.520,0.000,0.000,0.000
1605107267576466944,10.0.1.134,699,move_down,-0.540,-0.540,-0.540,0.000,0.000,0.000
1605107269255418112,10.0.1.134,567,move_down,-0.560,-0.560,-0.560,0.000,0.000,0.000
1605107271204061952,10.0.1.134,882,move_down,-0.580,-0.580,-0.580,0.000,0.000,0.000
1605107272255919872,10.0.1.134,50,pick,-0.590,-0.590,-0.590,0.000,0.000,0.000
1605107273289115904,10.0.1.134,52,pick,-0.600,-0.600,-0.600,0.000,0.000,0.000
1605107274294397952,10.0.1.134,56,pick,-0.610,-0.610,-0.610,0.000,0.000,0.000
1605107275293071872,10.0.1.134,52,pick,-0.620,-0.620,-0.620,0.000,0.000,0.000
1605107276313070080,10.0.1.134,70,pick,-0.630,-0.630,-0.630,0.000,0.000,0.000
1605107277292047104,10.0.1.134,48,pick,-0.640,-0.640,-0.640,0.000,0.000,0.000
1605107278291961856,10.0.1.134,47,pick,-0.650,-0.650,-0.650,0.000,0.000,0.000
1605107280291481856,10.0.1.134,36,pick,-0.670,-0.670,-0.670,0.000,0.000,0.000
1605107281338743808,10.0.1.134,81,pick,-0.680,-0.680,-0.680,0.000,0.000,0.000
1605107282305996800,10.0.1.134,47,pick,-0.690,-0.690,-0.690,0.000,0.000,0.000
1605107283310724864,10.0.1.134,47,pick,-0.700,-0.700,-0.700,0.000,0.000,0.000
1605107284331998976,10.0.1.134,67,pick,-0.710,-0.710,-0.710,0.000,0.000,0.000
1605107285313955072,10.0.1.134,46,pick,-0.720,-0.720,-0.720,0.000,0.000,0.000
1605107286316580096,10.0.1.134,48,pick,-0.730,-0.730,-0.730,0.000,0.000,0.000
1605107287306543104,10.0.1.134,36,pick,-0.740,-0.740,-0.740,0.000,0.000,0.000
1605107288358433024,10.0.1.134,86,pick,-0.750,-0.750,-0.750,0.000,0.000,0.000
1605107289326287104,10.0.1.134,52,pick,-0.760,-0.760,-0.760,0.000,0.000,0.000
1605107290325897984,10.0.1.134,51,pick,-0.770,-0.770,-0.770,0.000,0.000,0.000
1605107291926920960,10.0.1.134,649,move_up,-0.750,-0.750,-0.750,0.000,0.000,0.000
1605107293610788096,10.0.1.134,552,move_up,-0.730,-0.730,-0.730,0.000,0.000,0.000
1605107295438657024,10.0.1.134,776,move_up,-0.710,-0.710,-0.710,0.000,0.000,0.000
1605107297308852992,10.0.1.134,691,move_up,-0.690,-0.690,-0.690,0.000,0.000,0.000
1605107298957058048,10.0.1.134,541,move_up,-0.670,-0.670,-0.670,0.000,0.000,0.000
1605107300975403008,10.0.1.134,896,move_up,-0.650,-0.650,-0.650,0.000,0.000,0.000
1605107302857934848,10.0.1.134,802,move_up,-0.630,-0.630,-0.630,0.000,0.000,0.000
1605107304660825856,10.0.1.134,727,move_up,-0.610,-0.610,-0.610,0.000,0.000,0.000
1605107306414598912,10.0.1.134,612,move_up,-0.590,-0.590,-0.590,0.000,0.000,0.000
1605107308062057984,10.0.1.134,526,move_up,-0.570,-0.570,-0.570,0.000,0.000,0.000
1605107309809367808,10.0.1.134,560,move_up,-0.550,-0.550,-0.550,0.000,0.000,0.000
1605107311601478144,10.0.1.134,736,move_up,-0.530,-0.530,-0.530,0.000,0.000,0.000
1605107313293406976,10.0.1.134,555,move_up,-0.510,-0.510,-0.510,0.000,0.000,0.000
1605107315075419904,10.0.1.134,711,move_up,-0.490,-0.490,-0.490,0.000,0.000,0.000
1605107316696280064,10.0.1.134,510,move_up,-0.470,-0.470,-0.470,0.000,0.000,0.000
1605107318285319936,10.0.1.134,587,move_up,-0.450,-0.450,-0.450,0.000,0.000,0.000
1605107320207721984,10.0.1.134,732,move_up,-0.430,-0.430,-0.430,0.000,0.000,0.000
1605107322020289024,10.0.1.134,723,move_up,-0.410,-0.410,-0.410,0.000,0.000,0.000
1605107323846039040,10.0.1.134,763,move_up,-0.390,-0.390,-0.390,0.000,0.000,0.000
1605107325490838016,10.0.1.134,621,move_up,-0.370,-0.370,-0.370,0.000,0.000,0.000
1605107327361767168,10.0.1.134,720,move_up,-0.350,-0.350,-0.350,0.000,0.000,0.000
1605107328996488960,10.0.1.134,590,move_up,-0.330,-0.330,-0.330,0.000,0.000,0.000
1605107330728278016,10.0.1.134,680,move_up,-0.310,-0.310,-0.310,0.000,0.000,0.000
1605107332447751168,10.0.1.134,626,move_up,-0.290,-0.290,-0.290,0.000,0.000,0.000
1605107334109070080,10.0.1.134,507,move_up,-0.270,-0.270,-0.270,0.000,0.000,0.000
1605107336079749120,10.0.1.134,795,move_up,-0.250,-0.250,-0.250,0.000,0.000,0.000
1605107337881214976,10.0.1.134,642,move_up,-0.230,-0.230,-0.230,0.000,0.000,0.000
1605107339758696960,10.0.1.134,788,move_up,-0.210,-0.210,-0.210,0.000,0.000,0.000
1605107341567456000,10.0.1.134,708,move_up,-0.190,-0.190,-0.190,0.000,0.000,0.000
1605107342665921024,10.0.1.134,45,place,-0.180,-0.180,-0.180,0.000,0.000,0.000
1605107343683835904,10.0.1.134,61,place,-0.170,-0.170,-0.170,0.000,0.000,0.000
1605107344673679104,10.0.1.134,49,place,-0.160,-0.160,-0.160,0.000,0.000,0.000
1605107345669320960,10.0.1.134,41,place,-0.150,-0.150,-0.150,0.000,0.000,0.000
1605107346664429824,10.0.1.134,35,place,-0.140,-0.140,-0.140,0.000,0.000,0.000
1605107348674937088,10.0.1.134,35,place,-0.120,-0.120,-0.120,0.000,0.000,0.000
1605107349691137024,10.0.1.134,50,place,-0.110,-0.110,-0.110,0.000,0.000,0.000
1605107350677714176,10.0.1.134,36,place,-0.100,-0.100,-0.100,0.000,0.000,0.000
1605107351678423808,10.0.1.134,35,place,-0.090,-0.090,-0.090,0.000,0.000,0.000
1605107352683656960,10.0.1.134,39,place,-0.080,-0.080,-0.080,0.000,0.000,0.000
1605107353714211072,10.0.1.134,68,place,-0.070,-0.070,-0.070,0.000,0.000,0.000
1605107354699759104,10.0.1.134,52,place,-0.060,-0.060,-0.060,0.000,0.000,0.000
1605107356689317888,10.0.1.134,37,place,-0.040,-0.040,-0.040,0.000,0.000,0.000
1605107357694403840,10.0.1.134,41,place,-0.030,-0.030,-0.030,0.000,0.000,0.000
1605107358691923968,10.0.1.134,36,place,-0.020,-0.020,-0.020,0.000,0.000,0.000
1605107359694910976,10.0.1.134,37,place,-0.010,-0.010,-0.010,0.000,0.000,0.000
1605107360724070144,10.0.1.134,65,place,0.000,0.000,0.000,0.000,0.000,0.000
1605107362148012032,10.0.1.134,487,move_down,-0.020,-0.020,-0.020,0.000,0.000,0.000
1605107363922364928,10.0.1.134,633,move_down,-0.040,-0.040,-0.040,0.000,0.000,0.000
1605107365746861824,10.0.1.134,625,move_down,-0.060,-0.060,-0.060,0.000,0.000,0.000
1605107367577209088,10.0.1.134,699,move_down,-0.080,-0.080,-0.080,0.000,0.000,0.000
1605107369483935232,10.0.1.134,721,move_down,-0.100,-0.100,-0.100,0.000,0.000,0.000
1605107371245992960,10.0.1.134,636,move_down,-0.120,-0.120,-0.120,0.000,0.000,0.000
1605107373084201984,10.0.1.134,688,move_down,-0.140,-0.140,-0.140,0.000,0.000,0.000
1605107374745712896,10.0.1.134,607,move_down,-0.160,-0.160,-0.160,0.000,0.000,0.000
1605107376629686016,10.0.1.134,724,move_down,-0.180,-0.180,-0.180,0.000,0.000,0.000
1605107378453134080,10.0.1.134,694,move_down,-0.200,-0.200,-0.200,0.000,0.000,0.000
1605107380205445120,10.0.1.134,713,move_down,-0.220,-0.220,-0.220,0.000,0.000,0.000
1605107381823005952,10.0.1.134,553,move_down,-0.240,-0.240,-0.240,0.000,0.000,0.000
1605107383703639040,10.0.1.134,847,move_down,-0.260,-0.260,-0.260,0.000,0.000,0.000
1605107385317729024,10.0.1.134,530,move_down,-0.280,-0.280,-0.280,0.000,0.000,0.000
1605107387187789824,10.0.1.134,709,move_down,-0.300,-0.300,-0.300,0.000,0.000,0.000
1605107388895490816,10.0.1.134,592,move_down,-0.320,-0.320,-0.320,0.000,0.000,0.000
1605107390669445888,10.0.1.134,653,move_down,-0.340,-0.340,-0.340,0.000,0.000,0.000
1605107392394711040,10.0.1.134,687,move_down,-0.360,-0.360,-0.360,0.000,0.000,0.000
1605107394108457984,10.0.1.134,610,move_down,-0.380,-0.380,-0.380,0.000,0.000,0.000
1605107395874959872,10.0.1.134,647,move_down,-0.400,-0.400,-0.400,0.000,0.000,0.000
1605107397672143872,10.0.1.134,738,move_down,-0.420,-0.420,-0.420,0.000,0.000,0.000
1605107399605259008,10.0.1.134,756,move_down,-0.440,-0.440,-0.440,0.000,0.000,0.000
1605107401804343040,10.0.1.134,1072,move_down,-0.460,-0.460,-0.460,0.000,0.000,0.000
1605107403583774976,10.0.1.134,648,move_down,-0.480,-0.480,-0.480,0.000,0.000,0.000
1605107405780899072,10.0.1.134,956,move_down,-0.500,-0.500,-0.500,0.000,0.000,0.000
1605107407429344000,10.0.1.134,649,move_down,-0.520,-0.520,-0.520,0.000,0.000,0.000
1605107409537650944,10.0.1.134,996,move_down,-0.540,-0.540,-0.540,0.000,0.000,0.000
1605107411510639872,10.0.1.134,917,move_down,-0.560,-0.560,-0.560,0.000,0.000,0.000
1605107413492916992,10.0.1.134,828,move_down,-0.580,-0.580,-0.580,0.000,0.000,0.000
1605107415810656000,10.0.1.134,60,pick,-0.600,-0.600,-0.600,0.000,0.000,0.000
1605107417807549952,10.0.1.134,52,pick,-0.620,-0.620,-0.620,0.000,0.000,0.000
1605107418856306944,10.0.1.134,96,pick,-0.630,-0.630,-0.630,0.000,0.000,0.000
1605107419824150016,10.0.1.134,63,pick,-0.640,-0.640,-0.640,0.000,0.000,0.000
1605107420809124096,10.0.1.134,46,pick,-0.650,-0.650,-0.650,0.000,0.000,0.000
1605107422837965056,10.0.1.134,51,pick,-0.670,-0.670,-0.670,0.000,0.000,0.000
1605107424855484928,10.0.1.134,42,pick,-0.690,-0.690,-0.690,0.000,0.000,0.000
1605107425852478976,10.0.1.134,38,pick,-0.700,-0.700,-0.700,0.000,0.000,0.000
1605107426885489920,10.0.1.134,69,pick,-0.710,-0.710,-0.710,0.000,0.000,0.000
1605107427877376000,10.0.1.134,57,pick,-0.720,-0.720,-0.720,0.000,0.000,0.000
1605107428884398848,10.0.1.134,62,pick,-0.730,-0.730,-0.730,0.000,0.000,0.000
1605107429874211072,10.0.1.134,50,pick,-0.740,-0.740,-0.740,0.000,0.000,0.000
1605107430870493952,10.0.1.134,45,pick,-0.750,-0.750,-0.750,0.000,0.000,0.000
1605107431886779904,10.0.1.134,58,pick,-0.760,-0.760,-0.760,0.000,0.000,0.000
1605107432874957056,10.0.1.134,43,pick,-0.770,-0.770,-0.770,0.000,0.000,0.000
1605107434395405056,10.0.1.134,562,move_up,-0.750,-0.750,-0.750,0.000,0.000,0.000
1605107436222181120,10.0.1.134,579,move_up,-0.730,-0.730,-0.730,0.000,0.000,0.000
1605107438070339072,10.0.1.134,650,move_up,-0.710,-0.710,-0.710,0.000,0.000,0.000
1605107439968708096,10.0.1.134,869,move_up,-0.690,-0.690,-0.690,0.000,0.000,0.000
1605107441819725056,10.0.1.134,754,move_up,-0.670,-0.670,-0.670,0.000,0.000,0.000
1605107443418301952,10.0.1.134,536,move_up,-0.650,-0.650,-0.650,0.000,0.000,0.000
1605107445634219008,10.0.1.134,1047,move_up,-0.630,-0.630,-0.630,0.000,0.000,0.000
1605107447446435072,10.0.1.134,720,move_up,-0.610,-0.610,-0.610,0.000,0.000,0.000
1605107449207032832,10.0.1.134,700,move_up,-0.590,-0.590,-0.590,0.000,0.000,0.000
1605107451061698816,10.0.1.134,800,move_up,-0.570,-0.570,-0.570,0.000,0.000,0.000
1605107452665976064,10.0.1.134,471,move_up,-0.550,-0.550,-0.550,0.000,0.000,0.000
1605107454345715968,10.0.1.134,567,move_up,-0.530,-0.530,-0.530,0.000,0.000,0.000
1605107455951889920,10.0.1.134,576,move_up,-0.510,-0.510,-0.510,0.000,0.000,0.000
1605107457868700928,10.0.1.134,743,move_up,-0.490,-0.490,-0.490,0.000,0.000,0.000
1605107459835633152,10.0.1.134,824,move_up,-0.470,-0.470,-0.470,0.000,0.000,0.000
1605107461887307008,10.0.1.134,917,move_up,-0.450,-0.450,-0.450,0.000,0.000,0.000
1605107463998168064,10.0.1.134,857,move_up,-0.430,-0.430,-0.430,0.000,0.000,0.000
1605107466012208896,10.0.1.134,944,move_up,-0.410,-0.410,-0.410,0.000,0.000,0.000
1605107467987035136,10.0.1.134,724,move_up,-0.390,-0.390,-0.390,0.000,0.000,0.000
1605107469754106880,10.0.1.134,622,move_up,-0.370,-0.370,-0.370,0.000,0.000,0.000
1605107471439161088,10.0.1.134,583,move_up,-0.350,-0.350,-0.350,0.000,0.000,0.000
1605107473271343872,10.0.1.134,601,move_up,-0.330,-0.330,-0.330,0.000,0.000,0.000
1605107475193043968,10.0.1.134,755,move_up,-0.310,-0.310,-0.310,0.000,0.000,0.000
1605107476839512064,10.0.1.134,644,move_up,-0.290,-0.290,-0.290,0.000,0.000,0.000
1605107478697896960,10.0.1.134,797,move_up,-0.270,-0.270,-0.270,0.000,0.000,0.000
1605107480577261824,10.0.1.134,814,move_up,-0.250,-0.250,-0.250,0.000,0.000,0.000
1605107482596333056,10.0.1.134,878,move_up,-0.230,-0.230,-0.230,0.000,0.000,0.000
1605107484851784960,10.0.1.134,1162,move_up,-0.210,-0.210,-0.210,0.000,0.000,0.000
1605107486826735872,10.0.1.134,819,move_up,-0.190,-0.190,-0.190,0.000,0.000,0.000
1605107487955468032,10.0.1.134,56,place,-0.180,-0.180,-0.180,0.000,0.000,0.000
1605107488964996096,10.0.1.134,53,place,-0.170,-0.170,-0.170,0.000,0.000,0.000
1605107491000881920,10.0.1.134,55,place,-0.150,-0.150,-0.150,0.000,0.000,0.000
1605107492005040896,10.0.1.134,58,place,-0.140,-0.140,-0.140,0.000,0.000,0.000
1605107493022487040,10.0.1.134,74,place,-0.130,-0.130,-0.130,0.000,0.000,0.000
1605107494027112960,10.0.1.134,74,place,-0.120,-0.120,-0.120,0.000,0.000,0.000
1605107496023619840,10.0.1.134,56,place,-0.100,-0.100,-0.100,0.000,0.000,0.000
1605107497018682112,10.0.1.134,48,place,-0.090,-0.090,-0.090,0.000,0.000,0.000
1605107500070925824,10.0.1.134,50,place,-0.060,-0.060,-0.060,0.000,0.000,0.000
1605107501067096064,10.0.1.134,45,place,-0.050,-0.050,-0.050,0.000,0.000,0.000
1605107502073154816,10.0.1.134,49,place,-0.040,-0.040,-0.040,0.000,0.000,0.000
1605107503070024960,10.0.1.134,45,place,-0.030,-0.030,-0.030,0.000,0.000,0.000
1605107504068841984,10.0.1.134,43,place,-0.020,-0.020,-0.020,0.000,0.000,0.000
1605107506063405056,10.0.1.134,35,place,0.000,0.000,0.000,0.000,0.000,0.000
1605107508001741056,10.0.1.134,954,move_down,-0.020,-0.020,-0.020,0.000,0.000,0.000
1605107509759932928,10.0.1.134,672,move_down,-0.040,-0.040,-0.040,0.000,0.000,0.000
1605107511428289792,10.0.1.134,658,move_down,-0.060,-0.060,-0.060,0.000,0.000,0.000
1605107513350609152,10.0.1.134,883,move_down,-0.080,-0.080,-0.080,0.000,0.000,0.000
1605107515281562112,10.0.1.134,759,move_down,-0.100,-0.100,-0.100,0.000,0.000,0.000
1605107517193942016,10.0.1.134,750,move_down,-0.120,-0.120,-0.120,0.000,0.000,0.000
1605107519059745024,10.0.1.134,768,move_down,-0.140,-0.140,-0.140,0.000,0.000,0.000
1605107520900353792,10.0.1.134,697,move_down,-0.160,-0.160,-0.160,0.000,0.000,0.000
1605107522780988928,10.0.1.134,767,move_down,-0.180,-0.180,-0.180,0.000,0.000,0.000
1605107525614970880,10.0.1.134,1104,move_down,-0.220,-0.220,-0.220,0.000,0.000,0.000
1605107527501739008,10.0.1.134,824,move_down,-0.240,-0.240,-0.240,0.000,0.000,0.000
1605107529403721984,10.0.1.134,791,move_down,-0.260,-0.260,-0.260,0.000,0.000,0.000
1605107531561065984,10.0.1.134,945,move_down,-0.280,-0.280,-0.280,0.000,0.000,0.000
1605107533442694912,10.0.1.134,678,move_down,-0.300,-0.300,-0.300,0.000,0.000,0.000
1605107535239608064,10.0.1.134,677,move_down,-0.320,-0.320,-0.320,0.000,0.000,0.000
1605107537441447936,10.0.1.134,1009,move_down,-0.340,-0.340,-0.340,0.000,0.000,0.000
1605107539391601920,10.0.1.134,787,move_down,-0.360,-0.360,-0.360,0.000,0.000,0.000
1605107541321654016,10.0.1.134,838,move_down,-0.380,-0.380,-0.380,0.000,0.000,0.000
1605107543136037120,10.0.1.134,716,move_down,-0.400,-0.400,-0.400,0.000,0.000,0.000
1605107544688440064,10.0.1.134,534,move_down,-0.420,-0.420,-0.420,0.000,0.000,0.000
1605107546463332864,10.0.1.134,602,move_down,-0.440,-0.440,-0.440,0.000,0.000,0.000
1605107548441061888,10.0.1.134,778,move_down,-0.460,-0.460,-0.460,0.000,0.000,0.000
1605107550125893120,10.0.1.134,616,move_down,-0.480,-0.480,-0.480,0.000,0.000,0.000
1605107551802078976,10.0.1.134,633,move_down,-0.500,-0.500,-0.500,0.000,0.000,0.000
1605107554071401984,10.0.1.134,943,move_down,-0.520,-0.520,-0.520,0.000,0.000,0.000
1605107556043044096,10.0.1.134,739,move_down,-0.540,-0.540,-0.540,0.000,0.000,0.000
1605107558056452096,10.0.1.134,945,move_down,-0.560,-0.560,-0.560,0.000,0.000,0.000
1605107559964684032,10.0.1.134,818,move_down,-0.580,-0.580,-0.580,0.000,0.000,0.000
