milangroshev/digital-twin-scalability/logs/run1-300s/10.0.1.125.csv
timestamp,node,latency,action,joint_1,joint_2,joint_3,joint_4,joint_5,joint_6
1605104908098243840,10.0.1.125,2015,,0.000,0.000,0.000,0.000,0.000,0.000
1605104910628572928,10.0.1.125,544,move_down,-0.020,-0.020,-0.020,0.000,0.000,0.000
1605104912088407040,10.0.1.125,397,move_down,-0.040,-0.040,-0.040,0.000,0.000,0.000
1605104913592588800,10.0.1.125,419,move_down,-0.060,-0.060,-0.060,0.000,0.000,0.000
1605104915023845888,10.0.1.125,387,move_down,-0.080,-0.080,-0.080,0.000,0.000,0.000
1605104916478141952,10.0.1.125,399,move_down,-0.100,-0.100,-0.100,0.000,0.000,0.000
1605104917919702016,10.0.1.125,391,move_down,-0.120,-0.120,-0.120,0.000,0.000,0.000
1605104918959280896,10.0.1.125,-1,move_down,-0.140,-0.140,-0.140,0.000,0.000,0.000
1605104920819901952,10.0.1.125,386,move_down,-0.160,-0.160,-0.160,0.000,0.000,0.000
1605104922258446848,10.0.1.125,381,move_down,-0.180,-0.180,-0.180,0.000,0.000,0.000
1605104923737644032,10.0.1.125,412,move_down,-0.200,-0.200,-0.200,0.000,0.000,0.000
1605104925199877888,10.0.1.125,399,move_down,-0.220,-0.220,-0.220,0.000,0.000,0.000
1605104926628349952,10.0.1.125,373,move_down,-0.240,-0.240,-0.240,0.000,0.000,0.000
1605104928100708864,10.0.1.125,426,move_down,-0.260,-0.260,-0.260,0.000,0.000,0.000
1605104929527945984,10.0.1.125,402,move_down,-0.280,-0.280,-0.280,0.000,0.000,0.000
1605104930937490944,10.0.1.125,384,move_down,-0.300,-0.300,-0.300,0.000,0.000,0.000
1605104932378202880,10.0.1.125,373,move_down,-0.320,-0.320,-0.320,0.000,0.000,0.000
1605104933838016000,10.0.1.125,394,move_down,-0.340,-0.340,-0.340,0.000,0.000,0.000
1605104935247652096,10.0.1.125,379,move_down,-0.360,-0.360,-0.360,0.000,0.000,0.000
1605104936698388992,10.0.1.125,385,move_down,-0.380,-0.380,-0.380,0.000,0.000,0.000
1605104938127953152,10.0.1.125,373,move_down,-0.400,-0.400,-0.400,0.000,0.000,0.000
1605104939568161024,10.0.1.125,393,move_down,-0.420,-0.420,-0.420,0.000,0.000,0.000
1605104941008361984,10.0.1.125,391,move_down,-0.440,-0.440,-0.440,0.000,0.000,0.000
1605104942467188992,10.0.1.125,407,move_down,-0.460,-0.460,-0.460,0.000,0.000,0.000
1605104943868338944,10.0.1.125,371,move_down,-0.480,-0.480,-0.480,0.000,0.000,0.000
1605104945318126080,10.0.1.125,387,move_down,-0.500,-0.500,-0.500,0.000,0.000,0.000
1605104946847638016,10.0.1.125,404,move_down,-0.520,-0.520,-0.520,0.000,0.000,0.000
1605104948307014912,10.0.1.125,418,move_down,-0.540,-0.540,-0.540,0.000,0.000,0.000
1605104949748204032,10.0.1.125,383,move_down,-0.560,-0.560,-0.560,0.000,0.000,0.000
1605104951170094080,10.0.1.125,375,move_down,-0.580,-0.580,-0.580,0.000,0.000,0.000
1605104952307952896,10.0.1.125,37,pick,-0.590,-0.590,-0.590,0.000,0.000,0.000
1605104953308395008,10.0.1.125,36,pick,-0.600,-0.600,-0.600,0.000,0.000,0.000
1605104954317455104,10.0.1.125,44,pick,-0.610,-0.610,-0.610,0.000,0.000,0.000
1605104955308218880,10.0.1.125,33,pick,-0.620,-0.620,-0.620,0.000,0.000,0.000
1605104956307933184,10.0.1.125,32,pick,-0.630,-0.630,-0.630,0.000,0.000,0.000
1605104957329707008,10.0.1.125,51,pick,-0.640,-0.640,-0.640,0.000,0.000,0.000
1605104958328210176,10.0.1.125,49,pick,-0.650,-0.650,-0.650,0.000,0.000,0.000
1605104959328015104,10.0.1.125,48,pick,-0.660,-0.660,-0.660,0.000,0.000,0.000
1605104960328953856,10.0.1.125,48,pick,-0.670,-0.670,-0.670,0.000,0.000,0.000
1605104961331245824,10.0.1.125,49,pick,-0.680,-0.680,-0.680,0.000,0.000,0.000
1605104962329080064,10.0.1.125,45,pick,-0.690,-0.690,-0.690,0.000,0.000,0.000
1605104963328388864,10.0.1.125,43,pick,-0.700,-0.700,-0.700,0.000,0.000,0.000
1605104964328891136,10.0.1.125,42,pick,-0.710,-0.710,-0.710,0.000,0.000,0.000
1605104965328336128,10.0.1.125,40,pick,-0.720,-0.720,-0.720,0.000,0.000,0.000
1605104966328524032,10.0.1.125,39,pick,-0.730,-0.730,-0.730,0.000,0.000,0.000
1605104967329020928,10.0.1.125,38,pick,-0.740,-0.740,-0.740,0.000,0.000,0.000
1605104968328360192,10.0.1.125,36,pick,-0.750,-0.750,-0.750,0.000,0.000,0.000
1605104969328448000,10.0.1.125,35,pick,-0.760,-0.760,-0.760,0.000,0.000,0.000
1605104970328700928,10.0.1.125,34,pick,-0.770,-0.770,-0.770,0.000,0.000,0.000
1605104971658518016,10.0.1.125,363,move_up,-0.750,-0.750,-0.750,0.000,0.000,0.000
1605104973158963968,10.0.1.125,432,move_up,-0.730,-0.730,-0.730,0.000,0.000,0.000
1605104974588627200,10.0.1.125,377,move_up,-0.710,-0.710,-0.710,0.000,0.000,0.000
1605104976031311104,10.0.1.125,395,move_up,-0.690,-0.690,-0.690,0.000,0.000,0.000
1605104977448257024,10.0.1.125,372,move_up,-0.670,-0.670,-0.670,0.000,0.000,0.000
1605104978877993984,10.0.1.125,378,move_up,-0.650,-0.650,-0.650,0.000,0.000,0.000
1605104980329345024,10.0.1.125,399,move_up,-0.630,-0.630,-0.630,0.000,0.000,0.000
1605104981758131968,10.0.1.125,374,move_up,-0.610,-0.610,-0.610,0.000,0.000,0.000
1605104983200792064,10.0.1.125,392,move_up,-0.590,-0.590,-0.590,0.000,0.000,0.000
1605104984656701184,10.0.1.125,405,move_up,-0.570,-0.570,-0.570,0.000,0.000,0.000
1605104986148664064,10.0.1.125,374,move_up,-0.550,-0.550,-0.550,0.000,0.000,0.000
1605104987570724864,10.0.1.125,372,move_up,-0.530,-0.530,-0.530,0.000,0.000,0.000
1605104989029572864,10.0.1.125,401,move_up,-0.510,-0.510,-0.510,0.000,0.000,0.000
1605104990438599936,10.0.1.125,377,move_up,-0.490,-0.490,-0.490,0.000,0.000,0.000
1605104991899629056,10.0.1.125,404,move_up,-0.470,-0.470,-0.470,0.000,0.000,0.000
1605104993360572928,10.0.1.125,387,move_up,-0.450,-0.450,-0.450,0.000,0.000,0.000
1605104994778109184,10.0.1.125,362,move_up,-0.430,-0.430,-0.430,0.000,0.000,0.000
1605104996248811008,10.0.1.125,402,move_up,-0.410,-0.410,-0.410,0.000,0.000,0.000
1605104997678659072,10.0.1.125,356,move_up,-0.390,-0.390,-0.390,0.000,0.000,0.000
1605104999119699968,10.0.1.125,373,move_up,-0.370,-0.370,-0.370,0.000,0.000,0.000
1605105000498404096,10.0.1.125,371,move_up,-0.350,-0.350,-0.350,0.000,0.000,0.000
1605105001927609088,10.0.1.125,415,move_up,-0.330,-0.330,-0.330,0.000,0.000,0.000
1605105003368318208,10.0.1.125,380,move_up,-0.310,-0.310,-0.310,0.000,0.000,0.000
1605105004871014144,10.0.1.125,430,move_up,-0.290,-0.290,-0.290,0.000,0.000,0.000
1605105006310657024,10.0.1.125,392,move_up,-0.270,-0.270,-0.270,0.000,0.000,0.000
1605105007740442112,10.0.1.125,377,move_up,-0.250,-0.250,-0.250,0.000,0.000,0.000
1605105009187757056,10.0.1.125,396,move_up,-0.230,-0.230,-0.230,0.000,0.000,0.000
1605105010599574016,10.0.1.125,382,move_up,-0.210,-0.210,-0.210,0.000,0.000,0.000
1605105012037864960,10.0.1.125,390,move_up,-0.190,-0.190,-0.190,0.000,0.000,0.000
1605105013117417984,10.0.1.125,35,place,-0.180,-0.180,-0.180,0.000,0.000,0.000
1605105014118385920,10.0.1.125,35,place,-0.170,-0.170,-0.170,0.000,0.000,0.000
1605105015120644096,10.0.1.125,36,place,-0.160,-0.160,-0.160,0.000,0.000,0.000
1605105016118020096,10.0.1.125,32,place,-0.150,-0.150,-0.150,0.000,0.000,0.000
1605105017118454016,10.0.1.125,31,place,-0.140,-0.140,-0.140,0.000,0.000,0.000
1605105018144941056,10.0.1.125,56,place,-0.130,-0.130,-0.130,0.000,0.000,0.000
1605105019143422976,10.0.1.125,54,place,-0.120,-0.120,-0.120,0.000,0.000,0.000
1605105020137892096,10.0.1.125,47,place,-0.110,-0.110,-0.110,0.000,0.000,0.000
1605105021140413952,10.0.1.125,48,place,-0.100,-0.100,-0.100,0.000,0.000,0.000
1605105022139350784,10.0.1.125,47,place,-0.090,-0.090,-0.090,0.000,0.000,0.000
1605105023139532032,10.0.1.125,45,place,-0.080,-0.080,-0.080,0.000,0.000,0.000
1605105024143667968,10.0.1.125,48,place,-0.070,-0.070,-0.070,0.000,0.000,0.000
1605105025139472896,10.0.1.125,43,place,-0.060,-0.060,-0.060,0.000,0.000,0.000
1605105026138628864,10.0.1.125,41,place,-0.050,-0.050,-0.050,0.000,0.000,0.000
1605105027138505984,10.0.1.125,39,place,-0.040,-0.040,-0.040,0.000,0.000,0.000
1605105028144651008,10.0.1.125,45,place,-0.030,-0.030,-0.030,0.000,0.000,0.000
1605105029137828096,10.0.1.125,38,place,-0.020,-0.020,-0.020,0.000,0.000,0.000
1605105030140656896,10.0.1.125,39,place,-0.010,-0.010,-0.010,0.000,0.000,0.000
1605105031141915136,10.0.1.125,39,place,0.000,0.000,0.000,0.000,0.000,0.000
1605105032487934976,10.0.1.125,384,move_down,-0.020,-0.020,-0.020,0.000,0.000,0.000
1605105033959911936,10.0.1.125,378,move_down,-0.040,-0.040,-0.040,0.000,0.000,0.000
1605105035388119040,10.0.1.125,388,move_down,-0.060,-0.060,-0.060,0.000,0.000,0.000
1605105036847856128,10.0.1.125,396,move_down,-0.080,-0.080,-0.080,0.000,0.000,0.000
1605105038307480064,10.0.1.125,403,move_down,-0.100,-0.100,-0.100,0.000,0.000,0.000
1605105039733593856,10.0.1.125,419,move_down,-0.120,-0.120,-0.120,0.000,0.000,0.000
1605105041139723008,10.0.1.125,382,move_down,-0.140,-0.140,-0.140,0.000,0.000,0.000
1605105042577636864,10.0.1.125,391,move_down,-0.160,-0.160,-0.160,0.000,0.000,0.000
1605105044007600128,10.0.1.125,378,move_down,-0.180,-0.180,-0.180,0.000,0.000,0.000
1605105045460654848,10.0.1.125,388,move_down,-0.200,-0.200,-0.200,0.000,0.000,0.000
1605105046950313984,10.0.1.125,365,move_down,-0.220,-0.220,-0.220,0.000,0.000,0.000
1605105048427467008,10.0.1.125,418,move_down,-0.240,-0.240,-0.240,0.000,0.000,0.000
1605105049837680128,10.0.1.125,380,move_down,-0.260,-0.260,-0.260,0.000,0.000,0.000
1605105051249881856,10.0.1.125,362,move_down,-0.280,-0.280,-0.280,0.000,0.000,0.000
1605105052638073088,10.0.1.125,375,move_down,-0.300,-0.300,-0.300,0.000,0.000,0.000
1605105054089201920,10.0.1.125,399,move_down,-0.320,-0.320,-0.320,0.000,0.000,0.000
1605105055508243968,10.0.1.125,387,move_down,-0.340,-0.340,-0.340,0.000,0.000,0.000
1605105056918135040,10.0.1.125,366,move_down,-0.360,-0.360,-0.360,0.000,0.000,0.000
1605105058369595904,10.0.1.125,375,move_down,-0.380,-0.380,-0.380,0.000,0.000,0.000
1605105059799917824,10.0.1.125,378,move_down,-0.400,-0.400,-0.400,0.000,0.000,0.000
1605105061209283072,10.0.1.125,354,move_down,-0.420,-0.420,-0.420,0.000,0.000,0.000
1605105062651164928,10.0.1.125,377,move_down,-0.440,-0.440,-0.440,0.000,0.000,0.000
1605105064099094016,10.0.1.125,383,move_down,-0.460,-0.460,-0.460,0.000,0.000,0.000
1605105065607721984,10.0.1.125,406,move_down,-0.480,-0.480,-0.480,0.000,0.000,0.000
1605105067031460096,10.0.1.125,389,move_down,-0.500,-0.500,-0.500,0.000,0.000,0.000
1605105068468205056,10.0.1.125,388,move_down,-0.520,-0.520,-0.520,0.000,0.000,0.000
1605105069987966976,10.0.1.125,400,move_down,-0.540,-0.540,-0.540,0.000,0.000,0.000
1605105071450823168,10.0.1.125,387,move_down,-0.560,-0.560,-0.560,0.000,0.000,0.000
1605105072878437120,10.0.1.125,365,move_down,-0.580,-0.580,-0.580,0.000,0.000,0.000
1605105073957330944,10.0.1.125,33,pick,-0.590,-0.590,-0.590,0.000,0.000,0.000
1605105074957827072,10.0.1.125,33,pick,-0.600,-0.600,-0.600,0.000,0.000,0.000
1605105075957874944,10.0.1.125,31,pick,-0.610,-0.610,-0.610,0.000,0.000,0.000
1605105076977966080,10.0.1.125,50,pick,-0.620,-0.620,-0.620,0.000,0.000,0.000
1605105077979293952,10.0.1.125,50,pick,-0.630,-0.630,-0.630,0.000,0.000,0.000
1605105078977986048,10.0.1.125,48,pick,-0.640,-0.640,-0.640,0.000,0.000,0.000
1605105079977775104,10.0.1.125,46,pick,-0.650,-0.650,-0.650,0.000,0.000,0.000
1605105080977840896,10.0.1.125,45,pick,-0.660,-0.660,-0.660,0.000,0.000,0.000
1605105081978238208,10.0.1.125,44,pick,-0.670,-0.670,-0.670,0.000,0.000,0.000
1605105082978387968,10.0.1.125,42,pick,-0.680,-0.680,-0.680,0.000,0.000,0.000
1605105083980112128,10.0.1.125,43,pick,-0.690,-0.690,-0.690,0.000,0.000,0.000
1605105084979350016,10.0.1.125,41,pick,-0.700,-0.700,-0.700,0.000,0.000,0.000
1605105085978291968,10.0.1.125,38,pick,-0.710,-0.710,-0.710,0.000,0.000,0.000
1605105086979974912,10.0.1.125,39,pick,-0.720,-0.720,-0.720,0.000,0.000,0.000
1605105087978408960,10.0.1.125,36,pick,-0.730,-0.730,-0.730,0.000,0.000,0.000
1605105088977900032,10.0.1.125,34,pick,-0.740,-0.740,-0.740,0.000,0.000,0.000
1605105089999483136,10.0.1.125,49,pick,-0.750,-0.750,-0.750,0.000,0.000,0.000
1605105091997935104,10.0.1.125,38,pick,-0.770,-0.770,-0.770,0.000,0.000,0.000
1605105093378106112,10.0.1.125,416,move_up,-0.750,-0.750,-0.750,0.000,0.000,0.000
1605105094848875008,10.0.1.125,410,move_up,-0.730,-0.730,-0.730,0.000,0.000,0.000
1605105096299431168,10.0.1.125,386,move_up,-0.710,-0.710,-0.710,0.000,0.000,0.000
1605105097792099840,10.0.1.125,387,move_up,-0.690,-0.690,-0.690,0.000,0.000,0.000
1605105099278088960,10.0.1.125,420,move_up,-0.670,-0.670,-0.670,0.000,0.000,0.000
1605105100748007936,10.0.1.125,402,move_up,-0.650,-0.650,-0.650,0.000,0.000,0.000
1605105102158806016,10.0.1.125,362,move_up,-0.630,-0.630,-0.630,0.000,0.000,0.000
1605105103588037888,10.0.1.125,365,move_up,-0.610,-0.610,-0.610,0.000,0.000,0.000
1605105105017697024,10.0.1.125,422,move_up,-0.590,-0.590,-0.590,0.000,0.000,0.000
1605105106489926144,10.0.1.125,412,move_up,-0.570,-0.570,-0.570,0.000,0.000,0.000
1605105107948764160,10.0.1.125,392,move_up,-0.550,-0.550,-0.550,0.000,0.000,0.000
1605105109368071936,10.0.1.125,368,move_up,-0.530,-0.530,-0.530,0.000,0.000,0.000
1605105110818223104,10.0.1.125,390,move_up,-0.510,-0.510,-0.510,0.000,0.000,0.000
1605105112259144192,10.0.1.125,388,move_up,-0.490,-0.490,-0.490,0.000,0.000,0.000
1605105113708119040,10.0.1.125,382,move_up,-0.470,-0.470,-0.470,0.000,0.000,0.000
1605105115143832832,10.0.1.125,386,move_up,-0.450,-0.450,-0.450,0.000,0.000,0.000
1605105116569575936,10.0.1.125,378,move_up,-0.430,-0.430,-0.430,0.000,0.000,0.000
1605105118018125056,10.0.1.125,380,move_up,-0.410,-0.410,-0.410,0.000,0.000,0.000
1605105119438617088,10.0.1.125,376,move_up,-0.390,-0.390,-0.390,0.000,0.000,0.000
1605105120861479936,10.0.1.125,373,move_up,-0.370,-0.370,-0.370,0.000,0.000,0.000
1605105122330786816,10.0.1.125,398,move_up,-0.350,-0.350,-0.350,0.000,0.000,0.000
1605105123812957952,10.0.1.125,397,move_up,-0.330,-0.330,-0.330,0.000,0.000,0.000
1605105125277564160,10.0.1.125,383,move_up,-0.310,-0.310,-0.310,0.000,0.000,0.000
1605105126738640896,10.0.1.125,397,move_up,-0.290,-0.290,-0.290,0.000,0.000,0.000
1605105128178683904,10.0.1.125,392,move_up,-0.270,-0.270,-0.270,0.000,0.000,0.000
1605105129587917056,10.0.1.125,374,move_up,-0.250,-0.250,-0.250,0.000,0.000,0.000
1605105131030423040,10.0.1.125,391,move_up,-0.230,-0.230,-0.230,0.000,0.000,0.000
1605105132070076928,10.0.1.125,-1,move_up,-0.210,-0.210,-0.210,0.000,0.000,0.000
1605105133918356992,10.0.1.125,396,move_up,-0.190,-0.190,-0.190,0.000,0.000,0.000
1605105135000390144,10.0.1.125,49,place,-0.180,-0.180,-0.180,0.000,0.000,0.000
1605105135998014976,10.0.1.125,45,place,-0.170,-0.170,-0.170,0.000,0.000,0.000
1605105136998391040,10.0.1.125,44,place,-0.160,-0.160,-0.160,0.000,0.000,0.000
1605105138002299136,10.0.1.125,47,place,-0.150,-0.150,-0.150,0.000,0.000,0.000
1605105138998469120,10.0.1.125,42,place,-0.140,-0.140,-0.140,0.000,0.000,0.000
1605105139999644160,10.0.1.125,42,place,-0.130,-0.130,-0.130,0.000,0.000,0.000
1605105140998632960,10.0.1.125,39,place,-0.120,-0.120,-0.120,0.000,0.000,0.000
1605105141998472960,10.0.1.125,38,place,-0.110,-0.110,-0.110,0.000,0.000,0.000
1605105142997459968,10.0.1.125,37,place,-0.100,-0.100,-0.100,0.000,0.000,0.000
1605105143999092992,10.0.1.125,37,place,-0.090,-0.090,-0.090,0.000,0.000,0.000
1605105144997603840,10.0.1.125,34,place,-0.080,-0.080,-0.080,0.000,0.000,0.000
1605105145998291968,10.0.1.125,34,place,-0.070,-0.070,-0.070,0.000,0.000,0.000
1605105146999560192,10.0.1.125,34,place,-0.060,-0.060,-0.060,0.000,0.000,0.000
1605105147997838848,10.0.1.125,31,place,-0.050,-0.050,-0.050,0.000,0.000,0.000
1605105149019522816,10.0.1.125,51,place,-0.040,-0.040,-0.040,0.000,0.000,0.000
1605105150002383104,10.0.1.125,33,place,-0.030,-0.030,-0.030,0.000,0.000,0.000
1605105151018472960,10.0.1.125,47,place,-0.020,-0.020,-0.020,0.000,0.000,0.000
1605105152019973120,10.0.1.125,48,place,-0.010,-0.010,-0.010,0.000,0.000,0.000
1605105153020477952,10.0.1.125,47,place,0.000,0.000,0.000,0.000,0.000,0.000
1605105154362214144,10.0.1.125,387,move_down,-0.020,-0.020,-0.020,0.000,0.000,0.000
1605105155837992960,10.0.1.125,430,move_down,-0.040,-0.040,-0.040,0.000,0.000,0.000
1605105157292519936,10.0.1.125,393,move_down,-0.060,-0.060,-0.060,0.000,0.000,0.000
1605105158729273088,10.0.1.125,385,move_down,-0.080,-0.080,-0.080,0.000,0.000,0.000
1605105160198391040,10.0.1.125,410,move_down,-0.100,-0.100,-0.100,0.000,0.000,0.000
1605105161628081920,10.0.1.125,384,move_down,-0.120,-0.120,-0.120,0.000,0.000,0.000
1605105163077473024,10.0.1.125,384,move_down,-0.140,-0.140,-0.140,0.000,0.000,0.000
1605105164527959040,10.0.1.125,394,move_down,-0.160,-0.160,-0.160,0.000,0.000,0.000
1605105165959804928,10.0.1.125,375,move_down,-0.180,-0.180,-0.180,0.000,0.000,0.000
1605105167370024960,10.0.1.125,359,move_down,-0.200,-0.200,-0.200,0.000,0.000,0.000
1605105168788367872,10.0.1.125,401,move_down,-0.220,-0.220,-0.220,0.000,0.000,0.000
1605105170237794048,10.0.1.125,367,move_down,-0.240,-0.240,-0.240,0.000,0.000,0.000
1605105171657931008,10.0.1.125,376,move_down,-0.260,-0.260,-0.260,0.000,0.000,0.000
1605105173139265024,10.0.1.125,415,move_down,-0.280,-0.280,-0.280,0.000,0.000,0.000
1605105174548216064,10.0.1.125,381,move_down,-0.300,-0.300,-0.300,0.000,0.000,0.000
1605105175980417024,10.0.1.125,371,move_down,-0.320,-0.320,-0.320,0.000,0.000,0.000
1605105177451260928,10.0.1.125,398,move_down,-0.340,-0.340,-0.340,0.000,0.000,0.000
1605105178898100992,10.0.1.125,398,move_down,-0.360,-0.360,-0.360,0.000,0.000,0.000
1605105180317873920,10.0.1.125,370,move_down,-0.380,-0.380,-0.380,0.000,0.000,0.000
1605105181750268928,10.0.1.125,380,move_down,-0.400,-0.400,-0.400,0.000,0.000,0.000
1605105183209677824,10.0.1.125,393,move_down,-0.420,-0.420,-0.420,0.000,0.000,0.000
1605105184667915008,10.0.1.125,412,move_down,-0.440,-0.440,-0.440,0.000,0.000,0.000
1605105186117891072,10.0.1.125,385,move_down,-0.460,-0.460,-0.460,0.000,0.000,0.000
1605105187559600128,10.0.1.125,397,move_down,-0.480,-0.480,-0.480,0.000,0.000,0.000
1605105189009805056,10.0.1.125,402,move_down,-0.500,-0.500,-0.500,0.000,0.000,0.000
1605105190488871168,10.0.1.125,403,move_down,-0.520,-0.520,-0.520,0.000,0.000,0.000
1605105191988599040,10.0.1.125,422,move_down,-0.540,-0.540,-0.540,0.000,0.000,0.000
1605105193451239936,10.0.1.125,405,move_down,-0.560,-0.560,-0.560,0.000,0.000,0.000
1605105194889318912,10.0.1.125,402,move_down,-0.580,-0.580,-0.580,0.000,0.000,0.000
1605105196009227008,10.0.1.125,47,pick,-0.590,-0.590,-0.590,0.000,0.000,0.000
1605105197010885120,10.0.1.125,47,pick,-0.600,-0.600,-0.600,0.000,0.000,0.000
1605105198007910912,10.0.1.125,43,pick,-0.610,-0.610,-0.610,0.000,0.000,0.000
1605105199008532992,10.0.1.125,42,pick,-0.620,-0.620,-0.620,0.000,0.000,0.000
1605105200028806912,10.0.1.125,61,pick,-0.630,-0.630,-0.630,0.000,0.000,0.000
1605105201007757824,10.0.1.125,39,pick,-0.640,-0.640,-0.640,0.000,0.000,0.000
1605105202010326016,10.0.1.125,40,pick,-0.650,-0.650,-0.650,0.000,0.000,0.000
1605105203010914048,10.0.1.125,36,pick,-0.660,-0.660,-0.660,0.000,0.000,0.000
1605105204007816960,10.0.1.125,32,pick,-0.670,-0.670,-0.670,0.000,0.000,0.000
1605105205016688128,10.0.1.125,41,pick,-0.680,-0.680,-0.680,0.000,0.000,0.000
1605105206031452928,10.0.1.125,54,pick,-0.690,-0.690,-0.690,0.000,0.000,0.000
1605105207035765760,10.0.1.125,57,pick,-0.700,-0.700,-0.700,0.000,0.000,0.000
1605105208030817024,10.0.1.125,51,pick,-0.710,-0.710,-0.710,0.000,0.000,0.000
1605105209029584896,10.0.1.125,49,pick,-0.720,-0.720,-0.720,0.000,0.000,0.000
1605105210025583104,10.0.1.125,44,pick,-0.730,-0.730,-0.730,0.000,0.000,0.000
1605105211029051904,10.0.1.125,46,pick,-0.740,-0.740,-0.740,0.000,0.000,0.000
1605105212030726912,10.0.1.125,47,pick,-0.750,-0.750,-0.750,0.000,0.000,0.000
1605105213028069120,10.0.1.125,43,pick,-0.760,-0.760,-0.760,0.000,0.000,0.000
1605105214031791872,10.0.1.125,45,pick,-0.770,-0.770,-0.770,0.000,0.000,0.000
1605105215388449792,10.0.1.125,401,move_up,-0.750,-0.750,-0.750,0.000,0.000,0.000
1605105216869780992,10.0.1.125,396,move_up,-0.730,-0.730,-0.730,0.000,0.000,0.000
1605105218298935808,10.0.1.125,350,move_up,-0.710,-0.710,-0.710,0.000,0.000,0.000
1605105219788491008,10.0.1.125,423,move_up,-0.690,-0.690,-0.690,0.000,0.000,0.000
1605105221261060864,10.0.1.125,410,move_up,-0.670,-0.670,-0.670,0.000,0.000,0.000
1605105222668719104,10.0.1.125,373,move_up,-0.650,-0.650,-0.650,0.000,0.000,0.000
1605105224098139136,10.0.1.125,377,move_up,-0.630,-0.630,-0.630,0.000,0.000,0.000
1605105225526012928,10.0.1.125,376,move_up,-0.610,-0.610,-0.610,0.000,0.000,0.000
1605105226988290048,10.0.1.125,406,move_up,-0.590,-0.590,-0.590,0.000,0.000,0.000
1605105228469947136,10.0.1.125,404,move_up,-0.570,-0.570,-0.570,0.000,0.000,0.000
1605105229969052160,10.0.1.125,421,move_up,-0.550,-0.550,-0.550,0.000,0.000,0.000
1605105231468100096,10.0.1.125,411,move_up,-0.530,-0.530,-0.530,0.000,0.000,0.000
1605105232926939904,10.0.1.125,395,move_up,-0.510,-0.510,-0.510,0.000,0.000,0.000
1605105234419235840,10.0.1.125,408,move_up,-0.490,-0.490,-0.490,0.000,0.000,0.000
1605105235910769920,10.0.1.125,421,move_up,-0.470,-0.470,-0.470,0.000,0.000,0.000
1605105237379729152,10.0.1.125,403,move_up,-0.450,-0.450,-0.450,0.000,0.000,0.000
1605105238858676992,10.0.1.125,422,move_up,-0.430,-0.430,-0.430,0.000,0.000,0.000
1605105240318137856,10.0.1.125,367,move_up,-0.410,-0.410,-0.410,0.000,0.000,0.000
1605105241797624064,10.0.1.125,396,move_up,-0.390,-0.390,-0.390,0.000,0.000,0.000
1605105243221116928,10.0.1.125,375,move_up,-0.370,-0.370,-0.370,0.000,0.000,0.000
1605105244717938944,10.0.1.125,398,move_up,-0.350,-0.350,-0.350,0.000,0.000,0.000
1605105246198009088,10.0.1.125,403,move_up,-0.330,-0.330,-0.330,0.000,0.000,0.000
1605105247620728064,10.0.1.125,393,move_up,-0.310,-0.310,-0.310,0.000,0.000,0.000
1605105249062436096,10.0.1.125,383,move_up,-0.290,-0.290,-0.290,0.000,0.000,0.000
1605105250567653888,10.0.1.125,439,move_up,-0.270,-0.270,-0.270,0.000,0.000,0.000
1605105252072146944,10.0.1.125,408,move_up,-0.250,-0.250,-0.250,0.000,0.000,0.000
1605105253568175104,10.0.1.125,448,move_up,-0.230,-0.230,-0.230,0.000,0.000,0.000
1605105255065072896,10.0.1.125,447,move_up,-0.210,-0.210,-0.210,0.000,0.000,0.000
1605105256510478848,10.0.1.125,407,move_up,-0.190,-0.190,-0.190,0.000,0.000,0.000
1605105257647375104,10.0.1.125,54,place,-0.180,-0.180,-0.180,0.000,0.000,0.000
1605105258635860992,10.0.1.125,41,place,-0.170,-0.170,-0.170,0.000,0.000,0.000
1605105259630160128,10.0.1.125,34,place,-0.160,-0.160,-0.160,0.000,0.000,0.000
1605105260635792896,10.0.1.125,39,place,-0.150,-0.150,-0.150,0.000,0.000,0.000
1605105261632196864,10.0.1.125,34,place,-0.140,-0.140,-0.140,0.000,0.000,0.000
1605105262636976896,10.0.1.125,37,place,-0.130,-0.130,-0.130,0.000,0.000,0.000
1605105263652569088,10.0.1.125,52,place,-0.120,-0.120,-0.120,0.000,0.000,0.000
1605105264653302016,10.0.1.125,44,place,-0.110,-0.110,-0.110,0.000,0.000,0.000
1605105265654145024,10.0.1.125,44,place,-0.100,-0.100,-0.100,0.000,0.000,0.000
1605105266652001024,10.0.1.125,40,place,-0.090,-0.090,-0.090,0.000,0.000,0.000
1605105267653943040,10.0.1.125,41,place,-0.080,-0.080,-0.080,0.000,0.000,0.000
1605105268651490048,10.0.1.125,37,place,-0.070,-0.070,-0.070,0.000,0.000,0.000
1605105269651625984,10.0.1.125,36,place,-0.060,-0.060,-0.060,0.000,0.000,0.000
1605105270652637952,10.0.1.125,35,place,-0.050,-0.050,-0.050,0.000,0.000,0.000
1605105271653097984,10.0.1.125,34,place,-0.040,-0.040,-0.040,0.000,0.000,0.000
1605105272660631808,10.0.1.125,41,place,-0.030,-0.030,-0.030,0.000,0.000,0.000
1605105273656485120,10.0.1.125,36,place,-0.020,-0.020,-0.020,0.000,0.000,0.000
1605105274672055040,10.0.1.125,50,place,-0.010,-0.010,-0.010,0.000,0.000,0.000
1605105275672323072,10.0.1.125,48,place,0.000,0.000,0.000,0.000,0.000,0.000
1605105277042787072,10.0.1.125,417,move_down,-0.020,-0.020,-0.020,0.000,0.000,0.000
1605105278521622016,10.0.1.125,421,move_down,-0.040,-0.040,-0.040,0.000,0.000,0.000
1605105279981833984,10.0.1.125,399,move_down,-0.060,-0.060,-0.060,0.000,0.000,0.000
1605105281429609984,10.0.1.125,391,move_down,-0.080,-0.080,-0.080,0.000,0.000,0.000
1605105282874532096,10.0.1.125,393,move_down,-0.100,-0.100,-0.100,0.000,0.000,0.000
1605105284280625152,10.0.1.125,357,move_down,-0.120,-0.120,-0.120,0.000,0.000,0.000
1605105285768408064,10.0.1.125,404,move_down,-0.140,-0.140,-0.140,0.000,0.000,0.000
1605105287222477824,10.0.1.125,396,move_down,-0.160,-0.160,-0.160,0.000,0.000,0.000
1605105288729826816,10.0.1.125,413,move_down,-0.180,-0.180,-0.180,0.000,0.000,0.000
1605105290161073920,10.0.1.125,400,move_down,-0.200,-0.200,-0.200,0.000,0.000,0.000
1605105291590193152,10.0.1.125,379,move_down,-0.220,-0.220,-0.220,0.000,0.000,0.000
1605105293039078912,10.0.1.125,375,move_down,-0.240,-0.240,-0.240,0.000,0.000,0.000
1605105294494327040,10.0.1.125,397,move_down,-0.260,-0.260,-0.260,0.000,0.000,0.000
1605105295916105984,10.0.1.125,398,move_down,-0.280,-0.280,-0.280,0.000,0.000,0.000
1605105297359545088,10.0.1.125,380,move_down,-0.300,-0.300,-0.300,0.000,0.000,0.000
1605105298923333888,10.0.1.125,434,move_down,-0.320,-0.320,-0.320,0.000,0.000,0.000
1605105300369324800,10.0.1.125,354,move_down,-0.340,-0.340,-0.340,0.000,0.000,0.000
1605105301879116032,10.0.1.125,431,move_down,-0.360,-0.360,-0.360,0.000,0.000,0.000
1605105303330347008,10.0.1.125,400,move_down,-0.380,-0.380,-0.380,0.000,0.000,0.000
1605105304828407040,10.0.1.125,401,move_down,-0.400,-0.400,-0.400,0.000,0.000,0.000
1605105306337313024,10.0.1.125,432,move_down,-0.420,-0.420,-0.420,0.000,0.000,0.000
1605105307838233856,10.0.1.125,430,move_down,-0.440,-0.440,-0.440,0.000,0.000,0.000
1605105309249182976,10.0.1.125,377,move_down,-0.460,-0.460,-0.460,0.000,0.000,0.000
1605105310704675840,10.0.1.125,390,move_down,-0.480,-0.480,-0.480,0.000,0.000,0.000
1605105312181381888,10.0.1.125,418,move_down,-0.500,-0.500,-0.500,0.000,0.000,0.000
1605105313628908032,10.0.1.125,414,move_down,-0.520,-0.520,-0.520,0.000,0.000,0.000
1605105315050172160,10.0.1.125,371,move_down,-0.540,-0.540,-0.540,0.000,0.000,0.000
1605105316534270976,10.0.1.125,423,move_down,-0.560,-0.560,-0.560,0.000,0.000,0.000
1605105318012336896,10.0.1.125,423,move_down,-0.580,-0.580,-0.580,0.000,0.000,0.000
1605105319099041024,10.0.1.125,52,pick,-0.590,-0.590,-0.590,0.000,0.000,0.000
1605105320090414080,10.0.1.125,41,pick,-0.600,-0.600,-0.600,0.000,0.000,0.000
1605105321090085120,10.0.1.125,40,pick,-0.610,-0.610,-0.610,0.000,0.000,0.000
1605105322089931008,10.0.1.125,37,pick,-0.620,-0.620,-0.620,0.000,0.000,0.000
1605105323091897088,10.0.1.125,38,pick,-0.630,-0.630,-0.630,0.000,0.000,0.000
1605105324092109824,10.0.1.125,37,pick,-0.640,-0.640,-0.640,0.000,0.000,0.000
1605105325091049984,10.0.1.125,35,pick,-0.650,-0.650,-0.650,0.000,0.000,0.000
1605105326093403136,10.0.1.125,36,pick,-0.660,-0.660,-0.660,0.000,0.000,0.000
1605105327110935808,10.0.1.125,52,pick,-0.670,-0.670,-0.670,0.000,0.000,0.000
1605105328114185984,10.0.1.125,49,pick,-0.680,-0.680,-0.680,0.000,0.000,0.000
1605105329108908800,10.0.1.125,42,pick,-0.690,-0.690,-0.690,0.000,0.000,0.000
1605105330113504000,10.0.1.125,46,pick,-0.700,-0.700,-0.700,0.000,0.000,0.000
1605105331111044864,10.0.1.125,42,pick,-0.710,-0.710,-0.710,0.000,0.000,0.000
1605105332109932800,10.0.1.125,39,pick,-0.720,-0.720,-0.720,0.000,0.000,0.000
1605105333111175168,10.0.1.125,39,pick,-0.730,-0.730,-0.730,0.000,0.000,0.000
1605105334111877888,10.0.1.125,40,pick,-0.740,-0.740,-0.740,0.000,0.000,0.000
1605105335110619136,10.0.1.125,35,pick,-0.750,-0.750,-0.750,0.000,0.000,0.000
1605105336111522048,10.0.1.125,34,pick,-0.760,-0.760,-0.760,0.000,0.000,0.000
1605105337130043136,10.0.1.125,51,pick,-0.770,-0.770,-0.770,0.000,0.000,0.000
1605105338470066176,10.0.1.125,390,move_up,-0.750,-0.750,-0.750,0.000,0.000,0.000
1605105339949011200,10.0.1.125,393,move_up,-0.730,-0.730,-0.730,0.000,0.000,0.000
1605105341429744128,10.0.1.125,430,move_up,-0.710,-0.710,-0.710,0.000,0.000,0.000
1605105342914955008,10.0.1.125,403,move_up,-0.690,-0.690,-0.690,0.000,0.000,0.000
1605105344374532096,10.0.1.125,386,move_up,-0.670,-0.670,-0.670,0.000,0.000,0.000
1605105345858689024,10.0.1.125,395,move_up,-0.650,-0.650,-0.650,0.000,0.000,0.000
1605105347382128128,10.0.1.125,425,move_up,-0.630,-0.630,-0.630,0.000,0.000,0.000
1605105348864044800,10.0.1.125,422,move_up,-0.610,-0.610,-0.610,0.000,0.000,0.000
1605105350328382976,10.0.1.125,401,move_up,-0.590,-0.590,-0.590,0.000,0.000,0.000
1605105351747273984,10.0.1.125,377,move_up,-0.570,-0.570,-0.570,0.000,0.000,0.000
1605105353211185920,10.0.1.125,387,move_up,-0.550,-0.550,-0.550,0.000,0.000,0.000
1605105354719639040,10.0.1.125,416,move_up,-0.530,-0.530,-0.530,0.000,0.000,0.000
1605105356182013952,10.0.1.125,389,move_up,-0.510,-0.510,-0.510,0.000,0.000,0.000
1605105357611620864,10.0.1.125,380,move_up,-0.490,-0.490,-0.490,0.000,0.000,0.000
1605105359069330944,10.0.1.125,393,move_up,-0.470,-0.470,-0.470,0.000,0.000,0.000
1605105360525137920,10.0.1.125,408,move_up,-0.450,-0.450,-0.450,0.000,0.000,0.000
1605105361992691968,10.0.1.125,394,move_up,-0.430,-0.430,-0.430,0.000,0.000,0.000
1605105363450306816,10.0.1.125,382,move_up,-0.410,-0.410,-0.410,0.000,0.000,0.000
1605105364918457088,10.0.1.125,422,move_up,-0.390,-0.390,-0.390,0.000,0.000,0.000
1605105366421030912,10.0.1.125,434,move_up,-0.370,-0.370,-0.370,0.000,0.000,0.000
1605105367901698048,10.0.1.125,430,move_up,-0.350,-0.350,-0.350,0.000,0.000,0.000
1605105369340019968,10.0.1.125,417,move_up,-0.330,-0.330,-0.330,0.000,0.000,0.000
1605105370852492032,10.0.1.125,422,move_up,-0.310,-0.310,-0.310,0.000,0.000,0.000
1605105372297985024,10.0.1.125,411,move_up,-0.290,-0.290,-0.290,0.000,0.000,0.000
1605105373731726848,10.0.1.125,382,move_up,-0.270,-0.270,-0.270,0.000,0.000,0.000
1605105375211565056,10.0.1.125,434,move_up,-0.250,-0.250,-0.250,0.000,0.000,0.000
1605105376651648000,10.0.1.125,391,move_up,-0.230,-0.230,-0.230,0.000,0.000,0.000
1605105378110955008,10.0.1.125,418,move_up,-0.210,-0.210,-0.210,0.000,0.000,0.000
1605105379590315008,10.0.1.125,409,move_up,-0.190,-0.190,-0.190,0.000,0.000,0.000
1605105380712461056,10.0.1.125,48,place,-0.180,-0.180,-0.180,0.000,0.000,0.000
1605105381707665920,10.0.1.125,43,place,-0.170,-0.170,-0.170,0.000,0.000,0.000
1605105382714936064,10.0.1.125,49,place,-0.160,-0.160,-0.160,0.000,0.000,0.000
1605105383712645888,10.0.1.125,45,place,-0.150,-0.150,-0.150,0.000,0.000,0.000
1605105384721735936,10.0.1.125,53,place,-0.140,-0.140,-0.140,0.000,0.000,0.000
1605105385712861184,10.0.1.125,43,place,-0.130,-0.130,-0.130,0.000,0.000,0.000
1605105387711062016,10.0.1.125,39,place,-0.110,-0.110,-0.110,0.000,0.000,0.000
1605105388717372928,10.0.1.125,44,place,-0.100,-0.100,-0.100,0.000,0.000,0.000
1605105389714924032,10.0.1.125,41,place,-0.090,-0.090,-0.090,0.000,0.000,0.000
1605105390729935872,10.0.1.125,54,place,-0.080,-0.080,-0.080,0.000,0.000,0.000
1605105391733828096,10.0.1.125,57,place,-0.070,-0.070,-0.070,0.000,0.000,0.000
1605105392718149888,10.0.1.125,40,place,-0.060,-0.060,-0.060,0.000,0.000,0.000
1605105393713466880,10.0.1.125,35,place,-0.050,-0.050,-0.050,0.000,0.000,0.000
1605105394731489792,10.0.1.125,52,place,-0.040,-0.040,-0.040,0.000,0.000,0.000
1605105395734728960,10.0.1.125,54,place,-0.030,-0.030,-0.030,0.000,0.000,0.000
1605105396732409088,10.0.1.125,51,place,-0.020,-0.020,-0.020,0.000,0.000,0.000
1605105397730897920,10.0.1.125,48,place,-0.010,-0.010,-0.010,0.000,0.000,0.000
1605105398731699968,10.0.1.125,48,place,0.000,0.000,0.000,0.000,0.000,0.000
1605105400119056896,10.0.1.125,434,move_down,-0.020,-0.020,-0.020,0.000,0.000,0.000
1605105401601677824,10.0.1.125,403,move_down,-0.040,-0.040,-0.040,0.000,0.000,0.000
1605105403042760960,10.0.1.125,421,move_down,-0.060,-0.060,-0.060,0.000,0.000,0.000
1605105404553425920,10.0.1.125,459,move_down,-0.080,-0.080,-0.080,0.000,0.000,0.000
1605105406031341056,10.0.1.125,409,move_down,-0.100,-0.100,-0.100,0.000,0.000,0.000
1605105407506266112,10.0.1.125,421,move_down,-0.120,-0.120,-0.120,0.000,0.000,0.000
1605105408899728896,10.0.1.125,382,move_down,-0.140,-0.140,-0.140,0.000,0.000,0.000
1605105410349010944,10.0.1.125,400,move_down,-0.160,-0.160,-0.160,0.000,0.000,0.000
1605105411821448960,10.0.1.125,373,move_down,-0.180,-0.180,-0.180,0.000,0.000,0.000
1605105413299858176,10.0.1.125,428,move_down,-0.200,-0.200,-0.200,0.000,0.000,0.000
1605105414781513984,10.0.1.125,412,move_down,-0.220,-0.220,-0.220,0.000,0.000,0.000
1605105416212680192,10.0.1.125,398,move_down,-0.240,-0.240,-0.240,0.000,0.000,0.000
1605105417720514048,10.0.1.125,427,move_down,-0.260,-0.260,-0.260,0.000,0.000,0.000
1605105419191418880,10.0.1.125,412,move_down,-0.280,-0.280,-0.280,0.000,0.000,0.000
1605105420670291968,10.0.1.125,411,move_down,-0.300,-0.300,-0.300,0.000,0.000,0.000
1605105422114530048,10.0.1.125,369,move_down,-0.320,-0.320,-0.320,0.000,0.000,0.000
1605105423602420992,10.0.1.125,437,move_down,-0.340,-0.340,-0.340,0.000,0.000,0.000
1605105425051331072,10.0.1.125,385,move_down,-0.360,-0.360,-0.360,0.000,0.000,0.000
1605105426499563008,10.0.1.125,409,move_down,-0.380,-0.380,-0.380,0.000,0.000,0.000
1605105427990235136,10.0.1.125,420,move_down,-0.400,-0.400,-0.400,0.000,0.000,0.000
1605105429474311168,10.0.1.125,402,move_down,-0.420,-0.420,-0.420,0.000,0.000,0.000
1605105430935698944,10.0.1.125,417,move_down,-0.440,-0.440,-0.440,0.000,0.000,0.000
1605105432391201024,10.0.1.125,406,move_down,-0.460,-0.460,-0.460,0.000,0.000,0.000
1605105433866324992,10.0.1.125,421,move_down,-0.480,-0.480,-0.480,0.000,0.000,0.000
1605105435400939008,10.0.1.125,465,move_down,-0.500,-0.500,-0.500,0.000,0.000,0.000
1605105436871280896,10.0.1.125,413,move_down,-0.520,-0.520,-0.520,0.000,0.000,0.000
1605105438326445056,10.0.1.125,381,move_down,-0.540,-0.540,-0.540,0.000,0.000,0.000
1605105439761088000,10.0.1.125,387,move_down,-0.560,-0.560,-0.560,0.000,0.000,0.000
1605105441224723968,10.0.1.125,416,move_down,-0.580,-0.580,-0.580,0.000,0.000,0.000
1605105442302504960,10.0.1.125,38,pick,-0.590,-0.590,-0.590,0.000,0.000,0.000
1605105443303281152,10.0.1.125,38,pick,-0.600,-0.600,-0.600,0.000,0.000,0.000
1605105444302844160,10.0.1.125,37,pick,-0.610,-0.610,-0.610,0.000,0.000,0.000
1605105445307257856,10.0.1.125,40,pick,-0.620,-0.620,-0.620,0.000,0.000,0.000
1605105446310509056,10.0.1.125,42,pick,-0.630,-0.630,-0.630,0.000,0.000,0.000
1605105447320871168,10.0.1.125,51,pick,-0.640,-0.640,-0.640,0.000,0.000,0.000
1605105448321113088,10.0.1.125,50,pick,-0.650,-0.650,-0.650,0.000,0.000,0.000
1605105449322976000,10.0.1.125,49,pick,-0.660,-0.660,-0.660,0.000,0.000,0.000
1605105450321228032,10.0.1.125,46,pick,-0.670,-0.670,-0.670,0.000,0.000,0.000
1605105451327783168,10.0.1.125,52,pick,-0.680,-0.680,-0.680,0.000,0.000,0.000
1605105452321432064,10.0.1.125,44,pick,-0.690,-0.690,-0.690,0.000,0.000,0.000
1605105453321465088,10.0.1.125,43,pick,-0.700,-0.700,-0.700,0.000,0.000,0.000
1605105454319962112,10.0.1.125,40,pick,-0.710,-0.710,-0.710,0.000,0.000,0.000
1605105455323961088,10.0.1.125,43,pick,-0.720,-0.720,-0.720,0.000,0.000,0.000
1605105456321984000,10.0.1.125,39,pick,-0.730,-0.730,-0.730,0.000,0.000,0.000
1605105457324381952,10.0.1.125,41,pick,-0.740,-0.740,-0.740,0.000,0.000,0.000
1605105458324697088,10.0.1.125,39,pick,-0.750,-0.750,-0.750,0.000,0.000,0.000
1605105459320061952,10.0.1.125,33,pick,-0.760,-0.760,-0.760,0.000,0.000,0.000
1605105460322149120,10.0.1.125,34,pick,-0.770,-0.770,-0.770,0.000,0.000,0.000
1605105461704744192,10.0.1.125,416,move_up,-0.750,-0.750,-0.750,0.000,0.000,0.000
1605105463201819904,10.0.1.125,419,move_up,-0.730,-0.730,-0.730,0.000,0.000,0.000
1605105464710349056,10.0.1.125,446,move_up,-0.710,-0.710,-0.710,0.000,0.000,0.000
1605105466201366784,10.0.1.125,434,move_up,-0.690,-0.690,-0.690,0.000,0.000,0.000
1605105467643186944,10.0.1.125,393,move_up,-0.670,-0.670,-0.670,0.000,0.000,0.000
1605105469122483968,10.0.1.125,397,move_up,-0.650,-0.650,-0.650,0.000,0.000,0.000
1605105470626403072,10.0.1.125,402,move_up,-0.630,-0.630,-0.630,0.000,0.000,0.000
1605105472150749952,10.0.1.125,448,move_up,-0.610,-0.610,-0.610,0.000,0.000,0.000
1605105473621752064,10.0.1.125,421,move_up,-0.590,-0.590,-0.590,0.000,0.000,0.000
1605105475076837120,10.0.1.125,393,move_up,-0.570,-0.570,-0.570,0.000,0.000,0.000
1605105476531260928,10.0.1.125,411,move_up,-0.550,-0.550,-0.550,0.000,0.000,0.000
1605105478027698944,10.0.1.125,424,move_up,-0.530,-0.530,-0.530,0.000,0.000,0.000
1605105479551675136,10.0.1.125,442,move_up,-0.510,-0.510,-0.510,0.000,0.000,0.000
1605105481020418816,10.0.1.125,415,move_up,-0.490,-0.490,-0.490,0.000,0.000,0.000
1605105482491177984,10.0.1.125,391,move_up,-0.470,-0.470,-0.470,0.000,0.000,0.000
1605105483938317056,10.0.1.125,406,move_up,-0.450,-0.450,-0.450,0.000,0.000,0.000
1605105485403646976,10.0.1.125,367,move_up,-0.430,-0.430,-0.430,0.000,0.000,0.000
1605105486901870080,10.0.1.125,436,move_up,-0.410,-0.410,-0.410,0.000,0.000,0.000
1605105488381153024,10.0.1.125,419,move_up,-0.390,-0.390,-0.390,0.000,0.000,0.000
1605105489878417920,10.0.1.125,420,move_up,-0.370,-0.370,-0.370,0.000,0.000,0.000
1605105491360749056,10.0.1.125,412,move_up,-0.350,-0.350,-0.350,0.000,0.000,0.000
1605105492828644096,10.0.1.125,384,move_up,-0.330,-0.330,-0.330,0.000,0.000,0.000
1605105494289912064,10.0.1.125,393,move_up,-0.310,-0.310,-0.310,0.000,0.000,0.000
1605105495749217024,10.0.1.125,371,move_up,-0.290,-0.290,-0.290,0.000,0.000,0.000
1605105497289524992,10.0.1.125,435,move_up,-0.270,-0.270,-0.270,0.000,0.000,0.000
1605105498718898176,10.0.1.125,380,move_up,-0.250,-0.250,-0.250,0.000,0.000,0.000
1605105500169071872,10.0.1.125,398,move_up,-0.230,-0.230,-0.230,0.000,0.000,0.000
1605105501636649984,10.0.1.125,381,move_up,-0.210,-0.210,-0.210,0.000,0.000,0.000
1605105503069440000,10.0.1.125,414,move_up,-0.190,-0.190,-0.190,0.000,0.000,0.000
1605105506149741824,10.0.1.125,38,place,-0.160,-0.160,-0.160,0.000,0.000,0.000
1605105507149734144,10.0.1.125,37,place,-0.150,-0.150,-0.150,0.000,0.000,0.000
1605105508149925888,10.0.1.125,36,place,-0.140,-0.140,-0.140,0.000,0.000,0.000
1605105509149607936,10.0.1.125,35,place,-0.130,-0.130,-0.130,0.000,0.000,0.000
1605105510149745920,10.0.1.125,33,place,-0.120,-0.120,-0.120,0.000,0.000,0.000
1605105511149522176,10.0.1.125,32,place,-0.110,-0.110,-0.110,0.000,0.000,0.000
1605105512169426944,10.0.1.125,48,place,-0.100,-0.100,-0.100,0.000,0.000,0.000
1605105513170294016,10.0.1.125,47,place,-0.090,-0.090,-0.090,0.000,0.000,0.000
1605105514169189888,10.0.1.125,45,place,-0.080,-0.080,-0.080,0.000,0.000,0.000
1605105515169187072,10.0.1.125,43,place,-0.070,-0.070,-0.070,0.000,0.000,0.000
1605105516169115904,10.0.1.125,42,place,-0.060,-0.060,-0.060,0.000,0.000,0.000
1605105517169233920,10.0.1.125,41,place,-0.050,-0.050,-0.050,0.000,0.000,0.000
1605105518169114112,10.0.1.125,39,place,-0.040,-0.040,-0.040,0.000,0.000,0.000
1605105520168896000,10.0.1.125,37,place,-0.020,-0.020,-0.020,0.000,0.000,0.000
1605105522176485888,10.0.1.125,40,place,0.000,0.000,0.000,0.000,0.000,0.000
1605105523545110016,10.0.1.125,407,move_down,-0.020,-0.020,-0.020,0.000,0.000,0.000
1605105524989456896,10.0.1.125,389,move_down,-0.040,-0.040,-0.040,0.000,0.000,0.000
1605105526460166912,10.0.1.125,426,move_down,-0.060,-0.060,-0.060,0.000,0.000,0.000
1605105527889368064,10.0.1.125,395,move_down,-0.080,-0.080,-0.080,0.000,0.000,0.000
1605105529358967040,10.0.1.125,415,move_down,-0.100,-0.100,-0.100,0.000,0.000,0.000
1605105530887081984,10.0.1.125,432,move_down,-0.120,-0.120,-0.120,0.000,0.000,0.000
1605105532329443072,10.0.1.125,382,move_down,-0.140,-0.140,-0.140,0.000,0.000,0.000
1605105533780250112,10.0.1.125,403,move_down,-0.160,-0.160,-0.160,0.000,0.000,0.000
1605105535259276032,10.0.1.125,404,move_down,-0.180,-0.180,-0.180,0.000,0.000,0.000
1605105536710458880,10.0.1.125,403,move_down,-0.200,-0.200,-0.200,0.000,0.000,0.000
1605105538161138176,10.0.1.125,399,move_down,-0.220,-0.220,-0.220,0.000,0.000,0.000
1605105539600483840,10.0.1.125,412,move_down,-0.240,-0.240,-0.240,0.000,0.000,0.000
1605105541070347008,10.0.1.125,403,move_down,-0.260,-0.260,-0.260,0.000,0.000,0.000
1605105542530895872,10.0.1.125,414,move_down,-0.280,-0.280,-0.280,0.000,0.000,0.000
1605105543992494080,10.0.1.125,422,move_down,-0.300,-0.300,-0.300,0.000,0.000,0.000
1605105545460396032,10.0.1.125,430,move_down,-0.320,-0.320,-0.320,0.000,0.000,0.000
1605105546922171136,10.0.1.125,435,move_down,-0.340,-0.340,-0.340,0.000,0.000,0.000
1605105548389277952,10.0.1.125,406,move_down,-0.360,-0.360,-0.360,0.000,0.000,0.000
1605105549829252096,10.0.1.125,392,move_down,-0.380,-0.380,-0.380,0.000,0.000,0.000
1605105551289884928,10.0.1.125,406,move_down,-0.400,-0.400,-0.400,0.000,0.000,0.000
1605105552769867776,10.0.1.125,394,move_down,-0.420,-0.420,-0.420,0.000,0.000,0.000
1605105554218857984,10.0.1.125,392,move_down,-0.440,-0.440,-0.440,0.000,0.000,0.000
1605105555644299008,10.0.1.125,366,move_down,-0.460,-0.460,-0.460,0.000,0.000,0.000
1605105557131653120,10.0.1.125,408,move_down,-0.480,-0.480,-0.480,0.000,0.000,0.000
1605105558643918080,10.0.1.125,425,move_down,-0.500,-0.500,-0.500,0.000,0.000,0.000
1605105560180838144,10.0.1.125,481,move_down,-0.520,-0.520,-0.520,0.000,0.000,0.000
1605105561690215168,10.0.1.125,399,move_down,-0.540,-0.540,-0.540,0.000,0.000,0.000
1605105563119590144,10.0.1.125,369,move_down,-0.560,-0.560,-0.560,0.000,0.000,0.000
1605105564542699008,10.0.1.125,376,move_down,-0.580,-0.580,-0.580,0.000,0.000,0.000
1605105565640176896,10.0.1.125,44,pick,-0.590,-0.590,-0.590,0.000,0.000,0.000
1605105566640832000,10.0.1.125,43,pick,-0.600,-0.600,-0.600,0.000,0.000,0.000
1605105567640013824,10.0.1.125,41,pick,-0.610,-0.610,-0.610,0.000,0.000,0.000
1605105568645448960,10.0.1.125,45,pick,-0.620,-0.620,-0.620,0.000,0.000,0.000
1605105569644985088,10.0.1.125,43,pick,-0.630,-0.630,-0.630,0.000,0.000,0.000
1605105570640753152,10.0.1.125,38,pick,-0.640,-0.640,-0.640,0.000,0.000,0.000
1605105571641582848,10.0.1.125,37,pick,-0.650,-0.650,-0.650,0.000,0.000,0.000
1605105572640779008,10.0.1.125,35,pick,-0.660,-0.660,-0.660,0.000,0.000,0.000
1605105573654963968,10.0.1.125,48,pick,-0.670,-0.670,-0.670,0.000,0.000,0.000
1605105574639645952,10.0.1.125,32,pick,-0.680,-0.680,-0.680,0.000,0.000,0.000
1605105575665810176,10.0.1.125,58,pick,-0.690,-0.690,-0.690,0.000,0.000,0.000
1605105577671478016,10.0.1.125,57,pick,-0.710,-0.710,-0.710,0.000,0.000,0.000
1605105578665935872,10.0.1.125,50,pick,-0.720,-0.720,-0.720,0.000,0.000,0.000
1605105579661541888,10.0.1.125,45,pick,-0.730,-0.730,-0.730,0.000,0.000,0.000
1605105580660176128,10.0.1.125,42,pick,-0.740,-0.740,-0.740,0.000,0.000,0.000
1605105581663485952,10.0.1.125,44,pick,-0.750,-0.750,-0.750,0.000,0.000,0.000
1605105582660162048,10.0.1.125,39,pick,-0.760,-0.760,-0.760,0.000,0.000,0.000
1605105583677437184,10.0.1.125,55,pick,-0.770,-0.770,-0.770,0.000,0.000,0.000
1605105585000756992,10.0.1.125,378,move_up,-0.750,-0.750,-0.750,0.000,0.000,0.000
1605105586485086976,10.0.1.125,407,move_up,-0.730,-0.730,-0.730,0.000,0.000,0.000
1605105587931322112,10.0.1.125,396,move_up,-0.710,-0.710,-0.710,0.000,0.000,0.000
1605105589453947904,10.0.1.125,438,move_up,-0.690,-0.690,-0.690,0.000,0.000,0.000
1605105590922920960,10.0.1.125,383,move_up,-0.670,-0.670,-0.670,0.000,0.000,0.000
1605105592353380864,10.0.1.125,401,move_up,-0.650,-0.650,-0.650,0.000,0.000,0.000
1605105593831414016,10.0.1.125,399,move_up,-0.630,-0.630,-0.630,0.000,0.000,0.000
1605105595281259008,10.0.1.125,398,move_up,-0.610,-0.610,-0.610,0.000,0.000,0.000
1605105596722918144,10.0.1.125,394,move_up,-0.590,-0.590,-0.590,0.000,0.000,0.000
1605105598215748096,10.0.1.125,403,move_up,-0.570,-0.570,-0.570,0.000,0.000,0.000
1605105599745762048,10.0.1.125,450,move_up,-0.550,-0.550,-0.550,0.000,0.000,0.000
1605105601253093120,10.0.1.125,429,move_up,-0.530,-0.530,-0.530,0.000,0.000,0.000
1605105602718800128,10.0.1.125,415,move_up,-0.510,-0.510,-0.510,0.000,0.000,0.000
1605105604192410112,10.0.1.125,405,move_up,-0.490,-0.490,-0.490,0.000,0.000,0.000
1605105605693106944,10.0.1.125,437,move_up,-0.470,-0.470,-0.470,0.000,0.000,0.000
1605105607174423808,10.0.1.125,398,move_up,-0.450,-0.450,-0.450,0.000,0.000,0.000
1605105608668450048,10.0.1.125,414,move_up,-0.430,-0.430,-0.430,0.000,0.000,0.000
1605105610118876928,10.0.1.125,433,move_up,-0.410,-0.410,-0.410,0.000,0.000,0.000
1605105611645137152,10.0.1.125,445,move_up,-0.390,-0.390,-0.390,0.000,0.000,0.000
1605105613308763136,10.0.1.125,415,move_up,-0.370,-0.370,-0.370,0.000,0.000,0.000
1605105614813807104,10.0.1.125,421,move_up,-0.350,-0.350,-0.350,0.000,0.000,0.000
1605105616289088000,10.0.1.125,373,move_up,-0.330,-0.330,-0.330,0.000,0.000,0.000
1605105617793311232,10.0.1.125,429,move_up,-0.310,-0.310,-0.310,0.000,0.000,0.000
1605105619284969984,10.0.1.125,404,move_up,-0.290,-0.290,-0.290,0.000,0.000,0.000
1605105620792925952,10.0.1.125,438,move_up,-0.270,-0.270,-0.270,0.000,0.000,0.000
1605105622279032064,10.0.1.125,373,move_up,-0.250,-0.250,-0.250,0.000,0.000,0.000
1605105623831322880,10.0.1.125,465,move_up,-0.230,-0.230,-0.230,0.000,0.000,0.000
1605105625332453888,10.0.1.125,413,move_up,-0.210,-0.210,-0.210,0.000,0.000,0.000
1605105626805947136,10.0.1.125,414,move_up,-0.190,-0.190,-0.190,0.000,0.000,0.000
1605105627965046016,10.0.1.125,48,place,-0.180,-0.180,-0.180,0.000,0.000,0.000
1605105628966972160,10.0.1.125,48,place,-0.170,-0.170,-0.170,0.000,0.000,0.000
1605105629959534848,10.0.1.125,40,place,-0.160,-0.160,-0.160,0.000,0.000,0.000
1605105630983539200,10.0.1.125,63,place,-0.150,-0.150,-0.150,0.000,0.000,0.000
1605105631973568000,10.0.1.125,52,place,-0.140,-0.140,-0.140,0.000,0.000,0.000
1605105632969140992,10.0.1.125,46,place,-0.130,-0.130,-0.130,0.000,0.000,0.000
1605105633971906816,10.0.1.125,47,place,-0.120,-0.120,-0.120,0.000,0.000,0.000
1605105634972832000,10.0.1.125,46,place,-0.110,-0.110,-0.110,0.000,0.000,0.000
1605105635972425984,10.0.1.125,44,place,-0.100,-0.100,-0.100,0.000,0.000,0.000
1605105636967691776,10.0.1.125,38,place,-0.090,-0.090,-0.090,0.000,0.000,0.000
1605105637967472128,10.0.1.125,37,place,-0.080,-0.080,-0.080,0.000,0.000,0.000
1605105638966112000,10.0.1.125,34,place,-0.070,-0.070,-0.070,0.000,0.000,0.000
1605105639968908032,10.0.1.125,36,place,-0.060,-0.060,-0.060,0.000,0.000,0.000
1605105640968844800,10.0.1.125,34,place,-0.050,-0.050,-0.050,0.000,0.000,0.000
1605105641965814016,10.0.1.125,30,place,-0.040,-0.040,-0.040,0.000,0.000,0.000
1605105642986183936,10.0.1.125,49,place,-0.030,-0.030,-0.030,0.000,0.000,0.000
1605105643980145920,10.0.1.125,35,place,-0.020,-0.020,-0.020,0.000,0.000,0.000
1605105644983841792,10.0.1.125,38,place,-0.010,-0.010,-0.010,0.000,0.000,0.000
1605105645986138112,10.0.1.125,37,place,0.000,0.000,0.000,0.000,0.000,0.000
1605105647413821952,10.0.1.125,463,move_down,-0.020,-0.020,-0.020,0.000,0.000,0.000
1605105648925177088,10.0.1.125,410,move_down,-0.040,-0.040,-0.040,0.000,0.000,0.000
1605105650350435072,10.0.1.125,370,move_down,-0.060,-0.060,-0.060,0.000,0.000,0.000
1605105651792262912,10.0.1.125,385,move_down,-0.080,-0.080,-0.080,0.000,0.000,0.000
1605105653292100864,10.0.1.125,393,move_down,-0.100,-0.100,-0.100,0.000,0.000,0.000
1605105654781958144,10.0.1.125,420,move_down,-0.120,-0.120,-0.120,0.000,0.000,0.000
1605105656263454976,10.0.1.125,419,move_down,-0.140,-0.140,-0.140,0.000,0.000,0.000
1605105657765431808,10.0.1.125,408,move_down,-0.160,-0.160,-0.160,0.000,0.000,0.000
1605105659199657984,10.0.1.125,426,move_down,-0.180,-0.180,-0.180,0.000,0.000,0.000
1605105660715275008,10.0.1.125,437,move_down,-0.200,-0.200,-0.200,0.000,0.000,0.000
1605105662190298112,10.0.1.125,390,move_down,-0.220,-0.220,-0.220,0.000,0.000,0.000
1605105663730480896,10.0.1.125,446,move_down,-0.240,-0.240,-0.240,0.000,0.000,0.000
1605105665215954944,10.0.1.125,443,move_down,-0.260,-0.260,-0.260,0.000,0.000,0.000
1605105666690886912,10.0.1.125,443,move_down,-0.280,-0.280,-0.280,0.000,0.000,0.000
1605105668129885952,10.0.1.125,396,move_down,-0.300,-0.300,-0.300,0.000,0.000,0.000
1605105669609684992,10.0.1.125,431,move_down,-0.320,-0.320,-0.320,0.000,0.000,0.000
1605105671211442944,10.0.1.125,498,move_down,-0.340,-0.340,-0.340,0.000,0.000,0.000
1605105672690066176,10.0.1.125,430,move_down,-0.360,-0.360,-0.360,0.000,0.000,0.000
1605105674195606016,10.0.1.125,415,move_down,-0.380,-0.380,-0.380,0.000,0.000,0.000
1605105675783281152,10.0.1.125,465,move_down,-0.400,-0.400,-0.400,0.000,0.000,0.000
1605105677254044160,10.0.1.125,411,move_down,-0.420,-0.420,-0.420,0.000,0.000,0.000
1605105678765477888,10.0.1.125,412,move_down,-0.440,-0.440,-0.440,0.000,0.000,0.000
1605105680273116160,10.0.1.125,485,move_down,-0.460,-0.460,-0.460,0.000,0.000,0.000
1605105681780723200,10.0.1.125,439,move_down,-0.480,-0.480,-0.480,0.000,0.000,0.000
1605105683281230080,10.0.1.125,421,move_down,-0.500,-0.500,-0.500,0.000,0.000,0.000
1605105684743617024,10.0.1.125,392,move_down,-0.520,-0.520,-0.520,0.000,0.000,0.000
1605105686270322176,10.0.1.125,432,move_down,-0.540,-0.540,-0.540,0.000,0.000,0.000
1605105687756481792,10.0.1.125,407,move_down,-0.560,-0.560,-0.560,0.000,0.000,0.000
1605105689231809024,10.0.1.125,437,move_down,-0.580,-0.580,-0.580,0.000,0.000,0.000
1605105690417971968,10.0.1.125,51,pick,-0.590,-0.590,-0.590,0.000,0.000,0.000
1605105691418332160,10.0.1.125,50,pick,-0.600,-0.600,-0.600,0.000,0.000,0.000
1605105692412338944,10.0.1.125,42,pick,-0.610,-0.610,-0.610,0.000,0.000,0.000
1605105693413656832,10.0.1.125,36,pick,-0.620,-0.620,-0.620,0.000,0.000,0.000
1605105694412300032,10.0.1.125,32,pick,-0.630,-0.630,-0.630,0.000,0.000,0.000
1605105695430497792,10.0.1.125,49,pick,-0.640,-0.640,-0.640,0.000,0.000,0.000
1605105696430176000,10.0.1.125,47,pick,-0.650,-0.650,-0.650,0.000,0.000,0.000
1605105697432080128,10.0.1.125,48,pick,-0.660,-0.660,-0.660,0.000,0.000,0.000
1605105698430400000,10.0.1.125,46,pick,-0.670,-0.670,-0.670,0.000,0.000,0.000
1605105699438168064,10.0.1.125,52,pick,-0.680,-0.680,-0.680,0.000,0.000,0.000
1605105700431611136,10.0.1.125,44,pick,-0.690,-0.690,-0.690,0.000,0.000,0.000
1605105701433136896,10.0.1.125,45,pick,-0.700,-0.700,-0.700,0.000,0.000,0.000
1605105702430502912,10.0.1.125,42,pick,-0.710,-0.710,-0.710,0.000,0.000,0.000
1605105703430167808,10.0.1.125,40,pick,-0.720,-0.720,-0.720,0.000,0.000,0.000
1605105704432137984,10.0.1.125,41,pick,-0.730,-0.730,-0.730,0.000,0.000,0.000
1605105705431706880,10.0.1.125,38,pick,-0.740,-0.740,-0.740,0.000,0.000,0.000
1605105706433548800,10.0.1.125,39,pick,-0.750,-0.750,-0.750,0.000,0.000,0.000
1605105707430483200,10.0.1.125,35,pick,-0.760,-0.760,-0.760,0.000,0.000,0.000
1605105708430267136,10.0.1.125,33,pick,-0.770,-0.770,-0.770,0.000,0.000,0.000
1605105709783298048,10.0.1.125,385,move_up,-0.750,-0.750,-0.750,0.000,0.000,0.000
1605105711231425024,10.0.1.125,384,move_up,-0.730,-0.730,-0.730,0.000,0.000,0.000
1605105712685046016,10.0.1.125,389,move_up,-0.710,-0.710,-0.710,0.000,0.000,0.000
1605105714121965824,10.0.1.125,415,move_up,-0.690,-0.690,-0.690,0.000,0.000,0.000
1605105715626476032,10.0.1.125,396,move_up,-0.670,-0.670,-0.670,0.000,0.000,0.000
1605105717107182080,10.0.1.125,426,move_up,-0.650,-0.650,-0.650,0.000,0.000,0.000
1605105718552165888,10.0.1.125,383,move_up,-0.630,-0.630,-0.630,0.000,0.000,0.000
1605105720021784064,10.0.1.125,407,move_up,-0.610,-0.610,-0.610,0.000,0.000,0.000
1605105721528780032,10.0.1.125,425,move_up,-0.590,-0.590,-0.590,0.000,0.000,0.000
1605105722962449920,10.0.1.125,395,move_up,-0.570,-0.570,-0.570,0.000,0.000,0.000
1605105724531763968,10.0.1.125,460,move_up,-0.550,-0.550,-0.550,0.000,0.000,0.000
1605105726022304000,10.0.1.125,409,move_up,-0.530,-0.530,-0.530,0.000,0.000,0.000
1605105727543288064,10.0.1.125,451,move_up,-0.510,-0.510,-0.510,0.000,0.000,0.000
1605105729071206144,10.0.1.125,447,move_up,-0.490,-0.490,-0.490,0.000,0.000,0.000
1605105730551718912,10.0.1.125,451,move_up,-0.470,-0.470,-0.470,0.000,0.000,0.000
1605105732031115008,10.0.1.125,405,move_up,-0.450,-0.450,-0.450,0.000,0.000,0.000
1605105733501976064,10.0.1.125,436,move_up,-0.430,-0.430,-0.430,0.000,0.000,0.000
1605105735043129088,10.0.1.125,442,move_up,-0.410,-0.410,-0.410,0.000,0.000,0.000
1605105736526274816,10.0.1.125,432,move_up,-0.390,-0.390,-0.390,0.000,0.000,0.000
1605105738014058240,10.0.1.125,424,move_up,-0.370,-0.370,-0.370,0.000,0.000,0.000
1605105739453003008,10.0.1.125,425,move_up,-0.350,-0.350,-0.350,0.000,0.000,0.000
1605105741001856000,10.0.1.125,439,move_up,-0.330,-0.330,-0.330,0.000,0.000,0.000
1605105742504005888,10.0.1.125,446,move_up,-0.310,-0.310,-0.310,0.000,0.000,0.000
1605105744032564992,10.0.1.125,452,move_up,-0.290,-0.290,-0.290,0.000,0.000,0.000
1605105745501846016,10.0.1.125,434,move_up,-0.270,-0.270,-0.270,0.000,0.000,0.000
1605105746927944960,10.0.1.125,398,move_up,-0.250,-0.250,-0.250,0.000,0.000,0.000
1605105748403024896,10.0.1.125,451,move_up,-0.230,-0.230,-0.230,0.000,0.000,0.000
1605105749891424768,10.0.1.125,406,move_up,-0.210,-0.210,-0.210,0.000,0.000,0.000
1605105751390789120,10.0.1.125,427,move_up,-0.190,-0.190,-0.190,0.000,0.000,0.000
1605105752532912128,10.0.1.125,42,place,-0.180,-0.180,-0.180,0.000,0.000,0.000
1605105753557862912,10.0.1.125,66,place,-0.170,-0.170,-0.170,0.000,0.000,0.000
1605105754550359040,10.0.1.125,57,place,-0.160,-0.160,-0.160,0.000,0.000,0.000
1605105755550193920,10.0.1.125,55,place,-0.150,-0.150,-0.150,0.000,0.000,0.000
1605105756533370880,10.0.1.125,34,place,-0.140,-0.140,-0.140,0.000,0.000,0.000
1605105757552654080,10.0.1.125,51,place,-0.130,-0.130,-0.130,0.000,0.000,0.000
1605105758556996096,10.0.1.125,54,place,-0.120,-0.120,-0.120,0.000,0.000,0.000
1605105759555704064,10.0.1.125,52,place,-0.110,-0.110,-0.110,0.000,0.000,0.000
1605105760551736064,10.0.1.125,46,place,-0.100,-0.100,-0.100,0.000,0.000,0.000
1605105761555702016,10.0.1.125,49,place,-0.090,-0.090,-0.090,0.000,0.000,0.000
1605105762560712192,10.0.1.125,52,place,-0.080,-0.080,-0.080,0.000,0.000,0.000
1605105763570422016,10.0.1.125,59,place,-0.070,-0.070,-0.070,0.000,0.000,0.000
1605105764554915072,10.0.1.125,42,place,-0.060,-0.060,-0.060,0.000,0.000,0.000
1605105765552867840,10.0.1.125,34,place,-0.050,-0.050,-0.050,0.000,0.000,0.000
1605105766573595904,10.0.1.125,52,place,-0.040,-0.040,-0.040,0.000,0.000,0.000
1605105767566932992,10.0.1.125,44,place,-0.030,-0.030,-0.030,0.000,0.000,0.000
1605105768572439040,10.0.1.125,48,place,-0.020,-0.020,-0.020,0.000,0.000,0.000
1605105769575796992,10.0.1.125,50,place,-0.010,-0.010,-0.010,0.000,0.000,0.000
1605105770574553088,10.0.1.125,47,place,0.000,0.000,0.000,0.000,0.000,0.000
1605105771959112960,10.0.1.125,431,move_down,-0.020,-0.020,-0.020,0.000,0.000,0.000
1605105773403915776,10.0.1.125,437,move_down,-0.040,-0.040,-0.040,0.000,0.000,0.000
1605105774891223808,10.0.1.125,401,move_down,-0.060,-0.060,-0.060,0.000,0.000,0.000
1605105776406081024,10.0.1.125,443,move_down,-0.080,-0.080,-0.080,0.000,0.000,0.000
1605105777892657152,10.0.1.125,398,move_down,-0.100,-0.100,-0.100,0.000,0.000,0.000
1605105779460286976,10.0.1.125,446,move_down,-0.120,-0.120,-0.120,0.000,0.000,0.000
1605105780970989824,10.0.1.125,417,move_down,-0.140,-0.140,-0.140,0.000,0.000,0.000
1605105782511226880,10.0.1.125,465,move_down,-0.160,-0.160,-0.160,0.000,0.000,0.000
1605105783945100032,10.0.1.125,423,move_down,-0.180,-0.180,-0.180,0.000,0.000,0.000
1605105785459766016,10.0.1.125,412,move_down,-0.200,-0.200,-0.200,0.000,0.000,0.000
1605105787000792064,10.0.1.125,432,move_down,-0.220,-0.220,-0.220,0.000,0.000,0.000
1605105788463180032,10.0.1.125,382,move_down,-0.240,-0.240,-0.240,0.000,0.000,0.000
1605105789983907072,10.0.1.125,453,move_down,-0.260,-0.260,-0.260,0.000,0.000,0.000
1605105791525352960,10.0.1.125,447,move_down,-0.280,-0.280,-0.280,0.000,0.000,0.000
1605105793105107968,10.0.1.125,432,move_down,-0.300,-0.300,-0.300,0.000,0.000,0.000
1605105794618711040,10.0.1.125,430,move_down,-0.320,-0.320,-0.320,0.000,0.000,0.000
1605105796123330048,10.0.1.125,439,move_down,-0.340,-0.340,-0.340,0.000,0.000,0.000
1605105797601144064,10.0.1.125,398,move_down,-0.360,-0.360,-0.360,0.000,0.000,0.000
1605105799052582912,10.0.1.125,430,move_down,-0.380,-0.380,-0.380,0.000,0.000,0.000
1605105800578392064,10.0.1.125,419,move_down,-0.400,-0.400,-0.400,0.000,0.000,0.000
1605105802075624960,10.0.1.125,496,move_down,-0.420,-0.420,-0.420,0.000,0.000,0.000
1605105803593431040,10.0.1.125,428,move_down,-0.440,-0.440,-0.440,0.000,0.000,0.000
1605105805079969792,10.0.1.125,423,move_down,-0.460,-0.460,-0.460,0.000,0.000,0.000
1605105806581864192,10.0.1.125,403,move_down,-0.480,-0.480,-0.480,0.000,0.000,0.000
1605105808042257920,10.0.1.125,437,move_down,-0.500,-0.500,-0.500,0.000,0.000,0.000
1605105809485733120,10.0.1.125,422,move_down,-0.520,-0.520,-0.520,0.000,0.000,0.000
1605105811028608000,10.0.1.125,446,move_down,-0.540,-0.540,-0.540,0.000,0.000,0.000
1605105812579879168,10.0.1.125,457,move_down,-0.560,-0.560,-0.560,0.000,0.000,0.000
1605105814155667968,10.0.1.125,481,move_down,-0.580,-0.580,-0.580,0.000,0.000,0.000
1605105815285113088,10.0.1.125,46,pick,-0.590,-0.590,-0.590,0.000,0.000,0.000
1605105816272205056,10.0.1.125,32,pick,-0.600,-0.600,-0.600,0.000,0.000,0.000
1605105817292340992,10.0.1.125,50,pick,-0.610,-0.610,-0.610,0.000,0.000,0.000
1605105818291738112,10.0.1.125,49,pick,-0.620,-0.620,-0.620,0.000,0.000,0.000
1605105819300111104,10.0.1.125,56,pick,-0.630,-0.630,-0.630,0.000,0.000,0.000
1605105820293672960,10.0.1.125,48,pick,-0.640,-0.640,-0.640,0.000,0.000,0.000
1605105821293200128,10.0.1.125,46,pick,-0.650,-0.650,-0.650,0.000,0.000,0.000
1605105822292018944,10.0.1.125,44,pick,-0.660,-0.660,-0.660,0.000,0.000,0.000
1605105823295258112,10.0.1.125,45,pick,-0.670,-0.670,-0.670,0.000,0.000,0.000
1605105824306735872,10.0.1.125,53,pick,-0.680,-0.680,-0.680,0.000,0.000,0.000
1605105825294146048,10.0.1.125,38,pick,-0.690,-0.690,-0.690,0.000,0.000,0.000
1605105826308568064,10.0.1.125,51,pick,-0.700,-0.700,-0.700,0.000,0.000,0.000
1605105827293901056,10.0.1.125,35,pick,-0.710,-0.710,-0.710,0.000,0.000,0.000
1605105828293175040,10.0.1.125,33,pick,-0.720,-0.720,-0.720,0.000,0.000,0.000
1605105829298589952,10.0.1.125,37,pick,-0.730,-0.730,-0.730,0.000,0.000,0.000
1605105830312943104,10.0.1.125,50,pick,-0.740,-0.740,-0.740,0.000,0.000,0.000
1605105831317715968,10.0.1.125,52,pick,-0.750,-0.750,-0.750,0.000,0.000,0.000
1605105832319577856,10.0.1.125,53,pick,-0.760,-0.760,-0.760,0.000,0.000,0.000
1605105833323147008,10.0.1.125,55,pick,-0.770,-0.770,-0.770,0.000,0.000,0.000
1605105834705149952,10.0.1.125,434,move_up,-0.750,-0.750,-0.750,0.000,0.000,0.000
1605105836233381120,10.0.1.125,439,move_up,-0.730,-0.730,-0.730,0.000,0.000,0.000
1605105837718981120,10.0.1.125,436,move_up,-0.710,-0.710,-0.710,0.000,0.000,0.000
1605105839243830016,10.0.1.125,443,move_up,-0.690,-0.690,-0.690,0.000,0.000,0.000
1605105840772669952,10.0.1.125,445,move_up,-0.670,-0.670,-0.670,0.000,0.000,0.000
1605105842270971136,10.0.1.125,428,move_up,-0.650,-0.650,-0.650,0.000,0.000,0.000
1605105843746040064,10.0.1.125,415,move_up,-0.630,-0.630,-0.630,0.000,0.000,0.000
1605105845202272768,10.0.1.125,438,move_up,-0.610,-0.610,-0.610,0.000,0.000,0.000
1605105846694205952,10.0.1.125,425,move_up,-0.590,-0.590,-0.590,0.000,0.000,0.000
1605105848203408128,10.0.1.125,407,move_up,-0.570,-0.570,-0.570,0.000,0.000,0.000
1605105849737251072,10.0.1.125,453,move_up,-0.550,-0.550,-0.550,0.000,0.000,0.000
1605105851202312960,10.0.1.125,384,move_up,-0.530,-0.530,-0.530,0.000,0.000,0.000
1605105852774366976,10.0.1.125,457,move_up,-0.510,-0.510,-0.510,0.000,0.000,0.000
1605105854292845056,10.0.1.125,461,move_up,-0.490,-0.490,-0.490,0.000,0.000,0.000
1605105855804090112,10.0.1.125,444,move_up,-0.470,-0.470,-0.470,0.000,0.000,0.000
1605105857332578048,10.0.1.125,449,move_up,-0.450,-0.450,-0.450,0.000,0.000,0.000
1605105858824520192,10.0.1.125,423,move_up,-0.430,-0.430,-0.430,0.000,0.000,0.000
1605105860365537792,10.0.1.125,463,move_up,-0.410,-0.410,-0.410,0.000,0.000,0.000
1605105861932303872,10.0.1.125,483,move_up,-0.390,-0.390,-0.390,0.000,0.000,0.000
1605105863421858048,10.0.1.125,425,move_up,-0.370,-0.370,-0.370,0.000,0.000,0.000
1605105864953469952,10.0.1.125,454,move_up,-0.350,-0.350,-0.350,0.000,0.000,0.000
1605105866524595968,10.0.1.125,511,move_up,-0.330,-0.330,-0.330,0.000,0.000,0.000
1605105868012259840,10.0.1.125,426,move_up,-0.310,-0.310,-0.310,0.000,0.000,0.000
1605105869616283904,10.0.1.125,541,move_up,-0.290,-0.290,-0.290,0.000,0.000,0.000
1605105871092335872,10.0.1.125,403,move_up,-0.270,-0.270,-0.270,0.000,0.000,0.000
1605105872659027968,10.0.1.125,476,move_up,-0.250,-0.250,-0.250,0.000,0.000,0.000
1605105874237231104,10.0.1.125,448,move_up,-0.230,-0.230,-0.230,0.000,0.000,0.000
1605105875885698048,10.0.1.125,517,move_up,-0.210,-0.210,-0.210,0.000,0.000,0.000
1605105877815388928,10.0.1.125,435,move_up,-0.190,-0.190,-0.190,0.000,0.000,0.000
1605105878858194176,10.0.1.125,55,place,-0.180,-0.180,-0.180,0.000,0.000,0.000
1605105879852561920,10.0.1.125,48,place,-0.170,-0.170,-0.170,0.000,0.000,0.000
1605105880852911872,10.0.1.125,47,place,-0.160,-0.160,-0.160,0.000,0.000,0.000
1605105881856923136,10.0.1.125,50,place,-0.150,-0.150,-0.150,0.000,0.000,0.000
1605105882852294912,10.0.1.125,45,place,-0.140,-0.140,-0.140,0.000,0.000,0.000
1605105883852819968,10.0.1.125,44,place,-0.130,-0.130,-0.130,0.000,0.000,0.000
1605105884854032896,10.0.1.125,44,place,-0.120,-0.120,-0.120,0.000,0.000,0.000
1605105885851068928,10.0.1.125,39,place,-0.110,-0.110,-0.110,0.000,0.000,0.000
1605105886853094144,10.0.1.125,40,place,-0.100,-0.100,-0.100,0.000,0.000,0.000
1605105887853543168,10.0.1.125,39,place,-0.090,-0.090,-0.090,0.000,0.000,0.000
1605105888850754048,10.0.1.125,35,place,-0.080,-0.080,-0.080,0.000,0.000,0.000
1605105889852814848,10.0.1.125,35,place,-0.070,-0.070,-0.070,0.000,0.000,0.000
1605105890852752896,10.0.1.125,34,place,-0.060,-0.060,-0.060,0.000,0.000,0.000
1605105891852440064,10.0.1.125,32,place,-0.050,-0.050,-0.050,0.000,0.000,0.000
1605105892880732160,10.0.1.125,59,place,-0.040,-0.040,-0.040,0.000,0.000,0.000
1605105893879767808,10.0.1.125,57,place,-0.030,-0.030,-0.030,0.000,0.000,0.000
1605105894872663040,10.0.1.125,49,place,-0.020,-0.020,-0.020,0.000,0.000,0.000
1605105895873719040,10.0.1.125,48,place,-0.010,-0.010,-0.010,0.000,0.000,0.000
1605105896875915008,10.0.1.125,49,place,0.000,0.000,0.000,0.000,0.000,0.000
1605105898254817024,10.0.1.125,427,move_down,-0.020,-0.020,-0.020,0.000,0.000,0.000
1605105899752311040,10.0.1.125,434,move_down,-0.040,-0.040,-0.040,0.000,0.000,0.000
1605105901211731968,10.0.1.125,409,move_down,-0.060,-0.060,-0.060,0.000,0.000,0.000
1605105902749233920,10.0.1.125,452,move_down,-0.080,-0.080,-0.080,0.000,0.000,0.000
1605105904216110080,10.0.1.125,420,move_down,-0.100,-0.100,-0.100,0.000,0.000,0.000
1605105905762130944,10.0.1.125,446,move_down,-0.120,-0.120,-0.120,0.000,0.000,0.000
1605105907270263808,10.0.1.125,451,move_down,-0.140,-0.140,-0.140,0.000,0.000,0.000
1605105908806490880,10.0.1.125,470,move_down,-0.160,-0.160,-0.160,0.000,0.000,0.000
1605105910330732032,10.0.1.125,430,move_down,-0.180,-0.180,-0.180,0.000,0.000,0.000
1605105911855341824,10.0.1.125,455,move_down,-0.200,-0.200,-0.200,0.000,0.000,0.000
1605105913342947072,10.0.1.125,445,move_down,-0.220,-0.220,-0.220,0.000,0.000,0.000
1605105914825398016,10.0.1.125,424,move_down,-0.240,-0.240,-0.240,0.000,0.000,0.000
1605105916345298176,10.0.1.125,421,move_down,-0.260,-0.260,-0.260,0.000,0.000,0.000
1605105917816376832,10.0.1.125,420,move_down,-0.280,-0.280,-0.280,0.000,0.000,0.000
1605105919280787968,10.0.1.125,399,move_down,-0.300,-0.300,-0.300,0.000,0.000,0.000
1605105920837494016,10.0.1.125,438,move_down,-0.320,-0.320,-0.320,0.000,0.000,0.000
1605105922333586944,10.0.1.125,428,move_down,-0.340,-0.340,-0.340,0.000,0.000,0.000
1605105923813998080,10.0.1.125,418,move_down,-0.360,-0.360,-0.360,0.000,0.000,0.000
1605105925318083072,10.0.1.125,441,move_down,-0.380,-0.380,-0.380,0.000,0.000,0.000
1605105926785828096,10.0.1.125,416,move_down,-0.400,-0.400,-0.400,0.000,0.000,0.000
1605105928240418048,10.0.1.125,399,move_down,-0.420,-0.420,-0.420,0.000,0.000,0.000
1605105929722492928,10.0.1.125,438,move_down,-0.440,-0.440,-0.440,0.000,0.000,0.000
1605105931214900992,10.0.1.125,411,move_down,-0.460,-0.460,-0.460,0.000,0.000,0.000
1605105932757688064,10.0.1.125,429,move_down,-0.480,-0.480,-0.480,0.000,0.000,0.000
1605105934173633024,10.0.1.125,414,move_down,-0.500,-0.500,-0.500,0.000,0.000,0.000
1605105935679280128,10.0.1.125,480,move_down,-0.520,-0.520,-0.520,0.000,0.000,0.000
1605105937209868032,10.0.1.125,428,move_down,-0.540,-0.540,-0.540,0.000,0.000,0.000
1605105938690216960,10.0.1.125,421,move_down,-0.560,-0.560,-0.560,0.000,0.000,0.000
1605105940147751936,10.0.1.125,386,move_down,-0.580,-0.580,-0.580,0.000,0.000,0.000
1605105941240047104,10.0.1.125,40,pick,-0.590,-0.590,-0.590,0.000,0.000,0.000
1605105942242127872,10.0.1.125,41,pick,-0.600,-0.600,-0.600,0.000,0.000,0.000
1605105943241581824,10.0.1.125,39,pick,-0.610,-0.610,-0.610,0.000,0.000,0.000
1605105944255870208,10.0.1.125,51,pick,-0.620,-0.620,-0.620,0.000,0.000,0.000
1605105945261737216,10.0.1.125,56,pick,-0.630,-0.630,-0.630,0.000,0.000,0.000
1605105946250921984,10.0.1.125,44,pick,-0.640,-0.640,-0.640,0.000,0.000,0.000
1605105947248507904,10.0.1.125,40,pick,-0.650,-0.650,-0.650,0.000,0.000,0.000
1605105948258629120,10.0.1.125,49,pick,-0.660,-0.660,-0.660,0.000,0.000,0.000
1605105949258173952,10.0.1.125,45,pick,-0.670,-0.670,-0.670,0.000,0.000,0.000
1605105950258860032,10.0.1.125,41,pick,-0.680,-0.680,-0.680,0.000,0.000,0.000
1605105951256655104,10.0.1.125,38,pick,-0.690,-0.690,-0.690,0.000,0.000,0.000
1605105952278249984,10.0.1.125,57,pick,-0.700,-0.700,-0.700,0.000,0.000,0.000
1605105953299329024,10.0.1.125,76,pick,-0.710,-0.710,-0.710,0.000,0.000,0.000
1605105954260382976,10.0.1.125,36,pick,-0.720,-0.720,-0.720,0.000,0.000,0.000
1605105955260008960,10.0.1.125,34,pick,-0.730,-0.730,-0.730,0.000,0.000,0.000
1605105956258740992,10.0.1.125,31,pick,-0.740,-0.740,-0.740,0.000,0.000,0.000
1605105957282716160,10.0.1.125,54,pick,-0.750,-0.750,-0.750,0.000,0.000,0.000
1605105958292432128,10.0.1.125,57,pick,-0.760,-0.760,-0.760,0.000,0.000,0.000
1605105959292293120,10.0.1.125,56,pick,-0.770,-0.770,-0.770,0.000,0.000,0.000
1605105960649696000,10.0.1.125,410,move_up,-0.750,-0.750,-0.750,0.000,0.000,0.000
1605105962124764928,10.0.1.125,435,move_up,-0.730,-0.730,-0.730,0.000,0.000,0.000
1605105963603149056,10.0.1.125,399,move_up,-0.710,-0.710,-0.710,0.000,0.000,0.000
1605105965130578944,10.0.1.125,448,move_up,-0.690,-0.690,-0.690,0.000,0.000,0.000
1605105966606103808,10.0.1.125,410,move_up,-0.670,-0.670,-0.670,0.000,0.000,0.000
1605105968083966976,10.0.1.125,404,move_up,-0.650,-0.650,-0.650,0.000,0.000,0.000
1605105969555310848,10.0.1.125,407,move_up,-0.630,-0.630,-0.630,0.000,0.000,0.000
1605105971125488128,10.0.1.125,465,move_up,-0.610,-0.610,-0.610,0.000,0.000,0.000
1605105972623063040,10.0.1.125,443,move_up,-0.590,-0.590,-0.590,0.000,0.000,0.000
1605105974227193088,10.0.1.125,520,move_up,-0.570,-0.570,-0.570,0.000,0.000,0.000
1605105975820384000,10.0.1.125,538,move_up,-0.550,-0.550,-0.550,0.000,0.000,0.000
1605105977305552896,10.0.1.125,466,move_up,-0.530,-0.530,-0.530,0.000,0.000,0.000
1605105978868720128,10.0.1.125,542,move_up,-0.510,-0.510,-0.510,0.000,0.000,0.000
1605105980549145088,10.0.1.125,577,move_up,-0.490,-0.490,-0.490,0.000,0.000,0.000
1605105982060358912,10.0.1.125,409,move_up,-0.470,-0.470,-0.470,0.000,0.000,0.000
1605105983655030016,10.0.1.125,517,move_up,-0.450,-0.450,-0.450,0.000,0.000,0.000
1605105985275699968,10.0.1.125,550,move_up,-0.430,-0.430,-0.430,0.000,0.000,0.000
1605105986877240832,10.0.1.125,519,move_up,-0.410,-0.410,-0.410,0.000,0.000,0.000
1605105988399010816,10.0.1.125,454,move_up,-0.390,-0.390,-0.390,0.000,0.000,0.000
1605105989930440960,10.0.1.125,456,move_up,-0.370,-0.370,-0.370,0.000,0.000,0.000
1605105991452796928,10.0.1.125,445,move_up,-0.350,-0.350,-0.350,0.000,0.000,0.000
1605105992997047808,10.0.1.125,442,move_up,-0.330,-0.330,-0.330,0.000,0.000,0.000
1605105994653208064,10.0.1.125,507,move_up,-0.310,-0.310,-0.310,0.000,0.000,0.000
1605105996218169856,10.0.1.125,485,move_up,-0.290,-0.290,-0.290,0.000,0.000,0.000
1605105997730350080,10.0.1.125,429,move_up,-0.270,-0.270,-0.270,0.000,0.000,0.000
1605105999366940928,10.0.1.125,541,move_up,-0.250,-0.250,-0.250,0.000,0.000,0.000
1605106000895677952,10.0.1.125,469,move_up,-0.230,-0.230,-0.230,0.000,0.000,0.000
1605106002482824960,10.0.1.125,539,move_up,-0.210,-0.210,-0.210,0.000,0.000,0.000
1605106004026909184,10.0.1.125,447,move_up,-0.190,-0.190,-0.190,0.000,0.000,0.000
1605106005178877952,10.0.1.125,50,place,-0.180,-0.180,-0.180,0.000,0.000,0.000
1605106006169931776,10.0.1.125,40,place,-0.170,-0.170,-0.170,0.000,0.000,0.000
1605106007177985792,10.0.1.125,46,place,-0.160,-0.160,-0.160,0.000,0.000,0.000
1605106008206285056,10.0.1.125,73,place,-0.150,-0.150,-0.150,0.000,0.000,0.000
1605106009179795968,10.0.1.125,46,place,-0.140,-0.140,-0.140,0.000,0.000,0.000
1605106010178603008,10.0.1.125,43,place,-0.130,-0.130,-0.130,0.000,0.000,0.000
1605106011174676992,10.0.1.125,38,place,-0.120,-0.120,-0.120,0.000,0.000,0.000
1605106012172382208,10.0.1.125,34,place,-0.110,-0.110,-0.110,0.000,0.000,0.000
1605106013172561920,10.0.1.125,31,place,-0.100,-0.100,-0.100,0.000,0.000,0.000
1605106014188849920,10.0.1.125,46,place,-0.090,-0.090,-0.090,0.000,0.000,0.000
1605106015193443072,10.0.1.125,50,place,-0.080,-0.080,-0.080,0.000,0.000,0.000
1605106016191972864,10.0.1.125,47,place,-0.070,-0.070,-0.070,0.000,0.000,0.000
1605106017196683776,10.0.1.125,50,place,-0.060,-0.060,-0.060,0.000,0.000,0.000
1605106018202213120,10.0.1.125,54,place,-0.050,-0.050,-0.050,0.000,0.000,0.000
1605106019192670976,10.0.1.125,43,place,-0.040,-0.040,-0.040,0.000,0.000,0.000
1605106020196113152,10.0.1.125,42,place,-0.030,-0.030,-0.030,0.000,0.000,0.000
1605106021203298048,10.0.1.125,47,place,-0.020,-0.020,-0.020,0.000,0.000,0.000
1605106022213763840,10.0.1.125,56,place,-0.010,-0.010,-0.010,0.000,0.000,0.000
1605106023214740992,10.0.1.125,48,place,0.000,0.000,0.000,0.000,0.000,0.000
1605106024616067840,10.0.1.125,447,move_down,-0.020,-0.020,-0.020,0.000,0.000,0.000
1605106026056410112,10.0.1.125,399,move_down,-0.040,-0.040,-0.040,0.000,0.000,0.000
1605106027606131968,10.0.1.125,435,move_down,-0.060,-0.060,-0.060,0.000,0.000,0.000
1605106029131324928,10.0.1.125,463,move_down,-0.080,-0.080,-0.080,0.000,0.000,0.000
1605106030643342080,10.0.1.125,443,move_down,-0.100,-0.100,-0.100,0.000,0.000,0.000
1605106032205995008,10.0.1.125,449,move_down,-0.120,-0.120,-0.120,0.000,0.000,0.000
1605106033730034944,10.0.1.125,431,move_down,-0.140,-0.140,-0.140,0.000,0.000,0.000
1605106035240103936,10.0.1.125,465,move_down,-0.160,-0.160,-0.160,0.000,0.000,0.000
1605106036770159872,10.0.1.125,462,move_down,-0.180,-0.180,-0.180,0.000,0.000,0.000
1605106038282664960,10.0.1.125,418,move_down,-0.200,-0.200,-0.200,0.000,0.000,0.000
1605106039941004032,10.0.1.125,547,move_down,-0.220,-0.220,-0.220,0.000,0.000,0.000
1605106041514919936,10.0.1.125,456,move_down,-0.240,-0.240,-0.240,0.000,0.000,0.000
1605106043069714176,10.0.1.125,487,move_down,-0.260,-0.260,-0.260,0.000,0.000,0.000
1605106044640316928,10.0.1.125,447,move_down,-0.280,-0.280,-0.280,0.000,0.000,0.000
1605106046269433856,10.0.1.125,552,move_down,-0.300,-0.300,-0.300,0.000,0.000,0.000
1605106047819601152,10.0.1.125,421,move_down,-0.320,-0.320,-0.320,0.000,0.000,0.000
1605106049378134016,10.0.1.125,504,move_down,-0.340,-0.340,-0.340,0.000,0.000,0.000
1605106050963810048,10.0.1.125,493,move_down,-0.360,-0.360,-0.360,0.000,0.000,0.000
1605106052484782080,10.0.1.125,468,move_down,-0.380,-0.380,-0.380,0.000,0.000,0.000
1605106054014054912,10.0.1.125,436,move_down,-0.400,-0.400,-0.400,0.000,0.000,0.000
1605106055601711872,10.0.1.125,506,move_down,-0.420,-0.420,-0.420,0.000,0.000,0.000
1605106057163875072,10.0.1.125,459,move_down,-0.440,-0.440,-0.440,0.000,0.000,0.000
1605106058669446912,10.0.1.125,427,move_down,-0.460,-0.460,-0.460,0.000,0.000,0.000
1605106060238639104,10.0.1.125,497,move_down,-0.480,-0.480,-0.480,0.000,0.000,0.000
1605106061756918016,10.0.1.125,447,move_down,-0.500,-0.500,-0.500,0.000,0.000,0.000
1605106063304456960,10.0.1.125,467,move_down,-0.520,-0.520,-0.520,0.000,0.000,0.000
1605106064838021120,10.0.1.125,449,move_down,-0.540,-0.540,-0.540,0.000,0.000,0.000
1605106066313249024,10.0.1.125,425,move_down,-0.560,-0.560,-0.560,0.000,0.000,0.000
1605106067849734144,10.0.1.125,442,move_down,-0.580,-0.580,-0.580,0.000,0.000,0.000
1605106068982682880,10.0.1.125,49,pick,-0.590,-0.590,-0.590,0.000,0.000,0.000
1605106069980808960,10.0.1.125,46,pick,-0.600,-0.600,-0.600,0.000,0.000,0.000
1605106070985897984,10.0.1.125,50,pick,-0.610,-0.610,-0.610,0.000,0.000,0.000
1605106072983227904,10.0.1.125,44,pick,-0.630,-0.630,-0.630,0.000,0.000,0.000
1605106073986073856,10.0.1.125,46,pick,-0.640,-0.640,-0.640,0.000,0.000,0.000
1605106074985271808,10.0.1.125,44,pick,-0.650,-0.650,-0.650,0.000,0.000,0.000
1605106075981414912,10.0.1.125,39,pick,-0.660,-0.660,-0.660,0.000,0.000,0.000
1605106076983486976,10.0.1.125,39,pick,-0.670,-0.670,-0.670,0.000,0.000,0.000
1605106077982588928,10.0.1.125,34,pick,-0.680,-0.680,-0.680,0.000,0.000,0.000
1605106078980655872,10.0.1.125,31,pick,-0.690,-0.690,-0.690,0.000,0.000,0.000
1605106080004242944,10.0.1.125,50,pick,-0.700,-0.700,-0.700,0.000,0.000,0.000
1605106081003369216,10.0.1.125,48,pick,-0.710,-0.710,-0.710,0.000,0.000,0.000
1605106082002306048,10.0.1.125,45,pick,-0.720,-0.720,-0.720,0.000,0.000,0.000
1605106083001903104,10.0.1.125,43,pick,-0.730,-0.730,-0.730,0.000,0.000,0.000
1605106084003232000,10.0.1.125,39,pick,-0.740,-0.740,-0.740,0.000,0.000,0.000
1605106085004848896,10.0.1.125,40,pick,-0.750,-0.750,-0.750,0.000,0.000,0.000
1605106086010287104,10.0.1.125,43,pick,-0.760,-0.760,-0.760,0.000,0.000,0.000
1605106087003245056,10.0.1.125,34,pick,-0.770,-0.770,-0.770,0.000,0.000,0.000
1605106088429855232,10.0.1.125,459,move_up,-0.750,-0.750,-0.750,0.000,0.000,0.000
1605106089937249792,10.0.1.125,442,move_up,-0.730,-0.730,-0.730,0.000,0.000,0.000
1605106091542088960,10.0.1.125,506,move_up,-0.710,-0.710,-0.710,0.000,0.000,0.000
1605106093109107968,10.0.1.125,520,move_up,-0.690,-0.690,-0.690,0.000,0.000,0.000
1605106094739291904,10.0.1.125,505,move_up,-0.670,-0.670,-0.670,0.000,0.000,0.000
1605106096271004928,10.0.1.125,453,move_up,-0.650,-0.650,-0.650,0.000,0.000,0.000
1605106097824773120,10.0.1.125,474,move_up,-0.630,-0.630,-0.630,0.000,0.000,0.000
1605106099362765056,10.0.1.125,456,move_up,-0.610,-0.610,-0.610,0.000,0.000,0.000
1605106100893071872,10.0.1.125,446,move_up,-0.590,-0.590,-0.590,0.000,0.000,0.000
1605106102490489856,10.0.1.125,518,move_up,-0.570,-0.570,-0.570,0.000,0.000,0.000
1605106104021878016,10.0.1.125,475,move_up,-0.550,-0.550,-0.550,0.000,0.000,0.000
1605106105690382848,10.0.1.125,547,move_up,-0.530,-0.530,-0.530,0.000,0.000,0.000
1605106107275019008,10.0.1.125,560,move_up,-0.510,-0.510,-0.510,0.000,0.000,0.000
1605106108860858880,10.0.1.125,503,move_up,-0.490,-0.490,-0.490,0.000,0.000,0.000
1605106110383038976,10.0.1.125,429,move_up,-0.470,-0.470,-0.470,0.000,0.000,0.000
1605106111943680000,10.0.1.125,449,move_up,-0.450,-0.450,-0.450,0.000,0.000,0.000
1605106113448141056,10.0.1.125,419,move_up,-0.430,-0.430,-0.430,0.000,0.000,0.000
1605106114943111936,10.0.1.125,414,move_up,-0.410,-0.410,-0.410,0.000,0.000,0.000
1605106116463876864,10.0.1.125,444,move_up,-0.390,-0.390,-0.390,0.000,0.000,0.000
1605106117973474048,10.0.1.125,440,move_up,-0.370,-0.370,-0.370,0.000,0.000,0.000
1605106119506011904,10.0.1.125,430,move_up,-0.350,-0.350,-0.350,0.000,0.000,0.000
1605106120995919104,10.0.1.125,402,move_up,-0.330,-0.330,-0.330,0.000,0.000,0.000
1605106122517457920,10.0.1.125,441,move_up,-0.310,-0.310,-0.310,0.000,0.000,0.000
1605106124024359936,10.0.1.125,428,move_up,-0.290,-0.290,-0.290,0.000,0.000,0.000
1605106125570247936,10.0.1.125,464,move_up,-0.270,-0.270,-0.270,0.000,0.000,0.000
1605106127064914944,10.0.1.125,449,move_up,-0.250,-0.250,-0.250,0.000,0.000,0.000
1605106128578164992,10.0.1.125,445,move_up,-0.230,-0.230,-0.230,0.000,0.000,0.000
1605106130066670848,10.0.1.125,454,move_up,-0.210,-0.210,-0.210,0.000,0.000,0.000
1605106131606976000,10.0.1.125,453,move_up,-0.190,-0.190,-0.190,0.000,0.000,0.000
1605106132683156992,10.0.1.125,43,place,-0.180,-0.180,-0.180,0.000,0.000,0.000
1605106133683880192,10.0.1.125,43,place,-0.170,-0.170,-0.170,0.000,0.000,0.000
1605106134689069056,10.0.1.125,47,place,-0.160,-0.160,-0.160,0.000,0.000,0.000
1605106135684722944,10.0.1.125,39,place,-0.150,-0.150,-0.150,0.000,0.000,0.000
1605106136688751104,10.0.1.125,41,place,-0.140,-0.140,-0.140,0.000,0.000,0.000
1605106137684568832,10.0.1.125,36,place,-0.130,-0.130,-0.130,0.000,0.000,0.000
1605106138686189056,10.0.1.125,36,place,-0.120,-0.120,-0.120,0.000,0.000,0.000
1605106139683845888,10.0.1.125,32,place,-0.110,-0.110,-0.110,0.000,0.000,0.000
1605106140706976768,10.0.1.125,54,place,-0.100,-0.100,-0.100,0.000,0.000,0.000
1605106141715187968,10.0.1.125,60,place,-0.090,-0.090,-0.090,0.000,0.000,0.000
1605106142724273920,10.0.1.125,68,place,-0.080,-0.080,-0.080,0.000,0.000,0.000
1605106143715768064,10.0.1.125,58,place,-0.070,-0.070,-0.070,0.000,0.000,0.000
1605106144710892032,10.0.1.125,52,place,-0.060,-0.060,-0.060,0.000,0.000,0.000
1605106145715493888,10.0.1.125,55,place,-0.050,-0.050,-0.050,0.000,0.000,0.000
1605106146716243968,10.0.1.125,49,place,-0.040,-0.040,-0.040,0.000,0.000,0.000
1605106147715808000,10.0.1.125,48,place,-0.030,-0.030,-0.030,0.000,0.000,0.000
1605106148720304896,10.0.1.125,51,place,-0.020,-0.020,-0.020,0.000,0.000,0.000
1605106149710510080,10.0.1.125,40,place,-0.010,-0.010,-0.010,0.000,0.000,0.000
1605106150717683968,10.0.1.125,46,place,0.000,0.000,0.000,0.000,0.000,0.000
1605106152157725184,10.0.1.125,484,move_down,-0.020,-0.020,-0.020,0.000,0.000,0.000
1605106153759723776,10.0.1.125,468,move_down,-0.040,-0.040,-0.040,0.000,0.000,0.000
1605106155298768896,10.0.1.125,408,move_down,-0.060,-0.060,-0.060,0.000,0.000,0.000
1605106156816845056,10.0.1.125,479,move_down,-0.080,-0.080,-0.080,0.000,0.000,0.000
1605106158398323968,10.0.1.125,482,move_down,-0.100,-0.100,-0.100,0.000,0.000,0.000
1605106160111539968,10.0.1.125,579,move_down,-0.120,-0.120,-0.120,0.000,0.000,0.000
1605106161621572096,10.0.1.125,454,move_down,-0.140,-0.140,-0.140,0.000,0.000,0.000
1605106163165936896,10.0.1.125,459,move_down,-0.160,-0.160,-0.160,0.000,0.000,0.000
1605106164751059968,10.0.1.125,447,move_down,-0.180,-0.180,-0.180,0.000,0.000,0.000
1605106166326502912,10.0.1.125,471,move_down,-0.200,-0.200,-0.200,0.000,0.000,0.000
1605106167895561984,10.0.1.125,465,move_down,-0.220,-0.220,-0.220,0.000,0.000,0.000
1605106169519570176,10.0.1.125,521,move_down,-0.240,-0.240,-0.240,0.000,0.000,0.000
1605106171049912832,10.0.1.125,464,move_down,-0.260,-0.260,-0.260,0.000,0.000,0.000
1605106172611768064,10.0.1.125,492,move_down,-0.280,-0.280,-0.280,0.000,0.000,0.000
1605106174263240192,10.0.1.125,536,move_down,-0.300,-0.300,-0.300,0.000,0.000,0.000
1605106175859823872,10.0.1.125,486,move_down,-0.320,-0.320,-0.320,0.000,0.000,0.000
1605106177418571008,10.0.1.125,463,move_down,-0.340,-0.340,-0.340,0.000,0.000,0.000
1605106178986035968,10.0.1.125,450,move_down,-0.360,-0.360,-0.360,0.000,0.000,0.000
1605106180564129024,10.0.1.125,531,move_down,-0.380,-0.380,-0.380,0.000,0.000,0.000
1605106182148480000,10.0.1.125,509,move_down,-0.400,-0.400,-0.400,0.000,0.000,0.000
1605106183762317824,10.0.1.125,518,move_down,-0.420,-0.420,-0.420,0.000,0.000,0.000
1605106185216252928,10.0.1.125,405,move_down,-0.440,-0.440,-0.440,0.000,0.000,0.000
1605106186802736896,10.0.1.125,491,move_down,-0.460,-0.460,-0.460,0.000,0.000,0.000
1605106188342781952,10.0.1.125,432,move_down,-0.480,-0.480,-0.480,0.000,0.000,0.000
1605106189746287104,10.0.1.125,400,move_down,-0.500,-0.500,-0.500,0.000,0.000,0.000
1605106191285737984,10.0.1.125,407,move_down,-0.520,-0.520,-0.520,0.000,0.000,0.000
1605106192804723968,10.0.1.125,505,move_down,-0.540,-0.540,-0.540,0.000,0.000,0.000
1605106194345398784,10.0.1.125,468,move_down,-0.560,-0.560,-0.560,0.000,0.000,0.000
1605106195929728000,10.0.1.125,501,move_down,-0.580,-0.580,-0.580,0.000,0.000,0.000
1605106197096258048,10.0.1.125,60,pick,-0.590,-0.590,-0.590,0.000,0.000,0.000
1605106198093664000,10.0.1.125,56,pick,-0.600,-0.600,-0.600,0.000,0.000,0.000
1605106199088486912,10.0.1.125,49,pick,-0.610,-0.610,-0.610,0.000,0.000,0.000
1605106200086232064,10.0.1.125,46,pick,-0.620,-0.620,-0.620,0.000,0.000,0.000
1605106201086615040,10.0.1.125,45,pick,-0.630,-0.630,-0.630,0.000,0.000,0.000
1605106202096045056,10.0.1.125,53,pick,-0.640,-0.640,-0.640,0.000,0.000,0.000
1605106203086172160,10.0.1.125,42,pick,-0.650,-0.650,-0.650,0.000,0.000,0.000
1605106204088644096,10.0.1.125,41,pick,-0.660,-0.660,-0.660,0.000,0.000,0.000
1605106205090167040,10.0.1.125,41,pick,-0.670,-0.670,-0.670,0.000,0.000,0.000
1605106206088216064,10.0.1.125,37,pick,-0.680,-0.680,-0.680,0.000,0.000,0.000
1605106207085879040,10.0.1.125,33,pick,-0.690,-0.690,-0.690,0.000,0.000,0.000
1605106208087729920,10.0.1.125,32,pick,-0.700,-0.700,-0.700,0.000,0.000,0.000
1605106209110738944,10.0.1.125,53,pick,-0.710,-0.710,-0.710,0.000,0.000,0.000
1605106210119983872,10.0.1.125,61,pick,-0.720,-0.720,-0.720,0.000,0.000,0.000
1605106211109606144,10.0.1.125,49,pick,-0.730,-0.730,-0.730,0.000,0.000,0.000
1605106212105704960,10.0.1.125,44,pick,-0.740,-0.740,-0.740,0.000,0.000,0.000
1605106213109574144,10.0.1.125,44,pick,-0.750,-0.750,-0.750,0.000,0.000,0.000
1605106214115289088,10.0.1.125,49,pick,-0.760,-0.760,-0.760,0.000,0.000,0.000
1605106215118149120,10.0.1.125,50,pick,-0.770,-0.770,-0.770,0.000,0.000,0.000
1605106216459027968,10.0.1.125,389,move_up,-0.750,-0.750,-0.750,0.000,0.000,0.000
1605106218053095936,10.0.1.125,526,move_up,-0.730,-0.730,-0.730,0.000,0.000,0.000
1605106219596390912,10.0.1.125,489,move_up,-0.710,-0.710,-0.710,0.000,0.000,0.000
1605106221089911040,10.0.1.125,449,move_up,-0.690,-0.690,-0.690,0.000,0.000,0.000
1605106222585556992,10.0.1.125,402,move_up,-0.670,-0.670,-0.670,0.000,0.000,0.000
1605106224119034112,10.0.1.125,444,move_up,-0.650,-0.650,-0.650,0.000,0.000,0.000
1605106225647155968,10.0.1.125,427,move_up,-0.630,-0.630,-0.630,0.000,0.000,0.000
1605106227203046144,10.0.1.125,451,move_up,-0.610,-0.610,-0.610,0.000,0.000,0.000
1605106228667796992,10.0.1.125,447,move_up,-0.590,-0.590,-0.590,0.000,0.000,0.000
1605106230256408064,10.0.1.125,507,move_up,-0.570,-0.570,-0.570,0.000,0.000,0.000
1605106231865595136,10.0.1.125,486,move_up,-0.550,-0.550,-0.550,0.000,0.000,0.000
1605106233426484224,10.0.1.125,525,move_up,-0.530,-0.530,-0.530,0.000,0.000,0.000
1605106234842486016,10.0.1.125,413,move_up,-0.510,-0.510,-0.510,0.000,0.000,0.000
1605106236464817920,10.0.1.125,567,move_up,-0.490,-0.490,-0.490,0.000,0.000,0.000
1605106238027955968,10.0.1.125,475,move_up,-0.470,-0.470,-0.470,0.000,0.000,0.000
1605106239576294912,10.0.1.125,425,move_up,-0.450,-0.450,-0.450,0.000,0.000,0.000
1605106241076318976,10.0.1.125,439,move_up,-0.430,-0.430,-0.430,0.000,0.000,0.000
1605106242596271104,10.0.1.125,410,move_up,-0.410,-0.410,-0.410,0.000,0.000,0.000
1605106244129336064,10.0.1.125,432,move_up,-0.390,-0.390,-0.390,0.000,0.000,0.000
1605106245595763968,10.0.1.125,373,move_up,-0.370,-0.370,-0.370,0.000,0.000,0.000
1605106247089858048,10.0.1.125,426,move_up,-0.350,-0.350,-0.350,0.000,0.000,0.000
1605106248635916032,10.0.1.125,454,move_up,-0.330,-0.330,-0.330,0.000,0.000,0.000
1605106250132706048,10.0.1.125,444,move_up,-0.310,-0.310,-0.310,0.000,0.000,0.000
1605106251737929984,10.0.1.125,557,move_up,-0.290,-0.290,-0.290,0.000,0.000,0.000
1605106253338263040,10.0.1.125,502,move_up,-0.270,-0.270,-0.270,0.000,0.000,0.000
1605106254860001024,10.0.1.125,442,move_up,-0.250,-0.250,-0.250,0.000,0.000,0.000
1605106256467636224,10.0.1.125,535,move_up,-0.230,-0.230,-0.230,0.000,0.000,0.000
1605106257986639872,10.0.1.125,414,move_up,-0.210,-0.210,-0.210,0.000,0.000,0.000
1605106259658472960,10.0.1.125,565,move_up,-0.190,-0.190,-0.190,0.000,0.000,0.000
1605106260740456960,10.0.1.125,48,place,-0.180,-0.180,-0.180,0.000,0.000,0.000
1605106261735122944,10.0.1.125,41,place,-0.170,-0.170,-0.170,0.000,0.000,0.000
1605106262749787136,10.0.1.125,54,place,-0.160,-0.160,-0.160,0.000,0.000,0.000
1605106263748128000,10.0.1.125,51,place,-0.150,-0.150,-0.150,0.000,0.000,0.000
1605106264759202048,10.0.1.125,61,place,-0.140,-0.140,-0.140,0.000,0.000,0.000
1605106265749967104,10.0.1.125,51,place,-0.130,-0.130,-0.130,0.000,0.000,0.000
1605106267749892864,10.0.1.125,48,place,-0.110,-0.110,-0.110,0.000,0.000,0.000
1605106269757477120,10.0.1.125,53,place,-0.090,-0.090,-0.090,0.000,0.000,0.000
1605106271763031040,10.0.1.125,55,place,-0.070,-0.070,-0.070,0.000,0.000,0.000
1605106272755717120,10.0.1.125,46,place,-0.060,-0.060,-0.060,0.000,0.000,0.000
1605106273757181952,10.0.1.125,46,place,-0.050,-0.050,-0.050,0.000,0.000,0.000
1605106274782216960,10.0.1.125,67,place,-0.040,-0.040,-0.040,0.000,0.000,0.000
1605106275774195968,10.0.1.125,42,place,-0.030,-0.030,-0.030,0.000,0.000,0.000
1605106276771945984,10.0.1.125,38,place,-0.020,-0.020,-0.020,0.000,0.000,0.000
1605106277774168064,10.0.1.125,38,place,-0.010,-0.010,-0.010,0.000,0.000,0.000
1605106278796946944,10.0.1.125,60,place,0.000,0.000,0.000,0.000,0.000,0.000
1605106280221828096,10.0.1.125,483,move_down,-0.020,-0.020,-0.020,0.000,0.000,0.000
1605106281679422976,10.0.1.125,416,move_down,-0.040,-0.040,-0.040,0.000,0.000,0.000
1605106283199203072,10.0.1.125,422,move_down,-0.060,-0.060,-0.060,0.000,0.000,0.000
1605106284824584960,10.0.1.125,535,move_down,-0.080,-0.080,-0.080,0.000,0.000,0.000
1605106286355910912,10.0.1.125,469,move_down,-0.100,-0.100,-0.100,0.000,0.000,0.000
1605106287978777856,10.0.1.125,532,move_down,-0.120,-0.120,-0.120,0.000,0.000,0.000
1605106289432774144,10.0.1.125,421,move_down,-0.140,-0.140,-0.140,0.000,0.000,0.000
1605106291094494976,10.0.1.125,567,move_down,-0.160,-0.160,-0.160,0.000,0.000,0.000
1605106292589744128,10.0.1.125,434,move_down,-0.180,-0.180,-0.180,0.000,0.000,0.000
1605106294098886912,10.0.1.125,444,move_down,-0.200,-0.200,-0.200,0.000,0.000,0.000
1605106295679732992,10.0.1.125,418,move_down,-0.220,-0.220,-0.220,0.000,0.000,0.000
1605106297330285056,10.0.1.125,565,move_down,-0.240,-0.240,-0.240,0.000,0.000,0.000
1605106298808599040,10.0.1.125,396,move_down,-0.260,-0.260,-0.260,0.000,0.000,0.000
1605106300392802048,10.0.1.125,499,move_down,-0.280,-0.280,-0.280,0.000,0.000,0.000
1605106301916940800,10.0.1.125,459,move_down,-0.300,-0.300,-0.300,0.000,0.000,0.000
1605106303481574912,10.0.1.125,483,move_down,-0.320,-0.320,-0.320,0.000,0.000,0.000
1605106305042594048,10.0.1.125,423,move_down,-0.340,-0.340,-0.340,0.000,0.000,0.000
1605106306584547072,10.0.1.125,447,move_down,-0.360,-0.360,-0.360,0.000,0.000,0.000
1605106308101583872,10.0.1.125,443,move_down,-0.380,-0.380,-0.380,0.000,0.000,0.000
1605106309691555072,10.0.1.125,510,move_down,-0.400,-0.400,-0.400,0.000,0.000,0.000
1605106311252454144,10.0.1.125,449,move_down,-0.420,-0.420,-0.420,0.000,0.000,0.000
1605106312810595072,10.0.1.125,485,move_down,-0.440,-0.440,-0.440,0.000,0.000,0.000
1605106314314585856,10.0.1.125,444,move_down,-0.460,-0.460,-0.460,0.000,0.000,0.000
1605106315883379968,10.0.1.125,458,move_down,-0.480,-0.480,-0.480,0.000,0.000,0.000
1605106317463148032,10.0.1.125,498,move_down,-0.500,-0.500,-0.500,0.000,0.000,0.000
1605106318920195072,10.0.1.125,435,move_down,-0.520,-0.520,-0.520,0.000,0.000,0.000
1605106320459624960,10.0.1.125,457,move_down,-0.540,-0.540,-0.540,0.000,0.000,0.000
1605106322050476032,10.0.1.125,460,move_down,-0.560,-0.560,-0.560,0.000,0.000,0.000
1605106323672563200,10.0.1.125,551,move_down,-0.580,-0.580,-0.580,0.000,0.000,0.000
1605106324855337984,10.0.1.125,49,pick,-0.590,-0.590,-0.590,0.000,0.000,0.000
1605106325881872896,10.0.1.125,72,pick,-0.600,-0.600,-0.600,0.000,0.000,0.000
1605106326876463872,10.0.1.125,64,pick,-0.610,-0.610,-0.610,0.000,0.000,0.000
1605106327866264064,10.0.1.125,50,pick,-0.620,-0.620,-0.620,0.000,0.000,0.000
1605106328858951936,10.0.1.125,41,pick,-0.630,-0.630,-0.630,0.000,0.000,0.000
1605106329850749952,10.0.1.125,31,pick,-0.640,-0.640,-0.640,0.000,0.000,0.000
1605106330871908864,10.0.1.125,51,pick,-0.650,-0.650,-0.650,0.000,0.000,0.000
1605106331878423040,10.0.1.125,56,pick,-0.660,-0.660,-0.660,0.000,0.000,0.000
1605106332876483072,10.0.1.125,53,pick,-0.670,-0.670,-0.670,0.000,0.000,0.000
1605106333874190080,10.0.1.125,49,pick,-0.680,-0.680,-0.680,0.000,0.000,0.000
1605106334878930944,10.0.1.125,53,pick,-0.690,-0.690,-0.690,0.000,0.000,0.000
1605106335870297856,10.0.1.125,43,pick,-0.700,-0.700,-0.700,0.000,0.000,0.000
1605106336869776896,10.0.1.125,37,pick,-0.710,-0.710,-0.710,0.000,0.000,0.000
1605106337872192000,10.0.1.125,38,pick,-0.720,-0.720,-0.720,0.000,0.000,0.000
1605106338878333184,10.0.1.125,43,pick,-0.730,-0.730,-0.730,0.000,0.000,0.000
1605106339872834048,10.0.1.125,36,pick,-0.740,-0.740,-0.740,0.000,0.000,0.000
1605106340874063872,10.0.1.125,36,pick,-0.750,-0.750,-0.750,0.000,0.000,0.000
1605106341899715840,10.0.1.125,61,pick,-0.760,-0.760,-0.760,0.000,0.000,0.000
1605106342894063104,10.0.1.125,54,pick,-0.770,-0.770,-0.770,0.000,0.000,0.000
1605106344273243904,10.0.1.125,428,move_up,-0.750,-0.750,-0.750,0.000,0.000,0.000
1605106345807280128,10.0.1.125,449,move_up,-0.730,-0.730,-0.730,0.000,0.000,0.000
1605106347421392896,10.0.1.125,567,move_up,-0.710,-0.710,-0.710,0.000,0.000,0.000
1605106349072835072,10.0.1.125,565,move_up,-0.690,-0.690,-0.690,0.000,0.000,0.000
1605106350822077952,10.0.1.125,638,move_up,-0.670,-0.670,-0.670,0.000,0.000,0.000
1605106352523341056,10.0.1.125,590,move_up,-0.650,-0.650,-0.650,0.000,0.000,0.000
1605106354173286912,10.0.1.125,499,move_up,-0.630,-0.630,-0.630,0.000,0.000,0.000
1605106355831332864,10.0.1.125,564,move_up,-0.610,-0.610,-0.610,0.000,0.000,0.000
1605106357549925120,10.0.1.125,627,move_up,-0.590,-0.590,-0.590,0.000,0.000,0.000
1605106359195266048,10.0.1.125,561,move_up,-0.570,-0.570,-0.570,0.000,0.000,0.000
1605106360810184960,10.0.1.125,522,move_up,-0.550,-0.550,-0.550,0.000,0.000,0.000
1605106362538696960,10.0.1.125,587,move_up,-0.530,-0.530,-0.530,0.000,0.000,0.000
1605106364201826048,10.0.1.125,558,move_up,-0.510,-0.510,-0.510,0.000,0.000,0.000
1605106365657955840,10.0.1.125,456,move_up,-0.490,-0.490,-0.490,0.000,0.000,0.000
1605106367269968896,10.0.1.125,539,move_up,-0.470,-0.470,-0.470,0.000,0.000,0.000
1605106368927148032,10.0.1.125,531,move_up,-0.450,-0.450,-0.450,0.000,0.000,0.000
1605106370529041152,10.0.1.125,492,move_up,-0.430,-0.430,-0.430,0.000,0.000,0.000
1605106372041846016,10.0.1.125,493,move_up,-0.410,-0.410,-0.410,0.000,0.000,0.000
1605106373719714048,10.0.1.125,494,move_up,-0.390,-0.390,-0.390,0.000,0.000,0.000
1605106375240256000,10.0.1.125,533,move_up,-0.370,-0.370,-0.370,0.000,0.000,0.000
1605106376872390912,10.0.1.125,573,move_up,-0.350,-0.350,-0.350,0.000,0.000,0.000
1605106378556230912,10.0.1.125,572,move_up,-0.330,-0.330,-0.330,0.000,0.000,0.000
1605106380203585024,10.0.1.125,567,move_up,-0.310,-0.310,-0.310,0.000,0.000,0.000
1605106381731671040,10.0.1.125,540,move_up,-0.290,-0.290,-0.290,0.000,0.000,0.000
1605106383392240896,10.0.1.125,542,move_up,-0.270,-0.270,-0.270,0.000,0.000,0.000
1605106385014429184,10.0.1.125,493,move_up,-0.250,-0.250,-0.250,0.000,0.000,0.000
1605106386722224896,10.0.1.125,625,move_up,-0.230,-0.230,-0.230,0.000,0.000,0.000
1605106388261678080,10.0.1.125,410,move_up,-0.210,-0.210,-0.210,0.000,0.000,0.000
1605106389876667136,10.0.1.125,496,move_up,-0.190,-0.190,-0.190,0.000,0.000,0.000
1605106390991184896,10.0.1.125,66,place,-0.180,-0.180,-0.180,0.000,0.000,0.000
1605106392995148032,10.0.1.125,58,place,-0.160,-0.160,-0.160,0.000,0.000,0.000
1605106393993261056,10.0.1.125,44,place,-0.150,-0.150,-0.150,0.000,0.000,0.000
1605106395004733184,10.0.1.125,50,place,-0.140,-0.140,-0.140,0.000,0.000,0.000
1605106398014995968,10.0.1.125,49,place,-0.110,-0.110,-0.110,0.000,0.000,0.000
1605106399032019968,10.0.1.125,63,place,-0.100,-0.100,-0.100,0.000,0.000,0.000
1605106400014169856,10.0.1.125,41,place,-0.090,-0.090,-0.090,0.000,0.000,0.000
1605106401026452992,10.0.1.125,52,place,-0.080,-0.080,-0.080,0.000,0.000,0.000
1605106402016048896,10.0.1.125,38,place,-0.070,-0.070,-0.070,0.000,0.000,0.000
1605106403034404096,10.0.1.125,47,place,-0.060,-0.060,-0.060,0.000,0.000,0.000
1605106404037118976,10.0.1.125,49,place,-0.050,-0.050,-0.050,0.000,0.000,0.000
1605106405040445952,10.0.1.125,51,place,-0.040,-0.040,-0.040,0.000,0.000,0.000
1605106406053082880,10.0.1.125,46,place,-0.030,-0.030,-0.030,0.000,0.000,0.000
1605106407049318144,10.0.1.125,40,place,-0.020,-0.020,-0.020,0.000,0.000,0.000
1605106408051863040,10.0.1.125,42,place,-0.010,-0.010,-0.010,0.000,0.000,0.000
1605106409053148928,10.0.1.125,42,place,0.000,0.000,0.000,0.000,0.000,0.000
1605106410540192000,10.0.1.125,528,move_down,-0.020,-0.020,-0.020,0.000,0.000,0.000
1605106412105070080,10.0.1.125,452,move_down,-0.040,-0.040,-0.040,0.000,0.000,0.000
1605106413673228032,10.0.1.125,547,move_down,-0.060,-0.060,-0.060,0.000,0.000,0.000
1605106415323698944,10.0.1.125,488,move_down,-0.080,-0.080,-0.080,0.000,0.000,0.000
1605106416797220096,10.0.1.125,478,move_down,-0.100,-0.100,-0.100,0.000,0.000,0.000
1605106418336780032,10.0.1.125,485,move_down,-0.120,-0.120,-0.120,0.000,0.000,0.000
1605106419824389888,10.0.1.125,456,move_down,-0.140,-0.140,-0.140,0.000,0.000,0.000
1605106421415369984,10.0.1.125,517,move_down,-0.160,-0.160,-0.160,0.000,0.000,0.000
1605106423012193024,10.0.1.125,518,move_down,-0.180,-0.180,-0.180,0.000,0.000,0.000
1605106424746898944,10.0.1.125,682,move_down,-0.200,-0.200,-0.200,0.000,0.000,0.000
1605106426356005888,10.0.1.125,495,move_down,-0.220,-0.220,-0.220,0.000,0.000,0.000
1605106427896339968,10.0.1.125,485,move_down,-0.240,-0.240,-0.240,0.000,0.000,0.000
1605106429499526144,10.0.1.125,492,move_down,-0.260,-0.260,-0.260,0.000,0.000,0.000
1605106431153929984,10.0.1.125,510,move_down,-0.280,-0.280,-0.280,0.000,0.000,0.000
1605106432716221952,10.0.1.125,480,move_down,-0.300,-0.300,-0.300,0.000,0.000,0.000
1605106434191118080,10.0.1.125,403,move_down,-0.320,-0.320,-0.320,0.000,0.000,0.000
1605106435786016000,10.0.1.125,512,move_down,-0.340,-0.340,-0.340,0.000,0.000,0.000
1605106437387021056,10.0.1.125,496,move_down,-0.360,-0.360,-0.360,0.000,0.000,0.000
1605106438979275008,10.0.1.125,473,move_down,-0.380,-0.380,-0.380,0.000,0.000,0.000
1605106440529769984,10.0.1.125,484,move_down,-0.400,-0.400,-0.400,0.000,0.000,0.000
1605106442170413056,10.0.1.125,558,move_down,-0.420,-0.420,-0.420,0.000,0.000,0.000
1605106444037807104,10.0.1.125,788,move_down,-0.440,-0.440,-0.440,0.000,0.000,0.000
1605106445634327040,10.0.1.125,511,move_down,-0.460,-0.460,-0.460,0.000,0.000,0.000
1605106447275165184,10.0.1.125,539,move_down,-0.480,-0.480,-0.480,0.000,0.000,0.000
1605106448866467072,10.0.1.125,469,move_down,-0.500,-0.500,-0.500,0.000,0.000,0.000
1605106450515113984,10.0.1.125,491,move_down,-0.520,-0.520,-0.520,0.000,0.000,0.000
1605106452142440192,10.0.1.125,518,move_down,-0.540,-0.540,-0.540,0.000,0.000,0.000
1605106453826675968,10.0.1.125,573,move_down,-0.560,-0.560,-0.560,0.000,0.000,0.000
1605106455384000000,10.0.1.125,476,move_down,-0.580,-0.580,-0.580,0.000,0.000,0.000
1605106458526132992,10.0.1.125,48,pick,-0.610,-0.610,-0.610,0.000,0.000,0.000
1605106459523433984,10.0.1.125,44,pick,-0.620,-0.620,-0.620,0.000,0.000,0.000
1605106460522684928,10.0.1.125,41,pick,-0.630,-0.630,-0.630,0.000,0.000,0.000
1605106461532777984,10.0.1.125,50,pick,-0.640,-0.640,-0.640,0.000,0.000,0.000
1605106462535355136,10.0.1.125,51,pick,-0.650,-0.650,-0.650,0.000,0.000,0.000
1605106463523117056,10.0.1.125,37,pick,-0.660,-0.660,-0.660,0.000,0.000,0.000
1605106465548190208,10.0.1.125,59,pick,-0.680,-0.680,-0.680,0.000,0.000,0.000
1605106466529593856,10.0.1.125,39,pick,-0.690,-0.690,-0.690,0.000,0.000,0.000
1605106467557539840,10.0.1.125,66,pick,-0.700,-0.700,-0.700,0.000,0.000,0.000
1605106468542841856,10.0.1.125,49,pick,-0.710,-0.710,-0.710,0.000,0.000,0.000
1605106469542678016,10.0.1.125,42,pick,-0.720,-0.720,-0.720,0.000,0.000,0.000
1605106470576285952,10.0.1.125,62,pick,-0.730,-0.730,-0.730,0.000,0.000,0.000
1605106471568648960,10.0.1.125,53,pick,-0.740,-0.740,-0.740,0.000,0.000,0.000
1605106472573704960,10.0.1.125,51,pick,-0.750,-0.750,-0.750,0.000,0.000,0.000
1605106473575810816,10.0.1.125,51,pick,-0.760,-0.760,-0.760,0.000,0.000,0.000
1605106474566273024,10.0.1.125,40,pick,-0.770,-0.770,-0.770,0.000,0.000,0.000
1605106476091624960,10.0.1.125,564,move_up,-0.750,-0.750,-0.750,0.000,0.000,0.000
1605106477671955200,10.0.1.125,506,move_up,-0.730,-0.730,-0.730,0.000,0.000,0.000
1605106479303046912,10.0.1.125,502,move_up,-0.710,-0.710,-0.710,0.000,0.000,0.000
1605106480826231040,10.0.1.125,432,move_up,-0.690,-0.690,-0.690,0.000,0.000,0.000
1605106482449700096,10.0.1.125,564,move_up,-0.670,-0.670,-0.670,0.000,0.000,0.000
1605106484085423104,10.0.1.125,494,move_up,-0.650,-0.650,-0.650,0.000,0.000,0.000
1605106485724761088,10.0.1.125,553,move_up,-0.630,-0.630,-0.630,0.000,0.000,0.000
1605106487366832128,10.0.1.125,525,move_up,-0.610,-0.610,-0.610,0.000,0.000,0.000
1605106489048424960,10.0.1.125,550,move_up,-0.590,-0.590,-0.590,0.000,0.000,0.000
1605106490578697984,10.0.1.125,417,move_up,-0.570,-0.570,-0.570,0.000,0.000,0.000
1605106492057838848,10.0.1.125,445,move_up,-0.550,-0.550,-0.550,0.000,0.000,0.000
1605106493745786880,10.0.1.125,588,move_up,-0.530,-0.530,-0.530,0.000,0.000,0.000
1605106495438797056,10.0.1.125,615,move_up,-0.510,-0.510,-0.510,0.000,0.000,0.000
1605106497063201024,10.0.1.125,497,move_up,-0.490,-0.490,-0.490,0.000,0.000,0.000
1605106498636667136,10.0.1.125,474,move_up,-0.470,-0.470,-0.470,0.000,0.000,0.000
1605106500224643840,10.0.1.125,517,move_up,-0.450,-0.450,-0.450,0.000,0.000,0.000
1605106501897760000,10.0.1.125,515,move_up,-0.430,-0.430,-0.430,0.000,0.000,0.000
1605106503471815936,10.0.1.125,436,move_up,-0.410,-0.410,-0.410,0.000,0.000,0.000
1605106504997164032,10.0.1.125,433,move_up,-0.390,-0.390,-0.390,0.000,0.000,0.000
1605106506550700032,10.0.1.125,503,move_up,-0.370,-0.370,-0.370,0.000,0.000,0.000
1605106508175101952,10.0.1.125,555,move_up,-0.350,-0.350,-0.350,0.000,0.000,0.000
1605106509802493184,10.0.1.125,531,move_up,-0.330,-0.330,-0.330,0.000,0.000,0.000
1605106511365062912,10.0.1.125,489,move_up,-0.310,-0.310,-0.310,0.000,0.000,0.000
1605106512995053056,10.0.1.125,530,move_up,-0.290,-0.290,-0.290,0.000,0.000,0.000
1605106514597726208,10.0.1.125,495,move_up,-0.270,-0.270,-0.270,0.000,0.000,0.000
1605106516332268032,10.0.1.125,575,move_up,-0.250,-0.250,-0.250,0.000,0.000,0.000
1605106517859977984,10.0.1.125,402,move_up,-0.230,-0.230,-0.230,0.000,0.000,0.000
1605106519550910976,10.0.1.125,608,move_up,-0.210,-0.210,-0.210,0.000,0.000,0.000
1605106521177076992,10.0.1.125,533,move_up,-0.190,-0.190,-0.190,0.000,0.000,0.000
1605106522298208000,10.0.1.125,44,place,-0.180,-0.180,-0.180,0.000,0.000,0.000
