milangroshev/digital-twin-scalability/logs/run1-300s/10.0.1.122.csv
timestamp,node,latency,action,joint_1,joint_2,joint_3,joint_4,joint_5,joint_6
1605104536657437952,10.0.1.122,2010,,0.000,0.000,0.000,0.000,0.000,0.000
1605104539208517120,10.0.1.122,556,move_down,-0.020,-0.020,-0.020,0.000,0.000,0.000
1605104540676729856,10.0.1.122,401,move_down,-0.040,-0.040,-0.040,0.000,0.000,0.000
1605104542076865024,10.0.1.122,370,move_down,-0.060,-0.060,-0.060,0.000,0.000,0.000
1605104543505939968,10.0.1.122,385,move_down,-0.080,-0.080,-0.080,0.000,0.000,0.000
1605104544906848000,10.0.1.122,374,move_down,-0.100,-0.100,-0.100,0.000,0.000,0.000
1605104546376527104,10.0.1.122,396,move_down,-0.120,-0.120,-0.120,0.000,0.000,0.000
1605104547807406848,10.0.1.122,400,move_down,-0.140,-0.140,-0.140,0.000,0.000,0.000
1605104549236685056,10.0.1.122,385,move_down,-0.160,-0.160,-0.160,0.000,0.000,0.000
1605104550666332928,10.0.1.122,374,move_down,-0.180,-0.180,-0.180,0.000,0.000,0.000
1605104552096791040,10.0.1.122,388,move_down,-0.200,-0.200,-0.200,0.000,0.000,0.000
1605104553516686848,10.0.1.122,374,move_down,-0.220,-0.220,-0.220,0.000,0.000,0.000
1605104554946608896,10.0.1.122,387,move_down,-0.240,-0.240,-0.240,0.000,0.000,0.000
1605104556388673024,10.0.1.122,387,move_down,-0.260,-0.260,-0.260,0.000,0.000,0.000
1605104557870970880,10.0.1.122,388,move_down,-0.280,-0.280,-0.280,0.000,0.000,0.000
1605104559296914176,10.0.1.122,384,move_down,-0.300,-0.300,-0.300,0.000,0.000,0.000
1605104560747075072,10.0.1.122,393,move_down,-0.320,-0.320,-0.320,0.000,0.000,0.000
1605104562176836096,10.0.1.122,379,move_down,-0.340,-0.340,-0.340,0.000,0.000,0.000
1605104563607971072,10.0.1.122,385,move_down,-0.360,-0.360,-0.360,0.000,0.000,0.000
1605104565056891904,10.0.1.122,394,move_down,-0.380,-0.380,-0.380,0.000,0.000,0.000
1605104566506908928,10.0.1.122,400,move_down,-0.400,-0.400,-0.400,0.000,0.000,0.000
1605104567937730048,10.0.1.122,390,move_down,-0.420,-0.420,-0.420,0.000,0.000,0.000
1605104569356826112,10.0.1.122,382,move_down,-0.440,-0.440,-0.440,0.000,0.000,0.000
1605104570786392832,10.0.1.122,376,move_down,-0.460,-0.460,-0.460,0.000,0.000,0.000
1605104572216609024,10.0.1.122,381,move_down,-0.480,-0.480,-0.480,0.000,0.000,0.000
1605104573636351232,10.0.1.122,369,move_down,-0.500,-0.500,-0.500,0.000,0.000,0.000
1605104575066496000,10.0.1.122,383,move_down,-0.520,-0.520,-0.520,0.000,0.000,0.000
1605104576476272128,10.0.1.122,368,move_down,-0.540,-0.540,-0.540,0.000,0.000,0.000
1605104577908136960,10.0.1.122,376,move_down,-0.560,-0.560,-0.560,0.000,0.000,0.000
1605104579336281088,10.0.1.122,376,move_down,-0.580,-0.580,-0.580,0.000,0.000,0.000
1605104580417114112,10.0.1.122,32,pick,-0.590,-0.590,-0.590,0.000,0.000,0.000
1605104581436865024,10.0.1.122,50,pick,-0.600,-0.600,-0.600,0.000,0.000,0.000
1605104582436932096,10.0.1.122,49,pick,-0.610,-0.610,-0.610,0.000,0.000,0.000
1605104583437350144,10.0.1.122,48,pick,-0.620,-0.620,-0.620,0.000,0.000,0.000
1605104584437489152,10.0.1.122,47,pick,-0.630,-0.630,-0.630,0.000,0.000,0.000
1605104585436676096,10.0.1.122,45,pick,-0.640,-0.640,-0.640,0.000,0.000,0.000
1605104586436733952,10.0.1.122,43,pick,-0.650,-0.650,-0.650,0.000,0.000,0.000
1605104587437575168,10.0.1.122,43,pick,-0.660,-0.660,-0.660,0.000,0.000,0.000
1605104588438093824,10.0.1.122,42,pick,-0.670,-0.670,-0.670,0.000,0.000,0.000
1605104589437650944,10.0.1.122,40,pick,-0.680,-0.680,-0.680,0.000,0.000,0.000
1605104590436996864,10.0.1.122,38,pick,-0.690,-0.690,-0.690,0.000,0.000,0.000
1605104591436555008,10.0.1.122,36,pick,-0.700,-0.700,-0.700,0.000,0.000,0.000
1605104592437056000,10.0.1.122,36,pick,-0.710,-0.710,-0.710,0.000,0.000,0.000
1605104593436680960,10.0.1.122,33,pick,-0.720,-0.720,-0.720,0.000,0.000,0.000
1605104594437756160,10.0.1.122,33,pick,-0.730,-0.730,-0.730,0.000,0.000,0.000
1605104595456109056,10.0.1.122,50,pick,-0.740,-0.740,-0.740,0.000,0.000,0.000
1605104596457441024,10.0.1.122,48,pick,-0.750,-0.750,-0.750,0.000,0.000,0.000
1605104597456563968,10.0.1.122,46,pick,-0.760,-0.760,-0.760,0.000,0.000,0.000
1605104598456204800,10.0.1.122,44,pick,-0.770,-0.770,-0.770,0.000,0.000,0.000
1605104599796215040,10.0.1.122,383,move_up,-0.750,-0.750,-0.750,0.000,0.000,0.000
1605104601246594816,10.0.1.122,387,move_up,-0.730,-0.730,-0.730,0.000,0.000,0.000
1605104602656444928,10.0.1.122,350,move_up,-0.710,-0.710,-0.710,0.000,0.000,0.000
1605104604116691968,10.0.1.122,394,move_up,-0.690,-0.690,-0.690,0.000,0.000,0.000
1605104605557069056,10.0.1.122,385,move_up,-0.670,-0.670,-0.670,0.000,0.000,0.000
1605104606969950976,10.0.1.122,369,move_up,-0.650,-0.650,-0.650,0.000,0.000,0.000
1605104608376354048,10.0.1.122,359,move_up,-0.630,-0.630,-0.630,0.000,0.000,0.000
1605104609826422016,10.0.1.122,361,move_up,-0.610,-0.610,-0.610,0.000,0.000,0.000
1605104611256356864,10.0.1.122,366,move_up,-0.590,-0.590,-0.590,0.000,0.000,0.000
1605104612696857088,10.0.1.122,392,move_up,-0.570,-0.570,-0.570,0.000,0.000,0.000
1605104614116606976,10.0.1.122,381,move_up,-0.550,-0.550,-0.550,0.000,0.000,0.000
1605104615546298112,10.0.1.122,368,move_up,-0.530,-0.530,-0.530,0.000,0.000,0.000
1605104616997522944,10.0.1.122,379,move_up,-0.510,-0.510,-0.510,0.000,0.000,0.000
1605104618456248064,10.0.1.122,393,move_up,-0.490,-0.490,-0.490,0.000,0.000,0.000
1605104619889102848,10.0.1.122,385,move_up,-0.470,-0.470,-0.470,0.000,0.000,0.000
1605104621316828928,10.0.1.122,373,move_up,-0.450,-0.450,-0.450,0.000,0.000,0.000
1605104622746531072,10.0.1.122,379,move_up,-0.430,-0.430,-0.430,0.000,0.000,0.000
1605104624196172032,10.0.1.122,398,move_up,-0.410,-0.410,-0.410,0.000,0.000,0.000
1605104625607145984,10.0.1.122,385,move_up,-0.390,-0.390,-0.390,0.000,0.000,0.000
1605104627037316096,10.0.1.122,383,move_up,-0.370,-0.370,-0.370,0.000,0.000,0.000
1605104628447911936,10.0.1.122,372,move_up,-0.350,-0.350,-0.350,0.000,0.000,0.000
1605104629887668992,10.0.1.122,395,move_up,-0.330,-0.330,-0.330,0.000,0.000,0.000
1605104631287633920,10.0.1.122,344,move_up,-0.310,-0.310,-0.310,0.000,0.000,0.000
1605104632736662016,10.0.1.122,384,move_up,-0.290,-0.290,-0.290,0.000,0.000,0.000
1605104634166843904,10.0.1.122,373,move_up,-0.270,-0.270,-0.270,0.000,0.000,0.000
1605104635597076992,10.0.1.122,376,move_up,-0.250,-0.250,-0.250,0.000,0.000,0.000
1605104637036112128,10.0.1.122,389,move_up,-0.230,-0.230,-0.230,0.000,0.000,0.000
1605104638466782208,10.0.1.122,373,move_up,-0.210,-0.210,-0.210,0.000,0.000,0.000
1605104639896640000,10.0.1.122,375,move_up,-0.190,-0.190,-0.190,0.000,0.000,0.000
1605104641077027072,10.0.1.122,44,place,-0.180,-0.180,-0.180,0.000,0.000,0.000
1605104642076873984,10.0.1.122,43,place,-0.170,-0.170,-0.170,0.000,0.000,0.000
1605104643076783872,10.0.1.122,41,place,-0.160,-0.160,-0.160,0.000,0.000,0.000
1605104644075969024,10.0.1.122,40,place,-0.150,-0.150,-0.150,0.000,0.000,0.000
1605104645076509952,10.0.1.122,39,place,-0.140,-0.140,-0.140,0.000,0.000,0.000
1605104646075892992,10.0.1.122,37,place,-0.130,-0.130,-0.130,0.000,0.000,0.000
1605104647076512000,10.0.1.122,37,place,-0.120,-0.120,-0.120,0.000,0.000,0.000
1605104648077001216,10.0.1.122,36,place,-0.110,-0.110,-0.110,0.000,0.000,0.000
1605104649075982080,10.0.1.122,33,place,-0.100,-0.100,-0.100,0.000,0.000,0.000
1605104650076407040,10.0.1.122,33,place,-0.090,-0.090,-0.090,0.000,0.000,0.000
1605104651076760064,10.0.1.122,32,place,-0.080,-0.080,-0.080,0.000,0.000,0.000
1605104652096296960,10.0.1.122,50,place,-0.070,-0.070,-0.070,0.000,0.000,0.000
1605104653096312064,10.0.1.122,49,place,-0.060,-0.060,-0.060,0.000,0.000,0.000
1605104654097465088,10.0.1.122,48,place,-0.050,-0.050,-0.050,0.000,0.000,0.000
1605104655096517120,10.0.1.122,46,place,-0.040,-0.040,-0.040,0.000,0.000,0.000
1605104656096425984,10.0.1.122,44,place,-0.030,-0.030,-0.030,0.000,0.000,0.000
1605104657096623872,10.0.1.122,43,place,-0.020,-0.020,-0.020,0.000,0.000,0.000
1605104658096094976,10.0.1.122,41,place,-0.010,-0.010,-0.010,0.000,0.000,0.000
1605104659096296960,10.0.1.122,40,place,0.000,0.000,0.000,0.000,0.000,0.000
1605104660432396032,10.0.1.122,375,move_down,-0.020,-0.020,-0.020,0.000,0.000,0.000
1605104661836328960,10.0.1.122,364,move_down,-0.040,-0.040,-0.040,0.000,0.000,0.000
1605104663245879040,10.0.1.122,362,move_down,-0.060,-0.060,-0.060,0.000,0.000,0.000
1605104664676038912,10.0.1.122,346,move_down,-0.080,-0.080,-0.080,0.000,0.000,0.000
1605104666106117888,10.0.1.122,356,move_down,-0.100,-0.100,-0.100,0.000,0.000,0.000
1605104667555918080,10.0.1.122,380,move_down,-0.120,-0.120,-0.120,0.000,0.000,0.000
1605104669027111936,10.0.1.122,404,move_down,-0.140,-0.140,-0.140,0.000,0.000,0.000
1605104670416413184,10.0.1.122,348,move_down,-0.160,-0.160,-0.160,0.000,0.000,0.000
1605104671865672192,10.0.1.122,384,move_down,-0.180,-0.180,-0.180,0.000,0.000,0.000
1605104673286473984,10.0.1.122,362,move_down,-0.200,-0.200,-0.200,0.000,0.000,0.000
1605104674655777024,10.0.1.122,359,move_down,-0.220,-0.220,-0.220,0.000,0.000,0.000
1605104676106447872,10.0.1.122,384,move_down,-0.240,-0.240,-0.240,0.000,0.000,0.000
1605104677525999104,10.0.1.122,369,move_down,-0.260,-0.260,-0.260,0.000,0.000,0.000
1605104678977637120,10.0.1.122,403,move_down,-0.280,-0.280,-0.280,0.000,0.000,0.000
1605104680387141888,10.0.1.122,368,move_down,-0.300,-0.300,-0.300,0.000,0.000,0.000
1605104681827468032,10.0.1.122,381,move_down,-0.320,-0.320,-0.320,0.000,0.000,0.000
1605104683257778944,10.0.1.122,383,move_down,-0.340,-0.340,-0.340,0.000,0.000,0.000
1605104684707478016,10.0.1.122,392,move_down,-0.360,-0.360,-0.360,0.000,0.000,0.000
1605104686137396224,10.0.1.122,377,move_down,-0.380,-0.380,-0.380,0.000,0.000,0.000
1605104687537051904,10.0.1.122,355,move_down,-0.400,-0.400,-0.400,0.000,0.000,0.000
1605104688987719168,10.0.1.122,381,move_down,-0.420,-0.420,-0.420,0.000,0.000,0.000
1605104690417359104,10.0.1.122,368,move_down,-0.440,-0.440,-0.440,0.000,0.000,0.000
1605104691867700992,10.0.1.122,402,move_down,-0.460,-0.460,-0.460,0.000,0.000,0.000
1605104693277734144,10.0.1.122,372,move_down,-0.480,-0.480,-0.480,0.000,0.000,0.000
1605104694697324032,10.0.1.122,367,move_down,-0.500,-0.500,-0.500,0.000,0.000,0.000
1605104696157648128,10.0.1.122,395,move_down,-0.520,-0.520,-0.520,0.000,0.000,0.000
1605104697588606208,10.0.1.122,382,move_down,-0.540,-0.540,-0.540,0.000,0.000,0.000
1605104699017665024,10.0.1.122,370,move_down,-0.560,-0.560,-0.560,0.000,0.000,0.000
1605104700458034944,10.0.1.122,395,move_down,-0.580,-0.580,-0.580,0.000,0.000,0.000
1605104701557452800,10.0.1.122,48,pick,-0.590,-0.590,-0.590,0.000,0.000,0.000
1605104702557345024,10.0.1.122,47,pick,-0.600,-0.600,-0.600,0.000,0.000,0.000
1605104703558013952,10.0.1.122,46,pick,-0.610,-0.610,-0.610,0.000,0.000,0.000
1605104704557625088,10.0.1.122,44,pick,-0.620,-0.620,-0.620,0.000,0.000,0.000
1605104705557305088,10.0.1.122,43,pick,-0.630,-0.630,-0.630,0.000,0.000,0.000
1605104706557751808,10.0.1.122,42,pick,-0.640,-0.640,-0.640,0.000,0.000,0.000
1605104707557073152,10.0.1.122,40,pick,-0.650,-0.650,-0.650,0.000,0.000,0.000
1605104708557594112,10.0.1.122,39,pick,-0.660,-0.660,-0.660,0.000,0.000,0.000
1605104709557334784,10.0.1.122,38,pick,-0.670,-0.670,-0.670,0.000,0.000,0.000
1605104710557086976,10.0.1.122,36,pick,-0.680,-0.680,-0.680,0.000,0.000,0.000
1605104711559087104,10.0.1.122,37,pick,-0.690,-0.690,-0.690,0.000,0.000,0.000
1605104712556899072,10.0.1.122,33,pick,-0.700,-0.700,-0.700,0.000,0.000,0.000
1605104713557826048,10.0.1.122,34,pick,-0.710,-0.710,-0.710,0.000,0.000,0.000
1605104714557391872,10.0.1.122,32,pick,-0.720,-0.720,-0.720,0.000,0.000,0.000
1605104715557864960,10.0.1.122,31,pick,-0.730,-0.730,-0.730,0.000,0.000,0.000
1605104716577704960,10.0.1.122,50,pick,-0.740,-0.740,-0.740,0.000,0.000,0.000
1605104717577312000,10.0.1.122,48,pick,-0.750,-0.750,-0.750,0.000,0.000,0.000
1605104718577691136,10.0.1.122,47,pick,-0.760,-0.760,-0.760,0.000,0.000,0.000
1605104719578177024,10.0.1.122,46,pick,-0.770,-0.770,-0.770,0.000,0.000,0.000
1605104720909039104,10.0.1.122,376,move_up,-0.750,-0.750,-0.750,0.000,0.000,0.000
1605104722299617024,10.0.1.122,347,move_up,-0.730,-0.730,-0.730,0.000,0.000,0.000
1605104723737356800,10.0.1.122,374,move_up,-0.710,-0.710,-0.710,0.000,0.000,0.000
1605104725167942144,10.0.1.122,354,move_up,-0.690,-0.690,-0.690,0.000,0.000,0.000
1605104726562194176,10.0.1.122,371,move_up,-0.670,-0.670,-0.670,0.000,0.000,0.000
1605104728027920896,10.0.1.122,420,move_up,-0.650,-0.650,-0.650,0.000,0.000,0.000
1605104729431066112,10.0.1.122,371,move_up,-0.630,-0.630,-0.630,0.000,0.000,0.000
1605104730877212160,10.0.1.122,374,move_up,-0.610,-0.610,-0.610,0.000,0.000,0.000
1605104732297934080,10.0.1.122,368,move_up,-0.590,-0.590,-0.590,0.000,0.000,0.000
1605104733749777152,10.0.1.122,392,move_up,-0.570,-0.570,-0.570,0.000,0.000,0.000
1605104735177436160,10.0.1.122,377,move_up,-0.550,-0.550,-0.550,0.000,0.000,0.000
1605104736607283200,10.0.1.122,382,move_up,-0.530,-0.530,-0.530,0.000,0.000,0.000
1605104738037201920,10.0.1.122,368,move_up,-0.510,-0.510,-0.510,0.000,0.000,0.000
1605104739478484992,10.0.1.122,399,move_up,-0.490,-0.490,-0.490,0.000,0.000,0.000
1605104740908503040,10.0.1.122,380,move_up,-0.470,-0.470,-0.470,0.000,0.000,0.000
1605104742327560960,10.0.1.122,374,move_up,-0.450,-0.450,-0.450,0.000,0.000,0.000
1605104743757159936,10.0.1.122,377,move_up,-0.430,-0.430,-0.430,0.000,0.000,0.000
1605104745208788992,10.0.1.122,388,move_up,-0.410,-0.410,-0.410,0.000,0.000,0.000
1605104746617415936,10.0.1.122,378,move_up,-0.390,-0.390,-0.390,0.000,0.000,0.000
1605104748067310080,10.0.1.122,400,move_up,-0.370,-0.370,-0.370,0.000,0.000,0.000
1605104749457921024,10.0.1.122,347,move_up,-0.350,-0.350,-0.350,0.000,0.000,0.000
1605104750927304960,10.0.1.122,407,move_up,-0.330,-0.330,-0.330,0.000,0.000,0.000
1605104752358745088,10.0.1.122,397,move_up,-0.310,-0.310,-0.310,0.000,0.000,0.000
1605104753757630976,10.0.1.122,370,move_up,-0.290,-0.290,-0.290,0.000,0.000,0.000
1605104755238612992,10.0.1.122,400,move_up,-0.270,-0.270,-0.270,0.000,0.000,0.000
1605104756717915904,10.0.1.122,406,move_up,-0.250,-0.250,-0.250,0.000,0.000,0.000
1605104758167406080,10.0.1.122,375,move_up,-0.230,-0.230,-0.230,0.000,0.000,0.000
1605104759537046016,10.0.1.122,371,move_up,-0.210,-0.210,-0.210,0.000,0.000,0.000
1605104760928592896,10.0.1.122,389,move_up,-0.190,-0.190,-0.190,0.000,0.000,0.000
1605104762011648000,10.0.1.122,41,place,-0.180,-0.180,-0.180,0.000,0.000,0.000
1605104763008215808,10.0.1.122,37,place,-0.170,-0.170,-0.170,0.000,0.000,0.000
1605104764007736064,10.0.1.122,36,place,-0.160,-0.160,-0.160,0.000,0.000,0.000
1605104765008822016,10.0.1.122,35,place,-0.150,-0.150,-0.150,0.000,0.000,0.000
1605104766009326080,10.0.1.122,35,place,-0.140,-0.140,-0.140,0.000,0.000,0.000
1605104767007250944,10.0.1.122,31,place,-0.130,-0.130,-0.130,0.000,0.000,0.000
1605104768027590144,10.0.1.122,50,place,-0.120,-0.120,-0.120,0.000,0.000,0.000
1605104769027625984,10.0.1.122,49,place,-0.110,-0.110,-0.110,0.000,0.000,0.000
1605104770027596032,10.0.1.122,48,place,-0.100,-0.100,-0.100,0.000,0.000,0.000
1605104771029112064,10.0.1.122,48,place,-0.090,-0.090,-0.090,0.000,0.000,0.000
1605104772021724928,10.0.1.122,39,place,-0.080,-0.080,-0.080,0.000,0.000,0.000
1605104773028914944,10.0.1.122,45,place,-0.070,-0.070,-0.070,0.000,0.000,0.000
1605104774027993088,10.0.1.122,43,place,-0.060,-0.060,-0.060,0.000,0.000,0.000
1605104775027945984,10.0.1.122,42,place,-0.050,-0.050,-0.050,0.000,0.000,0.000
1605104776027399936,10.0.1.122,40,place,-0.040,-0.040,-0.040,0.000,0.000,0.000
1605104777028184832,10.0.1.122,39,place,-0.030,-0.030,-0.030,0.000,0.000,0.000
1605104778028041984,10.0.1.122,38,place,-0.020,-0.020,-0.020,0.000,0.000,0.000
1605104779027843072,10.0.1.122,37,place,-0.010,-0.010,-0.010,0.000,0.000,0.000
1605104780027481088,10.0.1.122,35,place,0.000,0.000,0.000,0.000,0.000,0.000
1605104781377805056,10.0.1.122,384,move_down,-0.020,-0.020,-0.020,0.000,0.000,0.000
1605104782827545856,10.0.1.122,387,move_down,-0.040,-0.040,-0.040,0.000,0.000,0.000
1605104784252592128,10.0.1.122,367,move_down,-0.060,-0.060,-0.060,0.000,0.000,0.000
1605104785678327040,10.0.1.122,376,move_down,-0.080,-0.080,-0.080,0.000,0.000,0.000
1605104787107955968,10.0.1.122,388,move_down,-0.100,-0.100,-0.100,0.000,0.000,0.000
1605104788537786112,10.0.1.122,380,move_down,-0.120,-0.120,-0.120,0.000,0.000,0.000
1605104789957886976,10.0.1.122,360,move_down,-0.140,-0.140,-0.140,0.000,0.000,0.000
1605104791417753088,10.0.1.122,396,move_down,-0.160,-0.160,-0.160,0.000,0.000,0.000
1605104792848207872,10.0.1.122,384,move_down,-0.180,-0.180,-0.180,0.000,0.000,0.000
1605104794307435008,10.0.1.122,400,move_down,-0.200,-0.200,-0.200,0.000,0.000,0.000
1605104795737504000,10.0.1.122,390,move_down,-0.220,-0.220,-0.220,0.000,0.000,0.000
1605104797156894976,10.0.1.122,369,move_down,-0.240,-0.240,-0.240,0.000,0.000,0.000
1605104798587254016,10.0.1.122,388,move_down,-0.260,-0.260,-0.260,0.000,0.000,0.000
1605104800040685824,10.0.1.122,401,move_down,-0.280,-0.280,-0.280,0.000,0.000,0.000
1605104801477178112,10.0.1.122,378,move_down,-0.300,-0.300,-0.300,0.000,0.000,0.000
1605104802908453888,10.0.1.122,385,move_down,-0.320,-0.320,-0.320,0.000,0.000,0.000
1605104804317955072,10.0.1.122,353,move_down,-0.340,-0.340,-0.340,0.000,0.000,0.000
1605104805797568000,10.0.1.122,414,move_down,-0.360,-0.360,-0.360,0.000,0.000,0.000
1605104807208992000,10.0.1.122,379,move_down,-0.380,-0.380,-0.380,0.000,0.000,0.000
1605104808637114880,10.0.1.122,367,move_down,-0.400,-0.400,-0.400,0.000,0.000,0.000
1605104810067022080,10.0.1.122,383,move_down,-0.420,-0.420,-0.420,0.000,0.000,0.000
1605104811517755136,10.0.1.122,388,move_down,-0.440,-0.440,-0.440,0.000,0.000,0.000
1605104812927550976,10.0.1.122,380,move_down,-0.460,-0.460,-0.460,0.000,0.000,0.000
1605104814327416832,10.0.1.122,355,move_down,-0.480,-0.480,-0.480,0.000,0.000,0.000
1605104815717283072,10.0.1.122,371,move_down,-0.500,-0.500,-0.500,0.000,0.000,0.000
1605104817147255040,10.0.1.122,374,move_down,-0.520,-0.520,-0.520,0.000,0.000,0.000
1605104818546961152,10.0.1.122,354,move_down,-0.540,-0.540,-0.540,0.000,0.000,0.000
1605104819999838976,10.0.1.122,392,move_down,-0.560,-0.560,-0.560,0.000,0.000,0.000
1605104821408090112,10.0.1.122,382,move_down,-0.580,-0.580,-0.580,0.000,0.000,0.000
1605104822507847168,10.0.1.122,49,pick,-0.590,-0.590,-0.590,0.000,0.000,0.000
1605104823512185088,10.0.1.122,52,pick,-0.600,-0.600,-0.600,0.000,0.000,0.000
1605104824507642112,10.0.1.122,46,pick,-0.610,-0.610,-0.610,0.000,0.000,0.000
1605104825508232192,10.0.1.122,46,pick,-0.620,-0.620,-0.620,0.000,0.000,0.000
1605104826508605952,10.0.1.122,45,pick,-0.630,-0.630,-0.630,0.000,0.000,0.000
1605104827507678976,10.0.1.122,43,pick,-0.640,-0.640,-0.640,0.000,0.000,0.000
1605104828509097216,10.0.1.122,43,pick,-0.650,-0.650,-0.650,0.000,0.000,0.000
1605104829508622848,10.0.1.122,41,pick,-0.660,-0.660,-0.660,0.000,0.000,0.000
1605104830507678976,10.0.1.122,39,pick,-0.670,-0.670,-0.670,0.000,0.000,0.000
1605104831512648192,10.0.1.122,43,pick,-0.680,-0.680,-0.680,0.000,0.000,0.000
1605104832524790016,10.0.1.122,53,pick,-0.690,-0.690,-0.690,0.000,0.000,0.000
1605104833509447168,10.0.1.122,37,pick,-0.700,-0.700,-0.700,0.000,0.000,0.000
1605104834510432000,10.0.1.122,37,pick,-0.710,-0.710,-0.710,0.000,0.000,0.000
1605104835508133888,10.0.1.122,33,pick,-0.720,-0.720,-0.720,0.000,0.000,0.000
1605104836512832000,10.0.1.122,37,pick,-0.730,-0.730,-0.730,0.000,0.000,0.000
1605104837536541952,10.0.1.122,59,pick,-0.740,-0.740,-0.740,0.000,0.000,0.000
1605104838539084800,10.0.1.122,60,pick,-0.750,-0.750,-0.750,0.000,0.000,0.000
1605104839527090944,10.0.1.122,47,pick,-0.760,-0.760,-0.760,0.000,0.000,0.000
1605104840527592960,10.0.1.122,46,pick,-0.770,-0.770,-0.770,0.000,0.000,0.000
1605104841867083008,10.0.1.122,384,move_up,-0.750,-0.750,-0.750,0.000,0.000,0.000
1605104843267798016,10.0.1.122,361,move_up,-0.730,-0.730,-0.730,0.000,0.000,0.000
1605104844648744960,10.0.1.122,360,move_up,-0.710,-0.710,-0.710,0.000,0.000,0.000
1605104846078664192,10.0.1.122,365,move_up,-0.690,-0.690,-0.690,0.000,0.000,0.000
1605104847508006144,10.0.1.122,382,move_up,-0.670,-0.670,-0.670,0.000,0.000,0.000
1605104848941579008,10.0.1.122,379,move_up,-0.650,-0.650,-0.650,0.000,0.000,0.000
1605104850378679040,10.0.1.122,389,move_up,-0.630,-0.630,-0.630,0.000,0.000,0.000
1605104851827990016,10.0.1.122,405,move_up,-0.610,-0.610,-0.610,0.000,0.000,0.000
1605104853228146944,10.0.1.122,384,move_up,-0.590,-0.590,-0.590,0.000,0.000,0.000
1605104854680854016,10.0.1.122,382,move_up,-0.570,-0.570,-0.570,0.000,0.000,0.000
1605104856147838208,10.0.1.122,408,move_up,-0.550,-0.550,-0.550,0.000,0.000,0.000
1605104857631081216,10.0.1.122,410,move_up,-0.530,-0.530,-0.530,0.000,0.000,0.000
1605104859097896960,10.0.1.122,402,move_up,-0.510,-0.510,-0.510,0.000,0.000,0.000
1605104860588043008,10.0.1.122,416,move_up,-0.490,-0.490,-0.490,0.000,0.000,0.000
1605104862022196992,10.0.1.122,377,move_up,-0.470,-0.470,-0.470,0.000,0.000,0.000
1605104863469014784,10.0.1.122,414,move_up,-0.450,-0.450,-0.450,0.000,0.000,0.000
1605104864878781952,10.0.1.122,370,move_up,-0.430,-0.430,-0.430,0.000,0.000,0.000
1605104866317956096,10.0.1.122,393,move_up,-0.410,-0.410,-0.410,0.000,0.000,0.000
1605104867748537088,10.0.1.122,378,move_up,-0.390,-0.390,-0.390,0.000,0.000,0.000
1605104869197655808,10.0.1.122,383,move_up,-0.370,-0.370,-0.370,0.000,0.000,0.000
1605104870638617088,10.0.1.122,383,move_up,-0.350,-0.350,-0.350,0.000,0.000,0.000
1605104872078594048,10.0.1.122,374,move_up,-0.330,-0.330,-0.330,0.000,0.000,0.000
1605104873508409088,10.0.1.122,381,move_up,-0.310,-0.310,-0.310,0.000,0.000,0.000
1605104874918206976,10.0.1.122,361,move_up,-0.290,-0.290,-0.290,0.000,0.000,0.000
1605104876368043008,10.0.1.122,380,move_up,-0.270,-0.270,-0.270,0.000,0.000,0.000
1605104877817469952,10.0.1.122,391,move_up,-0.250,-0.250,-0.250,0.000,0.000,0.000
1605104879338170112,10.0.1.122,394,move_up,-0.230,-0.230,-0.230,0.000,0.000,0.000
1605104880767844864,10.0.1.122,380,move_up,-0.210,-0.210,-0.210,0.000,0.000,0.000
1605104882288423168,10.0.1.122,411,move_up,-0.190,-0.190,-0.190,0.000,0.000,0.000
1605104883369404160,10.0.1.122,40,place,-0.180,-0.180,-0.180,0.000,0.000,0.000
1605104884370887936,10.0.1.122,39,place,-0.170,-0.170,-0.170,0.000,0.000,0.000
1605104885368211968,10.0.1.122,35,place,-0.160,-0.160,-0.160,0.000,0.000,0.000
1605104886381728000,10.0.1.122,47,place,-0.150,-0.150,-0.150,0.000,0.000,0.000
1605104887388755968,10.0.1.122,52,place,-0.140,-0.140,-0.140,0.000,0.000,0.000
1605104888393475072,10.0.1.122,49,place,-0.130,-0.130,-0.130,0.000,0.000,0.000
1605104889390331136,10.0.1.122,43,place,-0.120,-0.120,-0.120,0.000,0.000,0.000
1605104890388190976,10.0.1.122,39,place,-0.110,-0.110,-0.110,0.000,0.000,0.000
1605104891390104064,10.0.1.122,40,place,-0.100,-0.100,-0.100,0.000,0.000,0.000
1605104892388793856,10.0.1.122,37,place,-0.090,-0.090,-0.090,0.000,0.000,0.000
1605104893391200000,10.0.1.122,38,place,-0.080,-0.080,-0.080,0.000,0.000,0.000
1605104894387953920,10.0.1.122,34,place,-0.070,-0.070,-0.070,0.000,0.000,0.000
1605104895387953152,10.0.1.122,33,place,-0.060,-0.060,-0.060,0.000,0.000,0.000
1605104896389349888,10.0.1.122,33,place,-0.050,-0.050,-0.050,0.000,0.000,0.000
1605104897392065024,10.0.1.122,35,place,-0.040,-0.040,-0.040,0.000,0.000,0.000
1605104898411612160,10.0.1.122,51,place,-0.030,-0.030,-0.030,0.000,0.000,0.000
1605104899411862016,10.0.1.122,51,place,-0.020,-0.020,-0.020,0.000,0.000,0.000
1605104901409084928,10.0.1.122,42,place,0.000,0.000,0.000,0.000,0.000,0.000
1605104902782658048,10.0.1.122,414,move_down,-0.020,-0.020,-0.020,0.000,0.000,0.000
1605104904265868800,10.0.1.122,417,move_down,-0.040,-0.040,-0.040,0.000,0.000,0.000
1605104905659847936,10.0.1.122,368,move_down,-0.060,-0.060,-0.060,0.000,0.000,0.000
1605104907128166912,10.0.1.122,411,move_down,-0.080,-0.080,-0.080,0.000,0.000,0.000
1605104908547860992,10.0.1.122,374,move_down,-0.100,-0.100,-0.100,0.000,0.000,0.000
1605104910020681984,10.0.1.122,401,move_down,-0.120,-0.120,-0.120,0.000,0.000,0.000
1605104911498161920,10.0.1.122,404,move_down,-0.140,-0.140,-0.140,0.000,0.000,0.000
1605104912934678016,10.0.1.122,389,move_down,-0.160,-0.160,-0.160,0.000,0.000,0.000
1605104914395832064,10.0.1.122,407,move_down,-0.180,-0.180,-0.180,0.000,0.000,0.000
1605104915899833088,10.0.1.122,418,move_down,-0.200,-0.200,-0.200,0.000,0.000,0.000
1605104917352166912,10.0.1.122,382,move_down,-0.220,-0.220,-0.220,0.000,0.000,0.000
1605104918795811840,10.0.1.122,385,move_down,-0.240,-0.240,-0.240,0.000,0.000,0.000
1605104920218136064,10.0.1.122,380,move_down,-0.260,-0.260,-0.260,0.000,0.000,0.000
1605104921672480000,10.0.1.122,393,move_down,-0.280,-0.280,-0.280,0.000,0.000,0.000
1605104923092920064,10.0.1.122,383,move_down,-0.300,-0.300,-0.300,0.000,0.000,0.000
1605104924572078848,10.0.1.122,389,move_down,-0.320,-0.320,-0.320,0.000,0.000,0.000
1605104926025819904,10.0.1.122,388,move_down,-0.340,-0.340,-0.340,0.000,0.000,0.000
1605104927423488000,10.0.1.122,400,move_down,-0.360,-0.360,-0.360,0.000,0.000,0.000
1605104928872114944,10.0.1.122,395,move_down,-0.380,-0.380,-0.380,0.000,0.000,0.000
1605104930272787968,10.0.1.122,373,move_down,-0.400,-0.400,-0.400,0.000,0.000,0.000
1605104931709340160,10.0.1.122,392,move_down,-0.420,-0.420,-0.420,0.000,0.000,0.000
1605104933141153024,10.0.1.122,378,move_down,-0.440,-0.440,-0.440,0.000,0.000,0.000
1605104934571712000,10.0.1.122,388,move_down,-0.460,-0.460,-0.460,0.000,0.000,0.000
1605104935981833984,10.0.1.122,367,move_down,-0.480,-0.480,-0.480,0.000,0.000,0.000
1605104937401648128,10.0.1.122,374,move_down,-0.500,-0.500,-0.500,0.000,0.000,0.000
1605104938864094976,10.0.1.122,391,move_down,-0.520,-0.520,-0.520,0.000,0.000,0.000
1605104940291780096,10.0.1.122,378,move_down,-0.540,-0.540,-0.540,0.000,0.000,0.000
1605104941707764992,10.0.1.122,368,move_down,-0.560,-0.560,-0.560,0.000,0.000,0.000
1605104943144030976,10.0.1.122,373,move_down,-0.580,-0.580,-0.580,0.000,0.000,0.000
1605104944229654016,10.0.1.122,46,pick,-0.590,-0.590,-0.590,0.000,0.000,0.000
1605104945226131968,10.0.1.122,41,pick,-0.600,-0.600,-0.600,0.000,0.000,0.000
1605104946224093952,10.0.1.122,39,pick,-0.610,-0.610,-0.610,0.000,0.000,0.000
1605104947222796800,10.0.1.122,37,pick,-0.620,-0.620,-0.620,0.000,0.000,0.000
1605104948221515776,10.0.1.122,35,pick,-0.630,-0.630,-0.630,0.000,0.000,0.000
1605104949221451008,10.0.1.122,34,pick,-0.640,-0.640,-0.640,0.000,0.000,0.000
1605104950221999872,10.0.1.122,34,pick,-0.650,-0.650,-0.650,0.000,0.000,0.000
1605104951222938112,10.0.1.122,34,pick,-0.660,-0.660,-0.660,0.000,0.000,0.000
1605104952221518080,10.0.1.122,31,pick,-0.670,-0.670,-0.670,0.000,0.000,0.000
1605104953242168064,10.0.1.122,50,pick,-0.680,-0.680,-0.680,0.000,0.000,0.000
1605104954243480064,10.0.1.122,50,pick,-0.690,-0.690,-0.690,0.000,0.000,0.000
1605104955243105792,10.0.1.122,49,pick,-0.700,-0.700,-0.700,0.000,0.000,0.000
1605104956241987840,10.0.1.122,47,pick,-0.710,-0.710,-0.710,0.000,0.000,0.000
1605104957242279168,10.0.1.122,46,pick,-0.720,-0.720,-0.720,0.000,0.000,0.000
1605104958242428160,10.0.1.122,45,pick,-0.730,-0.730,-0.730,0.000,0.000,0.000
1605104959242428160,10.0.1.122,44,pick,-0.740,-0.740,-0.740,0.000,0.000,0.000
1605104960241862144,10.0.1.122,42,pick,-0.750,-0.750,-0.750,0.000,0.000,0.000
1605104961243681024,10.0.1.122,42,pick,-0.760,-0.760,-0.760,0.000,0.000,0.000
1605104962241966848,10.0.1.122,39,pick,-0.770,-0.770,-0.770,0.000,0.000,0.000
1605104963592974848,10.0.1.122,389,move_up,-0.750,-0.750,-0.750,0.000,0.000,0.000
1605104965044940032,10.0.1.122,394,move_up,-0.730,-0.730,-0.730,0.000,0.000,0.000
1605104966500439808,10.0.1.122,402,move_up,-0.710,-0.710,-0.710,0.000,0.000,0.000
1605104967913163008,10.0.1.122,400,move_up,-0.690,-0.690,-0.690,0.000,0.000,0.000
1605104969332812032,10.0.1.122,393,move_up,-0.670,-0.670,-0.670,0.000,0.000,0.000
1605104970794604032,10.0.1.122,412,move_up,-0.650,-0.650,-0.650,0.000,0.000,0.000
1605104972223164928,10.0.1.122,359,move_up,-0.630,-0.630,-0.630,0.000,0.000,0.000
1605104973672570880,10.0.1.122,382,move_up,-0.610,-0.610,-0.610,0.000,0.000,0.000
1605104975082833920,10.0.1.122,353,move_up,-0.590,-0.590,-0.590,0.000,0.000,0.000
1605104976532398080,10.0.1.122,386,move_up,-0.570,-0.570,-0.570,0.000,0.000,0.000
1605104977924424960,10.0.1.122,368,move_up,-0.550,-0.550,-0.550,0.000,0.000,0.000
1605104979373990144,10.0.1.122,383,move_up,-0.530,-0.530,-0.530,0.000,0.000,0.000
1605104980852375040,10.0.1.122,388,move_up,-0.510,-0.510,-0.510,0.000,0.000,0.000
1605104982315619072,10.0.1.122,404,move_up,-0.490,-0.490,-0.490,0.000,0.000,0.000
1605104983741355008,10.0.1.122,384,move_up,-0.470,-0.470,-0.470,0.000,0.000,0.000
1605104985181842944,10.0.1.122,396,move_up,-0.450,-0.450,-0.450,0.000,0.000,0.000
1605104986644649984,10.0.1.122,410,move_up,-0.430,-0.430,-0.430,0.000,0.000,0.000
1605104988092407040,10.0.1.122,404,move_up,-0.410,-0.410,-0.410,0.000,0.000,0.000
1605104989545257216,10.0.1.122,385,move_up,-0.390,-0.390,-0.390,0.000,0.000,0.000
1605104991015202048,10.0.1.122,409,move_up,-0.370,-0.370,-0.370,0.000,0.000,0.000
1605104992443588096,10.0.1.122,388,move_up,-0.350,-0.350,-0.350,0.000,0.000,0.000
1605104993864528896,10.0.1.122,391,move_up,-0.330,-0.330,-0.330,0.000,0.000,0.000
1605104995252722944,10.0.1.122,368,move_up,-0.310,-0.310,-0.310,0.000,0.000,0.000
1605104996754115072,10.0.1.122,396,move_up,-0.290,-0.290,-0.290,0.000,0.000,0.000
1605104998197014016,10.0.1.122,395,move_up,-0.270,-0.270,-0.270,0.000,0.000,0.000
1605104999641406976,10.0.1.122,405,move_up,-0.250,-0.250,-0.250,0.000,0.000,0.000
1605105001081993984,10.0.1.122,398,move_up,-0.230,-0.230,-0.230,0.000,0.000,0.000
1605105002541507072,10.0.1.122,376,move_up,-0.210,-0.210,-0.210,0.000,0.000,0.000
1605105004012283136,10.0.1.122,409,move_up,-0.190,-0.190,-0.190,0.000,0.000,0.000
1605105005111318016,10.0.1.122,28,place,-0.180,-0.180,-0.180,0.000,0.000,0.000
1605105006132525824,10.0.1.122,48,place,-0.170,-0.170,-0.170,0.000,0.000,0.000
1605105007133903872,10.0.1.122,48,place,-0.160,-0.160,-0.160,0.000,0.000,0.000
1605105008131776000,10.0.1.122,44,place,-0.150,-0.150,-0.150,0.000,0.000,0.000
1605105009132945920,10.0.1.122,45,place,-0.140,-0.140,-0.140,0.000,0.000,0.000
1605105010131314944,10.0.1.122,42,place,-0.130,-0.130,-0.130,0.000,0.000,0.000
1605105011131334144,10.0.1.122,40,place,-0.120,-0.120,-0.120,0.000,0.000,0.000
1605105012131195136,10.0.1.122,39,place,-0.110,-0.110,-0.110,0.000,0.000,0.000
1605105013132577792,10.0.1.122,39,place,-0.100,-0.100,-0.100,0.000,0.000,0.000
1605105014131659008,10.0.1.122,37,place,-0.090,-0.090,-0.090,0.000,0.000,0.000
1605105015142532096,10.0.1.122,46,place,-0.080,-0.080,-0.080,0.000,0.000,0.000
1605105016140825088,10.0.1.122,43,place,-0.070,-0.070,-0.070,0.000,0.000,0.000
1605105017138013952,10.0.1.122,39,place,-0.060,-0.060,-0.060,0.000,0.000,0.000
1605105018131848192,10.0.1.122,32,place,-0.050,-0.050,-0.050,0.000,0.000,0.000
1605105019151532032,10.0.1.122,50,place,-0.040,-0.040,-0.040,0.000,0.000,0.000
1605105020154545152,10.0.1.122,52,place,-0.030,-0.030,-0.030,0.000,0.000,0.000
1605105021153587200,10.0.1.122,49,place,-0.020,-0.020,-0.020,0.000,0.000,0.000
1605105022151553024,10.0.1.122,46,place,-0.010,-0.010,-0.010,0.000,0.000,0.000
1605105023152403968,10.0.1.122,46,place,0.000,0.000,0.000,0.000,0.000,0.000
1605105024522109952,10.0.1.122,414,move_down,-0.020,-0.020,-0.020,0.000,0.000,0.000
1605105025973503232,10.0.1.122,386,move_down,-0.040,-0.040,-0.040,0.000,0.000,0.000
1605105027381943040,10.0.1.122,378,move_down,-0.060,-0.060,-0.060,0.000,0.000,0.000
1605105028832487936,10.0.1.122,399,move_down,-0.080,-0.080,-0.080,0.000,0.000,0.000
1605105030292193792,10.0.1.122,400,move_down,-0.100,-0.100,-0.100,0.000,0.000,0.000
1605105031702772992,10.0.1.122,364,move_down,-0.120,-0.120,-0.120,0.000,0.000,0.000
1605105033122046976,10.0.1.122,374,move_down,-0.140,-0.140,-0.140,0.000,0.000,0.000
1605105034585124864,10.0.1.122,418,move_down,-0.160,-0.160,-0.160,0.000,0.000,0.000
1605105036011596032,10.0.1.122,401,move_down,-0.180,-0.180,-0.180,0.000,0.000,0.000
1605105037441299968,10.0.1.122,388,move_down,-0.200,-0.200,-0.200,0.000,0.000,0.000
1605105038792326912,10.0.1.122,358,move_down,-0.220,-0.220,-0.220,0.000,0.000,0.000
1605105040282129920,10.0.1.122,406,move_down,-0.240,-0.240,-0.240,0.000,0.000,0.000
1605105041741550080,10.0.1.122,392,move_down,-0.260,-0.260,-0.260,0.000,0.000,0.000
1605105043157032960,10.0.1.122,366,move_down,-0.280,-0.280,-0.280,0.000,0.000,0.000
1605105044602359040,10.0.1.122,383,move_down,-0.300,-0.300,-0.300,0.000,0.000,0.000
1605105046058220032,10.0.1.122,398,move_down,-0.320,-0.320,-0.320,0.000,0.000,0.000
1605105047511687936,10.0.1.122,377,move_down,-0.340,-0.340,-0.340,0.000,0.000,0.000
1605105048931387904,10.0.1.122,371,move_down,-0.360,-0.360,-0.360,0.000,0.000,0.000
1605105050395281152,10.0.1.122,383,move_down,-0.380,-0.380,-0.380,0.000,0.000,0.000
1605105051821854976,10.0.1.122,399,move_down,-0.400,-0.400,-0.400,0.000,0.000,0.000
1605105053252405760,10.0.1.122,404,move_down,-0.420,-0.420,-0.420,0.000,0.000,0.000
1605105054661550080,10.0.1.122,367,move_down,-0.440,-0.440,-0.440,0.000,0.000,0.000
1605105056122044928,10.0.1.122,401,move_down,-0.460,-0.460,-0.460,0.000,0.000,0.000
1605105057541374976,10.0.1.122,369,move_down,-0.480,-0.480,-0.480,0.000,0.000,0.000
1605105058971973888,10.0.1.122,379,move_down,-0.500,-0.500,-0.500,0.000,0.000,0.000
1605105060401035008,10.0.1.122,381,move_down,-0.520,-0.520,-0.520,0.000,0.000,0.000
1605105061834500096,10.0.1.122,383,move_down,-0.540,-0.540,-0.540,0.000,0.000,0.000
1605105063292672000,10.0.1.122,404,move_down,-0.560,-0.560,-0.560,0.000,0.000,0.000
1605105064729409024,10.0.1.122,390,move_down,-0.580,-0.580,-0.580,0.000,0.000,0.000
1605105065791430912,10.0.1.122,42,pick,-0.590,-0.590,-0.590,0.000,0.000,0.000
1605105066791107840,10.0.1.122,41,pick,-0.600,-0.600,-0.600,0.000,0.000,0.000
1605105067791591936,10.0.1.122,40,pick,-0.610,-0.610,-0.610,0.000,0.000,0.000
1605105068792146944,10.0.1.122,39,pick,-0.620,-0.620,-0.620,0.000,0.000,0.000
1605105069793409024,10.0.1.122,37,pick,-0.630,-0.630,-0.630,0.000,0.000,0.000
1605105070791424000,10.0.1.122,34,pick,-0.640,-0.640,-0.640,0.000,0.000,0.000
1605105071791241984,10.0.1.122,32,pick,-0.650,-0.650,-0.650,0.000,0.000,0.000
1605105072791439104,10.0.1.122,31,pick,-0.660,-0.660,-0.660,0.000,0.000,0.000
1605105073811589888,10.0.1.122,50,pick,-0.670,-0.670,-0.670,0.000,0.000,0.000
1605105074806010880,10.0.1.122,43,pick,-0.680,-0.680,-0.680,0.000,0.000,0.000
1605105075803021824,10.0.1.122,39,pick,-0.690,-0.690,-0.690,0.000,0.000,0.000
1605105076811789056,10.0.1.122,46,pick,-0.700,-0.700,-0.700,0.000,0.000,0.000
1605105077811454976,10.0.1.122,45,pick,-0.710,-0.710,-0.710,0.000,0.000,0.000
1605105078811640064,10.0.1.122,43,pick,-0.720,-0.720,-0.720,0.000,0.000,0.000
1605105079816350976,10.0.1.122,47,pick,-0.730,-0.730,-0.730,0.000,0.000,0.000
1605105080812033024,10.0.1.122,41,pick,-0.740,-0.740,-0.740,0.000,0.000,0.000
1605105081833641984,10.0.1.122,62,pick,-0.750,-0.750,-0.750,0.000,0.000,0.000
1605105082812283904,10.0.1.122,39,pick,-0.760,-0.760,-0.760,0.000,0.000,0.000
1605105083812939776,10.0.1.122,38,pick,-0.770,-0.770,-0.770,0.000,0.000,0.000
1605105085157018880,10.0.1.122,381,move_up,-0.750,-0.750,-0.750,0.000,0.000,0.000
1605105086611852800,10.0.1.122,384,move_up,-0.730,-0.730,-0.730,0.000,0.000,0.000
1605105088084428032,10.0.1.122,407,move_up,-0.710,-0.710,-0.710,0.000,0.000,0.000
1605105089481824000,10.0.1.122,383,move_up,-0.690,-0.690,-0.690,0.000,0.000,0.000
1605105090931835904,10.0.1.122,402,move_up,-0.670,-0.670,-0.670,0.000,0.000,0.000
1605105092362169856,10.0.1.122,399,move_up,-0.650,-0.650,-0.650,0.000,0.000,0.000
1605105093832320000,10.0.1.122,400,move_up,-0.630,-0.630,-0.630,0.000,0.000,0.000
1605105095245240064,10.0.1.122,352,move_up,-0.610,-0.610,-0.610,0.000,0.000,0.000
1605105096692241920,10.0.1.122,385,move_up,-0.590,-0.590,-0.590,0.000,0.000,0.000
1605105098132242944,10.0.1.122,364,move_up,-0.570,-0.570,-0.570,0.000,0.000,0.000
1605105099582065152,10.0.1.122,386,move_up,-0.550,-0.550,-0.550,0.000,0.000,0.000
1605105101016113152,10.0.1.122,374,move_up,-0.530,-0.530,-0.530,0.000,0.000,0.000
1605105102452417024,10.0.1.122,369,move_up,-0.510,-0.510,-0.510,0.000,0.000,0.000
1605105103893085952,10.0.1.122,369,move_up,-0.490,-0.490,-0.490,0.000,0.000,0.000
1605105105322338048,10.0.1.122,402,move_up,-0.470,-0.470,-0.470,0.000,0.000,0.000
1605105106813317120,10.0.1.122,384,move_up,-0.450,-0.450,-0.450,0.000,0.000,0.000
1605105108231817984,10.0.1.122,366,move_up,-0.430,-0.430,-0.430,0.000,0.000,0.000
1605105109691484928,10.0.1.122,397,move_up,-0.410,-0.410,-0.410,0.000,0.000,0.000
1605105111121864960,10.0.1.122,377,move_up,-0.390,-0.390,-0.390,0.000,0.000,0.000
1605105112616305152,10.0.1.122,387,move_up,-0.370,-0.370,-0.370,0.000,0.000,0.000
1605105114057966080,10.0.1.122,379,move_up,-0.350,-0.350,-0.350,0.000,0.000,0.000
1605105115491714048,10.0.1.122,388,move_up,-0.330,-0.330,-0.330,0.000,0.000,0.000
1605105116952423168,10.0.1.122,407,move_up,-0.310,-0.310,-0.310,0.000,0.000,0.000
1605105118411973888,10.0.1.122,383,move_up,-0.290,-0.290,-0.290,0.000,0.000,0.000
1605105119872667136,10.0.1.122,411,move_up,-0.270,-0.270,-0.270,0.000,0.000,0.000
1605105121303037952,10.0.1.122,386,move_up,-0.250,-0.250,-0.250,0.000,0.000,0.000
1605105122697079808,10.0.1.122,391,move_up,-0.230,-0.230,-0.230,0.000,0.000,0.000
1605105124149993984,10.0.1.122,396,move_up,-0.210,-0.210,-0.210,0.000,0.000,0.000
1605105125547924992,10.0.1.122,382,move_up,-0.190,-0.190,-0.190,0.000,0.000,0.000
1605105126661832192,10.0.1.122,48,place,-0.180,-0.180,-0.180,0.000,0.000,0.000
1605105127662582016,10.0.1.122,47,place,-0.170,-0.170,-0.170,0.000,0.000,0.000
1605105128661696000,10.0.1.122,46,place,-0.160,-0.160,-0.160,0.000,0.000,0.000
1605105129662867968,10.0.1.122,45,place,-0.150,-0.150,-0.150,0.000,0.000,0.000
1605105130662138880,10.0.1.122,43,place,-0.140,-0.140,-0.140,0.000,0.000,0.000
1605105131662587904,10.0.1.122,43,place,-0.130,-0.130,-0.130,0.000,0.000,0.000
1605105132662532096,10.0.1.122,41,place,-0.120,-0.120,-0.120,0.000,0.000,0.000
1605105133661842944,10.0.1.122,39,place,-0.110,-0.110,-0.110,0.000,0.000,0.000
1605105134662576896,10.0.1.122,39,place,-0.100,-0.100,-0.100,0.000,0.000,0.000
1605105135662999040,10.0.1.122,38,place,-0.090,-0.090,-0.090,0.000,0.000,0.000
1605105136661952000,10.0.1.122,36,place,-0.080,-0.080,-0.080,0.000,0.000,0.000
1605105137661894912,10.0.1.122,34,place,-0.070,-0.070,-0.070,0.000,0.000,0.000
1605105138661676032,10.0.1.122,33,place,-0.060,-0.060,-0.060,0.000,0.000,0.000
1605105139662128896,10.0.1.122,32,place,-0.050,-0.050,-0.050,0.000,0.000,0.000
1605105140682841088,10.0.1.122,51,place,-0.040,-0.040,-0.040,0.000,0.000,0.000
1605105141681773056,10.0.1.122,49,place,-0.030,-0.030,-0.030,0.000,0.000,0.000
1605105142671706880,10.0.1.122,38,place,-0.020,-0.020,-0.020,0.000,0.000,0.000
1605105143681216000,10.0.1.122,46,place,-0.010,-0.010,-0.010,0.000,0.000,0.000
1605105144685682944,10.0.1.122,50,place,0.000,0.000,0.000,0.000,0.000,0.000
1605105145992108032,10.0.1.122,355,move_down,-0.020,-0.020,-0.020,0.000,0.000,0.000
1605105147412269056,10.0.1.122,399,move_down,-0.040,-0.040,-0.040,0.000,0.000,0.000
1605105148871994880,10.0.1.122,413,move_down,-0.060,-0.060,-0.060,0.000,0.000,0.000
1605105150352382976,10.0.1.122,371,move_down,-0.080,-0.080,-0.080,0.000,0.000,0.000
1605105151812200192,10.0.1.122,392,move_down,-0.100,-0.100,-0.100,0.000,0.000,0.000
1605105153283660800,10.0.1.122,420,move_down,-0.120,-0.120,-0.120,0.000,0.000,0.000
1605105154752364032,10.0.1.122,406,move_down,-0.140,-0.140,-0.140,0.000,0.000,0.000
1605105156202404864,10.0.1.122,383,move_down,-0.160,-0.160,-0.160,0.000,0.000,0.000
1605105157662441984,10.0.1.122,402,move_down,-0.180,-0.180,-0.180,0.000,0.000,0.000
1605105159093370880,10.0.1.122,383,move_down,-0.200,-0.200,-0.200,0.000,0.000,0.000
1605105160542105856,10.0.1.122,391,move_down,-0.220,-0.220,-0.220,0.000,0.000,0.000
1605105161972532992,10.0.1.122,386,move_down,-0.240,-0.240,-0.240,0.000,0.000,0.000
1605105163412326144,10.0.1.122,394,move_down,-0.260,-0.260,-0.260,0.000,0.000,0.000
1605105164852720128,10.0.1.122,391,move_down,-0.280,-0.280,-0.280,0.000,0.000,0.000
1605105166291389952,10.0.1.122,396,move_down,-0.300,-0.300,-0.300,0.000,0.000,0.000
1605105167733095936,10.0.1.122,388,move_down,-0.320,-0.320,-0.320,0.000,0.000,0.000
1605105169152688896,10.0.1.122,379,move_down,-0.340,-0.340,-0.340,0.000,0.000,0.000
1605105170587907072,10.0.1.122,385,move_down,-0.360,-0.360,-0.360,0.000,0.000,0.000
1605105172007165952,10.0.1.122,374,move_down,-0.380,-0.380,-0.380,0.000,0.000,0.000
1605105173565117952,10.0.1.122,418,move_down,-0.400,-0.400,-0.400,0.000,0.000,0.000
1605105175014576896,10.0.1.122,378,move_down,-0.420,-0.420,-0.420,0.000,0.000,0.000
1605105176494716928,10.0.1.122,418,move_down,-0.440,-0.440,-0.440,0.000,0.000,0.000
1605105177959296000,10.0.1.122,391,move_down,-0.460,-0.460,-0.460,0.000,0.000,0.000
1605105179384251136,10.0.1.122,371,move_down,-0.480,-0.480,-0.480,0.000,0.000,0.000
1605105180895340032,10.0.1.122,392,move_down,-0.500,-0.500,-0.500,0.000,0.000,0.000
1605105182329551872,10.0.1.122,376,move_down,-0.520,-0.520,-0.520,0.000,0.000,0.000
1605105183765118976,10.0.1.122,388,move_down,-0.540,-0.540,-0.540,0.000,0.000,0.000
1605105185224270080,10.0.1.122,402,move_down,-0.560,-0.560,-0.560,0.000,0.000,0.000
1605105186706564864,10.0.1.122,430,move_down,-0.580,-0.580,-0.580,0.000,0.000,0.000
1605105187785094912,10.0.1.122,33,pick,-0.590,-0.590,-0.590,0.000,0.000,0.000
1605105188785248000,10.0.1.122,32,pick,-0.600,-0.600,-0.600,0.000,0.000,0.000
1605105189809432064,10.0.1.122,55,pick,-0.610,-0.610,-0.610,0.000,0.000,0.000
1605105190805121792,10.0.1.122,50,pick,-0.620,-0.620,-0.620,0.000,0.000,0.000
1605105191805750016,10.0.1.122,49,pick,-0.630,-0.630,-0.630,0.000,0.000,0.000
1605105192804264960,10.0.1.122,47,pick,-0.640,-0.640,-0.640,0.000,0.000,0.000
1605105193804902144,10.0.1.122,46,pick,-0.650,-0.650,-0.650,0.000,0.000,0.000
1605105194804801024,10.0.1.122,45,pick,-0.660,-0.660,-0.660,0.000,0.000,0.000
1605105195805499136,10.0.1.122,44,pick,-0.670,-0.670,-0.670,0.000,0.000,0.000
1605105196805798912,10.0.1.122,43,pick,-0.680,-0.680,-0.680,0.000,0.000,0.000
1605105197804382208,10.0.1.122,40,pick,-0.690,-0.690,-0.690,0.000,0.000,0.000
1605105198804960000,10.0.1.122,39,pick,-0.700,-0.700,-0.700,0.000,0.000,0.000
1605105199805416960,10.0.1.122,39,pick,-0.710,-0.710,-0.710,0.000,0.000,0.000
1605105200804492032,10.0.1.122,37,pick,-0.720,-0.720,-0.720,0.000,0.000,0.000
1605105201803993856,10.0.1.122,35,pick,-0.730,-0.730,-0.730,0.000,0.000,0.000
1605105202810110976,10.0.1.122,40,pick,-0.740,-0.740,-0.740,0.000,0.000,0.000
1605105203804517120,10.0.1.122,32,pick,-0.750,-0.750,-0.750,0.000,0.000,0.000
1605105204811328000,10.0.1.122,38,pick,-0.760,-0.760,-0.760,0.000,0.000,0.000
1605105205804200960,10.0.1.122,29,pick,-0.770,-0.770,-0.770,0.000,0.000,0.000
1605105207241441024,10.0.1.122,465,move_up,-0.750,-0.750,-0.750,0.000,0.000,0.000
1605105208686940928,10.0.1.122,381,move_up,-0.730,-0.730,-0.730,0.000,0.000,0.000
1605105210229260800,10.0.1.122,468,move_up,-0.710,-0.710,-0.710,0.000,0.000,0.000
1605105211695385088,10.0.1.122,377,move_up,-0.690,-0.690,-0.690,0.000,0.000,0.000
1605105213155260160,10.0.1.122,386,move_up,-0.670,-0.670,-0.670,0.000,0.000,0.000
1605105214597125888,10.0.1.122,397,move_up,-0.650,-0.650,-0.650,0.000,0.000,0.000
1605105216064652032,10.0.1.122,415,move_up,-0.630,-0.630,-0.630,0.000,0.000,0.000
1605105217467480832,10.0.1.122,368,move_up,-0.610,-0.610,-0.610,0.000,0.000,0.000
1605105218920098048,10.0.1.122,386,move_up,-0.590,-0.590,-0.590,0.000,0.000,0.000
1605105220304878848,10.0.1.122,383,move_up,-0.570,-0.570,-0.570,0.000,0.000,0.000
1605105221724761856,10.0.1.122,359,move_up,-0.550,-0.550,-0.550,0.000,0.000,0.000
1605105223167117056,10.0.1.122,375,move_up,-0.530,-0.530,-0.530,0.000,0.000,0.000
1605105224654659072,10.0.1.122,391,move_up,-0.510,-0.510,-0.510,0.000,0.000,0.000
1605105226125231872,10.0.1.122,413,move_up,-0.490,-0.490,-0.490,0.000,0.000,0.000
1605105227526007808,10.0.1.122,370,move_up,-0.470,-0.470,-0.470,0.000,0.000,0.000
1605105229055876864,10.0.1.122,458,move_up,-0.450,-0.450,-0.450,0.000,0.000,0.000
1605105230536995840,10.0.1.122,418,move_up,-0.430,-0.430,-0.430,0.000,0.000,0.000
1605105232034627072,10.0.1.122,425,move_up,-0.410,-0.410,-0.410,0.000,0.000,0.000
1605105233542884096,10.0.1.122,449,move_up,-0.390,-0.390,-0.390,0.000,0.000,0.000
1605105235034594048,10.0.1.122,423,move_up,-0.370,-0.370,-0.370,0.000,0.000,0.000
1605105236464665856,10.0.1.122,363,move_up,-0.350,-0.350,-0.350,0.000,0.000,0.000
1605105237872785920,10.0.1.122,384,move_up,-0.330,-0.330,-0.330,0.000,0.000,0.000
1605105239335997184,10.0.1.122,400,move_up,-0.310,-0.310,-0.310,0.000,0.000,0.000
1605105240804120064,10.0.1.122,414,move_up,-0.290,-0.290,-0.290,0.000,0.000,0.000
1605105242254383104,10.0.1.122,384,move_up,-0.270,-0.270,-0.270,0.000,0.000,0.000
1605105243694128128,10.0.1.122,392,move_up,-0.250,-0.250,-0.250,0.000,0.000,0.000
1605105245142499840,10.0.1.122,397,move_up,-0.230,-0.230,-0.230,0.000,0.000,0.000
1605105246597815040,10.0.1.122,397,move_up,-0.210,-0.210,-0.210,0.000,0.000,0.000
1605105248025257216,10.0.1.122,381,move_up,-0.190,-0.190,-0.190,0.000,0.000,0.000
1605105249128638976,10.0.1.122,49,place,-0.180,-0.180,-0.180,0.000,0.000,0.000
1605105250132950016,10.0.1.122,52,place,-0.170,-0.170,-0.170,0.000,0.000,0.000
1605105251125324032,10.0.1.122,43,place,-0.160,-0.160,-0.160,0.000,0.000,0.000
1605105252125263872,10.0.1.122,42,place,-0.150,-0.150,-0.150,0.000,0.000,0.000
1605105253124928000,10.0.1.122,40,place,-0.140,-0.140,-0.140,0.000,0.000,0.000
1605105254124524032,10.0.1.122,38,place,-0.130,-0.130,-0.130,0.000,0.000,0.000
1605105256126784000,10.0.1.122,35,place,-0.110,-0.110,-0.110,0.000,0.000,0.000
1605105257124961024,10.0.1.122,32,place,-0.100,-0.100,-0.100,0.000,0.000,0.000
1605105258145068032,10.0.1.122,50,place,-0.090,-0.090,-0.090,0.000,0.000,0.000
1605105259145076992,10.0.1.122,47,place,-0.080,-0.080,-0.080,0.000,0.000,0.000
1605105261145075968,10.0.1.122,45,place,-0.060,-0.060,-0.060,0.000,0.000,0.000
1605105262144634112,10.0.1.122,43,place,-0.050,-0.050,-0.050,0.000,0.000,0.000
1605105263144936192,10.0.1.122,41,place,-0.040,-0.040,-0.040,0.000,0.000,0.000
1605105264144689920,10.0.1.122,39,place,-0.030,-0.030,-0.030,0.000,0.000,0.000
1605105265164717056,10.0.1.122,58,place,-0.020,-0.020,-0.020,0.000,0.000,0.000
1605105266144353024,10.0.1.122,36,place,-0.010,-0.010,-0.010,0.000,0.000,0.000
1605105267144515072,10.0.1.122,32,place,0.000,0.000,0.000,0.000,0.000,0.000
1605105268514806016,10.0.1.122,401,move_down,-0.020,-0.020,-0.020,0.000,0.000,0.000
1605105270006385920,10.0.1.122,412,move_down,-0.040,-0.040,-0.040,0.000,0.000,0.000
1605105271434917888,10.0.1.122,384,move_down,-0.060,-0.060,-0.060,0.000,0.000,0.000
1605105272944654848,10.0.1.122,446,move_down,-0.080,-0.080,-0.080,0.000,0.000,0.000
1605105274467428864,10.0.1.122,429,move_down,-0.100,-0.100,-0.100,0.000,0.000,0.000
1605105275977197824,10.0.1.122,415,move_down,-0.120,-0.120,-0.120,0.000,0.000,0.000
1605105277476801024,10.0.1.122,417,move_down,-0.140,-0.140,-0.140,0.000,0.000,0.000
1605105278925391872,10.0.1.122,407,move_down,-0.160,-0.160,-0.160,0.000,0.000,0.000
1605105280386297856,10.0.1.122,398,move_down,-0.180,-0.180,-0.180,0.000,0.000,0.000
1605105281804507904,10.0.1.122,360,move_down,-0.200,-0.200,-0.200,0.000,0.000,0.000
1605105283197504000,10.0.1.122,377,move_down,-0.220,-0.220,-0.220,0.000,0.000,0.000
1605105284688425984,10.0.1.122,427,move_down,-0.240,-0.240,-0.240,0.000,0.000,0.000
1605105286167151872,10.0.1.122,413,move_down,-0.260,-0.260,-0.260,0.000,0.000,0.000
1605105287647465984,10.0.1.122,419,move_down,-0.280,-0.280,-0.280,0.000,0.000,0.000
1605105289105686784,10.0.1.122,425,move_down,-0.300,-0.300,-0.300,0.000,0.000,0.000
1605105290583600128,10.0.1.122,419,move_down,-0.320,-0.320,-0.320,0.000,0.000,0.000
1605105291985209856,10.0.1.122,374,move_down,-0.340,-0.340,-0.340,0.000,0.000,0.000
1605105293436732160,10.0.1.122,393,move_down,-0.360,-0.360,-0.360,0.000,0.000,0.000
1605105294914733824,10.0.1.122,418,move_down,-0.380,-0.380,-0.380,0.000,0.000,0.000
1605105296415025920,10.0.1.122,418,move_down,-0.400,-0.400,-0.400,0.000,0.000,0.000
1605105297845539072,10.0.1.122,394,move_down,-0.420,-0.420,-0.420,0.000,0.000,0.000
1605105299334913024,10.0.1.122,397,move_down,-0.440,-0.440,-0.440,0.000,0.000,0.000
1605105300814543104,10.0.1.122,425,move_down,-0.460,-0.460,-0.460,0.000,0.000,0.000
1605105302309400064,10.0.1.122,402,move_down,-0.480,-0.480,-0.480,0.000,0.000,0.000
1605105303739303168,10.0.1.122,399,move_down,-0.500,-0.500,-0.500,0.000,0.000,0.000
1605105305195240960,10.0.1.122,405,move_down,-0.520,-0.520,-0.520,0.000,0.000,0.000
1605105306695271936,10.0.1.122,420,move_down,-0.540,-0.540,-0.540,0.000,0.000,0.000
1605105308155971072,10.0.1.122,394,move_down,-0.560,-0.560,-0.560,0.000,0.000,0.000
1605105309594342912,10.0.1.122,386,move_down,-0.580,-0.580,-0.580,0.000,0.000,0.000
1605105310694840064,10.0.1.122,33,pick,-0.590,-0.590,-0.590,0.000,0.000,0.000
1605105311694925056,10.0.1.122,31,pick,-0.600,-0.600,-0.600,0.000,0.000,0.000
1605105312695632896,10.0.1.122,31,pick,-0.610,-0.610,-0.610,0.000,0.000,0.000
1605105313716677888,10.0.1.122,46,pick,-0.620,-0.620,-0.620,0.000,0.000,0.000
1605105314714225920,10.0.1.122,42,pick,-0.630,-0.630,-0.630,0.000,0.000,0.000
1605105315708790016,10.0.1.122,37,pick,-0.640,-0.640,-0.640,0.000,0.000,0.000
1605105316714799872,10.0.1.122,41,pick,-0.650,-0.650,-0.650,0.000,0.000,0.000
1605105317706391040,10.0.1.122,32,pick,-0.660,-0.660,-0.660,0.000,0.000,0.000
1605105318740713984,10.0.1.122,65,pick,-0.670,-0.670,-0.670,0.000,0.000,0.000
1605105319714626048,10.0.1.122,37,pick,-0.680,-0.680,-0.680,0.000,0.000,0.000
1605105320735179776,10.0.1.122,57,pick,-0.690,-0.690,-0.690,0.000,0.000,0.000
1605105321715110144,10.0.1.122,35,pick,-0.700,-0.700,-0.700,0.000,0.000,0.000
1605105322716892928,10.0.1.122,36,pick,-0.710,-0.710,-0.710,0.000,0.000,0.000
1605105323715275008,10.0.1.122,33,pick,-0.720,-0.720,-0.720,0.000,0.000,0.000
1605105324715085056,10.0.1.122,31,pick,-0.730,-0.730,-0.730,0.000,0.000,0.000
1605105325735389952,10.0.1.122,50,pick,-0.740,-0.740,-0.740,0.000,0.000,0.000
1605105326739175168,10.0.1.122,53,pick,-0.750,-0.750,-0.750,0.000,0.000,0.000
1605105327734245888,10.0.1.122,47,pick,-0.760,-0.760,-0.760,0.000,0.000,0.000
1605105328740755968,10.0.1.122,52,pick,-0.770,-0.770,-0.770,0.000,0.000,0.000
1605105330054675200,10.0.1.122,364,move_up,-0.750,-0.750,-0.750,0.000,0.000,0.000
1605105331534493952,10.0.1.122,409,move_up,-0.730,-0.730,-0.730,0.000,0.000,0.000
1605105333004268032,10.0.1.122,421,move_up,-0.710,-0.710,-0.710,0.000,0.000,0.000
1605105334479878912,10.0.1.122,407,move_up,-0.690,-0.690,-0.690,0.000,0.000,0.000
1605105335984749056,10.0.1.122,424,move_up,-0.670,-0.670,-0.670,0.000,0.000,0.000
1605105337446032896,10.0.1.122,394,move_up,-0.650,-0.650,-0.650,0.000,0.000,0.000
1605105338904684032,10.0.1.122,407,move_up,-0.630,-0.630,-0.630,0.000,0.000,0.000
1605105340376063232,10.0.1.122,396,move_up,-0.610,-0.610,-0.610,0.000,0.000,0.000
1605105341825138944,10.0.1.122,393,move_up,-0.590,-0.590,-0.590,0.000,0.000,0.000
1605105343284113920,10.0.1.122,408,move_up,-0.570,-0.570,-0.570,0.000,0.000,0.000
1605105344744431104,10.0.1.122,390,move_up,-0.550,-0.550,-0.550,0.000,0.000,0.000
1605105346174269952,10.0.1.122,374,move_up,-0.530,-0.530,-0.530,0.000,0.000,0.000
1605105347643870976,10.0.1.122,396,move_up,-0.510,-0.510,-0.510,0.000,0.000,0.000
1605105349143856896,10.0.1.122,418,move_up,-0.490,-0.490,-0.490,0.000,0.000,0.000
1605105350594371072,10.0.1.122,389,move_up,-0.470,-0.470,-0.470,0.000,0.000,0.000
1605105352055672832,10.0.1.122,406,move_up,-0.450,-0.450,-0.450,0.000,0.000,0.000
1605105353514499072,10.0.1.122,381,move_up,-0.430,-0.430,-0.430,0.000,0.000,0.000
1605105354984824064,10.0.1.122,401,move_up,-0.410,-0.410,-0.410,0.000,0.000,0.000
1605105356454310912,10.0.1.122,412,move_up,-0.390,-0.390,-0.390,0.000,0.000,0.000
1605105357944782848,10.0.1.122,410,move_up,-0.370,-0.370,-0.370,0.000,0.000,0.000
1605105359394177024,10.0.1.122,376,move_up,-0.350,-0.350,-0.350,0.000,0.000,0.000
1605105360816997888,10.0.1.122,383,move_up,-0.330,-0.330,-0.330,0.000,0.000,0.000
1605105362279866880,10.0.1.122,413,move_up,-0.310,-0.310,-0.310,0.000,0.000,0.000
1605105363755314944,10.0.1.122,400,move_up,-0.290,-0.290,-0.290,0.000,0.000,0.000
1605105365221265152,10.0.1.122,403,move_up,-0.270,-0.270,-0.270,0.000,0.000,0.000
1605105366714834944,10.0.1.122,419,move_up,-0.250,-0.250,-0.250,0.000,0.000,0.000
1605105368215048192,10.0.1.122,390,move_up,-0.230,-0.230,-0.230,0.000,0.000,0.000
1605105369769315072,10.0.1.122,456,move_up,-0.210,-0.210,-0.210,0.000,0.000,0.000
1605105371215078144,10.0.1.122,389,move_up,-0.190,-0.190,-0.190,0.000,0.000,0.000
1605105372316926976,10.0.1.122,39,place,-0.180,-0.180,-0.180,0.000,0.000,0.000
1605105373314934016,10.0.1.122,36,place,-0.170,-0.170,-0.170,0.000,0.000,0.000
1605105374314680064,10.0.1.122,34,place,-0.160,-0.160,-0.160,0.000,0.000,0.000
1605105375314470144,10.0.1.122,33,place,-0.150,-0.150,-0.150,0.000,0.000,0.000
1605105376334931968,10.0.1.122,50,place,-0.140,-0.140,-0.140,0.000,0.000,0.000
1605105377339872000,10.0.1.122,54,place,-0.130,-0.130,-0.130,0.000,0.000,0.000
1605105378339153920,10.0.1.122,52,place,-0.120,-0.120,-0.120,0.000,0.000,0.000
1605105379338169088,10.0.1.122,50,place,-0.110,-0.110,-0.110,0.000,0.000,0.000
1605105380335015168,10.0.1.122,45,place,-0.100,-0.100,-0.100,0.000,0.000,0.000
1605105381339761920,10.0.1.122,49,place,-0.090,-0.090,-0.090,0.000,0.000,0.000
1605105382334813184,10.0.1.122,42,place,-0.080,-0.080,-0.080,0.000,0.000,0.000
1605105383335145984,10.0.1.122,41,place,-0.070,-0.070,-0.070,0.000,0.000,0.000
1605105384335091968,10.0.1.122,40,place,-0.060,-0.060,-0.060,0.000,0.000,0.000
1605105385338076160,10.0.1.122,41,place,-0.050,-0.050,-0.050,0.000,0.000,0.000
1605105386341707008,10.0.1.122,43,place,-0.040,-0.040,-0.040,0.000,0.000,0.000
1605105387338844928,10.0.1.122,39,place,-0.030,-0.030,-0.030,0.000,0.000,0.000
1605105388334009856,10.0.1.122,33,place,-0.020,-0.020,-0.020,0.000,0.000,0.000
1605105389354362112,10.0.1.122,50,place,-0.010,-0.010,-0.010,0.000,0.000,0.000
1605105390359709952,10.0.1.122,54,place,0.000,0.000,0.000,0.000,0.000,0.000
1605105391708265984,10.0.1.122,401,move_down,-0.020,-0.020,-0.020,0.000,0.000,0.000
1605105393182188032,10.0.1.122,414,move_down,-0.040,-0.040,-0.040,0.000,0.000,0.000
1605105394655612928,10.0.1.122,403,move_down,-0.060,-0.060,-0.060,0.000,0.000,0.000
1605105396085073920,10.0.1.122,357,move_down,-0.080,-0.080,-0.080,0.000,0.000,0.000
1605105397526212864,10.0.1.122,418,move_down,-0.100,-0.100,-0.100,0.000,0.000,0.000
1605105398984520960,10.0.1.122,407,move_down,-0.120,-0.120,-0.120,0.000,0.000,0.000
1605105400483926016,10.0.1.122,422,move_down,-0.140,-0.140,-0.140,0.000,0.000,0.000
1605105401955555072,10.0.1.122,410,move_down,-0.160,-0.160,-0.160,0.000,0.000,0.000
1605105403425102080,10.0.1.122,397,move_down,-0.180,-0.180,-0.180,0.000,0.000,0.000
1605105404914583040,10.0.1.122,430,move_down,-0.200,-0.200,-0.200,0.000,0.000,0.000
1605105406365212928,10.0.1.122,380,move_down,-0.220,-0.220,-0.220,0.000,0.000,0.000
1605105407834291968,10.0.1.122,409,move_down,-0.240,-0.240,-0.240,0.000,0.000,0.000
1605105409307630080,10.0.1.122,420,move_down,-0.260,-0.260,-0.260,0.000,0.000,0.000
1605105410760209920,10.0.1.122,410,move_down,-0.280,-0.280,-0.280,0.000,0.000,0.000
1605105412174729984,10.0.1.122,405,move_down,-0.300,-0.300,-0.300,0.000,0.000,0.000
1605105413667761920,10.0.1.122,402,move_down,-0.320,-0.320,-0.320,0.000,0.000,0.000
1605105415095382016,10.0.1.122,411,move_down,-0.340,-0.340,-0.340,0.000,0.000,0.000
1605105416565350144,10.0.1.122,395,move_down,-0.360,-0.360,-0.360,0.000,0.000,0.000
1605105418045104896,10.0.1.122,397,move_down,-0.380,-0.380,-0.380,0.000,0.000,0.000
1605105419531682048,10.0.1.122,432,move_down,-0.400,-0.400,-0.400,0.000,0.000,0.000
1605105421051052032,10.0.1.122,459,move_down,-0.420,-0.420,-0.420,0.000,0.000,0.000
1605105422539890176,10.0.1.122,414,move_down,-0.440,-0.440,-0.440,0.000,0.000,0.000
1605105424055226112,10.0.1.122,428,move_down,-0.460,-0.460,-0.460,0.000,0.000,0.000
1605105425518177024,10.0.1.122,385,move_down,-0.480,-0.480,-0.480,0.000,0.000,0.000
1605105426948467968,10.0.1.122,393,move_down,-0.500,-0.500,-0.500,0.000,0.000,0.000
1605105428426683904,10.0.1.122,421,move_down,-0.520,-0.520,-0.520,0.000,0.000,0.000
1605105429855648000,10.0.1.122,387,move_down,-0.540,-0.540,-0.540,0.000,0.000,0.000
1605105431305246976,10.0.1.122,388,move_down,-0.560,-0.560,-0.560,0.000,0.000,0.000
1605105432765052160,10.0.1.122,402,move_down,-0.580,-0.580,-0.580,0.000,0.000,0.000
1605105433869449984,10.0.1.122,51,pick,-0.590,-0.590,-0.590,0.000,0.000,0.000
1605105434868144128,10.0.1.122,48,pick,-0.600,-0.600,-0.600,0.000,0.000,0.000
1605105435866012160,10.0.1.122,46,pick,-0.610,-0.610,-0.610,0.000,0.000,0.000
1605105436865569024,10.0.1.122,44,pick,-0.620,-0.620,-0.620,0.000,0.000,0.000
1605105437864718080,10.0.1.122,42,pick,-0.630,-0.630,-0.630,0.000,0.000,0.000
1605105438867042048,10.0.1.122,42,pick,-0.640,-0.640,-0.640,0.000,0.000,0.000
1605105439870008832,10.0.1.122,43,pick,-0.650,-0.650,-0.650,0.000,0.000,0.000
1605105440865842944,10.0.1.122,38,pick,-0.660,-0.660,-0.660,0.000,0.000,0.000
1605105441870300928,10.0.1.122,42,pick,-0.670,-0.670,-0.670,0.000,0.000,0.000
1605105442866095104,10.0.1.122,37,pick,-0.680,-0.680,-0.680,0.000,0.000,0.000
1605105443885548032,10.0.1.122,48,pick,-0.690,-0.690,-0.690,0.000,0.000,0.000
1605105444893357056,10.0.1.122,55,pick,-0.700,-0.700,-0.700,0.000,0.000,0.000
1605105445888276992,10.0.1.122,48,pick,-0.710,-0.710,-0.710,0.000,0.000,0.000
1605105446884946176,10.0.1.122,43,pick,-0.720,-0.720,-0.720,0.000,0.000,0.000
1605105447885227008,10.0.1.122,42,pick,-0.730,-0.730,-0.730,0.000,0.000,0.000
1605105448886059008,10.0.1.122,42,pick,-0.740,-0.740,-0.740,0.000,0.000,0.000
1605105449891272192,10.0.1.122,46,pick,-0.750,-0.750,-0.750,0.000,0.000,0.000
1605105450885848064,10.0.1.122,39,pick,-0.760,-0.760,-0.760,0.000,0.000,0.000
1605105451893297920,10.0.1.122,45,pick,-0.770,-0.770,-0.770,0.000,0.000,0.000
1605105453287437056,10.0.1.122,438,move_up,-0.750,-0.750,-0.750,0.000,0.000,0.000
1605105454765798144,10.0.1.122,403,move_up,-0.730,-0.730,-0.730,0.000,0.000,0.000
1605105456205785088,10.0.1.122,387,move_up,-0.710,-0.710,-0.710,0.000,0.000,0.000
1605105457638225920,10.0.1.122,360,move_up,-0.690,-0.690,-0.690,0.000,0.000,0.000
1605105459125449984,10.0.1.122,429,move_up,-0.670,-0.670,-0.670,0.000,0.000,0.000
1605105460604667904,10.0.1.122,417,move_up,-0.650,-0.650,-0.650,0.000,0.000,0.000
1605105462086478080,10.0.1.122,411,move_up,-0.630,-0.630,-0.630,0.000,0.000,0.000
1605105463588470016,10.0.1.122,435,move_up,-0.610,-0.610,-0.610,0.000,0.000,0.000
1605105465048923904,10.0.1.122,402,move_up,-0.590,-0.590,-0.590,0.000,0.000,0.000
1605105466446149120,10.0.1.122,388,move_up,-0.570,-0.570,-0.570,0.000,0.000,0.000
1605105467955393024,10.0.1.122,447,move_up,-0.550,-0.550,-0.550,0.000,0.000,0.000
1605105469415059200,10.0.1.122,409,move_up,-0.530,-0.530,-0.530,0.000,0.000,0.000
1605105470956325888,10.0.1.122,439,move_up,-0.510,-0.510,-0.510,0.000,0.000,0.000
1605105472464510976,10.0.1.122,406,move_up,-0.490,-0.490,-0.490,0.000,0.000,0.000
1605105473980696832,10.0.1.122,442,move_up,-0.470,-0.470,-0.470,0.000,0.000,0.000
1605105475455224064,10.0.1.122,427,move_up,-0.450,-0.450,-0.450,0.000,0.000,0.000
1605105476934288896,10.0.1.122,413,move_up,-0.430,-0.430,-0.430,0.000,0.000,0.000
1605105478415267072,10.0.1.122,403,move_up,-0.410,-0.410,-0.410,0.000,0.000,0.000
1605105479924563968,10.0.1.122,425,move_up,-0.390,-0.390,-0.390,0.000,0.000,0.000
1605105481434793984,10.0.1.122,438,move_up,-0.370,-0.370,-0.370,0.000,0.000,0.000
1605105482907879168,10.0.1.122,379,move_up,-0.350,-0.350,-0.350,0.000,0.000,0.000
1605105484389103872,10.0.1.122,434,move_up,-0.330,-0.330,-0.330,0.000,0.000,0.000
1605105485893853952,10.0.1.122,407,move_up,-0.310,-0.310,-0.310,0.000,0.000,0.000
1605105487394118912,10.0.1.122,397,move_up,-0.290,-0.290,-0.290,0.000,0.000,0.000
1605105488903827968,10.0.1.122,430,move_up,-0.270,-0.270,-0.270,0.000,0.000,0.000
1605105490354264064,10.0.1.122,362,move_up,-0.250,-0.250,-0.250,0.000,0.000,0.000
1605105491874051072,10.0.1.122,393,move_up,-0.230,-0.230,-0.230,0.000,0.000,0.000
1605105493376344064,10.0.1.122,409,move_up,-0.210,-0.210,-0.210,0.000,0.000,0.000
1605105494835526912,10.0.1.122,398,move_up,-0.190,-0.190,-0.190,0.000,0.000,0.000
1605105495922998016,10.0.1.122,40,place,-0.180,-0.180,-0.180,0.000,0.000,0.000
1605105496936832000,10.0.1.122,52,place,-0.170,-0.170,-0.170,0.000,0.000,0.000
1605105497913935872,10.0.1.122,29,place,-0.160,-0.160,-0.160,0.000,0.000,0.000
1605105498939948032,10.0.1.122,53,place,-0.150,-0.150,-0.150,0.000,0.000,0.000
1605105499933510144,10.0.1.122,45,place,-0.140,-0.140,-0.140,0.000,0.000,0.000
1605105500934573056,10.0.1.122,45,place,-0.130,-0.130,-0.130,0.000,0.000,0.000
1605105501934043904,10.0.1.122,43,place,-0.120,-0.120,-0.120,0.000,0.000,0.000
1605105502934177024,10.0.1.122,42,place,-0.110,-0.110,-0.110,0.000,0.000,0.000
1605105503935700992,10.0.1.122,42,place,-0.100,-0.100,-0.100,0.000,0.000,0.000
1605105504934614016,10.0.1.122,40,place,-0.090,-0.090,-0.090,0.000,0.000,0.000
1605105505939899904,10.0.1.122,44,place,-0.080,-0.080,-0.080,0.000,0.000,0.000
1605105506935458816,10.0.1.122,36,place,-0.070,-0.070,-0.070,0.000,0.000,0.000
1605105507935090944,10.0.1.122,35,place,-0.060,-0.060,-0.060,0.000,0.000,0.000
1605105508941198080,10.0.1.122,40,place,-0.050,-0.050,-0.050,0.000,0.000,0.000
1605105509955416064,10.0.1.122,50,place,-0.040,-0.040,-0.040,0.000,0.000,0.000
1605105510955234048,10.0.1.122,48,place,-0.030,-0.030,-0.030,0.000,0.000,0.000
1605105511954081024,10.0.1.122,46,place,-0.020,-0.020,-0.020,0.000,0.000,0.000
1605105512954461952,10.0.1.122,45,place,-0.010,-0.010,-0.010,0.000,0.000,0.000
1605105513954333952,10.0.1.122,43,place,0.000,0.000,0.000,0.000,0.000,0.000
1605105515304843776,10.0.1.122,393,move_down,-0.020,-0.020,-0.020,0.000,0.000,0.000
1605105516812738816,10.0.1.122,423,move_down,-0.040,-0.040,-0.040,0.000,0.000,0.000
1605105518194031104,10.0.1.122,350,move_down,-0.060,-0.060,-0.060,0.000,0.000,0.000
1605105519605324032,10.0.1.122,381,move_down,-0.080,-0.080,-0.080,0.000,0.000,0.000
1605105521105131008,10.0.1.122,398,move_down,-0.100,-0.100,-0.100,0.000,0.000,0.000
1605105522566524928,10.0.1.122,403,move_down,-0.120,-0.120,-0.120,0.000,0.000,0.000
1605105524014405120,10.0.1.122,407,move_down,-0.140,-0.140,-0.140,0.000,0.000,0.000
1605105525466820864,10.0.1.122,396,move_down,-0.160,-0.160,-0.160,0.000,0.000,0.000
1605105526945751808,10.0.1.122,428,move_down,-0.180,-0.180,-0.180,0.000,0.000,0.000
1605105528396636928,10.0.1.122,380,move_down,-0.200,-0.200,-0.200,0.000,0.000,0.000
1605105529825111040,10.0.1.122,379,move_down,-0.220,-0.220,-0.220,0.000,0.000,0.000
1605105531323003136,10.0.1.122,430,move_down,-0.240,-0.240,-0.240,0.000,0.000,0.000
1605105532774424064,10.0.1.122,410,move_down,-0.260,-0.260,-0.260,0.000,0.000,0.000
1605105534224961024,10.0.1.122,406,move_down,-0.280,-0.280,-0.280,0.000,0.000,0.000
1605105535674371072,10.0.1.122,371,move_down,-0.300,-0.300,-0.300,0.000,0.000,0.000
1605105537127834112,10.0.1.122,402,move_down,-0.320,-0.320,-0.320,0.000,0.000,0.000
1605105538604034048,10.0.1.122,390,move_down,-0.340,-0.340,-0.340,0.000,0.000,0.000
1605105540074969088,10.0.1.122,403,move_down,-0.360,-0.360,-0.360,0.000,0.000,0.000
1605105541568974080,10.0.1.122,420,move_down,-0.380,-0.380,-0.380,0.000,0.000,0.000
1605105543024322048,10.0.1.122,397,move_down,-0.400,-0.400,-0.400,0.000,0.000,0.000
1605105544463572992,10.0.1.122,408,move_down,-0.420,-0.420,-0.420,0.000,0.000,0.000
1605105545925682944,10.0.1.122,390,move_down,-0.440,-0.440,-0.440,0.000,0.000,0.000
1605105547394976000,10.0.1.122,412,move_down,-0.460,-0.460,-0.460,0.000,0.000,0.000
1605105548879086848,10.0.1.122,409,move_down,-0.480,-0.480,-0.480,0.000,0.000,0.000
1605105550334320128,10.0.1.122,407,move_down,-0.500,-0.500,-0.500,0.000,0.000,0.000
1605105551797033984,10.0.1.122,385,move_down,-0.520,-0.520,-0.520,0.000,0.000,0.000
1605105553244142080,10.0.1.122,405,move_down,-0.540,-0.540,-0.540,0.000,0.000,0.000
1605105554696192000,10.0.1.122,411,move_down,-0.560,-0.560,-0.560,0.000,0.000,0.000
1605105556114375168,10.0.1.122,394,move_down,-0.580,-0.580,-0.580,0.000,0.000,0.000
1605105557214520064,10.0.1.122,42,pick,-0.590,-0.590,-0.590,0.000,0.000,0.000
1605105558223845888,10.0.1.122,50,pick,-0.600,-0.600,-0.600,0.000,0.000,0.000
1605105559214375936,10.0.1.122,39,pick,-0.610,-0.610,-0.610,0.000,0.000,0.000
1605105560215411968,10.0.1.122,38,pick,-0.620,-0.620,-0.620,0.000,0.000,0.000
1605105561214787840,10.0.1.122,36,pick,-0.630,-0.630,-0.630,0.000,0.000,0.000
1605105562217606144,10.0.1.122,38,pick,-0.640,-0.640,-0.640,0.000,0.000,0.000
1605105563215194112,10.0.1.122,35,pick,-0.650,-0.650,-0.650,0.000,0.000,0.000
1605105564239118080,10.0.1.122,54,pick,-0.660,-0.660,-0.660,0.000,0.000,0.000
1605105565235229952,10.0.1.122,48,pick,-0.670,-0.670,-0.670,0.000,0.000,0.000
1605105566241041920,10.0.1.122,53,pick,-0.680,-0.680,-0.680,0.000,0.000,0.000
1605105567235460096,10.0.1.122,46,pick,-0.690,-0.690,-0.690,0.000,0.000,0.000
1605105568246808064,10.0.1.122,53,pick,-0.700,-0.700,-0.700,0.000,0.000,0.000
1605105569235129088,10.0.1.122,38,pick,-0.710,-0.710,-0.710,0.000,0.000,0.000
1605105570235710976,10.0.1.122,38,pick,-0.720,-0.720,-0.720,0.000,0.000,0.000
1605105571237585152,10.0.1.122,38,pick,-0.730,-0.730,-0.730,0.000,0.000,0.000
1605105572241473024,10.0.1.122,41,pick,-0.740,-0.740,-0.740,0.000,0.000,0.000
1605105573236720128,10.0.1.122,35,pick,-0.750,-0.750,-0.750,0.000,0.000,0.000
1605105574255217920,10.0.1.122,50,pick,-0.760,-0.760,-0.760,0.000,0.000,0.000
1605105575256498176,10.0.1.122,50,pick,-0.770,-0.770,-0.770,0.000,0.000,0.000
1605105576636656128,10.0.1.122,429,move_up,-0.750,-0.750,-0.750,0.000,0.000,0.000
1605105578115760128,10.0.1.122,401,move_up,-0.730,-0.730,-0.730,0.000,0.000,0.000
1605105579725049856,10.0.1.122,517,move_up,-0.710,-0.710,-0.710,0.000,0.000,0.000
1605105581215489024,10.0.1.122,448,move_up,-0.690,-0.690,-0.690,0.000,0.000,0.000
1605105582713013760,10.0.1.122,423,move_up,-0.670,-0.670,-0.670,0.000,0.000,0.000
1605105584267600896,10.0.1.122,460,move_up,-0.650,-0.650,-0.650,0.000,0.000,0.000
1605105585698070016,10.0.1.122,369,move_up,-0.630,-0.630,-0.630,0.000,0.000,0.000
1605105587171305984,10.0.1.122,396,move_up,-0.610,-0.610,-0.610,0.000,0.000,0.000
1605105588652224000,10.0.1.122,425,move_up,-0.590,-0.590,-0.590,0.000,0.000,0.000
1605105590120744960,10.0.1.122,413,move_up,-0.570,-0.570,-0.570,0.000,0.000,0.000
1605105591606930944,10.0.1.122,412,move_up,-0.550,-0.550,-0.550,0.000,0.000,0.000
1605105593087537920,10.0.1.122,417,move_up,-0.530,-0.530,-0.530,0.000,0.000,0.000
1605105594597049856,10.0.1.122,412,move_up,-0.510,-0.510,-0.510,0.000,0.000,0.000
1605105596061452032,10.0.1.122,388,move_up,-0.490,-0.490,-0.490,0.000,0.000,0.000
1605105597514059008,10.0.1.122,403,move_up,-0.470,-0.470,-0.470,0.000,0.000,0.000
1605105598997992960,10.0.1.122,410,move_up,-0.450,-0.450,-0.450,0.000,0.000,0.000
1605105600578915072,10.0.1.122,533,move_up,-0.430,-0.430,-0.430,0.000,0.000,0.000
1605105602127804160,10.0.1.122,500,move_up,-0.410,-0.410,-0.410,0.000,0.000,0.000
1605105603632313088,10.0.1.122,436,move_up,-0.390,-0.390,-0.390,0.000,0.000,0.000
1605105605144982016,10.0.1.122,455,move_up,-0.370,-0.370,-0.370,0.000,0.000,0.000
1605105606677423872,10.0.1.122,452,move_up,-0.350,-0.350,-0.350,0.000,0.000,0.000
1605105608212715008,10.0.1.122,453,move_up,-0.330,-0.330,-0.330,0.000,0.000,0.000
1605105609755828992,10.0.1.122,439,move_up,-0.310,-0.310,-0.310,0.000,0.000,0.000
1605105611219077120,10.0.1.122,380,move_up,-0.290,-0.290,-0.290,0.000,0.000,0.000
1605105612736691968,10.0.1.122,449,move_up,-0.270,-0.270,-0.270,0.000,0.000,0.000
1605105614197537792,10.0.1.122,411,move_up,-0.250,-0.250,-0.250,0.000,0.000,0.000
1605105615716995072,10.0.1.122,420,move_up,-0.230,-0.230,-0.230,0.000,0.000,0.000
1605105617202873088,10.0.1.122,415,move_up,-0.210,-0.210,-0.210,0.000,0.000,0.000
1605105618715578112,10.0.1.122,445,move_up,-0.190,-0.190,-0.190,0.000,0.000,0.000
1605105619856417024,10.0.1.122,60,place,-0.180,-0.180,-0.180,0.000,0.000,0.000
1605105620848150016,10.0.1.122,51,place,-0.170,-0.170,-0.170,0.000,0.000,0.000
1605105621847405056,10.0.1.122,49,place,-0.160,-0.160,-0.160,0.000,0.000,0.000
1605105622854157056,10.0.1.122,54,place,-0.150,-0.150,-0.150,0.000,0.000,0.000
1605105623849064960,10.0.1.122,42,place,-0.140,-0.140,-0.140,0.000,0.000,0.000
1605105624840606976,10.0.1.122,33,place,-0.130,-0.130,-0.130,0.000,0.000,0.000
1605105625853296896,10.0.1.122,44,place,-0.120,-0.120,-0.120,0.000,0.000,0.000
1605105626861302016,10.0.1.122,52,place,-0.110,-0.110,-0.110,0.000,0.000,0.000
1605105627864922880,10.0.1.122,54,place,-0.100,-0.100,-0.100,0.000,0.000,0.000
1605105628863075072,10.0.1.122,50,place,-0.090,-0.090,-0.090,0.000,0.000,0.000
1605105629844055808,10.0.1.122,30,place,-0.080,-0.080,-0.080,0.000,0.000,0.000
1605105630873251072,10.0.1.122,58,place,-0.070,-0.070,-0.070,0.000,0.000,0.000
1605105631875461120,10.0.1.122,59,place,-0.060,-0.060,-0.060,0.000,0.000,0.000
1605105632875101952,10.0.1.122,56,place,-0.050,-0.050,-0.050,0.000,0.000,0.000
1605105633859823104,10.0.1.122,37,place,-0.040,-0.040,-0.040,0.000,0.000,0.000
1605105634867121920,10.0.1.122,43,place,-0.030,-0.030,-0.030,0.000,0.000,0.000
1605105635859709952,10.0.1.122,34,place,-0.020,-0.020,-0.020,0.000,0.000,0.000
1605105637885618944,10.0.1.122,55,place,0.000,0.000,0.000,0.000,0.000,0.000
1605105639221895936,10.0.1.122,390,move_down,-0.020,-0.020,-0.020,0.000,0.000,0.000
1605105640695256832,10.0.1.122,419,move_down,-0.040,-0.040,-0.040,0.000,0.000,0.000
1605105642089747968,10.0.1.122,380,move_down,-0.060,-0.060,-0.060,0.000,0.000,0.000
1605105643572679168,10.0.1.122,411,move_down,-0.080,-0.080,-0.080,0.000,0.000,0.000
1605105645180078080,10.0.1.122,516,move_down,-0.100,-0.100,-0.100,0.000,0.000,0.000
1605105646838146816,10.0.1.122,522,move_down,-0.120,-0.120,-0.120,0.000,0.000,0.000
1605105648348390144,10.0.1.122,475,move_down,-0.140,-0.140,-0.140,0.000,0.000,0.000
1605105649813272064,10.0.1.122,411,move_down,-0.160,-0.160,-0.160,0.000,0.000,0.000
1605105651286611968,10.0.1.122,394,move_down,-0.180,-0.180,-0.180,0.000,0.000,0.000
1605105652780092928,10.0.1.122,426,move_down,-0.200,-0.200,-0.200,0.000,0.000,0.000
1605105654256115968,10.0.1.122,423,move_down,-0.220,-0.220,-0.220,0.000,0.000,0.000
1605105655766617088,10.0.1.122,451,move_down,-0.240,-0.240,-0.240,0.000,0.000,0.000
1605105657330537984,10.0.1.122,448,move_down,-0.260,-0.260,-0.260,0.000,0.000,0.000
1605105658726950912,10.0.1.122,395,move_down,-0.280,-0.280,-0.280,0.000,0.000,0.000
1605105660247535104,10.0.1.122,431,move_down,-0.300,-0.300,-0.300,0.000,0.000,0.000
1605105661744073984,10.0.1.122,392,move_down,-0.320,-0.320,-0.320,0.000,0.000,0.000
1605105663239929088,10.0.1.122,460,move_down,-0.340,-0.340,-0.340,0.000,0.000,0.000
1605105664738675968,10.0.1.122,425,move_down,-0.360,-0.360,-0.360,0.000,0.000,0.000
1605105666187938816,10.0.1.122,405,move_down,-0.380,-0.380,-0.380,0.000,0.000,0.000
1605105667744108800,10.0.1.122,424,move_down,-0.400,-0.400,-0.400,0.000,0.000,0.000
1605105669281862912,10.0.1.122,423,move_down,-0.420,-0.420,-0.420,0.000,0.000,0.000
1605105670759869952,10.0.1.122,415,move_down,-0.440,-0.440,-0.440,0.000,0.000,0.000
1605105672187237120,10.0.1.122,394,move_down,-0.460,-0.460,-0.460,0.000,0.000,0.000
1605105673706393088,10.0.1.122,422,move_down,-0.480,-0.480,-0.480,0.000,0.000,0.000
1605105675220540160,10.0.1.122,422,move_down,-0.500,-0.500,-0.500,0.000,0.000,0.000
1605105676723400192,10.0.1.122,433,move_down,-0.520,-0.520,-0.520,0.000,0.000,0.000
1605105678198520064,10.0.1.122,421,move_down,-0.540,-0.540,-0.540,0.000,0.000,0.000
1605105679689012992,10.0.1.122,399,move_down,-0.560,-0.560,-0.560,0.000,0.000,0.000
1605105681222533888,10.0.1.122,420,move_down,-0.580,-0.580,-0.580,0.000,0.000,0.000
1605105682342073856,10.0.1.122,47,pick,-0.590,-0.590,-0.590,0.000,0.000,0.000
1605105683357345024,10.0.1.122,61,pick,-0.600,-0.600,-0.600,0.000,0.000,0.000
1605105684344289024,10.0.1.122,45,pick,-0.610,-0.610,-0.610,0.000,0.000,0.000
1605105685342138880,10.0.1.122,42,pick,-0.620,-0.620,-0.620,0.000,0.000,0.000
1605105686341423872,10.0.1.122,40,pick,-0.630,-0.630,-0.630,0.000,0.000,0.000
1605105687343816960,10.0.1.122,41,pick,-0.640,-0.640,-0.640,0.000,0.000,0.000
1605105688343821056,10.0.1.122,40,pick,-0.650,-0.650,-0.650,0.000,0.000,0.000
1605105689363169792,10.0.1.122,56,pick,-0.660,-0.660,-0.660,0.000,0.000,0.000
1605105690359301120,10.0.1.122,51,pick,-0.670,-0.670,-0.670,0.000,0.000,0.000
1605105691359657984,10.0.1.122,50,pick,-0.680,-0.680,-0.680,0.000,0.000,0.000
1605105692356978944,10.0.1.122,43,pick,-0.690,-0.690,-0.690,0.000,0.000,0.000
1605105693362348032,10.0.1.122,42,pick,-0.700,-0.700,-0.700,0.000,0.000,0.000
1605105694370663936,10.0.1.122,49,pick,-0.710,-0.710,-0.710,0.000,0.000,0.000
1605105695360161024,10.0.1.122,37,pick,-0.720,-0.720,-0.720,0.000,0.000,0.000
1605105696377840128,10.0.1.122,48,pick,-0.730,-0.730,-0.730,0.000,0.000,0.000
1605105697383166976,10.0.1.122,52,pick,-0.740,-0.740,-0.740,0.000,0.000,0.000
1605105698380847872,10.0.1.122,48,pick,-0.750,-0.750,-0.750,0.000,0.000,0.000
1605105699378194944,10.0.1.122,44,pick,-0.760,-0.760,-0.760,0.000,0.000,0.000
1605105701680936192,10.0.1.122,345,move_up,-0.750,-0.750,-0.750,0.000,0.000,0.000
1605105703162060032,10.0.1.122,448,move_up,-0.730,-0.730,-0.730,0.000,0.000,0.000
1605105704684182016,10.0.1.122,436,move_up,-0.710,-0.710,-0.710,0.000,0.000,0.000
1605105706156864768,10.0.1.122,422,move_up,-0.690,-0.690,-0.690,0.000,0.000,0.000
1605105707616741888,10.0.1.122,393,move_up,-0.670,-0.670,-0.670,0.000,0.000,0.000
1605105709097195008,10.0.1.122,417,move_up,-0.650,-0.650,-0.650,0.000,0.000,0.000
1605105710622009088,10.0.1.122,453,move_up,-0.630,-0.630,-0.630,0.000,0.000,0.000
1605105712120600832,10.0.1.122,424,move_up,-0.610,-0.610,-0.610,0.000,0.000,0.000
1605105713627216128,10.0.1.122,411,move_up,-0.590,-0.590,-0.590,0.000,0.000,0.000
1605105715112476160,10.0.1.122,414,move_up,-0.570,-0.570,-0.570,0.000,0.000,0.000
1605105716617182976,10.0.1.122,436,move_up,-0.550,-0.550,-0.550,0.000,0.000,0.000
1605105718097789952,10.0.1.122,398,move_up,-0.530,-0.530,-0.530,0.000,0.000,0.000
1605105719622108928,10.0.1.122,443,move_up,-0.510,-0.510,-0.510,0.000,0.000,0.000
1605105721078206976,10.0.1.122,382,move_up,-0.490,-0.490,-0.490,0.000,0.000,0.000
1605105722639083008,10.0.1.122,454,move_up,-0.470,-0.470,-0.470,0.000,0.000,0.000
1605105724101506048,10.0.1.122,394,move_up,-0.450,-0.450,-0.450,0.000,0.000,0.000
1605105725607990016,10.0.1.122,434,move_up,-0.430,-0.430,-0.430,0.000,0.000,0.000
1605105727136322048,10.0.1.122,433,move_up,-0.410,-0.410,-0.410,0.000,0.000,0.000
1605105728590682880,10.0.1.122,407,move_up,-0.390,-0.390,-0.390,0.000,0.000,0.000
1605105730093575936,10.0.1.122,394,move_up,-0.370,-0.370,-0.370,0.000,0.000,0.000
1605105731623267840,10.0.1.122,432,move_up,-0.350,-0.350,-0.350,0.000,0.000,0.000
1605105733161245952,10.0.1.122,433,move_up,-0.330,-0.330,-0.330,0.000,0.000,0.000
1605105734655980032,10.0.1.122,453,move_up,-0.310,-0.310,-0.310,0.000,0.000,0.000
1605105736150926080,10.0.1.122,417,move_up,-0.290,-0.290,-0.290,0.000,0.000,0.000
1605105737621752064,10.0.1.122,432,move_up,-0.270,-0.270,-0.270,0.000,0.000,0.000
1605105739187313920,10.0.1.122,481,move_up,-0.250,-0.250,-0.250,0.000,0.000,0.000
1605105740640547072,10.0.1.122,417,move_up,-0.230,-0.230,-0.230,0.000,0.000,0.000
1605105742202482944,10.0.1.122,453,move_up,-0.210,-0.210,-0.210,0.000,0.000,0.000
1605105743679749888,10.0.1.122,408,move_up,-0.190,-0.190,-0.190,0.000,0.000,0.000
1605105744826241024,10.0.1.122,39,place,-0.180,-0.180,-0.180,0.000,0.000,0.000
1605105745841767168,10.0.1.122,53,place,-0.170,-0.170,-0.170,0.000,0.000,0.000
1605105746840518912,10.0.1.122,50,place,-0.160,-0.160,-0.160,0.000,0.000,0.000
1605105747840496896,10.0.1.122,46,place,-0.150,-0.150,-0.150,0.000,0.000,0.000
1605105748839898112,10.0.1.122,45,place,-0.140,-0.140,-0.140,0.000,0.000,0.000
1605105749843270144,10.0.1.122,47,place,-0.130,-0.130,-0.130,0.000,0.000,0.000
1605105750839416064,10.0.1.122,42,place,-0.120,-0.120,-0.120,0.000,0.000,0.000
1605105751840040960,10.0.1.122,34,place,-0.110,-0.110,-0.110,0.000,0.000,0.000
1605105752844780032,10.0.1.122,37,place,-0.100,-0.100,-0.100,0.000,0.000,0.000
1605105753865447168,10.0.1.122,57,place,-0.090,-0.090,-0.090,0.000,0.000,0.000
1605105754853251840,10.0.1.122,43,place,-0.080,-0.080,-0.080,0.000,0.000,0.000
1605105755859468032,10.0.1.122,48,place,-0.070,-0.070,-0.070,0.000,0.000,0.000
1605105756861780992,10.0.1.122,49,place,-0.060,-0.060,-0.060,0.000,0.000,0.000
1605105757860282880,10.0.1.122,46,place,-0.050,-0.050,-0.050,0.000,0.000,0.000
1605105758855720960,10.0.1.122,41,place,-0.040,-0.040,-0.040,0.000,0.000,0.000
1605105759859170816,10.0.1.122,35,place,-0.030,-0.030,-0.030,0.000,0.000,0.000
1605105760861987072,10.0.1.122,36,place,-0.020,-0.020,-0.020,0.000,0.000,0.000
1605105761867404032,10.0.1.122,40,place,-0.010,-0.010,-0.010,0.000,0.000,0.000
1605105762859371008,10.0.1.122,31,place,0.000,0.000,0.000,0.000,0.000,0.000
1605105764282784000,10.0.1.122,453,move_down,-0.020,-0.020,-0.020,0.000,0.000,0.000
1605105765752084992,10.0.1.122,403,move_down,-0.040,-0.040,-0.040,0.000,0.000,0.000
1605105767217602048,10.0.1.122,426,move_down,-0.060,-0.060,-0.060,0.000,0.000,0.000
1605105768710844928,10.0.1.122,453,move_down,-0.080,-0.080,-0.080,0.000,0.000,0.000
1605105770178971136,10.0.1.122,419,move_down,-0.100,-0.100,-0.100,0.000,0.000,0.000
1605105771712754944,10.0.1.122,458,move_down,-0.120,-0.120,-0.120,0.000,0.000,0.000
1605105773233115904,10.0.1.122,450,move_down,-0.140,-0.140,-0.140,0.000,0.000,0.000
1605105774689675008,10.0.1.122,377,move_down,-0.160,-0.160,-0.160,0.000,0.000,0.000
1605105776215001088,10.0.1.122,428,move_down,-0.180,-0.180,-0.180,0.000,0.000,0.000
1605105777730819072,10.0.1.122,431,move_down,-0.200,-0.200,-0.200,0.000,0.000,0.000
1605105779261499904,10.0.1.122,471,move_down,-0.220,-0.220,-0.220,0.000,0.000,0.000
1605105780715267840,10.0.1.122,408,move_down,-0.240,-0.240,-0.240,0.000,0.000,0.000
1605105782246518016,10.0.1.122,432,move_down,-0.260,-0.260,-0.260,0.000,0.000,0.000
1605105783697828096,10.0.1.122,391,move_down,-0.280,-0.280,-0.280,0.000,0.000,0.000
1605105785187836928,10.0.1.122,457,move_down,-0.300,-0.300,-0.300,0.000,0.000,0.000
1605105786669522944,10.0.1.122,425,move_down,-0.320,-0.320,-0.320,0.000,0.000,0.000
1605105788163315968,10.0.1.122,390,move_down,-0.340,-0.340,-0.340,0.000,0.000,0.000
1605105789645538048,10.0.1.122,451,move_down,-0.360,-0.360,-0.360,0.000,0.000,0.000
1605105791146482944,10.0.1.122,451,move_down,-0.380,-0.380,-0.380,0.000,0.000,0.000
1605105792609767936,10.0.1.122,457,move_down,-0.400,-0.400,-0.400,0.000,0.000,0.000
1605105794119024896,10.0.1.122,444,move_down,-0.420,-0.420,-0.420,0.000,0.000,0.000
1605105795608488960,10.0.1.122,413,move_down,-0.440,-0.440,-0.440,0.000,0.000,0.000
1605105797110562048,10.0.1.122,389,move_down,-0.460,-0.460,-0.460,0.000,0.000,0.000
1605105798629851136,10.0.1.122,427,move_down,-0.480,-0.480,-0.480,0.000,0.000,0.000
1605105800169761024,10.0.1.122,472,move_down,-0.500,-0.500,-0.500,0.000,0.000,0.000
1605105801662477056,10.0.1.122,429,move_down,-0.520,-0.520,-0.520,0.000,0.000,0.000
1605105803175854080,10.0.1.122,445,move_down,-0.540,-0.540,-0.540,0.000,0.000,0.000
1605105804593714944,10.0.1.122,416,move_down,-0.560,-0.560,-0.560,0.000,0.000,0.000
1605105806143867136,10.0.1.122,415,move_down,-0.580,-0.580,-0.580,0.000,0.000,0.000
1605105807286386944,10.0.1.122,55,pick,-0.590,-0.590,-0.590,0.000,0.000,0.000
1605105808259011072,10.0.1.122,27,pick,-0.600,-0.600,-0.600,0.000,0.000,0.000
1605105809290658048,10.0.1.122,56,pick,-0.610,-0.610,-0.610,0.000,0.000,0.000
1605105810286300928,10.0.1.122,51,pick,-0.620,-0.620,-0.620,0.000,0.000,0.000
1605105811289303040,10.0.1.122,53,pick,-0.630,-0.630,-0.630,0.000,0.000,0.000
1605105812278068992,10.0.1.122,34,pick,-0.640,-0.640,-0.640,0.000,0.000,0.000
1605105813283278080,10.0.1.122,36,pick,-0.650,-0.650,-0.650,0.000,0.000,0.000
1605105814280770048,10.0.1.122,33,pick,-0.660,-0.660,-0.660,0.000,0.000,0.000
1605105815297069056,10.0.1.122,48,pick,-0.670,-0.670,-0.670,0.000,0.000,0.000
1605105816300941056,10.0.1.122,49,pick,-0.680,-0.680,-0.680,0.000,0.000,0.000
1605105817300421120,10.0.1.122,48,pick,-0.690,-0.690,-0.690,0.000,0.000,0.000
1605105818315716864,10.0.1.122,61,pick,-0.700,-0.700,-0.700,0.000,0.000,0.000
1605105819301266944,10.0.1.122,45,pick,-0.710,-0.710,-0.710,0.000,0.000,0.000
1605105820300148992,10.0.1.122,43,pick,-0.720,-0.720,-0.720,0.000,0.000,0.000
1605105821320566016,10.0.1.122,56,pick,-0.730,-0.730,-0.730,0.000,0.000,0.000
1605105822313904896,10.0.1.122,48,pick,-0.740,-0.740,-0.740,0.000,0.000,0.000
1605105823313569024,10.0.1.122,47,pick,-0.750,-0.750,-0.750,0.000,0.000,0.000
1605105824331168000,10.0.1.122,62,pick,-0.760,-0.760,-0.760,0.000,0.000,0.000
1605105825308316928,10.0.1.122,38,pick,-0.770,-0.770,-0.770,0.000,0.000,0.000
1605105826733491968,10.0.1.122,461,move_up,-0.750,-0.750,-0.750,0.000,0.000,0.000
1605105828223741952,10.0.1.122,428,move_up,-0.730,-0.730,-0.730,0.000,0.000,0.000
1605105829720050944,10.0.1.122,434,move_up,-0.710,-0.710,-0.710,0.000,0.000,0.000
1605105831222987776,10.0.1.122,389,move_up,-0.690,-0.690,-0.690,0.000,0.000,0.000
1605105832754932992,10.0.1.122,468,move_up,-0.670,-0.670,-0.670,0.000,0.000,0.000
1605105834220071168,10.0.1.122,400,move_up,-0.650,-0.650,-0.650,0.000,0.000,0.000
1605105835708246016,10.0.1.122,460,move_up,-0.630,-0.630,-0.630,0.000,0.000,0.000
1605105837174396160,10.0.1.122,403,move_up,-0.610,-0.610,-0.610,0.000,0.000,0.000
1605105838718491904,10.0.1.122,468,move_up,-0.590,-0.590,-0.590,0.000,0.000,0.000
1605105840230995968,10.0.1.122,435,move_up,-0.570,-0.570,-0.570,0.000,0.000,0.000
1605105841707470848,10.0.1.122,462,move_up,-0.550,-0.550,-0.550,0.000,0.000,0.000
1605105843218988032,10.0.1.122,444,move_up,-0.530,-0.530,-0.530,0.000,0.000,0.000
1605105844782157056,10.0.1.122,469,move_up,-0.510,-0.510,-0.510,0.000,0.000,0.000
1605105846332474880,10.0.1.122,475,move_up,-0.490,-0.490,-0.490,0.000,0.000,0.000
1605105847835928064,10.0.1.122,445,move_up,-0.470,-0.470,-0.470,0.000,0.000,0.000
1605105849338968064,10.0.1.122,448,move_up,-0.450,-0.450,-0.450,0.000,0.000,0.000
1605105850854192128,10.0.1.122,423,move_up,-0.430,-0.430,-0.430,0.000,0.000,0.000
1605105852392745984,10.0.1.122,453,move_up,-0.410,-0.410,-0.410,0.000,0.000,0.000
1605105853886550784,10.0.1.122,411,move_up,-0.390,-0.390,-0.390,0.000,0.000,0.000
1605105855429195008,10.0.1.122,442,move_up,-0.370,-0.370,-0.370,0.000,0.000,0.000
1605105856954298880,10.0.1.122,390,move_up,-0.350,-0.350,-0.350,0.000,0.000,0.000
1605105858437382912,10.0.1.122,421,move_up,-0.330,-0.330,-0.330,0.000,0.000,0.000
1605105859970528000,10.0.1.122,440,move_up,-0.310,-0.310,-0.310,0.000,0.000,0.000
1605105861454291968,10.0.1.122,434,move_up,-0.290,-0.290,-0.290,0.000,0.000,0.000
1605105862903994112,10.0.1.122,413,move_up,-0.270,-0.270,-0.270,0.000,0.000,0.000
1605105864431226112,10.0.1.122,436,move_up,-0.250,-0.250,-0.250,0.000,0.000,0.000
1605105865951051008,10.0.1.122,431,move_up,-0.230,-0.230,-0.230,0.000,0.000,0.000
1605105867460896000,10.0.1.122,428,move_up,-0.210,-0.210,-0.210,0.000,0.000,0.000
1605105869019020032,10.0.1.122,459,move_up,-0.190,-0.190,-0.190,0.000,0.000,0.000
1605105870147468032,10.0.1.122,46,place,-0.180,-0.180,-0.180,0.000,0.000,0.000
1605105873154174208,10.0.1.122,50,place,-0.150,-0.150,-0.150,0.000,0.000,0.000
1605105874170733056,10.0.1.122,63,place,-0.140,-0.140,-0.140,0.000,0.000,0.000
1605105875161628928,10.0.1.122,47,place,-0.130,-0.130,-0.130,0.000,0.000,0.000
1605105876184998912,10.0.1.122,70,place,-0.120,-0.120,-0.120,0.000,0.000,0.000
1605105877155544064,10.0.1.122,40,place,-0.110,-0.110,-0.110,0.000,0.000,0.000
1605105878172915968,10.0.1.122,41,place,-0.100,-0.100,-0.100,0.000,0.000,0.000
1605105879173847040,10.0.1.122,41,place,-0.090,-0.090,-0.090,0.000,0.000,0.000
1605105881193509120,10.0.1.122,50,place,-0.070,-0.070,-0.070,0.000,0.000,0.000
1605105882192894976,10.0.1.122,48,place,-0.060,-0.060,-0.060,0.000,0.000,0.000
1605105883194530048,10.0.1.122,48,place,-0.050,-0.050,-0.050,0.000,0.000,0.000
1605105884193808128,10.0.1.122,46,place,-0.040,-0.040,-0.040,0.000,0.000,0.000
1605105885193510144,10.0.1.122,44,place,-0.030,-0.030,-0.030,0.000,0.000,0.000
1605105886173399808,10.0.1.122,23,place,-0.020,-0.020,-0.020,0.000,0.000,0.000
1605105887192745984,10.0.1.122,41,place,-0.010,-0.010,-0.010,0.000,0.000,0.000
1605105888201138944,10.0.1.122,48,place,0.000,0.000,0.000,0.000,0.000,0.000
1605105889602312192,10.0.1.122,448,move_down,-0.020,-0.020,-0.020,0.000,0.000,0.000
1605105891093082880,10.0.1.122,410,move_down,-0.040,-0.040,-0.040,0.000,0.000,0.000
1605105892567826944,10.0.1.122,433,move_down,-0.060,-0.060,-0.060,0.000,0.000,0.000
1605105894076034048,10.0.1.122,424,move_down,-0.080,-0.080,-0.080,0.000,0.000,0.000
1605105895594432000,10.0.1.122,446,move_down,-0.100,-0.100,-0.100,0.000,0.000,0.000
1605105897045812992,10.0.1.122,407,move_down,-0.120,-0.120,-0.120,0.000,0.000,0.000
1605105898583233024,10.0.1.122,450,move_down,-0.140,-0.140,-0.140,0.000,0.000,0.000
1605105900081371904,10.0.1.122,445,move_down,-0.160,-0.160,-0.160,0.000,0.000,0.000
1605105901634825984,10.0.1.122,464,move_down,-0.180,-0.180,-0.180,0.000,0.000,0.000
1605105903106363136,10.0.1.122,421,move_down,-0.200,-0.200,-0.200,0.000,0.000,0.000
1605105904645595136,10.0.1.122,393,move_down,-0.220,-0.220,-0.220,0.000,0.000,0.000
1605105906147633920,10.0.1.122,460,move_down,-0.240,-0.240,-0.240,0.000,0.000,0.000
1605105907634717952,10.0.1.122,407,move_down,-0.260,-0.260,-0.260,0.000,0.000,0.000
1605105909161879040,10.0.1.122,445,move_down,-0.280,-0.280,-0.280,0.000,0.000,0.000
1605105910701623040,10.0.1.122,466,move_down,-0.300,-0.300,-0.300,0.000,0.000,0.000
1605105912260899072,10.0.1.122,481,move_down,-0.320,-0.320,-0.320,0.000,0.000,0.000
1605105913842665984,10.0.1.122,443,move_down,-0.340,-0.340,-0.340,0.000,0.000,0.000
1605105915358484992,10.0.1.122,429,move_down,-0.360,-0.360,-0.360,0.000,0.000,0.000
1605105916893718016,10.0.1.122,451,move_down,-0.380,-0.380,-0.380,0.000,0.000,0.000
1605105918427414784,10.0.1.122,463,move_down,-0.400,-0.400,-0.400,0.000,0.000,0.000
1605105919910628096,10.0.1.122,427,move_down,-0.420,-0.420,-0.420,0.000,0.000,0.000
1605105921434927872,10.0.1.122,419,move_down,-0.440,-0.440,-0.440,0.000,0.000,0.000
1605105922997477888,10.0.1.122,478,move_down,-0.460,-0.460,-0.460,0.000,0.000,0.000
1605105924530155008,10.0.1.122,489,move_down,-0.480,-0.480,-0.480,0.000,0.000,0.000
1605105926016922112,10.0.1.122,432,move_down,-0.500,-0.500,-0.500,0.000,0.000,0.000
1605105927465513984,10.0.1.122,414,move_down,-0.520,-0.520,-0.520,0.000,0.000,0.000
1605105928957006080,10.0.1.122,408,move_down,-0.540,-0.540,-0.540,0.000,0.000,0.000
1605105930477822976,10.0.1.122,446,move_down,-0.560,-0.560,-0.560,0.000,0.000,0.000
1605105931982203904,10.0.1.122,396,move_down,-0.580,-0.580,-0.580,0.000,0.000,0.000
1605105933089765120,10.0.1.122,39,pick,-0.590,-0.590,-0.590,0.000,0.000,0.000
1605105934110063104,10.0.1.122,58,pick,-0.600,-0.600,-0.600,0.000,0.000,0.000
1605105935113501184,10.0.1.122,53,pick,-0.610,-0.610,-0.610,0.000,0.000,0.000
1605105936105667072,10.0.1.122,44,pick,-0.620,-0.620,-0.620,0.000,0.000,0.000
1605105937116430080,10.0.1.122,53,pick,-0.630,-0.630,-0.630,0.000,0.000,0.000
1605105938115834112,10.0.1.122,52,pick,-0.640,-0.640,-0.640,0.000,0.000,0.000
1605105939106478080,10.0.1.122,41,pick,-0.650,-0.650,-0.650,0.000,0.000,0.000
1605105940117302016,10.0.1.122,52,pick,-0.660,-0.660,-0.660,0.000,0.000,0.000
1605105941111942144,10.0.1.122,45,pick,-0.670,-0.670,-0.670,0.000,0.000,0.000
1605105942111371008,10.0.1.122,43,pick,-0.680,-0.680,-0.680,0.000,0.000,0.000
1605105943107557120,10.0.1.122,38,pick,-0.690,-0.690,-0.690,0.000,0.000,0.000
1605105944145720832,10.0.1.122,70,pick,-0.700,-0.700,-0.700,0.000,0.000,0.000
1605105945124420864,10.0.1.122,47,pick,-0.710,-0.710,-0.710,0.000,0.000,0.000
1605105946132436992,10.0.1.122,52,pick,-0.720,-0.720,-0.720,0.000,0.000,0.000
1605105947131133952,10.0.1.122,49,pick,-0.730,-0.730,-0.730,0.000,0.000,0.000
1605105948118796032,10.0.1.122,35,pick,-0.740,-0.740,-0.740,0.000,0.000,0.000
1605105949120487936,10.0.1.122,35,pick,-0.750,-0.750,-0.750,0.000,0.000,0.000
1605105950118309120,10.0.1.122,32,pick,-0.760,-0.760,-0.760,0.000,0.000,0.000
1605105951136118784,10.0.1.122,47,pick,-0.770,-0.770,-0.770,0.000,0.000,0.000
1605105952596280064,10.0.1.122,505,move_up,-0.750,-0.750,-0.750,0.000,0.000,0.000
1605105954097477888,10.0.1.122,436,move_up,-0.730,-0.730,-0.730,0.000,0.000,0.000
1605105955729479936,10.0.1.122,459,move_up,-0.710,-0.710,-0.710,0.000,0.000,0.000
1605105957248128000,10.0.1.122,449,move_up,-0.690,-0.690,-0.690,0.000,0.000,0.000
1605105958823081984,10.0.1.122,476,move_up,-0.670,-0.670,-0.670,0.000,0.000,0.000
1605105960361188864,10.0.1.122,429,move_up,-0.650,-0.650,-0.650,0.000,0.000,0.000
1605105961862288896,10.0.1.122,404,move_up,-0.630,-0.630,-0.630,0.000,0.000,0.000
1605105963401266944,10.0.1.122,442,move_up,-0.610,-0.610,-0.610,0.000,0.000,0.000
1605105964905191936,10.0.1.122,443,move_up,-0.590,-0.590,-0.590,0.000,0.000,0.000
1605105966450306048,10.0.1.122,433,move_up,-0.570,-0.570,-0.570,0.000,0.000,0.000
1605105967972118016,10.0.1.122,408,move_up,-0.550,-0.550,-0.550,0.000,0.000,0.000
1605105969400968960,10.0.1.122,394,move_up,-0.530,-0.530,-0.530,0.000,0.000,0.000
1605105970959892992,10.0.1.122,467,move_up,-0.510,-0.510,-0.510,0.000,0.000,0.000
1605105972520977920,10.0.1.122,495,move_up,-0.490,-0.490,-0.490,0.000,0.000,0.000
1605105974114254080,10.0.1.122,500,move_up,-0.470,-0.470,-0.470,0.000,0.000,0.000
1605105975701317120,10.0.1.122,487,move_up,-0.450,-0.450,-0.450,0.000,0.000,0.000
1605105977316283904,10.0.1.122,552,move_up,-0.430,-0.430,-0.430,0.000,0.000,0.000
1605105978884196096,10.0.1.122,504,move_up,-0.410,-0.410,-0.410,0.000,0.000,0.000
1605105980526941184,10.0.1.122,545,move_up,-0.390,-0.390,-0.390,0.000,0.000,0.000
1605105982063904000,10.0.1.122,479,move_up,-0.370,-0.370,-0.370,0.000,0.000,0.000
1605105983615931136,10.0.1.122,493,move_up,-0.350,-0.350,-0.350,0.000,0.000,0.000
1605105985293222912,10.0.1.122,593,move_up,-0.330,-0.330,-0.330,0.000,0.000,0.000
1605105986808651008,10.0.1.122,411,move_up,-0.310,-0.310,-0.310,0.000,0.000,0.000
1605105988296727808,10.0.1.122,424,move_up,-0.290,-0.290,-0.290,0.000,0.000,0.000
1605105989757710848,10.0.1.122,462,move_up,-0.270,-0.270,-0.270,0.000,0.000,0.000
1605105991268942080,10.0.1.122,390,move_up,-0.250,-0.250,-0.250,0.000,0.000,0.000
1605105992800271872,10.0.1.122,434,move_up,-0.230,-0.230,-0.230,0.000,0.000,0.000
1605105994356216832,10.0.1.122,416,move_up,-0.210,-0.210,-0.210,0.000,0.000,0.000
1605105995935378944,10.0.1.122,475,move_up,-0.190,-0.190,-0.190,0.000,0.000,0.000
1605105997052342784,10.0.1.122,49,place,-0.180,-0.180,-0.180,0.000,0.000,0.000
1605105998052922112,10.0.1.122,44,place,-0.170,-0.170,-0.170,0.000,0.000,0.000
1605105999052359168,10.0.1.122,42,place,-0.160,-0.160,-0.160,0.000,0.000,0.000
1605106000051902976,10.0.1.122,34,place,-0.150,-0.150,-0.150,0.000,0.000,0.000
1605106001083836928,10.0.1.122,59,place,-0.140,-0.140,-0.140,0.000,0.000,0.000
1605106002081185024,10.0.1.122,55,place,-0.130,-0.130,-0.130,0.000,0.000,0.000
1605106003071535104,10.0.1.122,43,place,-0.120,-0.120,-0.120,0.000,0.000,0.000
1605106004078934016,10.0.1.122,50,place,-0.110,-0.110,-0.110,0.000,0.000,0.000
1605106005089293056,10.0.1.122,59,place,-0.100,-0.100,-0.100,0.000,0.000,0.000
1605106006078025216,10.0.1.122,46,place,-0.090,-0.090,-0.090,0.000,0.000,0.000
1605106007080163840,10.0.1.122,47,place,-0.080,-0.080,-0.080,0.000,0.000,0.000
1605106008082238976,10.0.1.122,47,place,-0.070,-0.070,-0.070,0.000,0.000,0.000
1605106009080486912,10.0.1.122,44,place,-0.060,-0.060,-0.060,0.000,0.000,0.000
1605106010071268096,10.0.1.122,34,place,-0.050,-0.050,-0.050,0.000,0.000,0.000
1605106011072668928,10.0.1.122,34,place,-0.040,-0.040,-0.040,0.000,0.000,0.000
1605106012093496064,10.0.1.122,53,place,-0.030,-0.030,-0.030,0.000,0.000,0.000
1605106013077886976,10.0.1.122,36,place,-0.020,-0.020,-0.020,0.000,0.000,0.000
1605106014077896960,10.0.1.122,35,place,-0.010,-0.010,-0.010,0.000,0.000,0.000
1605106015098177024,10.0.1.122,54,place,0.000,0.000,0.000,0.000,0.000,0.000
1605106016523536896,10.0.1.122,477,move_down,-0.020,-0.020,-0.020,0.000,0.000,0.000
1605106018051212032,10.0.1.122,474,move_down,-0.040,-0.040,-0.040,0.000,0.000,0.000
1605106019656062976,10.0.1.122,470,move_down,-0.060,-0.060,-0.060,0.000,0.000,0.000
1605106021318856960,10.0.1.122,589,move_down,-0.080,-0.080,-0.080,0.000,0.000,0.000
1605106022885398016,10.0.1.122,452,move_down,-0.100,-0.100,-0.100,0.000,0.000,0.000
1605106024434775040,10.0.1.122,474,move_down,-0.120,-0.120,-0.120,0.000,0.000,0.000
1605106025953629952,10.0.1.122,441,move_down,-0.140,-0.140,-0.140,0.000,0.000,0.000
1605106027511105024,10.0.1.122,476,move_down,-0.160,-0.160,-0.160,0.000,0.000,0.000
1605106029074914048,10.0.1.122,471,move_down,-0.180,-0.180,-0.180,0.000,0.000,0.000
1605106030707472128,10.0.1.122,486,move_down,-0.200,-0.200,-0.200,0.000,0.000,0.000
1605106032255991040,10.0.1.122,465,move_down,-0.220,-0.220,-0.220,0.000,0.000,0.000
1605106033783427072,10.0.1.122,440,move_down,-0.240,-0.240,-0.240,0.000,0.000,0.000
1605106035374146816,10.0.1.122,490,move_down,-0.260,-0.260,-0.260,0.000,0.000,0.000
1605106036794678016,10.0.1.122,391,move_down,-0.280,-0.280,-0.280,0.000,0.000,0.000
1605106038274765056,10.0.1.122,442,move_down,-0.300,-0.300,-0.300,0.000,0.000,0.000
1605106039999227136,10.0.1.122,604,move_down,-0.320,-0.320,-0.320,0.000,0.000,0.000
1605106041562424064,10.0.1.122,456,move_down,-0.340,-0.340,-0.340,0.000,0.000,0.000
1605106043123207168,10.0.1.122,512,move_down,-0.360,-0.360,-0.360,0.000,0.000,0.000
1605106044655459840,10.0.1.122,456,move_down,-0.380,-0.380,-0.380,0.000,0.000,0.000
1605106046320645120,10.0.1.122,552,move_down,-0.400,-0.400,-0.400,0.000,0.000,0.000
1605106047844886016,10.0.1.122,417,move_down,-0.420,-0.420,-0.420,0.000,0.000,0.000
1605106049386311168,10.0.1.122,464,move_down,-0.440,-0.440,-0.440,0.000,0.000,0.000
1605106050926692096,10.0.1.122,467,move_down,-0.460,-0.460,-0.460,0.000,0.000,0.000
1605106052483952896,10.0.1.122,484,move_down,-0.480,-0.480,-0.480,0.000,0.000,0.000
1605106054007420160,10.0.1.122,467,move_down,-0.500,-0.500,-0.500,0.000,0.000,0.000
1605106055522806784,10.0.1.122,460,move_down,-0.520,-0.520,-0.520,0.000,0.000,0.000
1605106057026552832,10.0.1.122,435,move_down,-0.540,-0.540,-0.540,0.000,0.000,0.000
1605106058579848960,10.0.1.122,447,move_down,-0.560,-0.560,-0.560,0.000,0.000,0.000
1605106060199314944,10.0.1.122,504,move_down,-0.580,-0.580,-0.580,0.000,0.000,0.000
1605106061302295040,10.0.1.122,48,pick,-0.590,-0.590,-0.590,0.000,0.000,0.000
1605106062303438848,10.0.1.122,47,pick,-0.600,-0.600,-0.600,0.000,0.000,0.000
1605106063302670848,10.0.1.122,42,pick,-0.610,-0.610,-0.610,0.000,0.000,0.000
1605106064340513024,10.0.1.122,60,pick,-0.620,-0.620,-0.620,0.000,0.000,0.000
1605106065319070976,10.0.1.122,38,pick,-0.630,-0.630,-0.630,0.000,0.000,0.000
1605106066326436096,10.0.1.122,42,pick,-0.640,-0.640,-0.640,0.000,0.000,0.000
1605106067333441024,10.0.1.122,48,pick,-0.650,-0.650,-0.650,0.000,0.000,0.000
1605106068318501888,10.0.1.122,32,pick,-0.660,-0.660,-0.660,0.000,0.000,0.000
1605106069328176128,10.0.1.122,40,pick,-0.670,-0.670,-0.670,0.000,0.000,0.000
1605106070341687040,10.0.1.122,52,pick,-0.680,-0.680,-0.680,0.000,0.000,0.000
1605106071344058880,10.0.1.122,54,pick,-0.690,-0.690,-0.690,0.000,0.000,0.000
1605106072344705024,10.0.1.122,51,pick,-0.700,-0.700,-0.700,0.000,0.000,0.000
1605106073340792064,10.0.1.122,46,pick,-0.710,-0.710,-0.710,0.000,0.000,0.000
1605106074355046144,10.0.1.122,59,pick,-0.720,-0.720,-0.720,0.000,0.000,0.000
1605106076339038976,10.0.1.122,40,pick,-0.740,-0.740,-0.740,0.000,0.000,0.000
1605106077347788032,10.0.1.122,48,pick,-0.750,-0.750,-0.750,0.000,0.000,0.000
1605106078338777088,10.0.1.122,36,pick,-0.760,-0.760,-0.760,0.000,0.000,0.000
1605106079338561024,10.0.1.122,35,pick,-0.770,-0.770,-0.770,0.000,0.000,0.000
1605106080738092032,10.0.1.122,427,move_up,-0.750,-0.750,-0.750,0.000,0.000,0.000
1605106082279072000,10.0.1.122,444,move_up,-0.730,-0.730,-0.730,0.000,0.000,0.000
1605106083788230912,10.0.1.122,429,move_up,-0.710,-0.710,-0.710,0.000,0.000,0.000
1605106085348078848,10.0.1.122,427,move_up,-0.690,-0.690,-0.690,0.000,0.000,0.000
1605106086800523008,10.0.1.122,434,move_up,-0.670,-0.670,-0.670,0.000,0.000,0.000
1605106088329474816,10.0.1.122,439,move_up,-0.650,-0.650,-0.650,0.000,0.000,0.000
1605106089858190080,10.0.1.122,456,move_up,-0.630,-0.630,-0.630,0.000,0.000,0.000
1605106091466973952,10.0.1.122,529,move_up,-0.610,-0.610,-0.610,0.000,0.000,0.000
1605106093084310016,10.0.1.122,497,move_up,-0.590,-0.590,-0.590,0.000,0.000,0.000
1605106094594216960,10.0.1.122,467,move_up,-0.570,-0.570,-0.570,0.000,0.000,0.000
1605106096060893952,10.0.1.122,432,move_up,-0.550,-0.550,-0.550,0.000,0.000,0.000
1605106097600708864,10.0.1.122,499,move_up,-0.530,-0.530,-0.530,0.000,0.000,0.000
1605106099125252096,10.0.1.122,478,move_up,-0.510,-0.510,-0.510,0.000,0.000,0.000
1605106100607296000,10.0.1.122,431,move_up,-0.490,-0.490,-0.490,0.000,0.000,0.000
1605106102087249920,10.0.1.122,418,move_up,-0.470,-0.470,-0.470,0.000,0.000,0.000
1605106103619913984,10.0.1.122,428,move_up,-0.450,-0.450,-0.450,0.000,0.000,0.000
1605106105112020992,10.0.1.122,392,move_up,-0.430,-0.430,-0.430,0.000,0.000,0.000
1605106106708622080,10.0.1.122,401,move_up,-0.410,-0.410,-0.410,0.000,0.000,0.000
1605106108222830080,10.0.1.122,389,move_up,-0.390,-0.390,-0.390,0.000,0.000,0.000
1605106109809267968,10.0.1.122,497,move_up,-0.370,-0.370,-0.370,0.000,0.000,0.000
1605106111269229056,10.0.1.122,429,move_up,-0.350,-0.350,-0.350,0.000,0.000,0.000
1605106112810009088,10.0.1.122,444,move_up,-0.330,-0.330,-0.330,0.000,0.000,0.000
1605106114359216896,10.0.1.122,464,move_up,-0.310,-0.310,-0.310,0.000,0.000,0.000
