milangroshev/digital-twin-scalability/logs/run1-300s/10.0.1.128.csv
timestamp,node,latency,action,joint_1,joint_2,joint_3,joint_4,joint_5,joint_6
1605105279994530048,10.0.1.128,2002,,0.000,0.000,0.000,0.000,0.000,0.000
1605105282598829056,10.0.1.128,602,move_down,-0.020,-0.020,-0.020,0.000,0.000,0.000
1605105284058622976,10.0.1.128,393,move_down,-0.040,-0.040,-0.040,0.000,0.000,0.000
1605105285514682112,10.0.1.128,400,move_down,-0.060,-0.060,-0.060,0.000,0.000,0.000
1605105286949291008,10.0.1.128,387,move_down,-0.080,-0.080,-0.080,0.000,0.000,0.000
1605105288409620992,10.0.1.128,380,move_down,-0.100,-0.100,-0.100,0.000,0.000,0.000
1605105289839393024,10.0.1.128,380,move_down,-0.120,-0.120,-0.120,0.000,0.000,0.000
1605105291331442176,10.0.1.128,427,move_down,-0.140,-0.140,-0.140,0.000,0.000,0.000
1605105292779671808,10.0.1.128,426,move_down,-0.160,-0.160,-0.160,0.000,0.000,0.000
1605105294220912896,10.0.1.128,380,move_down,-0.180,-0.180,-0.180,0.000,0.000,0.000
1605105295678976000,10.0.1.128,418,move_down,-0.200,-0.200,-0.200,0.000,0.000,0.000
1605105297129283072,10.0.1.128,379,move_down,-0.220,-0.220,-0.220,0.000,0.000,0.000
1605105298571350016,10.0.1.128,391,move_down,-0.240,-0.240,-0.240,0.000,0.000,0.000
1605105300062791936,10.0.1.128,403,move_down,-0.260,-0.260,-0.260,0.000,0.000,0.000
1605105301488843008,10.0.1.128,417,move_down,-0.280,-0.280,-0.280,0.000,0.000,0.000
1605105302972529920,10.0.1.128,408,move_down,-0.300,-0.300,-0.300,0.000,0.000,0.000
1605105304490588928,10.0.1.128,438,move_down,-0.320,-0.320,-0.320,0.000,0.000,0.000
1605105306007632128,10.0.1.128,433,move_down,-0.340,-0.340,-0.340,0.000,0.000,0.000
1605105307485563136,10.0.1.128,407,move_down,-0.360,-0.360,-0.360,0.000,0.000,0.000
1605105308948488960,10.0.1.128,414,move_down,-0.380,-0.380,-0.380,0.000,0.000,0.000
1605105310399232000,10.0.1.128,380,move_down,-0.400,-0.400,-0.400,0.000,0.000,0.000
1605105311838304000,10.0.1.128,376,move_down,-0.420,-0.420,-0.420,0.000,0.000,0.000
1605105313350828032,10.0.1.128,426,move_down,-0.440,-0.440,-0.440,0.000,0.000,0.000
1605105314808541184,10.0.1.128,403,move_down,-0.460,-0.460,-0.460,0.000,0.000,0.000
1605105316278374912,10.0.1.128,430,move_down,-0.480,-0.480,-0.480,0.000,0.000,0.000
1605105317758205952,10.0.1.128,408,move_down,-0.500,-0.500,-0.500,0.000,0.000,0.000
1605105319268881152,10.0.1.128,440,move_down,-0.520,-0.520,-0.520,0.000,0.000,0.000
1605105320741282816,10.0.1.128,416,move_down,-0.540,-0.540,-0.540,0.000,0.000,0.000
1605105322189708032,10.0.1.128,402,move_down,-0.560,-0.560,-0.560,0.000,0.000,0.000
1605105323636915968,10.0.1.128,418,move_down,-0.580,-0.580,-0.580,0.000,0.000,0.000
1605105324729883904,10.0.1.128,34,pick,-0.590,-0.590,-0.590,0.000,0.000,0.000
1605105325746967040,10.0.1.128,47,pick,-0.600,-0.600,-0.600,0.000,0.000,0.000
1605105326749124096,10.0.1.128,47,pick,-0.610,-0.610,-0.610,0.000,0.000,0.000
1605105327749532928,10.0.1.128,46,pick,-0.620,-0.620,-0.620,0.000,0.000,0.000
1605105328748774144,10.0.1.128,44,pick,-0.630,-0.630,-0.630,0.000,0.000,0.000
1605105329749080832,10.0.1.128,43,pick,-0.640,-0.640,-0.640,0.000,0.000,0.000
1605105330749202944,10.0.1.128,42,pick,-0.650,-0.650,-0.650,0.000,0.000,0.000
1605105331748848896,10.0.1.128,36,pick,-0.660,-0.660,-0.660,0.000,0.000,0.000
1605105332750951168,10.0.1.128,36,pick,-0.670,-0.670,-0.670,0.000,0.000,0.000
1605105333749434112,10.0.1.128,33,pick,-0.680,-0.680,-0.680,0.000,0.000,0.000
1605105334752062208,10.0.1.128,35,pick,-0.690,-0.690,-0.690,0.000,0.000,0.000
1605105335768358912,10.0.1.128,48,pick,-0.700,-0.700,-0.700,0.000,0.000,0.000
1605105336768762112,10.0.1.128,47,pick,-0.710,-0.710,-0.710,0.000,0.000,0.000
1605105337768996096,10.0.1.128,46,pick,-0.720,-0.720,-0.720,0.000,0.000,0.000
1605105338769805824,10.0.1.128,44,pick,-0.730,-0.730,-0.730,0.000,0.000,0.000
1605105339769421056,10.0.1.128,38,pick,-0.740,-0.740,-0.740,0.000,0.000,0.000
1605105340774820096,10.0.1.128,42,pick,-0.750,-0.750,-0.750,0.000,0.000,0.000
1605105341769798144,10.0.1.128,36,pick,-0.760,-0.760,-0.760,0.000,0.000,0.000
1605105342768538880,10.0.1.128,33,pick,-0.770,-0.770,-0.770,0.000,0.000,0.000
1605105344115990016,10.0.1.128,380,move_up,-0.750,-0.750,-0.750,0.000,0.000,0.000
1605105345579122944,10.0.1.128,402,move_up,-0.730,-0.730,-0.730,0.000,0.000,0.000
1605105346978908160,10.0.1.128,391,move_up,-0.710,-0.710,-0.710,0.000,0.000,0.000
1605105348429925888,10.0.1.128,397,move_up,-0.690,-0.690,-0.690,0.000,0.000,0.000
1605105349877798144,10.0.1.128,365,move_up,-0.670,-0.670,-0.670,0.000,0.000,0.000
1605105351278393856,10.0.1.128,372,move_up,-0.650,-0.650,-0.650,0.000,0.000,0.000
1605105352761664000,10.0.1.128,411,move_up,-0.630,-0.630,-0.630,0.000,0.000,0.000
1605105354258941952,10.0.1.128,424,move_up,-0.610,-0.610,-0.610,0.000,0.000,0.000
1605105355721224960,10.0.1.128,405,move_up,-0.590,-0.590,-0.590,0.000,0.000,0.000
1605105357111465984,10.0.1.128,362,move_up,-0.570,-0.570,-0.570,0.000,0.000,0.000
1605105358579806208,10.0.1.128,420,move_up,-0.550,-0.550,-0.550,0.000,0.000,0.000
1605105360082259968,10.0.1.128,408,move_up,-0.530,-0.530,-0.530,0.000,0.000,0.000
1605105361589915904,10.0.1.128,446,move_up,-0.510,-0.510,-0.510,0.000,0.000,0.000
1605105363083760128,10.0.1.128,424,move_up,-0.490,-0.490,-0.490,0.000,0.000,0.000
1605105364539108864,10.0.1.128,399,move_up,-0.470,-0.470,-0.470,0.000,0.000,0.000
1605105365989491968,10.0.1.128,388,move_up,-0.450,-0.450,-0.450,0.000,0.000,0.000
1605105367518385920,10.0.1.128,444,move_up,-0.430,-0.430,-0.430,0.000,0.000,0.000
1605105368960503040,10.0.1.128,393,move_up,-0.410,-0.410,-0.410,0.000,0.000,0.000
1605105370380803072,10.0.1.128,401,move_up,-0.390,-0.390,-0.390,0.000,0.000,0.000
1605105371809220096,10.0.1.128,380,move_up,-0.370,-0.370,-0.370,0.000,0.000,0.000
1605105373259917056,10.0.1.128,406,move_up,-0.350,-0.350,-0.350,0.000,0.000,0.000
1605105374745064960,10.0.1.128,413,move_up,-0.330,-0.330,-0.330,0.000,0.000,0.000
1605105376211905024,10.0.1.128,400,move_up,-0.310,-0.310,-0.310,0.000,0.000,0.000
1605105377649498880,10.0.1.128,406,move_up,-0.290,-0.290,-0.290,0.000,0.000,0.000
1605105379158565888,10.0.1.128,438,move_up,-0.270,-0.270,-0.270,0.000,0.000,0.000
1605105380629234176,10.0.1.128,410,move_up,-0.250,-0.250,-0.250,0.000,0.000,0.000
1605105382130110976,10.0.1.128,429,move_up,-0.230,-0.230,-0.230,0.000,0.000,0.000
1605105383560399104,10.0.1.128,360,move_up,-0.210,-0.210,-0.210,0.000,0.000,0.000
1605105385029489920,10.0.1.128,386,move_up,-0.190,-0.190,-0.190,0.000,0.000,0.000
1605105386129373184,10.0.1.128,33,place,-0.180,-0.180,-0.180,0.000,0.000,0.000
1605105387128928000,10.0.1.128,32,place,-0.170,-0.170,-0.170,0.000,0.000,0.000
1605105388147291904,10.0.1.128,49,place,-0.160,-0.160,-0.160,0.000,0.000,0.000
1605105389141856000,10.0.1.128,42,place,-0.150,-0.150,-0.150,0.000,0.000,0.000
1605105390141878016,10.0.1.128,40,place,-0.140,-0.140,-0.140,0.000,0.000,0.000
1605105391158621184,10.0.1.128,56,place,-0.130,-0.130,-0.130,0.000,0.000,0.000
1605105392143991040,10.0.1.128,40,place,-0.120,-0.120,-0.120,0.000,0.000,0.000
1605105393149530880,10.0.1.128,44,place,-0.110,-0.110,-0.110,0.000,0.000,0.000
1605105394154865920,10.0.1.128,47,place,-0.100,-0.100,-0.100,0.000,0.000,0.000
1605105395151762944,10.0.1.128,43,place,-0.090,-0.090,-0.090,0.000,0.000,0.000
1605105396150476032,10.0.1.128,40,place,-0.080,-0.080,-0.080,0.000,0.000,0.000
1605105397162717952,10.0.1.128,51,place,-0.070,-0.070,-0.070,0.000,0.000,0.000
1605105398168945920,10.0.1.128,55,place,-0.060,-0.060,-0.060,0.000,0.000,0.000
1605105399149619968,10.0.1.128,35,place,-0.050,-0.050,-0.050,0.000,0.000,0.000
1605105400158822144,10.0.1.128,43,place,-0.040,-0.040,-0.040,0.000,0.000,0.000
1605105401148762112,10.0.1.128,31,place,-0.030,-0.030,-0.030,0.000,0.000,0.000
1605105402171938816,10.0.1.128,53,place,-0.020,-0.020,-0.020,0.000,0.000,0.000
1605105403173494016,10.0.1.128,53,place,-0.010,-0.010,-0.010,0.000,0.000,0.000
1605105404165533184,10.0.1.128,44,place,0.000,0.000,0.000,0.000,0.000,0.000
1605105405542524928,10.0.1.128,420,move_down,-0.020,-0.020,-0.020,0.000,0.000,0.000
1605105406960087040,10.0.1.128,394,move_down,-0.040,-0.040,-0.040,0.000,0.000,0.000
1605105408449210880,10.0.1.128,406,move_down,-0.060,-0.060,-0.060,0.000,0.000,0.000
1605105409899185920,10.0.1.128,402,move_down,-0.080,-0.080,-0.080,0.000,0.000,0.000
1605105411370168064,10.0.1.128,412,move_down,-0.100,-0.100,-0.100,0.000,0.000,0.000
1605105412839677952,10.0.1.128,401,move_down,-0.120,-0.120,-0.120,0.000,0.000,0.000
1605105414302427136,10.0.1.128,378,move_down,-0.140,-0.140,-0.140,0.000,0.000,0.000
1605105415763591168,10.0.1.128,405,move_down,-0.160,-0.160,-0.160,0.000,0.000,0.000
1605105417201936896,10.0.1.128,387,move_down,-0.180,-0.180,-0.180,0.000,0.000,0.000
1605105418620617984,10.0.1.128,414,move_down,-0.200,-0.200,-0.200,0.000,0.000,0.000
1605105420101517824,10.0.1.128,407,move_down,-0.220,-0.220,-0.220,0.000,0.000,0.000
1605105421602390016,10.0.1.128,418,move_down,-0.240,-0.240,-0.240,0.000,0.000,0.000
1605105423091547904,10.0.1.128,442,move_down,-0.260,-0.260,-0.260,0.000,0.000,0.000
1605105424470132992,10.0.1.128,385,move_down,-0.280,-0.280,-0.280,0.000,0.000,0.000
1605105425951299072,10.0.1.128,427,move_down,-0.300,-0.300,-0.300,0.000,0.000,0.000
1605105427455343872,10.0.1.128,426,move_down,-0.320,-0.320,-0.320,0.000,0.000,0.000
1605105428961342976,10.0.1.128,431,move_down,-0.340,-0.340,-0.340,0.000,0.000,0.000
1605105430472228096,10.0.1.128,420,move_down,-0.360,-0.360,-0.360,0.000,0.000,0.000
1605105431960043008,10.0.1.128,408,move_down,-0.380,-0.380,-0.380,0.000,0.000,0.000
1605105433431049984,10.0.1.128,391,move_down,-0.400,-0.400,-0.400,0.000,0.000,0.000
1605105434923840000,10.0.1.128,398,move_down,-0.420,-0.420,-0.420,0.000,0.000,0.000
1605105436383089920,10.0.1.128,376,move_down,-0.440,-0.440,-0.440,0.000,0.000,0.000
1605105437880274944,10.0.1.128,422,move_down,-0.460,-0.460,-0.460,0.000,0.000,0.000
1605105439362150912,10.0.1.128,410,move_down,-0.480,-0.480,-0.480,0.000,0.000,0.000
1605105440781657088,10.0.1.128,412,move_down,-0.500,-0.500,-0.500,0.000,0.000,0.000
1605105442240082944,10.0.1.128,393,move_down,-0.520,-0.520,-0.520,0.000,0.000,0.000
1605105443688535040,10.0.1.128,402,move_down,-0.540,-0.540,-0.540,0.000,0.000,0.000
1605105445090331136,10.0.1.128,354,move_down,-0.560,-0.560,-0.560,0.000,0.000,0.000
1605105446529604864,10.0.1.128,369,move_down,-0.580,-0.580,-0.580,0.000,0.000,0.000
1605105447657061120,10.0.1.128,50,pick,-0.590,-0.590,-0.590,0.000,0.000,0.000
1605105448650223104,10.0.1.128,42,pick,-0.600,-0.600,-0.600,0.000,0.000,0.000
1605105449651625984,10.0.1.128,42,pick,-0.610,-0.610,-0.610,0.000,0.000,0.000
1605105450654955008,10.0.1.128,44,pick,-0.620,-0.620,-0.620,0.000,0.000,0.000
1605105451651170048,10.0.1.128,39,pick,-0.630,-0.630,-0.630,0.000,0.000,0.000
1605105452656168960,10.0.1.128,44,pick,-0.640,-0.640,-0.640,0.000,0.000,0.000
1605105453652512000,10.0.1.128,39,pick,-0.650,-0.650,-0.650,0.000,0.000,0.000
1605105454651848960,10.0.1.128,37,pick,-0.660,-0.660,-0.660,0.000,0.000,0.000
1605105455652278784,10.0.1.128,36,pick,-0.670,-0.670,-0.670,0.000,0.000,0.000
1605105456652023040,10.0.1.128,34,pick,-0.680,-0.680,-0.680,0.000,0.000,0.000
1605105457671320832,10.0.1.128,52,pick,-0.690,-0.690,-0.690,0.000,0.000,0.000
1605105458675250944,10.0.1.128,55,pick,-0.700,-0.700,-0.700,0.000,0.000,0.000
1605105459671155968,10.0.1.128,50,pick,-0.710,-0.710,-0.710,0.000,0.000,0.000
1605105460670713856,10.0.1.128,48,pick,-0.720,-0.720,-0.720,0.000,0.000,0.000
1605105461672923136,10.0.1.128,47,pick,-0.730,-0.730,-0.730,0.000,0.000,0.000
1605105462670208000,10.0.1.128,43,pick,-0.740,-0.740,-0.740,0.000,0.000,0.000
1605105463670511104,10.0.1.128,42,pick,-0.750,-0.750,-0.750,0.000,0.000,0.000
1605105464670700032,10.0.1.128,41,pick,-0.760,-0.760,-0.760,0.000,0.000,0.000
1605105465669807872,10.0.1.128,39,pick,-0.770,-0.770,-0.770,0.000,0.000,0.000
1605105467040469760,10.0.1.128,408,move_up,-0.750,-0.750,-0.750,0.000,0.000,0.000
1605105468419190784,10.0.1.128,368,move_up,-0.730,-0.730,-0.730,0.000,0.000,0.000
1605105469919367168,10.0.1.128,393,move_up,-0.710,-0.710,-0.710,0.000,0.000,0.000
1605105471414066176,10.0.1.128,409,move_up,-0.690,-0.690,-0.690,0.000,0.000,0.000
1605105472900041216,10.0.1.128,415,move_up,-0.670,-0.670,-0.670,0.000,0.000,0.000
1605105474379371008,10.0.1.128,405,move_up,-0.650,-0.650,-0.650,0.000,0.000,0.000
1605105475888935936,10.0.1.128,428,move_up,-0.630,-0.630,-0.630,0.000,0.000,0.000
1605105477380673792,10.0.1.128,399,move_up,-0.610,-0.610,-0.610,0.000,0.000,0.000
1605105478899190016,10.0.1.128,427,move_up,-0.590,-0.590,-0.590,0.000,0.000,0.000
1605105480349550848,10.0.1.128,381,move_up,-0.570,-0.570,-0.570,0.000,0.000,0.000
1605105481879345920,10.0.1.128,468,move_up,-0.550,-0.550,-0.550,0.000,0.000,0.000
1605105483358791168,10.0.1.128,401,move_up,-0.530,-0.530,-0.530,0.000,0.000,0.000
1605105484839299072,10.0.1.128,396,move_up,-0.510,-0.510,-0.510,0.000,0.000,0.000
1605105486368545024,10.0.1.128,471,move_up,-0.490,-0.490,-0.490,0.000,0.000,0.000
1605105487809593856,10.0.1.128,370,move_up,-0.470,-0.470,-0.470,0.000,0.000,0.000
1605105489318789120,10.0.1.128,434,move_up,-0.450,-0.450,-0.450,0.000,0.000,0.000
1605105490838430976,10.0.1.128,432,move_up,-0.430,-0.430,-0.430,0.000,0.000,0.000
1605105492293312000,10.0.1.128,396,move_up,-0.410,-0.410,-0.410,0.000,0.000,0.000
1605105493811645952,10.0.1.128,430,move_up,-0.390,-0.390,-0.390,0.000,0.000,0.000
1605105495291966976,10.0.1.128,405,move_up,-0.370,-0.370,-0.370,0.000,0.000,0.000
1605105496755876096,10.0.1.128,383,move_up,-0.350,-0.350,-0.350,0.000,0.000,0.000
1605105498171422976,10.0.1.128,376,move_up,-0.330,-0.330,-0.330,0.000,0.000,0.000
1605105499635858944,10.0.1.128,409,move_up,-0.310,-0.310,-0.310,0.000,0.000,0.000
1605105501161537024,10.0.1.128,415,move_up,-0.290,-0.290,-0.290,0.000,0.000,0.000
1605105502641014016,10.0.1.128,370,move_up,-0.270,-0.270,-0.270,0.000,0.000,0.000
1605105504071749888,10.0.1.128,388,move_up,-0.250,-0.250,-0.250,0.000,0.000,0.000
1605105505562083840,10.0.1.128,396,move_up,-0.230,-0.230,-0.230,0.000,0.000,0.000
1605105506974255104,10.0.1.128,383,move_up,-0.210,-0.210,-0.210,0.000,0.000,0.000
1605105508493123072,10.0.1.128,425,move_up,-0.190,-0.190,-0.190,0.000,0.000,0.000
1605105509596710912,10.0.1.128,49,place,-0.180,-0.180,-0.180,0.000,0.000,0.000
1605105510595076096,10.0.1.128,45,place,-0.170,-0.170,-0.170,0.000,0.000,0.000
1605105511592356864,10.0.1.128,40,place,-0.160,-0.160,-0.160,0.000,0.000,0.000
1605105512591592192,10.0.1.128,38,place,-0.150,-0.150,-0.150,0.000,0.000,0.000
1605105513593359872,10.0.1.128,39,place,-0.140,-0.140,-0.140,0.000,0.000,0.000
1605105514593206784,10.0.1.128,37,place,-0.130,-0.130,-0.130,0.000,0.000,0.000
1605105515592736000,10.0.1.128,35,place,-0.120,-0.120,-0.120,0.000,0.000,0.000
1605105516612477952,10.0.1.128,51,place,-0.110,-0.110,-0.110,0.000,0.000,0.000
1605105517611921920,10.0.1.128,48,place,-0.100,-0.100,-0.100,0.000,0.000,0.000
1605105518611824896,10.0.1.128,47,place,-0.090,-0.090,-0.090,0.000,0.000,0.000
1605105519611928832,10.0.1.128,46,place,-0.080,-0.080,-0.080,0.000,0.000,0.000
1605105520611287040,10.0.1.128,43,place,-0.070,-0.070,-0.070,0.000,0.000,0.000
1605105521612185088,10.0.1.128,42,place,-0.060,-0.060,-0.060,0.000,0.000,0.000
1605105522613084160,10.0.1.128,42,place,-0.050,-0.050,-0.050,0.000,0.000,0.000
1605105523615048960,10.0.1.128,43,place,-0.040,-0.040,-0.040,0.000,0.000,0.000
1605105524612487168,10.0.1.128,39,place,-0.030,-0.030,-0.030,0.000,0.000,0.000
1605105525632837120,10.0.1.128,49,place,-0.020,-0.020,-0.020,0.000,0.000,0.000
1605105526631467008,10.0.1.128,46,place,-0.010,-0.010,-0.010,0.000,0.000,0.000
1605105527631674880,10.0.1.128,45,place,0.000,0.000,0.000,0.000,0.000,0.000
1605105528982272000,10.0.1.128,394,move_down,-0.020,-0.020,-0.020,0.000,0.000,0.000
1605105530406248192,10.0.1.128,368,move_down,-0.040,-0.040,-0.040,0.000,0.000,0.000
1605105531844710144,10.0.1.128,379,move_down,-0.060,-0.060,-0.060,0.000,0.000,0.000
1605105533305540096,10.0.1.128,424,move_down,-0.080,-0.080,-0.080,0.000,0.000,0.000
1605105534732559872,10.0.1.128,373,move_down,-0.100,-0.100,-0.100,0.000,0.000,0.000
1605105536182436864,10.0.1.128,402,move_down,-0.120,-0.120,-0.120,0.000,0.000,0.000
1605105537591475968,10.0.1.128,393,move_down,-0.140,-0.140,-0.140,0.000,0.000,0.000
1605105539112640000,10.0.1.128,426,move_down,-0.160,-0.160,-0.160,0.000,0.000,0.000
1605105540572488192,10.0.1.128,390,move_down,-0.180,-0.180,-0.180,0.000,0.000,0.000
1605105542021872896,10.0.1.128,393,move_down,-0.200,-0.200,-0.200,0.000,0.000,0.000
1605105543523101184,10.0.1.128,408,move_down,-0.220,-0.220,-0.220,0.000,0.000,0.000
1605105544974166016,10.0.1.128,402,move_down,-0.240,-0.240,-0.240,0.000,0.000,0.000
1605105546466295040,10.0.1.128,417,move_down,-0.260,-0.260,-0.260,0.000,0.000,0.000
1605105547891213824,10.0.1.128,382,move_down,-0.280,-0.280,-0.280,0.000,0.000,0.000
1605105549362055936,10.0.1.128,423,move_down,-0.300,-0.300,-0.300,0.000,0.000,0.000
1605105550422045952,10.0.1.128,-1,move_down,-0.320,-0.320,-0.320,0.000,0.000,0.000
1605105552238816000,10.0.1.128,402,move_down,-0.340,-0.340,-0.340,0.000,0.000,0.000
1605105553711604224,10.0.1.128,393,move_down,-0.360,-0.360,-0.360,0.000,0.000,0.000
1605105555192775936,10.0.1.128,396,move_down,-0.380,-0.380,-0.380,0.000,0.000,0.000
1605105556668395008,10.0.1.128,413,move_down,-0.400,-0.400,-0.400,0.000,0.000,0.000
1605105558092251904,10.0.1.128,384,move_down,-0.420,-0.420,-0.420,0.000,0.000,0.000
1605105559533093888,10.0.1.128,392,move_down,-0.440,-0.440,-0.440,0.000,0.000,0.000
1605105560932456960,10.0.1.128,379,move_down,-0.460,-0.460,-0.460,0.000,0.000,0.000
1605105562374066176,10.0.1.128,390,move_down,-0.480,-0.480,-0.480,0.000,0.000,0.000
1605105563869472000,10.0.1.128,401,move_down,-0.500,-0.500,-0.500,0.000,0.000,0.000
1605105565323707136,10.0.1.128,404,move_down,-0.520,-0.520,-0.520,0.000,0.000,0.000
1605105566765646080,10.0.1.128,411,move_down,-0.540,-0.540,-0.540,0.000,0.000,0.000
1605105568215673856,10.0.1.128,379,move_down,-0.560,-0.560,-0.560,0.000,0.000,0.000
1605105569666241024,10.0.1.128,383,move_down,-0.580,-0.580,-0.580,0.000,0.000,0.000
1605105570744171008,10.0.1.128,41,pick,-0.590,-0.590,-0.590,0.000,0.000,0.000
1605105571744291072,10.0.1.128,38,pick,-0.600,-0.600,-0.600,0.000,0.000,0.000
1605105572743412992,10.0.1.128,37,pick,-0.610,-0.610,-0.610,0.000,0.000,0.000
1605105573766117120,10.0.1.128,49,pick,-0.620,-0.620,-0.620,0.000,0.000,0.000
1605105574787241984,10.0.1.128,69,pick,-0.630,-0.630,-0.630,0.000,0.000,0.000
1605105575769871872,10.0.1.128,46,pick,-0.640,-0.640,-0.640,0.000,0.000,0.000
1605105576767117056,10.0.1.128,40,pick,-0.650,-0.650,-0.650,0.000,0.000,0.000
1605105577768157952,10.0.1.128,40,pick,-0.660,-0.660,-0.660,0.000,0.000,0.000
1605105578766578944,10.0.1.128,36,pick,-0.670,-0.670,-0.670,0.000,0.000,0.000
1605105579774349056,10.0.1.128,44,pick,-0.680,-0.680,-0.680,0.000,0.000,0.000
1605105580792367104,10.0.1.128,60,pick,-0.690,-0.690,-0.690,0.000,0.000,0.000
1605105581773394944,10.0.1.128,40,pick,-0.700,-0.700,-0.700,0.000,0.000,0.000
1605105582766123008,10.0.1.128,31,pick,-0.710,-0.710,-0.710,0.000,0.000,0.000
1605105583766618880,10.0.1.128,30,pick,-0.720,-0.720,-0.720,0.000,0.000,0.000
1605105584796067072,10.0.1.128,55,pick,-0.730,-0.730,-0.730,0.000,0.000,0.000
1605105585787074048,10.0.1.128,43,pick,-0.740,-0.740,-0.740,0.000,0.000,0.000
1605105586787657984,10.0.1.128,42,pick,-0.750,-0.750,-0.750,0.000,0.000,0.000
1605105587788156160,10.0.1.128,41,pick,-0.760,-0.760,-0.760,0.000,0.000,0.000
1605105588787190016,10.0.1.128,39,pick,-0.770,-0.770,-0.770,0.000,0.000,0.000
1605105590126642944,10.0.1.128,377,move_up,-0.750,-0.750,-0.750,0.000,0.000,0.000
1605105591557928192,10.0.1.128,365,move_up,-0.730,-0.730,-0.730,0.000,0.000,0.000
1605105593029784064,10.0.1.128,419,move_up,-0.710,-0.710,-0.710,0.000,0.000,0.000
1605105594544011008,10.0.1.128,422,move_up,-0.690,-0.690,-0.690,0.000,0.000,0.000
1605105596002279936,10.0.1.128,395,move_up,-0.670,-0.670,-0.670,0.000,0.000,0.000
1605105597458103040,10.0.1.128,410,move_up,-0.650,-0.650,-0.650,0.000,0.000,0.000
1605105598920763904,10.0.1.128,390,move_up,-0.630,-0.630,-0.630,0.000,0.000,0.000
1605105600416342016,10.0.1.128,433,move_up,-0.610,-0.610,-0.610,0.000,0.000,0.000
1605105601951013120,10.0.1.128,456,move_up,-0.590,-0.590,-0.590,0.000,0.000,0.000
1605105603387769088,10.0.1.128,377,move_up,-0.570,-0.570,-0.570,0.000,0.000,0.000
1605105604873865984,10.0.1.128,441,move_up,-0.550,-0.550,-0.550,0.000,0.000,0.000
1605105606368343040,10.0.1.128,424,move_up,-0.530,-0.530,-0.530,0.000,0.000,0.000
1605105607897948928,10.0.1.128,438,move_up,-0.510,-0.510,-0.510,0.000,0.000,0.000
1605105609396797952,10.0.1.128,415,move_up,-0.490,-0.490,-0.490,0.000,0.000,0.000
1605105610869266944,10.0.1.128,405,move_up,-0.470,-0.470,-0.470,0.000,0.000,0.000
1605105612413163008,10.0.1.128,411,move_up,-0.450,-0.450,-0.450,0.000,0.000,0.000
1605105613817698048,10.0.1.128,368,move_up,-0.430,-0.430,-0.430,0.000,0.000,0.000
1605105615305812992,10.0.1.128,431,move_up,-0.410,-0.410,-0.410,0.000,0.000,0.000
1605105616767362048,10.0.1.128,393,move_up,-0.390,-0.390,-0.390,0.000,0.000,0.000
1605105618228861184,10.0.1.128,399,move_up,-0.370,-0.370,-0.370,0.000,0.000,0.000
1605105619705368064,10.0.1.128,423,move_up,-0.350,-0.350,-0.350,0.000,0.000,0.000
1605105621194390016,10.0.1.128,429,move_up,-0.330,-0.330,-0.330,0.000,0.000,0.000
1605105622664829952,10.0.1.128,437,move_up,-0.310,-0.310,-0.310,0.000,0.000,0.000
1605105624167959040,10.0.1.128,423,move_up,-0.290,-0.290,-0.290,0.000,0.000,0.000
1605105625655424000,10.0.1.128,436,move_up,-0.270,-0.270,-0.270,0.000,0.000,0.000
1605105627135227904,10.0.1.128,415,move_up,-0.250,-0.250,-0.250,0.000,0.000,0.000
1605105628554817792,10.0.1.128,420,move_up,-0.230,-0.230,-0.230,0.000,0.000,0.000
1605105629971270144,10.0.1.128,378,move_up,-0.210,-0.210,-0.210,0.000,0.000,0.000
1605105631467817984,10.0.1.128,414,move_up,-0.190,-0.190,-0.190,0.000,0.000,0.000
1605105632573883904,10.0.1.128,56,place,-0.180,-0.180,-0.180,0.000,0.000,0.000
1605105633579361024,10.0.1.128,60,place,-0.170,-0.170,-0.170,0.000,0.000,0.000
1605105634572675072,10.0.1.128,52,place,-0.160,-0.160,-0.160,0.000,0.000,0.000
1605105635564574976,10.0.1.128,38,place,-0.150,-0.150,-0.150,0.000,0.000,0.000
1605105636565249024,10.0.1.128,37,place,-0.140,-0.140,-0.140,0.000,0.000,0.000
1605105637592609024,10.0.1.128,63,place,-0.130,-0.130,-0.130,0.000,0.000,0.000
1605105638586895872,10.0.1.128,56,place,-0.120,-0.120,-0.120,0.000,0.000,0.000
1605105639586193152,10.0.1.128,54,place,-0.110,-0.110,-0.110,0.000,0.000,0.000
1605105640560208128,10.0.1.128,26,place,-0.100,-0.100,-0.100,0.000,0.000,0.000
1605105641569381888,10.0.1.128,34,place,-0.090,-0.090,-0.090,0.000,0.000,0.000
1605105642592890112,10.0.1.128,57,place,-0.080,-0.080,-0.080,0.000,0.000,0.000
1605105643568983040,10.0.1.128,32,place,-0.070,-0.070,-0.070,0.000,0.000,0.000
1605105644585274880,10.0.1.128,47,place,-0.060,-0.060,-0.060,0.000,0.000,0.000
1605105645584888832,10.0.1.128,42,place,-0.050,-0.050,-0.050,0.000,0.000,0.000
1605105646588846848,10.0.1.128,45,place,-0.040,-0.040,-0.040,0.000,0.000,0.000
1605105647586268928,10.0.1.128,41,place,-0.030,-0.030,-0.030,0.000,0.000,0.000
1605105648585601024,10.0.1.128,39,place,-0.020,-0.020,-0.020,0.000,0.000,0.000
1605105649589816064,10.0.1.128,41,place,-0.010,-0.010,-0.010,0.000,0.000,0.000
1605105650599781120,10.0.1.128,50,place,0.000,0.000,0.000,0.000,0.000,0.000
1605105651990063872,10.0.1.128,438,move_down,-0.020,-0.020,-0.020,0.000,0.000,0.000
1605105653438547968,10.0.1.128,390,move_down,-0.040,-0.040,-0.040,0.000,0.000,0.000
1605105654950053888,10.0.1.128,450,move_down,-0.060,-0.060,-0.060,0.000,0.000,0.000
1605105656484510976,10.0.1.128,454,move_down,-0.080,-0.080,-0.080,0.000,0.000,0.000
1605105657962446848,10.0.1.128,483,move_down,-0.100,-0.100,-0.100,0.000,0.000,0.000
1605105659429921024,10.0.1.128,390,move_down,-0.120,-0.120,-0.120,0.000,0.000,0.000
1605105660859902976,10.0.1.128,408,move_down,-0.140,-0.140,-0.140,0.000,0.000,0.000
1605105662354859008,10.0.1.128,452,move_down,-0.160,-0.160,-0.160,0.000,0.000,0.000
1605105663855330048,10.0.1.128,416,move_down,-0.180,-0.180,-0.180,0.000,0.000,0.000
1605105665344648960,10.0.1.128,392,move_down,-0.200,-0.200,-0.200,0.000,0.000,0.000
1605105666855222016,10.0.1.128,426,move_down,-0.220,-0.220,-0.220,0.000,0.000,0.000
1605105668337598208,10.0.1.128,420,move_down,-0.240,-0.240,-0.240,0.000,0.000,0.000
1605105669794241024,10.0.1.128,407,move_down,-0.260,-0.260,-0.260,0.000,0.000,0.000
1605105671276231168,10.0.1.128,408,move_down,-0.280,-0.280,-0.280,0.000,0.000,0.000
1605105672793780992,10.0.1.128,442,move_down,-0.300,-0.300,-0.300,0.000,0.000,0.000
1605105674291330048,10.0.1.128,452,move_down,-0.320,-0.320,-0.320,0.000,0.000,0.000
1605105675776887040,10.0.1.128,422,move_down,-0.340,-0.340,-0.340,0.000,0.000,0.000
1605105677281601792,10.0.1.128,440,move_down,-0.360,-0.360,-0.360,0.000,0.000,0.000
1605105678790738944,10.0.1.128,428,move_down,-0.380,-0.380,-0.380,0.000,0.000,0.000
1605105680286107904,10.0.1.128,427,move_down,-0.400,-0.400,-0.400,0.000,0.000,0.000
1605105681767801088,10.0.1.128,398,move_down,-0.420,-0.420,-0.420,0.000,0.000,0.000
1605105683349703168,10.0.1.128,503,move_down,-0.440,-0.440,-0.440,0.000,0.000,0.000
1605105684830459136,10.0.1.128,451,move_down,-0.460,-0.460,-0.460,0.000,0.000,0.000
1605105686290259968,10.0.1.128,402,move_down,-0.480,-0.480,-0.480,0.000,0.000,0.000
1605105687782352896,10.0.1.128,403,move_down,-0.500,-0.500,-0.500,0.000,0.000,0.000
1605105689308561920,10.0.1.128,415,move_down,-0.520,-0.520,-0.520,0.000,0.000,0.000
1605105690778034944,10.0.1.128,428,move_down,-0.540,-0.540,-0.540,0.000,0.000,0.000
1605105692244414976,10.0.1.128,416,move_down,-0.560,-0.560,-0.560,0.000,0.000,0.000
1605105693741331200,10.0.1.128,437,move_down,-0.580,-0.580,-0.580,0.000,0.000,0.000
1605105694856034048,10.0.1.128,44,pick,-0.590,-0.590,-0.590,0.000,0.000,0.000
1605105695854729984,10.0.1.128,41,pick,-0.600,-0.600,-0.600,0.000,0.000,0.000
1605105696855523072,10.0.1.128,40,pick,-0.610,-0.610,-0.610,0.000,0.000,0.000
1605105697854700032,10.0.1.128,38,pick,-0.620,-0.620,-0.620,0.000,0.000,0.000
1605105698856931072,10.0.1.128,39,pick,-0.630,-0.630,-0.630,0.000,0.000,0.000
1605105699862628864,10.0.1.128,43,pick,-0.640,-0.640,-0.640,0.000,0.000,0.000
1605105700857191936,10.0.1.128,36,pick,-0.650,-0.650,-0.650,0.000,0.000,0.000
1605105701863141120,10.0.1.128,40,pick,-0.660,-0.660,-0.660,0.000,0.000,0.000
1605105702876100096,10.0.1.128,52,pick,-0.670,-0.670,-0.670,0.000,0.000,0.000
1605105703875427840,10.0.1.128,50,pick,-0.680,-0.680,-0.680,0.000,0.000,0.000
1605105704879809024,10.0.1.128,53,pick,-0.690,-0.690,-0.690,0.000,0.000,0.000
1605105705874931200,10.0.1.128,47,pick,-0.700,-0.700,-0.700,0.000,0.000,0.000
1605105706876530944,10.0.1.128,47,pick,-0.710,-0.710,-0.710,0.000,0.000,0.000
1605105707874733056,10.0.1.128,44,pick,-0.720,-0.720,-0.720,0.000,0.000,0.000
1605105708879638784,10.0.1.128,47,pick,-0.730,-0.730,-0.730,0.000,0.000,0.000
1605105709875834880,10.0.1.128,42,pick,-0.740,-0.740,-0.740,0.000,0.000,0.000
1605105710882702080,10.0.1.128,48,pick,-0.750,-0.750,-0.750,0.000,0.000,0.000
1605105711876081920,10.0.1.128,40,pick,-0.760,-0.760,-0.760,0.000,0.000,0.000
1605105712897756160,10.0.1.128,54,pick,-0.770,-0.770,-0.770,0.000,0.000,0.000
1605105714305472000,10.0.1.128,461,move_up,-0.750,-0.750,-0.750,0.000,0.000,0.000
1605105715777654784,10.0.1.128,403,move_up,-0.730,-0.730,-0.730,0.000,0.000,0.000
1605105717288165120,10.0.1.128,436,move_up,-0.710,-0.710,-0.710,0.000,0.000,0.000
1605105718767899904,10.0.1.128,391,move_up,-0.690,-0.690,-0.690,0.000,0.000,0.000
1605105720255356928,10.0.1.128,395,move_up,-0.670,-0.670,-0.670,0.000,0.000,0.000
1605105721795751168,10.0.1.128,458,move_up,-0.650,-0.650,-0.650,0.000,0.000,0.000
1605105723256598016,10.0.1.128,399,move_up,-0.630,-0.630,-0.630,0.000,0.000,0.000
1605105724787229184,10.0.1.128,412,move_up,-0.610,-0.610,-0.610,0.000,0.000,0.000
1605105726346061824,10.0.1.128,483,move_up,-0.590,-0.590,-0.590,0.000,0.000,0.000
1605105727815426048,10.0.1.128,435,move_up,-0.570,-0.570,-0.570,0.000,0.000,0.000
1605105729295911168,10.0.1.128,424,move_up,-0.550,-0.550,-0.550,0.000,0.000,0.000
1605105730775793920,10.0.1.128,423,move_up,-0.530,-0.530,-0.530,0.000,0.000,0.000
1605105732276172032,10.0.1.128,439,move_up,-0.510,-0.510,-0.510,0.000,0.000,0.000
1605105733806846976,10.0.1.128,459,move_up,-0.490,-0.490,-0.490,0.000,0.000,0.000
1605105735308579840,10.0.1.128,428,move_up,-0.470,-0.470,-0.470,0.000,0.000,0.000
1605105736765667840,10.0.1.128,395,move_up,-0.450,-0.450,-0.450,0.000,0.000,0.000
1605105738257875968,10.0.1.128,406,move_up,-0.430,-0.430,-0.430,0.000,0.000,0.000
1605105739691878144,10.0.1.128,394,move_up,-0.410,-0.410,-0.410,0.000,0.000,0.000
1605105741115771136,10.0.1.128,385,move_up,-0.390,-0.390,-0.390,0.000,0.000,0.000
1605105742625464832,10.0.1.128,442,move_up,-0.370,-0.370,-0.370,0.000,0.000,0.000
1605105744126977024,10.0.1.128,425,move_up,-0.350,-0.350,-0.350,0.000,0.000,0.000
1605105745606185984,10.0.1.128,432,move_up,-0.330,-0.330,-0.330,0.000,0.000,0.000
1605105747115763968,10.0.1.128,421,move_up,-0.310,-0.310,-0.310,0.000,0.000,0.000
1605105748598205952,10.0.1.128,405,move_up,-0.290,-0.290,-0.290,0.000,0.000,0.000
1605105750014496000,10.0.1.128,393,move_up,-0.270,-0.270,-0.270,0.000,0.000,0.000
1605105751475934976,10.0.1.128,410,move_up,-0.250,-0.250,-0.250,0.000,0.000,0.000
1605105752924508928,10.0.1.128,378,move_up,-0.230,-0.230,-0.230,0.000,0.000,0.000
1605105754377080832,10.0.1.128,417,move_up,-0.210,-0.210,-0.210,0.000,0.000,0.000
1605105755827820032,10.0.1.128,368,move_up,-0.190,-0.190,-0.190,0.000,0.000,0.000
1605105757968028160,10.0.1.128,52,place,-0.170,-0.170,-0.170,0.000,0.000,0.000
1605105758954241024,10.0.1.128,37,place,-0.160,-0.160,-0.160,0.000,0.000,0.000
1605105759966609920,10.0.1.128,47,place,-0.150,-0.150,-0.150,0.000,0.000,0.000
1605105760968198912,10.0.1.128,48,place,-0.140,-0.140,-0.140,0.000,0.000,0.000
1605105761967865088,10.0.1.128,46,place,-0.130,-0.130,-0.130,0.000,0.000,0.000
1605105762967885056,10.0.1.128,45,place,-0.120,-0.120,-0.120,0.000,0.000,0.000
1605105763966821888,10.0.1.128,42,place,-0.110,-0.110,-0.110,0.000,0.000,0.000
1605105764969615872,10.0.1.128,43,place,-0.100,-0.100,-0.100,0.000,0.000,0.000
1605105765968348928,10.0.1.128,41,place,-0.090,-0.090,-0.090,0.000,0.000,0.000
1605105766967685888,10.0.1.128,37,place,-0.080,-0.080,-0.080,0.000,0.000,0.000
1605105767968818944,10.0.1.128,36,place,-0.070,-0.070,-0.070,0.000,0.000,0.000
1605105768967476992,10.0.1.128,34,place,-0.060,-0.060,-0.060,0.000,0.000,0.000
1605105770988101888,10.0.1.128,51,place,-0.040,-0.040,-0.040,0.000,0.000,0.000
1605105771988365824,10.0.1.128,50,place,-0.030,-0.030,-0.030,0.000,0.000,0.000
1605105772991602944,10.0.1.128,51,place,-0.020,-0.020,-0.020,0.000,0.000,0.000
1605105773991422976,10.0.1.128,49,place,-0.010,-0.010,-0.010,0.000,0.000,0.000
1605105774988090880,10.0.1.128,45,place,0.000,0.000,0.000,0.000,0.000,0.000
1605105776433660928,10.0.1.128,489,move_down,-0.020,-0.020,-0.020,0.000,0.000,0.000
1605105777941073920,10.0.1.128,430,move_down,-0.040,-0.040,-0.040,0.000,0.000,0.000
1605105779506853120,10.0.1.128,465,move_down,-0.060,-0.060,-0.060,0.000,0.000,0.000
1605105781015630080,10.0.1.128,432,move_down,-0.080,-0.080,-0.080,0.000,0.000,0.000
1605105782548718080,10.0.1.128,485,move_down,-0.100,-0.100,-0.100,0.000,0.000,0.000
1605105784038551040,10.0.1.128,431,move_down,-0.120,-0.120,-0.120,0.000,0.000,0.000
1605105785526686976,10.0.1.128,435,move_down,-0.140,-0.140,-0.140,0.000,0.000,0.000
1605105787057542144,10.0.1.128,443,move_down,-0.160,-0.160,-0.160,0.000,0.000,0.000
1605105788516459008,10.0.1.128,385,move_down,-0.180,-0.180,-0.180,0.000,0.000,0.000
1605105790030551808,10.0.1.128,437,move_down,-0.200,-0.200,-0.200,0.000,0.000,0.000
1605105791514368000,10.0.1.128,432,move_down,-0.220,-0.220,-0.220,0.000,0.000,0.000
1605105793019913984,10.0.1.128,424,move_down,-0.240,-0.240,-0.240,0.000,0.000,0.000
1605105794492470016,10.0.1.128,437,move_down,-0.260,-0.260,-0.260,0.000,0.000,0.000
1605105795960481024,10.0.1.128,421,move_down,-0.280,-0.280,-0.280,0.000,0.000,0.000
1605105797448967936,10.0.1.128,415,move_down,-0.300,-0.300,-0.300,0.000,0.000,0.000
1605105799001678080,10.0.1.128,449,move_down,-0.320,-0.320,-0.320,0.000,0.000,0.000
1605105800500410112,10.0.1.128,414,move_down,-0.340,-0.340,-0.340,0.000,0.000,0.000
1605105802025348864,10.0.1.128,461,move_down,-0.360,-0.360,-0.360,0.000,0.000,0.000
1605105803504658944,10.0.1.128,425,move_down,-0.380,-0.380,-0.380,0.000,0.000,0.000
1605105804982417152,10.0.1.128,420,move_down,-0.400,-0.400,-0.400,0.000,0.000,0.000
1605105806491638016,10.0.1.128,414,move_down,-0.420,-0.420,-0.420,0.000,0.000,0.000
1605105808022792960,10.0.1.128,454,move_down,-0.440,-0.440,-0.440,0.000,0.000,0.000
1605105809557924096,10.0.1.128,463,move_down,-0.460,-0.460,-0.460,0.000,0.000,0.000
1605105811025650944,10.0.1.128,413,move_down,-0.480,-0.480,-0.480,0.000,0.000,0.000
1605105812589110016,10.0.1.128,426,move_down,-0.500,-0.500,-0.500,0.000,0.000,0.000
1605105814147697920,10.0.1.128,474,move_down,-0.520,-0.520,-0.520,0.000,0.000,0.000
1605105815601170944,10.0.1.128,399,move_down,-0.540,-0.540,-0.540,0.000,0.000,0.000
1605105817112623104,10.0.1.128,422,move_down,-0.560,-0.560,-0.560,0.000,0.000,0.000
1605105818603920896,10.0.1.128,397,move_down,-0.580,-0.580,-0.580,0.000,0.000,0.000
1605105819687874048,10.0.1.128,49,pick,-0.590,-0.590,-0.590,0.000,0.000,0.000
1605105820699753984,10.0.1.128,60,pick,-0.600,-0.600,-0.600,0.000,0.000,0.000
1605105821687136768,10.0.1.128,45,pick,-0.610,-0.610,-0.610,0.000,0.000,0.000
1605105822684086016,10.0.1.128,41,pick,-0.620,-0.620,-0.620,0.000,0.000,0.000
1605105823683844096,10.0.1.128,39,pick,-0.630,-0.630,-0.630,0.000,0.000,0.000
1605105824687218944,10.0.1.128,41,pick,-0.640,-0.640,-0.640,0.000,0.000,0.000
1605105825689433088,10.0.1.128,42,pick,-0.650,-0.650,-0.650,0.000,0.000,0.000
1605105826685156096,10.0.1.128,37,pick,-0.660,-0.660,-0.660,0.000,0.000,0.000
1605105827688096000,10.0.1.128,39,pick,-0.670,-0.670,-0.670,0.000,0.000,0.000
1605105828684640000,10.0.1.128,35,pick,-0.680,-0.680,-0.680,0.000,0.000,0.000
1605105829706801920,10.0.1.128,54,pick,-0.690,-0.690,-0.690,0.000,0.000,0.000
1605105830686568960,10.0.1.128,32,pick,-0.700,-0.700,-0.700,0.000,0.000,0.000
1605105831713293056,10.0.1.128,56,pick,-0.710,-0.710,-0.710,0.000,0.000,0.000
1605105832683837952,10.0.1.128,27,pick,-0.720,-0.720,-0.720,0.000,0.000,0.000
1605105833706044928,10.0.1.128,48,pick,-0.730,-0.730,-0.730,0.000,0.000,0.000
1605105834704133888,10.0.1.128,43,pick,-0.740,-0.740,-0.740,0.000,0.000,0.000
1605105835714962944,10.0.1.128,47,pick,-0.750,-0.750,-0.750,0.000,0.000,0.000
1605105836705374976,10.0.1.128,36,pick,-0.760,-0.760,-0.760,0.000,0.000,0.000
1605105837704209152,10.0.1.128,34,pick,-0.770,-0.770,-0.770,0.000,0.000,0.000
1605105839124919040,10.0.1.128,453,move_up,-0.750,-0.750,-0.750,0.000,0.000,0.000
1605105840635006976,10.0.1.128,457,move_up,-0.730,-0.730,-0.730,0.000,0.000,0.000
1605105842155492096,10.0.1.128,451,move_up,-0.710,-0.710,-0.710,0.000,0.000,0.000
1605105843634394880,10.0.1.128,393,move_up,-0.690,-0.690,-0.690,0.000,0.000,0.000
1605105845074974976,10.0.1.128,411,move_up,-0.670,-0.670,-0.670,0.000,0.000,0.000
1605105846589510912,10.0.1.128,446,move_up,-0.650,-0.650,-0.650,0.000,0.000,0.000
1605105848050616064,10.0.1.128,377,move_up,-0.630,-0.630,-0.630,0.000,0.000,0.000
1605105849528669184,10.0.1.128,433,move_up,-0.610,-0.610,-0.610,0.000,0.000,0.000
1605105850984417792,10.0.1.128,403,move_up,-0.590,-0.590,-0.590,0.000,0.000,0.000
1605105852500327936,10.0.1.128,466,move_up,-0.570,-0.570,-0.570,0.000,0.000,0.000
1605105853926503936,10.0.1.128,396,move_up,-0.550,-0.550,-0.550,0.000,0.000,0.000
1605105855442828800,10.0.1.128,416,move_up,-0.530,-0.530,-0.530,0.000,0.000,0.000
1605105856925273856,10.0.1.128,413,move_up,-0.510,-0.510,-0.510,0.000,0.000,0.000
1605105858380062976,10.0.1.128,407,move_up,-0.490,-0.490,-0.490,0.000,0.000,0.000
1605105859849652992,10.0.1.128,419,move_up,-0.470,-0.470,-0.470,0.000,0.000,0.000
1605105861442345984,10.0.1.128,483,move_up,-0.450,-0.450,-0.450,0.000,0.000,0.000
1605105862973773056,10.0.1.128,383,move_up,-0.430,-0.430,-0.430,0.000,0.000,0.000
1605105864544232960,10.0.1.128,455,move_up,-0.410,-0.410,-0.410,0.000,0.000,0.000
1605105866049114112,10.0.1.128,459,move_up,-0.390,-0.390,-0.390,0.000,0.000,0.000
1605105867593039104,10.0.1.128,471,move_up,-0.370,-0.370,-0.370,0.000,0.000,0.000
1605105869089936128,10.0.1.128,425,move_up,-0.350,-0.350,-0.350,0.000,0.000,0.000
1605105870593012992,10.0.1.128,434,move_up,-0.330,-0.330,-0.330,0.000,0.000,0.000
1605105872032658944,10.0.1.128,386,move_up,-0.310,-0.310,-0.310,0.000,0.000,0.000
1605105873493062912,10.0.1.128,415,move_up,-0.290,-0.290,-0.290,0.000,0.000,0.000
1605105875034071040,10.0.1.128,460,move_up,-0.270,-0.270,-0.270,0.000,0.000,0.000
1605105876581660160,10.0.1.128,474,move_up,-0.250,-0.250,-0.250,0.000,0.000,0.000
1605105878090661888,10.0.1.128,435,move_up,-0.230,-0.230,-0.230,0.000,0.000,0.000
1605105879480158976,10.0.1.128,383,move_up,-0.210,-0.210,-0.210,0.000,0.000,0.000
1605105880939771904,10.0.1.128,398,move_up,-0.190,-0.190,-0.190,0.000,0.000,0.000
1605105882099986944,10.0.1.128,41,place,-0.180,-0.180,-0.180,0.000,0.000,0.000
1605105883105870080,10.0.1.128,45,place,-0.170,-0.170,-0.170,0.000,0.000,0.000
1605105884100231936,10.0.1.128,38,place,-0.160,-0.160,-0.160,0.000,0.000,0.000
1605105885099692032,10.0.1.128,37,place,-0.150,-0.150,-0.150,0.000,0.000,0.000
1605105886104908032,10.0.1.128,42,place,-0.140,-0.140,-0.140,0.000,0.000,0.000
1605105887109516032,10.0.1.128,46,place,-0.130,-0.130,-0.130,0.000,0.000,0.000
1605105888099742976,10.0.1.128,35,place,-0.120,-0.120,-0.120,0.000,0.000,0.000
1605105889102489856,10.0.1.128,37,place,-0.110,-0.110,-0.110,0.000,0.000,0.000
1605105890099741952,10.0.1.128,34,place,-0.100,-0.100,-0.100,0.000,0.000,0.000
1605105891105005056,10.0.1.128,38,place,-0.090,-0.090,-0.090,0.000,0.000,0.000
1605105893100531968,10.0.1.128,32,place,-0.070,-0.070,-0.070,0.000,0.000,0.000
1605105894100724992,10.0.1.128,32,place,-0.060,-0.060,-0.060,0.000,0.000,0.000
1605105895100384000,10.0.1.128,31,place,-0.050,-0.050,-0.050,0.000,0.000,0.000
1605105896120414976,10.0.1.128,50,place,-0.040,-0.040,-0.040,0.000,0.000,0.000
1605105897117622016,10.0.1.128,47,place,-0.030,-0.030,-0.030,0.000,0.000,0.000
1605105898099814912,10.0.1.128,28,place,-0.020,-0.020,-0.020,0.000,0.000,0.000
1605105899126756864,10.0.1.128,53,place,-0.010,-0.010,-0.010,0.000,0.000,0.000
1605105900118257152,10.0.1.128,43,place,0.000,0.000,0.000,0.000,0.000,0.000
1605105901521193984,10.0.1.128,445,move_down,-0.020,-0.020,-0.020,0.000,0.000,0.000
1605105903081486080,10.0.1.128,463,move_down,-0.040,-0.040,-0.040,0.000,0.000,0.000
1605105904658765056,10.0.1.128,466,move_down,-0.060,-0.060,-0.060,0.000,0.000,0.000
1605105906243731968,10.0.1.128,521,move_down,-0.080,-0.080,-0.080,0.000,0.000,0.000
1605105907703012096,10.0.1.128,400,move_down,-0.100,-0.100,-0.100,0.000,0.000,0.000
1605105909201376000,10.0.1.128,447,move_down,-0.120,-0.120,-0.120,0.000,0.000,0.000
1605105910708625920,10.0.1.128,450,move_down,-0.140,-0.140,-0.140,0.000,0.000,0.000
1605105912277831168,10.0.1.128,507,move_down,-0.160,-0.160,-0.160,0.000,0.000,0.000
1605105913772135936,10.0.1.128,410,move_down,-0.180,-0.180,-0.180,0.000,0.000,0.000
1605105915291794944,10.0.1.128,441,move_down,-0.200,-0.200,-0.200,0.000,0.000,0.000
1605105916815734016,10.0.1.128,439,move_down,-0.220,-0.220,-0.220,0.000,0.000,0.000
1605105918296255232,10.0.1.128,410,move_down,-0.240,-0.240,-0.240,0.000,0.000,0.000
1605105919888694016,10.0.1.128,504,move_down,-0.260,-0.260,-0.260,0.000,0.000,0.000
1605105921392559104,10.0.1.128,457,move_down,-0.280,-0.280,-0.280,0.000,0.000,0.000
1605105922881208832,10.0.1.128,423,move_down,-0.300,-0.300,-0.300,0.000,0.000,0.000
1605105924401415936,10.0.1.128,449,move_down,-0.320,-0.320,-0.320,0.000,0.000,0.000
1605105925922548992,10.0.1.128,429,move_down,-0.340,-0.340,-0.340,0.000,0.000,0.000
1605105927451438848,10.0.1.128,422,move_down,-0.360,-0.360,-0.360,0.000,0.000,0.000
1605105928911068928,10.0.1.128,399,move_down,-0.380,-0.380,-0.380,0.000,0.000,0.000
1605105930402690816,10.0.1.128,405,move_down,-0.400,-0.400,-0.400,0.000,0.000,0.000
1605105931900659968,10.0.1.128,425,move_down,-0.420,-0.420,-0.420,0.000,0.000,0.000
1605105933390671104,10.0.1.128,432,move_down,-0.440,-0.440,-0.440,0.000,0.000,0.000
1605105934851689984,10.0.1.128,400,move_down,-0.460,-0.460,-0.460,0.000,0.000,0.000
1605105936333359104,10.0.1.128,405,move_down,-0.480,-0.480,-0.480,0.000,0.000,0.000
1605105937801068032,10.0.1.128,414,move_down,-0.500,-0.500,-0.500,0.000,0.000,0.000
1605105939311440896,10.0.1.128,405,move_down,-0.520,-0.520,-0.520,0.000,0.000,0.000
1605105940755624960,10.0.1.128,397,move_down,-0.540,-0.540,-0.540,0.000,0.000,0.000
1605105942188710912,10.0.1.128,378,move_down,-0.560,-0.560,-0.560,0.000,0.000,0.000
1605105943716689152,10.0.1.128,452,move_down,-0.580,-0.580,-0.580,0.000,0.000,0.000
1605105944802081024,10.0.1.128,36,pick,-0.590,-0.590,-0.590,0.000,0.000,0.000
1605105945829850880,10.0.1.128,57,pick,-0.600,-0.600,-0.600,0.000,0.000,0.000
1605105946829236992,10.0.1.128,54,pick,-0.610,-0.610,-0.610,0.000,0.000,0.000
1605105947829432064,10.0.1.128,53,pick,-0.620,-0.620,-0.620,0.000,0.000,0.000
1605105948827312896,10.0.1.128,44,pick,-0.630,-0.630,-0.630,0.000,0.000,0.000
1605105949833255936,10.0.1.128,48,pick,-0.640,-0.640,-0.640,0.000,0.000,0.000
1605105950825711104,10.0.1.128,40,pick,-0.650,-0.650,-0.650,0.000,0.000,0.000
1605105951831486976,10.0.1.128,44,pick,-0.660,-0.660,-0.660,0.000,0.000,0.000
1605105952841336064,10.0.1.128,46,pick,-0.670,-0.670,-0.670,0.000,0.000,0.000
1605105953841744896,10.0.1.128,35,pick,-0.680,-0.680,-0.680,0.000,0.000,0.000
1605105954876393984,10.0.1.128,69,pick,-0.690,-0.690,-0.690,0.000,0.000,0.000
1605105955845323008,10.0.1.128,37,pick,-0.700,-0.700,-0.700,0.000,0.000,0.000
1605105956846956032,10.0.1.128,32,pick,-0.710,-0.710,-0.710,0.000,0.000,0.000
1605105957862294016,10.0.1.128,44,pick,-0.720,-0.720,-0.720,0.000,0.000,0.000
1605105958868634880,10.0.1.128,49,pick,-0.730,-0.730,-0.730,0.000,0.000,0.000
1605105959861376000,10.0.1.128,40,pick,-0.740,-0.740,-0.740,0.000,0.000,0.000
1605105960861131008,10.0.1.128,39,pick,-0.750,-0.750,-0.750,0.000,0.000,0.000
1605105961860945920,10.0.1.128,37,pick,-0.760,-0.760,-0.760,0.000,0.000,0.000
1605105962861604096,10.0.1.128,36,pick,-0.770,-0.770,-0.770,0.000,0.000,0.000
1605105964269467136,10.0.1.128,443,move_up,-0.750,-0.750,-0.750,0.000,0.000,0.000
1605105965717907968,10.0.1.128,402,move_up,-0.730,-0.730,-0.730,0.000,0.000,0.000
1605105967191291136,10.0.1.128,413,move_up,-0.710,-0.710,-0.710,0.000,0.000,0.000
1605105968714475008,10.0.1.128,449,move_up,-0.690,-0.690,-0.690,0.000,0.000,0.000
1605105970186289152,10.0.1.128,394,move_up,-0.670,-0.670,-0.670,0.000,0.000,0.000
1605105971680294144,10.0.1.128,457,move_up,-0.650,-0.650,-0.650,0.000,0.000,0.000
1605105973201185024,10.0.1.128,450,move_up,-0.630,-0.630,-0.630,0.000,0.000,0.000
1605105974735671040,10.0.1.128,456,move_up,-0.610,-0.610,-0.610,0.000,0.000,0.000
1605105976240595200,10.0.1.128,444,move_up,-0.590,-0.590,-0.590,0.000,0.000,0.000
1605105977808742912,10.0.1.128,468,move_up,-0.570,-0.570,-0.570,0.000,0.000,0.000
1605105979269419008,10.0.1.128,393,move_up,-0.550,-0.550,-0.550,0.000,0.000,0.000
1605105980830593024,10.0.1.128,456,move_up,-0.530,-0.530,-0.530,0.000,0.000,0.000
1605105982347734016,10.0.1.128,488,move_up,-0.510,-0.510,-0.510,0.000,0.000,0.000
1605105983849180928,10.0.1.128,435,move_up,-0.490,-0.490,-0.490,0.000,0.000,0.000
1605105985456985856,10.0.1.128,516,move_up,-0.470,-0.470,-0.470,0.000,0.000,0.000
1605105987013669120,10.0.1.128,483,move_up,-0.450,-0.450,-0.450,0.000,0.000,0.000
1605105988510078976,10.0.1.128,468,move_up,-0.430,-0.430,-0.430,0.000,0.000,0.000
1605105989986110976,10.0.1.128,419,move_up,-0.410,-0.410,-0.410,0.000,0.000,0.000
1605105991502839040,10.0.1.128,439,move_up,-0.390,-0.390,-0.390,0.000,0.000,0.000
1605105993035460864,10.0.1.128,432,move_up,-0.370,-0.370,-0.370,0.000,0.000,0.000
1605105994641701888,10.0.1.128,505,move_up,-0.350,-0.350,-0.350,0.000,0.000,0.000
1605105996141089024,10.0.1.128,461,move_up,-0.330,-0.330,-0.330,0.000,0.000,0.000
1605105997628892928,10.0.1.128,405,move_up,-0.310,-0.310,-0.310,0.000,0.000,0.000
1605105999192857088,10.0.1.128,488,move_up,-0.290,-0.290,-0.290,0.000,0.000,0.000
1605106000757068032,10.0.1.128,465,move_up,-0.270,-0.270,-0.270,0.000,0.000,0.000
1605106002196760064,10.0.1.128,408,move_up,-0.250,-0.250,-0.250,0.000,0.000,0.000
1605106003696854016,10.0.1.128,433,move_up,-0.230,-0.230,-0.230,0.000,0.000,0.000
1605106005235629056,10.0.1.128,444,move_up,-0.210,-0.210,-0.210,0.000,0.000,0.000
1605106006753530112,10.0.1.128,444,move_up,-0.190,-0.190,-0.190,0.000,0.000,0.000
1605106007843193088,10.0.1.128,45,place,-0.180,-0.180,-0.180,0.000,0.000,0.000
1605106008868747008,10.0.1.128,53,place,-0.170,-0.170,-0.170,0.000,0.000,0.000
1605106009870934016,10.0.1.128,53,place,-0.160,-0.160,-0.160,0.000,0.000,0.000
1605106010875118848,10.0.1.128,56,place,-0.150,-0.150,-0.150,0.000,0.000,0.000
1605106011865209088,10.0.1.128,45,place,-0.140,-0.140,-0.140,0.000,0.000,0.000
1605106012869206784,10.0.1.128,46,place,-0.130,-0.130,-0.130,0.000,0.000,0.000
1605106013861479936,10.0.1.128,37,place,-0.120,-0.120,-0.120,0.000,0.000,0.000
1605106014864624896,10.0.1.128,39,place,-0.110,-0.110,-0.110,0.000,0.000,0.000
1605106015866920960,10.0.1.128,40,place,-0.100,-0.100,-0.100,0.000,0.000,0.000
1605106016873100032,10.0.1.128,45,place,-0.090,-0.090,-0.090,0.000,0.000,0.000
1605106017883724032,10.0.1.128,53,place,-0.080,-0.080,-0.080,0.000,0.000,0.000
1605106018884596224,10.0.1.128,52,place,-0.070,-0.070,-0.070,0.000,0.000,0.000
1605106019883982848,10.0.1.128,40,place,-0.060,-0.060,-0.060,0.000,0.000,0.000
1605106020910257152,10.0.1.128,51,place,-0.050,-0.050,-0.050,0.000,0.000,0.000
1605106021901193984,10.0.1.128,41,place,-0.040,-0.040,-0.040,0.000,0.000,0.000
1605106022902353920,10.0.1.128,41,place,-0.030,-0.030,-0.030,0.000,0.000,0.000
1605106023923579904,10.0.1.128,59,place,-0.020,-0.020,-0.020,0.000,0.000,0.000
1605106024900909824,10.0.1.128,33,place,-0.010,-0.010,-0.010,0.000,0.000,0.000
1605106025901668096,10.0.1.128,33,place,0.000,0.000,0.000,0.000,0.000,0.000
1605106027364218880,10.0.1.128,494,move_down,-0.020,-0.020,-0.020,0.000,0.000,0.000
1605106028963035136,10.0.1.128,503,move_down,-0.040,-0.040,-0.040,0.000,0.000,0.000
1605106030516581888,10.0.1.128,440,move_down,-0.060,-0.060,-0.060,0.000,0.000,0.000
1605106032035776000,10.0.1.128,436,move_down,-0.080,-0.080,-0.080,0.000,0.000,0.000
1605106033588280064,10.0.1.128,458,move_down,-0.100,-0.100,-0.100,0.000,0.000,0.000
1605106035063604224,10.0.1.128,386,move_down,-0.120,-0.120,-0.120,0.000,0.000,0.000
1605106036575469056,10.0.1.128,462,move_down,-0.140,-0.140,-0.140,0.000,0.000,0.000
1605106038046327040,10.0.1.128,396,move_down,-0.160,-0.160,-0.160,0.000,0.000,0.000
1605106039655378944,10.0.1.128,545,move_down,-0.180,-0.180,-0.180,0.000,0.000,0.000
1605106041205602816,10.0.1.128,476,move_down,-0.200,-0.200,-0.200,0.000,0.000,0.000
1605106042836677120,10.0.1.128,515,move_down,-0.220,-0.220,-0.220,0.000,0.000,0.000
1605106044375993856,10.0.1.128,448,move_down,-0.240,-0.240,-0.240,0.000,0.000,0.000
1605106045926493952,10.0.1.128,453,move_down,-0.260,-0.260,-0.260,0.000,0.000,0.000
1605106047519094016,10.0.1.128,427,move_down,-0.280,-0.280,-0.280,0.000,0.000,0.000
1605106049044282880,10.0.1.128,454,move_down,-0.300,-0.300,-0.300,0.000,0.000,0.000
1605106050633351936,10.0.1.128,511,move_down,-0.320,-0.320,-0.320,0.000,0.000,0.000
1605106052201039104,10.0.1.128,492,move_down,-0.340,-0.340,-0.340,0.000,0.000,0.000
1605106053760620032,10.0.1.128,507,move_down,-0.360,-0.360,-0.360,0.000,0.000,0.000
1605106055255264000,10.0.1.128,466,move_down,-0.380,-0.380,-0.380,0.000,0.000,0.000
1605106056806129920,10.0.1.128,485,move_down,-0.400,-0.400,-0.400,0.000,0.000,0.000
1605106058397074944,10.0.1.128,513,move_down,-0.420,-0.420,-0.420,0.000,0.000,0.000
1605106059996893952,10.0.1.128,518,move_down,-0.440,-0.440,-0.440,0.000,0.000,0.000
1605106061497118976,10.0.1.128,428,move_down,-0.460,-0.460,-0.460,0.000,0.000,0.000
1605106063054476032,10.0.1.128,462,move_down,-0.480,-0.480,-0.480,0.000,0.000,0.000
1605106064555934976,10.0.1.128,468,move_down,-0.500,-0.500,-0.500,0.000,0.000,0.000
1605106066101121024,10.0.1.128,455,move_down,-0.520,-0.520,-0.520,0.000,0.000,0.000
1605106067596098816,10.0.1.128,419,move_down,-0.540,-0.540,-0.540,0.000,0.000,0.000
1605106069131097088,10.0.1.128,432,move_down,-0.560,-0.560,-0.560,0.000,0.000,0.000
1605106070640902912,10.0.1.128,424,move_down,-0.580,-0.580,-0.580,0.000,0.000,0.000
1605106071750649856,10.0.1.128,58,pick,-0.590,-0.590,-0.590,0.000,0.000,0.000
1605106072730366976,10.0.1.128,36,pick,-0.600,-0.600,-0.600,0.000,0.000,0.000
1605106073746248960,10.0.1.128,51,pick,-0.610,-0.610,-0.610,0.000,0.000,0.000
1605106074753139968,10.0.1.128,56,pick,-0.620,-0.620,-0.620,0.000,0.000,0.000
1605106075747201792,10.0.1.128,49,pick,-0.630,-0.630,-0.630,0.000,0.000,0.000
1605106076739809024,10.0.1.128,40,pick,-0.640,-0.640,-0.640,0.000,0.000,0.000
1605106077743768832,10.0.1.128,43,pick,-0.650,-0.650,-0.650,0.000,0.000,0.000
1605106078743731968,10.0.1.128,41,pick,-0.660,-0.660,-0.660,0.000,0.000,0.000
1605106079753396992,10.0.1.128,50,pick,-0.670,-0.670,-0.670,0.000,0.000,0.000
1605106080754419200,10.0.1.128,50,pick,-0.680,-0.680,-0.680,0.000,0.000,0.000
1605106081756297984,10.0.1.128,47,pick,-0.690,-0.690,-0.690,0.000,0.000,0.000
1605106082761867008,10.0.1.128,51,pick,-0.700,-0.700,-0.700,0.000,0.000,0.000
1605106083759432192,10.0.1.128,48,pick,-0.710,-0.710,-0.710,0.000,0.000,0.000
1605106085761778176,10.0.1.128,48,pick,-0.730,-0.730,-0.730,0.000,0.000,0.000
1605106086761765120,10.0.1.128,44,pick,-0.740,-0.740,-0.740,0.000,0.000,0.000
1605106087763225088,10.0.1.128,43,pick,-0.750,-0.750,-0.750,0.000,0.000,0.000
1605106088762200064,10.0.1.128,42,pick,-0.760,-0.760,-0.760,0.000,0.000,0.000
1605106089762529024,10.0.1.128,38,pick,-0.770,-0.770,-0.770,0.000,0.000,0.000
1605106091190359040,10.0.1.128,464,move_up,-0.750,-0.750,-0.750,0.000,0.000,0.000
1605106092730889984,10.0.1.128,452,move_up,-0.730,-0.730,-0.730,0.000,0.000,0.000
1605106094299912960,10.0.1.128,480,move_up,-0.710,-0.710,-0.710,0.000,0.000,0.000
1605106095918541824,10.0.1.128,502,move_up,-0.690,-0.690,-0.690,0.000,0.000,0.000
1605106097522455808,10.0.1.128,479,move_up,-0.670,-0.670,-0.670,0.000,0.000,0.000
1605106099157613056,10.0.1.128,483,move_up,-0.650,-0.650,-0.650,0.000,0.000,0.000
1605106100790471168,10.0.1.128,530,move_up,-0.630,-0.630,-0.630,0.000,0.000,0.000
1605106102382014976,10.0.1.128,492,move_up,-0.610,-0.610,-0.610,0.000,0.000,0.000
1605106103966366976,10.0.1.128,494,move_up,-0.590,-0.590,-0.590,0.000,0.000,0.000
1605106105502046976,10.0.1.128,450,move_up,-0.570,-0.570,-0.570,0.000,0.000,0.000
1605106107077042944,10.0.1.128,473,move_up,-0.550,-0.550,-0.550,0.000,0.000,0.000
1605106108559760128,10.0.1.128,421,move_up,-0.530,-0.530,-0.530,0.000,0.000,0.000
1605106110006853120,10.0.1.128,438,move_up,-0.510,-0.510,-0.510,0.000,0.000,0.000
1605106111466952192,10.0.1.128,393,move_up,-0.490,-0.490,-0.490,0.000,0.000,0.000
1605106113000723968,10.0.1.128,426,move_up,-0.470,-0.470,-0.470,0.000,0.000,0.000
1605106114470339072,10.0.1.128,400,move_up,-0.450,-0.450,-0.450,0.000,0.000,0.000
1605106116012908032,10.0.1.128,454,move_up,-0.430,-0.430,-0.430,0.000,0.000,0.000
1605106117486519040,10.0.1.128,483,move_up,-0.410,-0.410,-0.410,0.000,0.000,0.000
1605106119027923968,10.0.1.128,459,move_up,-0.390,-0.390,-0.390,0.000,0.000,0.000
1605106120512227072,10.0.1.128,425,move_up,-0.370,-0.370,-0.370,0.000,0.000,0.000
1605106122004755968,10.0.1.128,457,move_up,-0.350,-0.350,-0.350,0.000,0.000,0.000
1605106123520598784,10.0.1.128,451,move_up,-0.330,-0.330,-0.330,0.000,0.000,0.000
1605106125053091072,10.0.1.128,442,move_up,-0.310,-0.310,-0.310,0.000,0.000,0.000
1605106126565260800,10.0.1.128,437,move_up,-0.290,-0.290,-0.290,0.000,0.000,0.000
1605106128173924096,10.0.1.128,509,move_up,-0.270,-0.270,-0.270,0.000,0.000,0.000
1605106129655719168,10.0.1.128,455,move_up,-0.250,-0.250,-0.250,0.000,0.000,0.000
1605106131179322112,10.0.1.128,449,move_up,-0.230,-0.230,-0.230,0.000,0.000,0.000
1605106132644419840,10.0.1.128,425,move_up,-0.210,-0.210,-0.210,0.000,0.000,0.000
1605106134131249920,10.0.1.128,419,move_up,-0.190,-0.190,-0.190,0.000,0.000,0.000
1605106135272452096,10.0.1.128,52,place,-0.180,-0.180,-0.180,0.000,0.000,0.000
1605106136268093952,10.0.1.128,41,place,-0.170,-0.170,-0.170,0.000,0.000,0.000
1605106137278995968,10.0.1.128,51,place,-0.160,-0.160,-0.160,0.000,0.000,0.000
1605106138263907072,10.0.1.128,34,place,-0.150,-0.150,-0.150,0.000,0.000,0.000
1605106139265306880,10.0.1.128,34,place,-0.140,-0.140,-0.140,0.000,0.000,0.000
1605106140264743168,10.0.1.128,32,place,-0.130,-0.130,-0.130,0.000,0.000,0.000
1605106141284676096,10.0.1.128,51,place,-0.120,-0.120,-0.120,0.000,0.000,0.000
1605106142288041984,10.0.1.128,52,place,-0.110,-0.110,-0.110,0.000,0.000,0.000
1605106143281372928,10.0.1.128,44,place,-0.100,-0.100,-0.100,0.000,0.000,0.000
1605106144292591104,10.0.1.128,54,place,-0.090,-0.090,-0.090,0.000,0.000,0.000
1605106145284729856,10.0.1.128,44,place,-0.080,-0.080,-0.080,0.000,0.000,0.000
1605106147287292928,10.0.1.128,44,place,-0.060,-0.060,-0.060,0.000,0.000,0.000
1605106148286256128,10.0.1.128,42,place,-0.050,-0.050,-0.050,0.000,0.000,0.000
1605106149286736896,10.0.1.128,41,place,-0.040,-0.040,-0.040,0.000,0.000,0.000
1605106150286281984,10.0.1.128,38,place,-0.030,-0.030,-0.030,0.000,0.000,0.000
1605106151284955136,10.0.1.128,36,place,-0.020,-0.020,-0.020,0.000,0.000,0.000
1605106152287724032,10.0.1.128,37,place,-0.010,-0.010,-0.010,0.000,0.000,0.000
1605106153289966080,10.0.1.128,38,place,0.000,0.000,0.000,0.000,0.000,0.000
1605106154721550848,10.0.1.128,465,move_down,-0.020,-0.020,-0.020,0.000,0.000,0.000
1605106156281604096,10.0.1.128,451,move_down,-0.040,-0.040,-0.040,0.000,0.000,0.000
1605106157799737856,10.0.1.128,452,move_down,-0.060,-0.060,-0.060,0.000,0.000,0.000
1605106159208952064,10.0.1.128,423,move_down,-0.080,-0.080,-0.080,0.000,0.000,0.000
1605106160753029120,10.0.1.128,477,move_down,-0.100,-0.100,-0.100,0.000,0.000,0.000
1605106162229676032,10.0.1.128,400,move_down,-0.120,-0.120,-0.120,0.000,0.000,0.000
1605106163761146112,10.0.1.128,462,move_down,-0.140,-0.140,-0.140,0.000,0.000,0.000
1605106165342178048,10.0.1.128,487,move_down,-0.160,-0.160,-0.160,0.000,0.000,0.000
1605106166875121152,10.0.1.128,462,move_down,-0.180,-0.180,-0.180,0.000,0.000,0.000
1605106168450328064,10.0.1.128,488,move_down,-0.200,-0.200,-0.200,0.000,0.000,0.000
1605106170029643008,10.0.1.128,503,move_down,-0.220,-0.220,-0.220,0.000,0.000,0.000
1605106171545974016,10.0.1.128,449,move_down,-0.240,-0.240,-0.240,0.000,0.000,0.000
1605106173085243904,10.0.1.128,474,move_down,-0.260,-0.260,-0.260,0.000,0.000,0.000
1605106174633296128,10.0.1.128,477,move_down,-0.280,-0.280,-0.280,0.000,0.000,0.000
1605106176243587072,10.0.1.128,513,move_down,-0.300,-0.300,-0.300,0.000,0.000,0.000
1605106177824805888,10.0.1.128,504,move_down,-0.320,-0.320,-0.320,0.000,0.000,0.000
1605106179335329024,10.0.1.128,451,move_down,-0.340,-0.340,-0.340,0.000,0.000,0.000
1605106180924107008,10.0.1.128,522,move_down,-0.360,-0.360,-0.360,0.000,0.000,0.000
1605106182458226944,10.0.1.128,503,move_down,-0.380,-0.380,-0.380,0.000,0.000,0.000
1605106183969993216,10.0.1.128,470,move_down,-0.400,-0.400,-0.400,0.000,0.000,0.000
1605106185495750912,10.0.1.128,462,move_down,-0.420,-0.420,-0.420,0.000,0.000,0.000
1605106187057562112,10.0.1.128,476,move_down,-0.440,-0.440,-0.440,0.000,0.000,0.000
1605106188659041024,10.0.1.128,498,move_down,-0.460,-0.460,-0.460,0.000,0.000,0.000
1605106190232388864,10.0.1.128,482,move_down,-0.480,-0.480,-0.480,0.000,0.000,0.000
1605106191727835904,10.0.1.128,436,move_down,-0.500,-0.500,-0.500,0.000,0.000,0.000
1605106193246285056,10.0.1.128,473,move_down,-0.520,-0.520,-0.520,0.000,0.000,0.000
1605106194749707008,10.0.1.128,434,move_down,-0.540,-0.540,-0.540,0.000,0.000,0.000
1605106196297454080,10.0.1.128,464,move_down,-0.560,-0.560,-0.560,0.000,0.000,0.000
1605106197836535040,10.0.1.128,443,move_down,-0.580,-0.580,-0.580,0.000,0.000,0.000
1605106198991486976,10.0.1.128,66,pick,-0.590,-0.590,-0.590,0.000,0.000,0.000
1605106199981585152,10.0.1.128,55,pick,-0.600,-0.600,-0.600,0.000,0.000,0.000
1605106200969076992,10.0.1.128,40,pick,-0.610,-0.610,-0.610,0.000,0.000,0.000
1605106201968858112,10.0.1.128,39,pick,-0.620,-0.620,-0.620,0.000,0.000,0.000
1605106203983865088,10.0.1.128,50,pick,-0.640,-0.640,-0.640,0.000,0.000,0.000
1605106204971079168,10.0.1.128,36,pick,-0.650,-0.650,-0.650,0.000,0.000,0.000
1605106205990115840,10.0.1.128,46,pick,-0.660,-0.660,-0.660,0.000,0.000,0.000
1605106206985076992,10.0.1.128,36,pick,-0.670,-0.670,-0.670,0.000,0.000,0.000
1605106207989478144,10.0.1.128,39,pick,-0.680,-0.680,-0.680,0.000,0.000,0.000
1605106208996049920,10.0.1.128,44,pick,-0.690,-0.690,-0.690,0.000,0.000,0.000
1605106209986768896,10.0.1.128,33,pick,-0.700,-0.700,-0.700,0.000,0.000,0.000
1605106210987191808,10.0.1.128,31,pick,-0.710,-0.710,-0.710,0.000,0.000,0.000
1605106211986525952,10.0.1.128,30,pick,-0.720,-0.720,-0.720,0.000,0.000,0.000
1605106213008336128,10.0.1.128,51,pick,-0.730,-0.730,-0.730,0.000,0.000,0.000
1605106215008410880,10.0.1.128,48,pick,-0.750,-0.750,-0.750,0.000,0.000,0.000
1605106216010580992,10.0.1.128,49,pick,-0.760,-0.760,-0.760,0.000,0.000,0.000
1605106217010210048,10.0.1.128,47,pick,-0.770,-0.770,-0.770,0.000,0.000,0.000
1605106218420238080,10.0.1.128,455,move_up,-0.750,-0.750,-0.750,0.000,0.000,0.000
1605106220174735104,10.0.1.128,627,move_up,-0.730,-0.730,-0.730,0.000,0.000,0.000
1605106221755742976,10.0.1.128,492,move_up,-0.710,-0.710,-0.710,0.000,0.000,0.000
1605106223308310016,10.0.1.128,480,move_up,-0.690,-0.690,-0.690,0.000,0.000,0.000
1605106224810508032,10.0.1.128,449,move_up,-0.670,-0.670,-0.670,0.000,0.000,0.000
1605106226325511936,10.0.1.128,457,move_up,-0.650,-0.650,-0.650,0.000,0.000,0.000
1605106227835695872,10.0.1.128,451,move_up,-0.630,-0.630,-0.630,0.000,0.000,0.000
1605106229274859008,10.0.1.128,408,move_up,-0.610,-0.610,-0.610,0.000,0.000,0.000
1605106230788783104,10.0.1.128,429,move_up,-0.590,-0.590,-0.590,0.000,0.000,0.000
1605106232317056768,10.0.1.128,488,move_up,-0.570,-0.570,-0.570,0.000,0.000,0.000
1605106233823369984,10.0.1.128,465,move_up,-0.550,-0.550,-0.550,0.000,0.000,0.000
1605106235336355840,10.0.1.128,516,move_up,-0.530,-0.530,-0.530,0.000,0.000,0.000
1605106236928285952,10.0.1.128,455,move_up,-0.510,-0.510,-0.510,0.000,0.000,0.000
1605106238517182976,10.0.1.128,512,move_up,-0.490,-0.490,-0.490,0.000,0.000,0.000
1605106240134670848,10.0.1.128,519,move_up,-0.470,-0.470,-0.470,0.000,0.000,0.000
1605106241748434944,10.0.1.128,483,move_up,-0.450,-0.450,-0.450,0.000,0.000,0.000
1605106243285339136,10.0.1.128,493,move_up,-0.430,-0.430,-0.430,0.000,0.000,0.000
1605106244918683136,10.0.1.128,524,move_up,-0.410,-0.410,-0.410,0.000,0.000,0.000
1605106246462691072,10.0.1.128,462,move_up,-0.390,-0.390,-0.390,0.000,0.000,0.000
1605106248024935936,10.0.1.128,480,move_up,-0.370,-0.370,-0.370,0.000,0.000,0.000
1605106249596293888,10.0.1.128,494,move_up,-0.350,-0.350,-0.350,0.000,0.000,0.000
1605106251124628992,10.0.1.128,466,move_up,-0.330,-0.330,-0.330,0.000,0.000,0.000
1605106252681072896,10.0.1.128,499,move_up,-0.310,-0.310,-0.310,0.000,0.000,0.000
1605106254262674176,10.0.1.128,504,move_up,-0.290,-0.290,-0.290,0.000,0.000,0.000
1605106255938255104,10.0.1.128,552,move_up,-0.270,-0.270,-0.270,0.000,0.000,0.000
1605106257539928832,10.0.1.128,474,move_up,-0.250,-0.250,-0.250,0.000,0.000,0.000
1605106259090036992,10.0.1.128,486,move_up,-0.230,-0.230,-0.230,0.000,0.000,0.000
1605106260732222208,10.0.1.128,472,move_up,-0.210,-0.210,-0.210,0.000,0.000,0.000
1605106262275191040,10.0.1.128,542,move_up,-0.190,-0.190,-0.190,0.000,0.000,0.000
1605106263639296000,10.0.1.128,45,place,-0.180,-0.180,-0.180,0.000,0.000,0.000
1605106264635138048,10.0.1.128,40,place,-0.170,-0.170,-0.170,0.000,0.000,0.000
1605106265634696960,10.0.1.128,38,place,-0.160,-0.160,-0.160,0.000,0.000,0.000
1605106266643052032,10.0.1.128,46,place,-0.150,-0.150,-0.150,0.000,0.000,0.000
1605106267634944000,10.0.1.128,36,place,-0.140,-0.140,-0.140,0.000,0.000,0.000
1605106268659759104,10.0.1.128,60,place,-0.130,-0.130,-0.130,0.000,0.000,0.000
1605106269656848896,10.0.1.128,51,place,-0.120,-0.120,-0.120,0.000,0.000,0.000
1605106270658813952,10.0.1.128,51,place,-0.110,-0.110,-0.110,0.000,0.000,0.000
1605106271661209088,10.0.1.128,52,place,-0.100,-0.100,-0.100,0.000,0.000,0.000
1605106272654503168,10.0.1.128,45,place,-0.090,-0.090,-0.090,0.000,0.000,0.000
1605106273654048000,10.0.1.128,43,place,-0.080,-0.080,-0.080,0.000,0.000,0.000
1605106274657275904,10.0.1.128,45,place,-0.070,-0.070,-0.070,0.000,0.000,0.000
1605106275654182912,10.0.1.128,40,place,-0.060,-0.060,-0.060,0.000,0.000,0.000
1605106276653970944,10.0.1.128,38,place,-0.050,-0.050,-0.050,0.000,0.000,0.000
1605106277658917888,10.0.1.128,42,place,-0.040,-0.040,-0.040,0.000,0.000,0.000
1605106278654088960,10.0.1.128,35,place,-0.030,-0.030,-0.030,0.000,0.000,0.000
1605106279662877952,10.0.1.128,44,place,-0.020,-0.020,-0.020,0.000,0.000,0.000
1605106280671724032,10.0.1.128,52,place,-0.010,-0.010,-0.010,0.000,0.000,0.000
1605106281654479104,10.0.1.128,33,place,0.000,0.000,0.000,0.000,0.000,0.000
1605106283014120960,10.0.1.128,388,move_down,-0.020,-0.020,-0.020,0.000,0.000,0.000
1605106284494733056,10.0.1.128,404,move_down,-0.040,-0.040,-0.040,0.000,0.000,0.000
1605106285981363968,10.0.1.128,411,move_down,-0.060,-0.060,-0.060,0.000,0.000,0.000
1605106287508441856,10.0.1.128,498,move_down,-0.080,-0.080,-0.080,0.000,0.000,0.000
1605106289077076992,10.0.1.128,434,move_down,-0.100,-0.100,-0.100,0.000,0.000,0.000
1605106290642887168,10.0.1.128,468,move_down,-0.120,-0.120,-0.120,0.000,0.000,0.000
1605106292217308160,10.0.1.128,462,move_down,-0.140,-0.140,-0.140,0.000,0.000,0.000
1605106293784903168,10.0.1.128,481,move_down,-0.160,-0.160,-0.160,0.000,0.000,0.000
1605106295283351808,10.0.1.128,439,move_down,-0.180,-0.180,-0.180,0.000,0.000,0.000
1605106296879956992,10.0.1.128,511,move_down,-0.200,-0.200,-0.200,0.000,0.000,0.000
1605106298442958080,10.0.1.128,474,move_down,-0.220,-0.220,-0.220,0.000,0.000,0.000
1605106300005548032,10.0.1.128,488,move_down,-0.240,-0.240,-0.240,0.000,0.000,0.000
1605106301558344960,10.0.1.128,508,move_down,-0.260,-0.260,-0.260,0.000,0.000,0.000
1605106303116787968,10.0.1.128,466,move_down,-0.280,-0.280,-0.280,0.000,0.000,0.000
1605106304589252864,10.0.1.128,447,move_down,-0.300,-0.300,-0.300,0.000,0.000,0.000
1605106306124534016,10.0.1.128,454,move_down,-0.320,-0.320,-0.320,0.000,0.000,0.000
1605106307734822912,10.0.1.128,501,move_down,-0.340,-0.340,-0.340,0.000,0.000,0.000
1605106309328409856,10.0.1.128,509,move_down,-0.360,-0.360,-0.360,0.000,0.000,0.000
1605106310918864896,10.0.1.128,519,move_down,-0.380,-0.380,-0.380,0.000,0.000,0.000
1605106312464966912,10.0.1.128,432,move_down,-0.400,-0.400,-0.400,0.000,0.000,0.000
1605106313991090944,10.0.1.128,471,move_down,-0.420,-0.420,-0.420,0.000,0.000,0.000
1605106315654652160,10.0.1.128,552,move_down,-0.440,-0.440,-0.440,0.000,0.000,0.000
1605106317274979072,10.0.1.128,514,move_down,-0.460,-0.460,-0.460,0.000,0.000,0.000
1605106318764475136,10.0.1.128,405,move_down,-0.480,-0.480,-0.480,0.000,0.000,0.000
1605106320272516096,10.0.1.128,463,move_down,-0.500,-0.500,-0.500,0.000,0.000,0.000
1605106321898155008,10.0.1.128,485,move_down,-0.520,-0.520,-0.520,0.000,0.000,0.000
1605106323516864000,10.0.1.128,566,move_down,-0.540,-0.540,-0.540,0.000,0.000,0.000
1605106325264249088,10.0.1.128,617,move_down,-0.560,-0.560,-0.560,0.000,0.000,0.000
1605106326964567808,10.0.1.128,601,move_down,-0.580,-0.580,-0.580,0.000,0.000,0.000
1605106328167742976,10.0.1.128,43,pick,-0.590,-0.590,-0.590,0.000,0.000,0.000
1605106329165672960,10.0.1.128,36,pick,-0.600,-0.600,-0.600,0.000,0.000,0.000
1605106330182375936,10.0.1.128,51,pick,-0.610,-0.610,-0.610,0.000,0.000,0.000
1605106333189166080,10.0.1.128,53,pick,-0.640,-0.640,-0.640,0.000,0.000,0.000
1605106334187220224,10.0.1.128,50,pick,-0.650,-0.650,-0.650,0.000,0.000,0.000
1605106335187668992,10.0.1.128,49,pick,-0.660,-0.660,-0.660,0.000,0.000,0.000
1605106336185830144,10.0.1.128,46,pick,-0.670,-0.670,-0.670,0.000,0.000,0.000
1605106337186161152,10.0.1.128,44,pick,-0.680,-0.680,-0.680,0.000,0.000,0.000
1605106339184722944,10.0.1.128,32,pick,-0.700,-0.700,-0.700,0.000,0.000,0.000
1605106340213295872,10.0.1.128,58,pick,-0.710,-0.710,-0.710,0.000,0.000,0.000
1605106341211628800,10.0.1.128,55,pick,-0.720,-0.720,-0.720,0.000,0.000,0.000
1605106342220563968,10.0.1.128,63,pick,-0.730,-0.730,-0.730,0.000,0.000,0.000
1605106343210650880,10.0.1.128,52,pick,-0.740,-0.740,-0.740,0.000,0.000,0.000
1605106344216097024,10.0.1.128,56,pick,-0.750,-0.750,-0.750,0.000,0.000,0.000
1605106345204387840,10.0.1.128,43,pick,-0.760,-0.760,-0.760,0.000,0.000,0.000
1605106346203314944,10.0.1.128,40,pick,-0.770,-0.770,-0.770,0.000,0.000,0.000
1605106347639697152,10.0.1.128,475,move_up,-0.750,-0.750,-0.750,0.000,0.000,0.000
1605106349189052160,10.0.1.128,516,move_up,-0.730,-0.730,-0.730,0.000,0.000,0.000
1605106350876430080,10.0.1.128,606,move_up,-0.710,-0.710,-0.710,0.000,0.000,0.000
1605106352523005952,10.0.1.128,559,move_up,-0.690,-0.690,-0.690,0.000,0.000,0.000
1605106354218412032,10.0.1.128,526,move_up,-0.670,-0.670,-0.670,0.000,0.000,0.000
1605106355934986240,10.0.1.128,640,move_up,-0.650,-0.650,-0.650,0.000,0.000,0.000
1605106357626277888,10.0.1.128,607,move_up,-0.630,-0.630,-0.630,0.000,0.000,0.000
1605106359248449024,10.0.1.128,487,move_up,-0.610,-0.610,-0.610,0.000,0.000,0.000
1605106360940531968,10.0.1.128,581,move_up,-0.590,-0.590,-0.590,0.000,0.000,0.000
1605106362587183872,10.0.1.128,582,move_up,-0.570,-0.570,-0.570,0.000,0.000,0.000
1605106364207560960,10.0.1.128,521,move_up,-0.550,-0.550,-0.550,0.000,0.000,0.000
1605106365822992128,10.0.1.128,516,move_up,-0.530,-0.530,-0.530,0.000,0.000,0.000
1605106367402842880,10.0.1.128,516,move_up,-0.510,-0.510,-0.510,0.000,0.000,0.000
1605106368911003136,10.0.1.128,471,move_up,-0.490,-0.490,-0.490,0.000,0.000,0.000
1605106370393528832,10.0.1.128,441,move_up,-0.470,-0.470,-0.470,0.000,0.000,0.000
1605106372120956928,10.0.1.128,652,move_up,-0.450,-0.450,-0.450,0.000,0.000,0.000
1605106373663307008,10.0.1.128,484,move_up,-0.430,-0.430,-0.430,0.000,0.000,0.000
1605106375274362112,10.0.1.128,506,move_up,-0.410,-0.410,-0.410,0.000,0.000,0.000
1605106376890744832,10.0.1.128,536,move_up,-0.390,-0.390,-0.390,0.000,0.000,0.000
1605106378582689024,10.0.1.128,616,move_up,-0.370,-0.370,-0.370,0.000,0.000,0.000
1605106380111869184,10.0.1.128,460,move_up,-0.350,-0.350,-0.350,0.000,0.000,0.000
1605106381730208000,10.0.1.128,577,move_up,-0.330,-0.330,-0.330,0.000,0.000,0.000
1605106383256231936,10.0.1.128,484,move_up,-0.310,-0.310,-0.310,0.000,0.000,0.000
1605106384799431168,10.0.1.128,477,move_up,-0.290,-0.290,-0.290,0.000,0.000,0.000
1605106386391156992,10.0.1.128,517,move_up,-0.270,-0.270,-0.270,0.000,0.000,0.000
1605106387926639104,10.0.1.128,461,move_up,-0.250,-0.250,-0.250,0.000,0.000,0.000
1605106389456686848,10.0.1.128,425,move_up,-0.230,-0.230,-0.230,0.000,0.000,0.000
1605106391003101184,10.0.1.128,450,move_up,-0.210,-0.210,-0.210,0.000,0.000,0.000
1605106392545854976,10.0.1.128,503,move_up,-0.190,-0.190,-0.190,0.000,0.000,0.000
1605106394656104192,10.0.1.128,48,place,-0.170,-0.170,-0.170,0.000,0.000,0.000
1605106395651714048,10.0.1.128,43,place,-0.160,-0.160,-0.160,0.000,0.000,0.000
1605106396661448960,10.0.1.128,46,place,-0.150,-0.150,-0.150,0.000,0.000,0.000
1605106397678391808,10.0.1.128,59,place,-0.140,-0.140,-0.140,0.000,0.000,0.000
1605106398673644032,10.0.1.128,54,place,-0.130,-0.130,-0.130,0.000,0.000,0.000
1605106399677428992,10.0.1.128,57,place,-0.120,-0.120,-0.120,0.000,0.000,0.000
1605106400669920000,10.0.1.128,47,place,-0.110,-0.110,-0.110,0.000,0.000,0.000
1605106401671256064,10.0.1.128,47,place,-0.100,-0.100,-0.100,0.000,0.000,0.000
1605106402672846080,10.0.1.128,47,place,-0.090,-0.090,-0.090,0.000,0.000,0.000
1605106403676371200,10.0.1.128,50,place,-0.080,-0.080,-0.080,0.000,0.000,0.000
1605106404677145856,10.0.1.128,50,place,-0.070,-0.070,-0.070,0.000,0.000,0.000
1605106405677805056,10.0.1.128,48,place,-0.060,-0.060,-0.060,0.000,0.000,0.000
1605106406677946112,10.0.1.128,46,place,-0.050,-0.050,-0.050,0.000,0.000,0.000
1605106407667893760,10.0.1.128,33,place,-0.040,-0.040,-0.040,0.000,0.000,0.000
1605106410673364992,10.0.1.128,35,place,-0.010,-0.010,-0.010,0.000,0.000,0.000
1605106411699143936,10.0.1.128,59,place,0.000,0.000,0.000,0.000,0.000,0.000
1605106413128320000,10.0.1.128,487,move_down,-0.020,-0.020,-0.020,0.000,0.000,0.000
1605106414678939136,10.0.1.128,464,move_down,-0.040,-0.040,-0.040,0.000,0.000,0.000
1605106416251566848,10.0.1.128,481,move_down,-0.060,-0.060,-0.060,0.000,0.000,0.000
1605106417958573056,10.0.1.128,628,move_down,-0.080,-0.080,-0.080,0.000,0.000,0.000
1605106419442166016,10.0.1.128,421,move_down,-0.100,-0.100,-0.100,0.000,0.000,0.000
1605106421188480000,10.0.1.128,545,move_down,-0.120,-0.120,-0.120,0.000,0.000,0.000
1605106422846822912,10.0.1.128,591,move_down,-0.140,-0.140,-0.140,0.000,0.000,0.000
1605106424450380032,10.0.1.128,510,move_down,-0.160,-0.160,-0.160,0.000,0.000,0.000
1605106426106027008,10.0.1.128,533,move_down,-0.180,-0.180,-0.180,0.000,0.000,0.000
1605106427649184000,10.0.1.128,435,move_down,-0.200,-0.200,-0.200,0.000,0.000,0.000
1605106429355337984,10.0.1.128,654,move_down,-0.220,-0.220,-0.220,0.000,0.000,0.000
1605106430903238144,10.0.1.128,490,move_down,-0.240,-0.240,-0.240,0.000,0.000,0.000
1605106432461404160,10.0.1.128,461,move_down,-0.260,-0.260,-0.260,0.000,0.000,0.000
1605106433979055872,10.0.1.128,423,move_down,-0.280,-0.280,-0.280,0.000,0.000,0.000
1605106435477593856,10.0.1.128,452,move_down,-0.300,-0.300,-0.300,0.000,0.000,0.000
1605106436994692096,10.0.1.128,430,move_down,-0.320,-0.320,-0.320,0.000,0.000,0.000
1605106438713718784,10.0.1.128,550,move_down,-0.340,-0.340,-0.340,0.000,0.000,0.000
1605106440338438144,10.0.1.128,513,move_down,-0.360,-0.360,-0.360,0.000,0.000,0.000
1605106441929646848,10.0.1.128,515,move_down,-0.380,-0.380,-0.380,0.000,0.000,0.000
1605106443467442944,10.0.1.128,505,move_down,-0.400,-0.400,-0.400,0.000,0.000,0.000
1605106445031462912,10.0.1.128,449,move_down,-0.420,-0.420,-0.420,0.000,0.000,0.000
1605106446727380992,10.0.1.128,607,move_down,-0.440,-0.440,-0.440,0.000,0.000,0.000
1605106448332712960,10.0.1.128,538,move_down,-0.460,-0.460,-0.460,0.000,0.000,0.000
1605106449924585216,10.0.1.128,510,move_down,-0.480,-0.480,-0.480,0.000,0.000,0.000
1605106451528366080,10.0.1.128,500,move_down,-0.500,-0.500,-0.500,0.000,0.000,0.000
1605106453120948992,10.0.1.128,495,move_down,-0.520,-0.520,-0.520,0.000,0.000,0.000
1605106454728628992,10.0.1.128,533,move_down,-0.540,-0.540,-0.540,0.000,0.000,0.000
1605106456302099968,10.0.1.128,431,move_down,-0.560,-0.560,-0.560,0.000,0.000,0.000
1605106457898803968,10.0.1.128,495,move_down,-0.580,-0.580,-0.580,0.000,0.000,0.000
1605106459176626944,10.0.1.128,47,pick,-0.590,-0.590,-0.590,0.000,0.000,0.000
1605106460168324096,10.0.1.128,38,pick,-0.600,-0.600,-0.600,0.000,0.000,0.000
1605106461171768064,10.0.1.128,40,pick,-0.610,-0.610,-0.610,0.000,0.000,0.000
1605106462185396992,10.0.1.128,53,pick,-0.620,-0.620,-0.620,0.000,0.000,0.000
1605106463173250816,10.0.1.128,39,pick,-0.630,-0.630,-0.630,0.000,0.000,0.000
1605106464178448896,10.0.1.128,43,pick,-0.640,-0.640,-0.640,0.000,0.000,0.000
1605106465184241920,10.0.1.128,48,pick,-0.650,-0.650,-0.650,0.000,0.000,0.000
1605106466191484928,10.0.1.128,44,pick,-0.660,-0.660,-0.660,0.000,0.000,0.000
1605106468188749056,10.0.1.128,38,pick,-0.680,-0.680,-0.680,0.000,0.000,0.000
1605106469201608960,10.0.1.128,48,pick,-0.690,-0.690,-0.690,0.000,0.000,0.000
1605106470196357120,10.0.1.128,40,pick,-0.700,-0.700,-0.700,0.000,0.000,0.000
1605106471221854976,10.0.1.128,58,pick,-0.710,-0.710,-0.710,0.000,0.000,0.000
1605106472212450048,10.0.1.128,47,pick,-0.720,-0.720,-0.720,0.000,0.000,0.000
1605106473211215872,10.0.1.128,45,pick,-0.730,-0.730,-0.730,0.000,0.000,0.000
1605106474210078976,10.0.1.128,38,pick,-0.740,-0.740,-0.740,0.000,0.000,0.000
1605106475209524992,10.0.1.128,35,pick,-0.750,-0.750,-0.750,0.000,0.000,0.000
1605106476214760960,10.0.1.128,37,pick,-0.760,-0.760,-0.760,0.000,0.000,0.000
1605106477241693952,10.0.1.128,45,pick,-0.770,-0.770,-0.770,0.000,0.000,0.000
1605106478716535040,10.0.1.128,518,move_up,-0.750,-0.750,-0.750,0.000,0.000,0.000
1605106480335864064,10.0.1.128,536,move_up,-0.730,-0.730,-0.730,0.000,0.000,0.000
1605106481955368960,10.0.1.128,516,move_up,-0.710,-0.710,-0.710,0.000,0.000,0.000
1605106483519328000,10.0.1.128,466,move_up,-0.690,-0.690,-0.690,0.000,0.000,0.000
1605106485056494080,10.0.1.128,442,move_up,-0.670,-0.670,-0.670,0.000,0.000,0.000
1605106486546590208,10.0.1.128,459,move_up,-0.650,-0.650,-0.650,0.000,0.000,0.000
1605106488222588160,10.0.1.128,488,move_up,-0.630,-0.630,-0.630,0.000,0.000,0.000
1605106489942076928,10.0.1.128,575,move_up,-0.610,-0.610,-0.610,0.000,0.000,0.000
1605106491578908928,10.0.1.128,536,move_up,-0.590,-0.590,-0.590,0.000,0.000,0.000
1605106493244609024,10.0.1.128,596,move_up,-0.570,-0.570,-0.570,0.000,0.000,0.000
1605106494837415936,10.0.1.128,517,move_up,-0.550,-0.550,-0.550,0.000,0.000,0.000
1605106496711425024,10.0.1.128,617,move_up,-0.530,-0.530,-0.530,0.000,0.000,0.000
1605106498477878016,10.0.1.128,671,move_up,-0.510,-0.510,-0.510,0.000,0.000,0.000
1605106500191731968,10.0.1.128,635,move_up,-0.490,-0.490,-0.490,0.000,0.000,0.000
1605106501700224000,10.0.1.128,448,move_up,-0.470,-0.470,-0.470,0.000,0.000,0.000
1605106503361690112,10.0.1.128,439,move_up,-0.450,-0.450,-0.450,0.000,0.000,0.000
1605106504934614016,10.0.1.128,530,move_up,-0.430,-0.430,-0.430,0.000,0.000,0.000
1605106506550405120,10.0.1.128,476,move_up,-0.410,-0.410,-0.410,0.000,0.000,0.000
1605106508158848000,10.0.1.128,546,move_up,-0.390,-0.390,-0.390,0.000,0.000,0.000
1605106509789323008,10.0.1.128,543,move_up,-0.370,-0.370,-0.370,0.000,0.000,0.000
1605106511443165952,10.0.1.128,552,move_up,-0.350,-0.350,-0.350,0.000,0.000,0.000
1605106513088498944,10.0.1.128,521,move_up,-0.330,-0.330,-0.330,0.000,0.000,0.000
1605106514724220160,10.0.1.128,546,move_up,-0.310,-0.310,-0.310,0.000,0.000,0.000
1605106516344403968,10.0.1.128,612,move_up,-0.290,-0.290,-0.290,0.000,0.000,0.000
1605106517807311104,10.0.1.128,437,move_up,-0.270,-0.270,-0.270,0.000,0.000,0.000
1605106519466824960,10.0.1.128,571,move_up,-0.250,-0.250,-0.250,0.000,0.000,0.000
1605106520986071040,10.0.1.128,452,move_up,-0.230,-0.230,-0.230,0.000,0.000,0.000
1605106522582779904,10.0.1.128,502,move_up,-0.210,-0.210,-0.210,0.000,0.000,0.000
1605106524148942080,10.0.1.128,478,move_up,-0.190,-0.190,-0.190,0.000,0.000,0.000
1605106525398231040,10.0.1.128,52,place,-0.180,-0.180,-0.180,0.000,0.000,0.000
1605106526406116864,10.0.1.128,58,place,-0.170,-0.170,-0.170,0.000,0.000,0.000
1605106528390296064,10.0.1.128,41,place,-0.150,-0.150,-0.150,0.000,0.000,0.000
1605106529388729088,10.0.1.128,35,place,-0.140,-0.140,-0.140,0.000,0.000,0.000
1605106530392421120,10.0.1.128,37,place,-0.130,-0.130,-0.130,0.000,0.000,0.000
1605106531411806208,10.0.1.128,49,place,-0.120,-0.120,-0.120,0.000,0.000,0.000
1605106532417188864,10.0.1.128,51,place,-0.110,-0.110,-0.110,0.000,0.000,0.000
1605106533415824896,10.0.1.128,46,place,-0.100,-0.100,-0.100,0.000,0.000,0.000
1605106534414217984,10.0.1.128,42,place,-0.090,-0.090,-0.090,0.000,0.000,0.000
1605106535419384064,10.0.1.128,47,place,-0.080,-0.080,-0.080,0.000,0.000,0.000
1605106536414535936,10.0.1.128,41,place,-0.070,-0.070,-0.070,0.000,0.000,0.000
1605106537414606080,10.0.1.128,39,place,-0.060,-0.060,-0.060,0.000,0.000,0.000
1605106538418176000,10.0.1.128,42,place,-0.050,-0.050,-0.050,0.000,0.000,0.000
1605106539435283968,10.0.1.128,48,place,-0.040,-0.040,-0.040,0.000,0.000,0.000
1605106540430345984,10.0.1.128,42,place,-0.030,-0.030,-0.030,0.000,0.000,0.000
1605106541432347904,10.0.1.128,43,place,-0.020,-0.020,-0.020,0.000,0.000,0.000
1605106542429858816,10.0.1.128,39,place,-0.010,-0.010,-0.010,0.000,0.000,0.000
1605106543459825920,10.0.1.128,68,place,0.000,0.000,0.000,0.000,0.000,0.000
1605106544888942080,10.0.1.128,495,move_down,-0.020,-0.020,-0.020,0.000,0.000,0.000
1605106546430866944,10.0.1.128,517,move_down,-0.040,-0.040,-0.040,0.000,0.000,0.000
1605106547959708928,10.0.1.128,446,move_down,-0.060,-0.060,-0.060,0.000,0.000,0.000
1605106549461901056,10.0.1.128,428,move_down,-0.080,-0.080,-0.080,0.000,0.000,0.000
1605106551134337024,10.0.1.128,570,move_down,-0.100,-0.100,-0.100,0.000,0.000,0.000
1605106552728626944,10.0.1.128,508,move_down,-0.120,-0.120,-0.120,0.000,0.000,0.000
1605106554255902976,10.0.1.128,495,move_down,-0.140,-0.140,-0.140,0.000,0.000,0.000
1605106555902888960,10.0.1.128,598,move_down,-0.160,-0.160,-0.160,0.000,0.000,0.000
1605106557573771008,10.0.1.128,554,move_down,-0.180,-0.180,-0.180,0.000,0.000,0.000
1605106559235816960,10.0.1.128,584,move_down,-0.200,-0.200,-0.200,0.000,0.000,0.000
1605106560843008000,10.0.1.128,475,move_down,-0.220,-0.220,-0.220,0.000,0.000,0.000
1605106562543126016,10.0.1.128,518,move_down,-0.240,-0.240,-0.240,0.000,0.000,0.000
1605106564124152064,10.0.1.128,538,move_down,-0.260,-0.260,-0.260,0.000,0.000,0.000
1605106565640599040,10.0.1.128,474,move_down,-0.280,-0.280,-0.280,0.000,0.000,0.000
1605106567170428160,10.0.1.128,457,move_down,-0.300,-0.300,-0.300,0.000,0.000,0.000
1605106568731214080,10.0.1.128,508,move_down,-0.320,-0.320,-0.320,0.000,0.000,0.000
1605106570404186880,10.0.1.128,536,move_down,-0.340,-0.340,-0.340,0.000,0.000,0.000
1605106571904658176,10.0.1.128,455,move_down,-0.360,-0.360,-0.360,0.000,0.000,0.000
1605106573465563904,10.0.1.128,498,move_down,-0.380,-0.380,-0.380,0.000,0.000,0.000
1605106575124710912,10.0.1.128,509,move_down,-0.400,-0.400,-0.400,0.000,0.000,0.000
1605106576753164032,10.0.1.128,531,move_down,-0.420,-0.420,-0.420,0.000,0.000,0.000
1605106578288397056,10.0.1.128,475,move_down,-0.440,-0.440,-0.440,0.000,0.000,0.000
1605106579888150016,10.0.1.128,504,move_down,-0.460,-0.460,-0.460,0.000,0.000,0.000
1605106581580608000,10.0.1.128,498,move_down,-0.480,-0.480,-0.480,0.000,0.000,0.000
1605106583061584896,10.0.1.128,451,move_down,-0.500,-0.500,-0.500,0.000,0.000,0.000
1605106584775316992,10.0.1.128,594,move_down,-0.520,-0.520,-0.520,0.000,0.000,0.000
1605106586293140992,10.0.1.128,447,move_down,-0.540,-0.540,-0.540,0.000,0.000,0.000
1605106587884123136,10.0.1.128,466,move_down,-0.560,-0.560,-0.560,0.000,0.000,0.000
1605106589472376064,10.0.1.128,436,move_down,-0.580,-0.580,-0.580,0.000,0.000,0.000
1605106590591144960,10.0.1.128,39,pick,-0.590,-0.590,-0.590,0.000,0.000,0.000
1605106591592199936,10.0.1.128,38,pick,-0.600,-0.600,-0.600,0.000,0.000,0.000
1605106592590828800,10.0.1.128,36,pick,-0.610,-0.610,-0.610,0.000,0.000,0.000
1605106593617367040,10.0.1.128,58,pick,-0.620,-0.620,-0.620,0.000,0.000,0.000
1605106594607943168,10.0.1.128,47,pick,-0.630,-0.630,-0.630,0.000,0.000,0.000
1605106595607847936,10.0.1.128,46,pick,-0.640,-0.640,-0.640,0.000,0.000,0.000
1605106596606343936,10.0.1.128,43,pick,-0.650,-0.650,-0.650,0.000,0.000,0.000
1605106597610737920,10.0.1.128,46,pick,-0.660,-0.660,-0.660,0.000,0.000,0.000
1605106598610848000,10.0.1.128,45,pick,-0.670,-0.670,-0.670,0.000,0.000,0.000
1605106600615715072,10.0.1.128,45,pick,-0.690,-0.690,-0.690,0.000,0.000,0.000
1605106601628418048,10.0.1.128,48,pick,-0.700,-0.700,-0.700,0.000,0.000,0.000
1605106602646850048,10.0.1.128,54,pick,-0.710,-0.710,-0.710,0.000,0.000,0.000
1605106603628630016,10.0.1.128,36,pick,-0.720,-0.720,-0.720,0.000,0.000,0.000
1605106604632556800,10.0.1.128,38,pick,-0.730,-0.730,-0.730,0.000,0.000,0.000
1605106605655730944,10.0.1.128,60,pick,-0.740,-0.740,-0.740,0.000,0.000,0.000
1605106606656059904,10.0.1.128,59,pick,-0.750,-0.750,-0.750,0.000,0.000,0.000
1605106607632160000,10.0.1.128,34,pick,-0.760,-0.760,-0.760,0.000,0.000,0.000
1605106608656425984,10.0.1.128,56,pick,-0.770,-0.770,-0.770,0.000,0.000,0.000
1605106610137693952,10.0.1.128,536,move_up,-0.750,-0.750,-0.750,0.000,0.000,0.000
1605106611727494912,10.0.1.128,510,move_up,-0.730,-0.730,-0.730,0.000,0.000,0.000
1605106613318958080,10.0.1.128,497,move_up,-0.710,-0.710,-0.710,0.000,0.000,0.000
1605106615137080064,10.0.1.128,707,move_up,-0.690,-0.690,-0.690,0.000,0.000,0.000
1605106616674699008,10.0.1.128,467,move_up,-0.670,-0.670,-0.670,0.000,0.000,0.000
1605106618200377856,10.0.1.128,454,move_up,-0.650,-0.650,-0.650,0.000,0.000,0.000
1605106619899987968,10.0.1.128,597,move_up,-0.630,-0.630,-0.630,0.000,0.000,0.000
1605106621489399808,10.0.1.128,445,move_up,-0.610,-0.610,-0.610,0.000,0.000,0.000
1605106623159677952,10.0.1.128,579,move_up,-0.590,-0.590,-0.590,0.000,0.000,0.000
1605106624912283904,10.0.1.128,660,move_up,-0.570,-0.570,-0.570,0.000,0.000,0.000
1605106626553385984,10.0.1.128,539,move_up,-0.550,-0.550,-0.550,0.000,0.000,0.000
1605106628077133824,10.0.1.128,493,move_up,-0.530,-0.530,-0.530,0.000,0.000,0.000
1605106629744921856,10.0.1.128,603,move_up,-0.510,-0.510,-0.510,0.000,0.000,0.000
1605106631405637120,10.0.1.128,583,move_up,-0.490,-0.490,-0.490,0.000,0.000,0.000
1605106633193308160,10.0.1.128,697,move_up,-0.470,-0.470,-0.470,0.000,0.000,0.000
1605106634828741120,10.0.1.128,582,move_up,-0.450,-0.450,-0.450,0.000,0.000,0.000
1605106636404485888,10.0.1.128,480,move_up,-0.430,-0.430,-0.430,0.000,0.000,0.000
1605106638114594816,10.0.1.128,500,move_up,-0.410,-0.410,-0.410,0.000,0.000,0.000
1605106639755867904,10.0.1.128,530,move_up,-0.390,-0.390,-0.390,0.000,0.000,0.000
1605106641348229888,10.0.1.128,500,move_up,-0.370,-0.370,-0.370,0.000,0.000,0.000
1605106642880389888,10.0.1.128,447,move_up,-0.350,-0.350,-0.350,0.000,0.000,0.000
1605106644548209920,10.0.1.128,617,move_up,-0.330,-0.330,-0.330,0.000,0.000,0.000
1605106646087218944,10.0.1.128,456,move_up,-0.310,-0.310,-0.310,0.000,0.000,0.000
1605106647628931072,10.0.1.128,449,move_up,-0.290,-0.290,-0.290,0.000,0.000,0.000
1605106649253629952,10.0.1.128,535,move_up,-0.270,-0.270,-0.270,0.000,0.000,0.000
1605106650819468032,10.0.1.128,461,move_up,-0.250,-0.250,-0.250,0.000,0.000,0.000
1605106652448528128,10.0.1.128,540,move_up,-0.230,-0.230,-0.230,0.000,0.000,0.000
1605106653956913920,10.0.1.128,470,move_up,-0.210,-0.210,-0.210,0.000,0.000,0.000
1605106655501852160,10.0.1.128,454,move_up,-0.190,-0.190,-0.190,0.000,0.000,0.000
1605106656628114944,10.0.1.128,41,place,-0.180,-0.180,-0.180,0.000,0.000,0.000
1605106657642657024,10.0.1.128,55,place,-0.170,-0.170,-0.170,0.000,0.000,0.000
1605106658642276096,10.0.1.128,52,place,-0.160,-0.160,-0.160,0.000,0.000,0.000
1605106659622966016,10.0.1.128,32,place,-0.150,-0.150,-0.150,0.000,0.000,0.000
1605106660644349184,10.0.1.128,52,place,-0.140,-0.140,-0.140,0.000,0.000,0.000
1605106661621609984,10.0.1.128,29,place,-0.130,-0.130,-0.130,0.000,0.000,0.000
1605106662641239808,10.0.1.128,47,place,-0.120,-0.120,-0.120,0.000,0.000,0.000
1605106663643245056,10.0.1.128,48,place,-0.110,-0.110,-0.110,0.000,0.000,0.000
1605106664638045952,10.0.1.128,41,place,-0.100,-0.100,-0.100,0.000,0.000,0.000
1605106665642237952,10.0.1.128,38,place,-0.090,-0.090,-0.090,0.000,0.000,0.000
1605106666643013120,10.0.1.128,38,place,-0.080,-0.080,-0.080,0.000,0.000,0.000
1605106667643456000,10.0.1.128,37,place,-0.070,-0.070,-0.070,0.000,0.000,0.000
1605106668643793152,10.0.1.128,34,place,-0.060,-0.060,-0.060,0.000,0.000,0.000
1605106669669864960,10.0.1.128,58,place,-0.050,-0.050,-0.050,0.000,0.000,0.000
1605106670642230016,10.0.1.128,30,place,-0.040,-0.040,-0.040,0.000,0.000,0.000
1605106671673846016,10.0.1.128,54,place,-0.030,-0.030,-0.030,0.000,0.000,0.000
1605106672661370880,10.0.1.128,40,place,-0.020,-0.020,-0.020,0.000,0.000,0.000
1605106673702124032,10.0.1.128,79,place,-0.010,-0.010,-0.010,0.000,0.000,0.000
1605106674656768000,10.0.1.128,31,place,0.000,0.000,0.000,0.000,0.000,0.000
1605106676155920896,10.0.1.128,528,move_down,-0.020,-0.020,-0.020,0.000,0.000,0.000
1605106677749910016,10.0.1.128,487,move_down,-0.040,-0.040,-0.040,0.000,0.000,0.000
1605106679400343040,10.0.1.128,559,move_down,-0.060,-0.060,-0.060,0.000,0.000,0.000
1605106680982892032,10.0.1.128,514,move_down,-0.080,-0.080,-0.080,0.000,0.000,0.000
1605106682735724032,10.0.1.128,616,move_down,-0.100,-0.100,-0.100,0.000,0.000,0.000
1605106684322813952,10.0.1.128,495,move_down,-0.120,-0.120,-0.120,0.000,0.000,0.000
1605106685902288896,10.0.1.128,467,move_down,-0.140,-0.140,-0.140,0.000,0.000,0.000
1605106687539427072,10.0.1.128,534,move_down,-0.160,-0.160,-0.160,0.000,0.000,0.000
1605106689309735936,10.0.1.128,588,move_down,-0.180,-0.180,-0.180,0.000,0.000,0.000
1605106690848367872,10.0.1.128,448,move_down,-0.200,-0.200,-0.200,0.000,0.000,0.000
1605106692483243008,10.0.1.128,545,move_down,-0.220,-0.220,-0.220,0.000,0.000,0.000
1605106694135724032,10.0.1.128,560,move_down,-0.240,-0.240,-0.240,0.000,0.000,0.000
1605106695681974016,10.0.1.128,499,move_down,-0.260,-0.260,-0.260,0.000,0.000,0.000
1605106697694611968,10.0.1.128,865,move_down,-0.280,-0.280,-0.280,0.000,0.000,0.000
1605106699395833856,10.0.1.128,596,move_down,-0.300,-0.300,-0.300,0.000,0.000,0.000
1605106701002247168,10.0.1.128,553,move_down,-0.320,-0.320,-0.320,0.000,0.000,0.000
1605106702809772032,10.0.1.128,690,move_down,-0.340,-0.340,-0.340,0.000,0.000,0.000
1605106704389862144,10.0.1.128,479,move_down,-0.360,-0.360,-0.360,0.000,0.000,0.000
1605106706212115968,10.0.1.128,731,move_down,-0.380,-0.380,-0.380,0.000,0.000,0.000
1605106708110660096,10.0.1.128,865,move_down,-0.400,-0.400,-0.400,0.000,0.000,0.000
1605106709958103040,10.0.1.128,710,move_down,-0.420,-0.420,-0.420,0.000,0.000,0.000
1605106711610343936,10.0.1.128,518,move_down,-0.440,-0.440,-0.440,0.000,0.000,0.000
1605106713214857216,10.0.1.128,505,move_down,-0.460,-0.460,-0.460,0.000,0.000,0.000
1605106714827282944,10.0.1.128,554,move_down,-0.480,-0.480,-0.480,0.000,0.000,0.000
1605106716484440064,10.0.1.128,571,move_down,-0.500,-0.500,-0.500,0.000,0.000,0.000
1605106718070193152,10.0.1.128,521,move_down,-0.520,-0.520,-0.520,0.000,0.000,0.000
1605106719670255872,10.0.1.128,446,move_down,-0.540,-0.540,-0.540,0.000,0.000,0.000
1605106721212052224,10.0.1.128,450,move_down,-0.560,-0.560,-0.560,0.000,0.000,0.000
1605106722802038784,10.0.1.128,499,move_down,-0.580,-0.580,-0.580,0.000,0.000,0.000
1605106723963633152,10.0.1.128,58,pick,-0.590,-0.590,-0.590,0.000,0.000,0.000
1605106725957735168,10.0.1.128,50,pick,-0.610,-0.610,-0.610,0.000,0.000,0.000
1605106726951226880,10.0.1.128,43,pick,-0.620,-0.620,-0.620,0.000,0.000,0.000
1605106727958676224,10.0.1.128,49,pick,-0.630,-0.630,-0.630,0.000,0.000,0.000
1605106728947781120,10.0.1.128,34,pick,-0.640,-0.640,-0.640,0.000,0.000,0.000
1605106729958708992,10.0.1.128,44,pick,-0.650,-0.650,-0.650,0.000,0.000,0.000
1605106730968211968,10.0.1.128,52,pick,-0.660,-0.660,-0.660,0.000,0.000,0.000
1605106731974827008,10.0.1.128,58,pick,-0.670,-0.670,-0.670,0.000,0.000,0.000
1605106732961078016,10.0.1.128,39,pick,-0.680,-0.680,-0.680,0.000,0.000,0.000
1605106733988087808,10.0.1.128,64,pick,-0.690,-0.690,-0.690,0.000,0.000,0.000
1605106734976231168,10.0.1.128,51,pick,-0.700,-0.700,-0.700,0.000,0.000,0.000
1605106736976218880,10.0.1.128,46,pick,-0.720,-0.720,-0.720,0.000,0.000,0.000
1605106737989444864,10.0.1.128,57,pick,-0.730,-0.730,-0.730,0.000,0.000,0.000
1605106739011069184,10.0.1.128,77,pick,-0.740,-0.740,-0.740,0.000,0.000,0.000
1605106739997188096,10.0.1.128,61,pick,-0.750,-0.750,-0.750,0.000,0.000,0.000
1605106740974433792,10.0.1.128,37,pick,-0.760,-0.760,-0.760,0.000,0.000,0.000
1605106742007863040,10.0.1.128,57,pick,-0.770,-0.770,-0.770,0.000,0.000,0.000
1605106743460974080,10.0.1.128,507,move_up,-0.750,-0.750,-0.750,0.000,0.000,0.000
1605106745123693056,10.0.1.128,527,move_up,-0.730,-0.730,-0.730,0.000,0.000,0.000
1605106746790332928,10.0.1.128,514,move_up,-0.710,-0.710,-0.710,0.000,0.000,0.000
1605106748550422784,10.0.1.128,672,move_up,-0.690,-0.690,-0.690,0.000,0.000,0.000
1605106750286361088,10.0.1.128,491,move_up,-0.670,-0.670,-0.670,0.000,0.000,0.000
1605106751906562048,10.0.1.128,506,move_up,-0.650,-0.650,-0.650,0.000,0.000,0.000
1605106753482275840,10.0.1.128,489,move_up,-0.630,-0.630,-0.630,0.000,0.000,0.000
1605106755262956032,10.0.1.128,628,move_up,-0.610,-0.610,-0.610,0.000,0.000,0.000
1605106756924387840,10.0.1.128,565,move_up,-0.590,-0.590,-0.590,0.000,0.000,0.000
1605106758534002944,10.0.1.128,498,move_up,-0.570,-0.570,-0.570,0.000,0.000,0.000
1605106760230531840,10.0.1.128,596,move_up,-0.550,-0.550,-0.550,0.000,0.000,0.000
1605106761986553856,10.0.1.128,661,move_up,-0.530,-0.530,-0.530,0.000,0.000,0.000
1605106763510104832,10.0.1.128,509,move_up,-0.510,-0.510,-0.510,0.000,0.000,0.000
1605106765176933120,10.0.1.128,556,move_up,-0.490,-0.490,-0.490,0.000,0.000,0.000
1605106766839677952,10.0.1.128,582,move_up,-0.470,-0.470,-0.470,0.000,0.000,0.000
1605106768639182080,10.0.1.128,675,move_up,-0.450,-0.450,-0.450,0.000,0.000,0.000
1605106770471409920,10.0.1.128,638,move_up,-0.430,-0.430,-0.430,0.000,0.000,0.000
1605106772234731008,10.0.1.128,665,move_up,-0.410,-0.410,-0.410,0.000,0.000,0.000
1605106774233127168,10.0.1.128,874,move_up,-0.390,-0.390,-0.390,0.000,0.000,0.000
1605106775870726144,10.0.1.128,563,move_up,-0.370,-0.370,-0.370,0.000,0.000,0.000
1605106777663866880,10.0.1.128,725,move_up,-0.350,-0.350,-0.350,0.000,0.000,0.000
1605106779373262848,10.0.1.128,497,move_up,-0.330,-0.330,-0.330,0.000,0.000,0.000
1605106781094275840,10.0.1.128,659,move_up,-0.310,-0.310,-0.310,0.000,0.000,0.000
1605106782668039168,10.0.1.128,529,move_up,-0.290,-0.290,-0.290,0.000,0.000,0.000
1605106784446296064,10.0.1.128,635,move_up,-0.270,-0.270,-0.270,0.000,0.000,0.000
1605106786171906048,10.0.1.128,638,move_up,-0.250,-0.250,-0.250,0.000,0.000,0.000
1605106787707858176,10.0.1.128,425,move_up,-0.230,-0.230,-0.230,0.000,0.000,0.000
1605106789297617920,10.0.1.128,494,move_up,-0.210,-0.210,-0.210,0.000,0.000,0.000
1605106790915613952,10.0.1.128,484,move_up,-0.190,-0.190,-0.190,0.000,0.000,0.000
1605106792057223168,10.0.1.128,48,place,-0.180,-0.180,-0.180,0.000,0.000,0.000
1605106794055672832,10.0.1.128,44,place,-0.160,-0.160,-0.160,0.000,0.000,0.000
1605106795060496128,10.0.1.128,48,place,-0.150,-0.150,-0.150,0.000,0.000,0.000
1605106796054550016,10.0.1.128,40,place,-0.140,-0.140,-0.140,0.000,0.000,0.000
1605106797054661888,10.0.1.128,39,place,-0.130,-0.130,-0.130,0.000,0.000,0.000
1605106798056662016,10.0.1.128,37,place,-0.120,-0.120,-0.120,0.000,0.000,0.000
1605106799053566976,10.0.1.128,33,place,-0.110,-0.110,-0.110,0.000,0.000,0.000
1605106800082639104,10.0.1.128,61,place,-0.100,-0.100,-0.100,0.000,0.000,0.000
1605106801062413056,10.0.1.128,39,place,-0.090,-0.090,-0.090,0.000,0.000,0.000
1605106802056785152,10.0.1.128,33,place,-0.080,-0.080,-0.080,0.000,0.000,0.000
1605106803085879040,10.0.1.128,60,place,-0.070,-0.070,-0.070,0.000,0.000,0.000
1605106804084608000,10.0.1.128,57,place,-0.060,-0.060,-0.060,0.000,0.000,0.000
1605106805072390144,10.0.1.128,44,place,-0.050,-0.050,-0.050,0.000,0.000,0.000
1605106806081957120,10.0.1.128,52,place,-0.040,-0.040,-0.040,0.000,0.000,0.000
1605106807078087936,10.0.1.128,48,place,-0.030,-0.030,-0.030,0.000,0.000,0.000
1605106808075612160,10.0.1.128,44,place,-0.020,-0.020,-0.020,0.000,0.000,0.000
1605106809090787840,10.0.1.128,56,place,-0.010,-0.010,-0.010,0.000,0.000,0.000
1605106811827683072,10.0.1.128,781,move_down,-0.020,-0.020,-0.020,0.000,0.000,0.000
1605106813428595968,10.0.1.128,514,move_down,-0.040,-0.040,-0.040,0.000,0.000,0.000
1605106815033554176,10.0.1.128,502,move_down,-0.060,-0.060,-0.060,0.000,0.000,0.000
1605106816814110976,10.0.1.128,681,move_down,-0.080,-0.080,-0.080,0.000,0.000,0.000
1605106818601619968,10.0.1.128,713,move_down,-0.100,-0.100,-0.100,0.000,0.000,0.000
1605106820328269056,10.0.1.128,690,move_down,-0.120,-0.120,-0.120,0.000,0.000,0.000
1605106822033575168,10.0.1.128,651,move_down,-0.140,-0.140,-0.140,0.000,0.000,0.000
1605106823601416192,10.0.1.128,514,move_down,-0.160,-0.160,-0.160,0.000,0.000,0.000
1605106825167385088,10.0.1.128,490,move_down,-0.180,-0.180,-0.180,0.000,0.000,0.000
1605106826921757952,10.0.1.128,631,move_down,-0.200,-0.200,-0.200,0.000,0.000,0.000
1605106828688164096,10.0.1.128,630,move_down,-0.220,-0.220,-0.220,0.000,0.000,0.000
1605106830322369024,10.0.1.128,523,move_down,-0.240,-0.240,-0.240,0.000,0.000,0.000
1605106831999427072,10.0.1.128,508,move_down,-0.260,-0.260,-0.260,0.000,0.000,0.000
1605106833494648832,10.0.1.128,444,move_down,-0.280,-0.280,-0.280,0.000,0.000,0.000
1605106835188206080,10.0.1.128,498,move_down,-0.300,-0.300,-0.300,0.000,0.000,0.000
1605106836749427200,10.0.1.128,506,move_down,-0.320,-0.320,-0.320,0.000,0.000,0.000
1605106838478227968,10.0.1.128,615,move_down,-0.340,-0.340,-0.340,0.000,0.000,0.000
1605106840025178880,10.0.1.128,461,move_down,-0.360,-0.360,-0.360,0.000,0.000,0.000
1605106841663620096,10.0.1.128,544,move_down,-0.380,-0.380,-0.380,0.000,0.000,0.000
1605106843408729088,10.0.1.128,591,move_down,-0.400,-0.400,-0.400,0.000,0.000,0.000
1605106845026977024,10.0.1.128,536,move_down,-0.420,-0.420,-0.420,0.000,0.000,0.000
1605106846714390016,10.0.1.128,557,move_down,-0.440,-0.440,-0.440,0.000,0.000,0.000
1605106848329758976,10.0.1.128,504,move_down,-0.460,-0.460,-0.460,0.000,0.000,0.000
1605106850127641856,10.0.1.128,673,move_down,-0.480,-0.480,-0.480,0.000,0.000,0.000
1605106851946913024,10.0.1.128,644,move_down,-0.500,-0.500,-0.500,0.000,0.000,0.000
1605106853618298112,10.0.1.128,584,move_down,-0.520,-0.520,-0.520,0.000,0.000,0.000
1605106855245204992,10.0.1.128,523,move_down,-0.540,-0.540,-0.540,0.000,0.000,0.000
1605106856892926976,10.0.1.128,559,move_down,-0.560,-0.560,-0.560,0.000,0.000,0.000
1605106858640465920,10.0.1.128,580,move_down,-0.580,-0.580,-0.580,0.000,0.000,0.000
1605106859760404224,10.0.1.128,48,pick,-0.590,-0.590,-0.590,0.000,0.000,0.000
1605106860801278976,10.0.1.128,87,pick,-0.600,-0.600,-0.600,0.000,0.000,0.000
1605106861770850816,10.0.1.128,55,pick,-0.610,-0.610,-0.610,0.000,0.000,0.000
1605106862763308032,10.0.1.128,42,pick,-0.620,-0.620,-0.620,0.000,0.000,0.000
1605106863796272128,10.0.1.128,73,pick,-0.630,-0.630,-0.630,0.000,0.000,0.000
1605106864763174144,10.0.1.128,38,pick,-0.640,-0.640,-0.640,0.000,0.000,0.000
1605106866788937216,10.0.1.128,58,pick,-0.660,-0.660,-0.660,0.000,0.000,0.000
1605106867807159040,10.0.1.128,75,pick,-0.670,-0.670,-0.670,0.000,0.000,0.000
1605106868779046912,10.0.1.128,47,pick,-0.680,-0.680,-0.680,0.000,0.000,0.000
1605106869790749952,10.0.1.128,57,pick,-0.690,-0.690,-0.690,0.000,0.000,0.000
1605106870772988928,10.0.1.128,38,pick,-0.700,-0.700,-0.700,0.000,0.000,0.000
1605106871782262016,10.0.1.128,46,pick,-0.710,-0.710,-0.710,0.000,0.000,0.000
1605106872771856896,10.0.1.128,30,pick,-0.720,-0.720,-0.720,0.000,0.000,0.000
1605106873812179968,10.0.1.128,67,pick,-0.730,-0.730,-0.730,0.000,0.000,0.000
1605106874792680960,10.0.1.128,47,pick,-0.740,-0.740,-0.740,0.000,0.000,0.000
1605106875804409088,10.0.1.128,52,pick,-0.750,-0.750,-0.750,0.000,0.000,0.000
1605106878836643072,10.0.1.128,78,move_up,-0.750,-0.750,-0.750,0.000,0.000,0.000
1605106880784035840,10.0.1.128,579,move_up,-0.730,-0.730,-0.730,0.000,0.000,0.000
1605106882639749888,10.0.1.128,664,move_up,-0.710,-0.710,-0.710,0.000,0.000,0.000
1605106884342365952,10.0.1.128,623,move_up,-0.690,-0.690,-0.690,0.000,0.000,0.000
1605106886273519104,10.0.1.128,786,move_up,-0.670,-0.670,-0.670,0.000,0.000,0.000
1605106888046201088,10.0.1.128,573,move_up,-0.650,-0.650,-0.650,0.000,0.000,0.000
1605106889607804928,10.0.1.128,499,move_up,-0.630,-0.630,-0.630,0.000,0.000,0.000
1605106891400069120,10.0.1.128,647,move_up,-0.610,-0.610,-0.610,0.000,0.000,0.000
1605106893219000064,10.0.1.128,684,move_up,-0.590,-0.590,-0.590,0.000,0.000,0.000
1605106894784111104,10.0.1.128,468,move_up,-0.570,-0.570,-0.570,0.000,0.000,0.000
1605106896303431936,10.0.1.128,442,move_up,-0.550,-0.550,-0.550,0.000,0.000,0.000
1605106898030135040,10.0.1.128,585,move_up,-0.530,-0.530,-0.530,0.000,0.000,0.000
1605106899793147136,10.0.1.128,578,move_up,-0.510,-0.510,-0.510,0.000,0.000,0.000
1605106901584435968,10.0.1.128,681,move_up,-0.490,-0.490,-0.490,0.000,0.000,0.000
1605106903409475072,10.0.1.128,720,move_up,-0.470,-0.470,-0.470,0.000,0.000,0.000
1605106905379021824,10.0.1.128,895,move_up,-0.450,-0.450,-0.450,0.000,0.000,0.000
1605106907084072192,10.0.1.128,605,move_up,-0.430,-0.430,-0.430,0.000,0.000,0.000
1605106908742717952,10.0.1.128,497,move_up,-0.410,-0.410,-0.410,0.000,0.000,0.000
1605106910436645888,10.0.1.128,634,move_up,-0.390,-0.390,-0.390,0.000,0.000,0.000
1605106912297018880,10.0.1.128,786,move_up,-0.370,-0.370,-0.370,0.000,0.000,0.000
1605106914199887104,10.0.1.128,772,move_up,-0.350,-0.350,-0.350,0.000,0.000,0.000
1605106915792980992,10.0.1.128,511,move_up,-0.330,-0.330,-0.330,0.000,0.000,0.000
1605106917496547072,10.0.1.128,590,move_up,-0.310,-0.310,-0.310,0.000,0.000,0.000
1605106919103809024,10.0.1.128,473,move_up,-0.290,-0.290,-0.290,0.000,0.000,0.000
1605106920695673856,10.0.1.128,484,move_up,-0.270,-0.270,-0.270,0.000,0.000,0.000
1605106922242227968,10.0.1.128,470,move_up,-0.250,-0.250,-0.250,0.000,0.000,0.000
1605106924188940032,10.0.1.128,820,move_up,-0.230,-0.230,-0.230,0.000,0.000,0.000
1605106925843452928,10.0.1.128,543,move_up,-0.210,-0.210,-0.210,0.000,0.000,0.000
1605106927541789952,10.0.1.128,538,move_up,-0.190,-0.190,-0.190,0.000,0.000,0.000
1605106928678877184,10.0.1.128,44,place,-0.180,-0.180,-0.180,0.000,0.000,0.000
1605106929682804992,10.0.1.128,46,place,-0.170,-0.170,-0.170,0.000,0.000,0.000
1605106930694379008,10.0.1.128,49,place,-0.160,-0.160,-0.160,0.000,0.000,0.000
1605106931690947072,10.0.1.128,44,place,-0.150,-0.150,-0.150,0.000,0.000,0.000
1605106932694864128,10.0.1.128,47,place,-0.140,-0.140,-0.140,0.000,0.000,0.000
1605106933712178944,10.0.1.128,57,place,-0.130,-0.130,-0.130,0.000,0.000,0.000
1605106934695121920,10.0.1.128,39,place,-0.120,-0.120,-0.120,0.000,0.000,0.000
