milangroshev/digital-twin-scalability/logs/run1-300s/10.0.1.137.csv
timestamp,node,latency,action,joint_1,joint_2,joint_3,joint_4,joint_5,joint_6
1605106403989768960,10.0.1.137,2004,,0.000,0.000,0.000,0.000,0.000,0.000
1605106406842681856,10.0.1.137,853,move_down,-0.020,-0.020,-0.020,0.000,0.000,0.000
1605106408330233088,10.0.1.137,429,move_down,-0.040,-0.040,-0.040,0.000,0.000,0.000
1605106409862353920,10.0.1.137,460,move_down,-0.060,-0.060,-0.060,0.000,0.000,0.000
1605106411413754112,10.0.1.137,466,move_down,-0.080,-0.080,-0.080,0.000,0.000,0.000
1605106412932299008,10.0.1.137,477,move_down,-0.100,-0.100,-0.100,0.000,0.000,0.000
1605106414523339008,10.0.1.137,526,move_down,-0.120,-0.120,-0.120,0.000,0.000,0.000
1605106416140461056,10.0.1.137,535,move_down,-0.140,-0.140,-0.140,0.000,0.000,0.000
1605106417708491008,10.0.1.137,522,move_down,-0.160,-0.160,-0.160,0.000,0.000,0.000
1605106419224424960,10.0.1.137,440,move_down,-0.180,-0.180,-0.180,0.000,0.000,0.000
1605106420761648896,10.0.1.137,438,move_down,-0.200,-0.200,-0.200,0.000,0.000,0.000
1605106422326756864,10.0.1.137,468,move_down,-0.220,-0.220,-0.220,0.000,0.000,0.000
1605106423918195968,10.0.1.137,488,move_down,-0.240,-0.240,-0.240,0.000,0.000,0.000
1605106425510585088,10.0.1.137,513,move_down,-0.260,-0.260,-0.260,0.000,0.000,0.000
1605106427072689152,10.0.1.137,438,move_down,-0.280,-0.280,-0.280,0.000,0.000,0.000
1605106428670770944,10.0.1.137,534,move_down,-0.300,-0.300,-0.300,0.000,0.000,0.000
1605106430229281792,10.0.1.137,458,move_down,-0.320,-0.320,-0.320,0.000,0.000,0.000
1605106431865135872,10.0.1.137,539,move_down,-0.340,-0.340,-0.340,0.000,0.000,0.000
1605106433484352000,10.0.1.137,564,move_down,-0.360,-0.360,-0.360,0.000,0.000,0.000
1605106435118180864,10.0.1.137,534,move_down,-0.380,-0.380,-0.380,0.000,0.000,0.000
1605106436731538176,10.0.1.137,529,move_down,-0.400,-0.400,-0.400,0.000,0.000,0.000
1605106438267947008,10.0.1.137,472,move_down,-0.420,-0.420,-0.420,0.000,0.000,0.000
1605106439813859840,10.0.1.137,489,move_down,-0.440,-0.440,-0.440,0.000,0.000,0.000
1605106441363012096,10.0.1.137,434,move_down,-0.460,-0.460,-0.460,0.000,0.000,0.000
1605106442983249920,10.0.1.137,520,move_down,-0.480,-0.480,-0.480,0.000,0.000,0.000
1605106444530162944,10.0.1.137,474,move_down,-0.500,-0.500,-0.500,0.000,0.000,0.000
1605106446045857792,10.0.1.137,445,move_down,-0.520,-0.520,-0.520,0.000,0.000,0.000
1605106447598086144,10.0.1.137,481,move_down,-0.540,-0.540,-0.540,0.000,0.000,0.000
1605106449100009984,10.0.1.137,432,move_down,-0.560,-0.560,-0.560,0.000,0.000,0.000
1605106450584317952,10.0.1.137,473,move_down,-0.580,-0.580,-0.580,0.000,0.000,0.000
1605106451690160896,10.0.1.137,58,pick,-0.590,-0.590,-0.590,0.000,0.000,0.000
1605106452671268096,10.0.1.137,38,pick,-0.600,-0.600,-0.600,0.000,0.000,0.000
1605106453676704768,10.0.1.137,42,pick,-0.610,-0.610,-0.610,0.000,0.000,0.000
1605106454687636992,10.0.1.137,52,pick,-0.620,-0.620,-0.620,0.000,0.000,0.000
1605106455677478144,10.0.1.137,38,pick,-0.630,-0.630,-0.630,0.000,0.000,0.000
1605106456684508928,10.0.1.137,43,pick,-0.640,-0.640,-0.640,0.000,0.000,0.000
1605106457691102976,10.0.1.137,48,pick,-0.650,-0.650,-0.650,0.000,0.000,0.000
1605106459690649088,10.0.1.137,45,pick,-0.670,-0.670,-0.670,0.000,0.000,0.000
1605106460688358144,10.0.1.137,41,pick,-0.680,-0.680,-0.680,0.000,0.000,0.000
1605106461688737024,10.0.1.137,40,pick,-0.690,-0.690,-0.690,0.000,0.000,0.000
1605106462690983168,10.0.1.137,41,pick,-0.700,-0.700,-0.700,0.000,0.000,0.000
1605106463688108032,10.0.1.137,36,pick,-0.710,-0.710,-0.710,0.000,0.000,0.000
1605106464690722048,10.0.1.137,38,pick,-0.720,-0.720,-0.720,0.000,0.000,0.000
1605106465695993856,10.0.1.137,41,pick,-0.730,-0.730,-0.730,0.000,0.000,0.000
1605106466688837888,10.0.1.137,33,pick,-0.740,-0.740,-0.740,0.000,0.000,0.000
1605106467711090176,10.0.1.137,54,pick,-0.750,-0.750,-0.750,0.000,0.000,0.000
1605106468729805824,10.0.1.137,71,pick,-0.760,-0.760,-0.760,0.000,0.000,0.000
1605106469716829952,10.0.1.137,56,pick,-0.770,-0.770,-0.770,0.000,0.000,0.000
1605106471108460032,10.0.1.137,446,move_up,-0.750,-0.750,-0.750,0.000,0.000,0.000
1605106472627870976,10.0.1.137,449,move_up,-0.730,-0.730,-0.730,0.000,0.000,0.000
1605106474175673088,10.0.1.137,503,move_up,-0.710,-0.710,-0.710,0.000,0.000,0.000
1605106475784197120,10.0.1.137,525,move_up,-0.690,-0.690,-0.690,0.000,0.000,0.000
1605106477278704896,10.0.1.137,443,move_up,-0.670,-0.670,-0.670,0.000,0.000,0.000
1605106478838880000,10.0.1.137,455,move_up,-0.650,-0.650,-0.650,0.000,0.000,0.000
1605106480445722112,10.0.1.137,517,move_up,-0.630,-0.630,-0.630,0.000,0.000,0.000
1605106482032670976,10.0.1.137,509,move_up,-0.610,-0.610,-0.610,0.000,0.000,0.000
1605106483599781888,10.0.1.137,503,move_up,-0.590,-0.590,-0.590,0.000,0.000,0.000
1605106485181085184,10.0.1.137,506,move_up,-0.570,-0.570,-0.570,0.000,0.000,0.000
1605106486731169024,10.0.1.137,503,move_up,-0.550,-0.550,-0.550,0.000,0.000,0.000
1605106488212526080,10.0.1.137,425,move_up,-0.530,-0.530,-0.530,0.000,0.000,0.000
1605106489852621056,10.0.1.137,537,move_up,-0.510,-0.510,-0.510,0.000,0.000,0.000
1605106491584852992,10.0.1.137,590,move_up,-0.490,-0.490,-0.490,0.000,0.000,0.000
1605106493058828032,10.0.1.137,436,move_up,-0.470,-0.470,-0.470,0.000,0.000,0.000
1605106494728035072,10.0.1.137,469,move_up,-0.450,-0.450,-0.450,0.000,0.000,0.000
1605106496298566144,10.0.1.137,509,move_up,-0.430,-0.430,-0.430,0.000,0.000,0.000
1605106497896035840,10.0.1.137,582,move_up,-0.410,-0.410,-0.410,0.000,0.000,0.000
1605106499400940800,10.0.1.137,418,move_up,-0.390,-0.390,-0.390,0.000,0.000,0.000
1605106501009744896,10.0.1.137,513,move_up,-0.370,-0.370,-0.370,0.000,0.000,0.000
1605106502525254912,10.0.1.137,478,move_up,-0.350,-0.350,-0.350,0.000,0.000,0.000
1605106504078949888,10.0.1.137,485,move_up,-0.330,-0.330,-0.330,0.000,0.000,0.000
1605106505658798848,10.0.1.137,532,move_up,-0.310,-0.310,-0.310,0.000,0.000,0.000
1605106507397393920,10.0.1.137,698,move_up,-0.290,-0.290,-0.290,0.000,0.000,0.000
1605106508947860992,10.0.1.137,504,move_up,-0.270,-0.270,-0.270,0.000,0.000,0.000
1605106510481654016,10.0.1.137,423,move_up,-0.250,-0.250,-0.250,0.000,0.000,0.000
1605106512089700864,10.0.1.137,498,move_up,-0.230,-0.230,-0.230,0.000,0.000,0.000
1605106513700932864,10.0.1.137,548,move_up,-0.210,-0.210,-0.210,0.000,0.000,0.000
1605106515260027904,10.0.1.137,507,move_up,-0.190,-0.190,-0.190,0.000,0.000,0.000
1605106517443092992,10.0.1.137,38,place,-0.170,-0.170,-0.170,0.000,0.000,0.000
1605106518452022016,10.0.1.137,46,place,-0.160,-0.160,-0.160,0.000,0.000,0.000
1605106519455727104,10.0.1.137,48,place,-0.150,-0.150,-0.150,0.000,0.000,0.000
1605106520443876096,10.0.1.137,35,place,-0.140,-0.140,-0.140,0.000,0.000,0.000
1605106521464881920,10.0.1.137,45,place,-0.130,-0.130,-0.130,0.000,0.000,0.000
1605106522465406976,10.0.1.137,44,place,-0.120,-0.120,-0.120,0.000,0.000,0.000
1605106523462744064,10.0.1.137,40,place,-0.110,-0.110,-0.110,0.000,0.000,0.000
1605106524462825984,10.0.1.137,38,place,-0.100,-0.100,-0.100,0.000,0.000,0.000
1605106525464168960,10.0.1.137,38,place,-0.090,-0.090,-0.090,0.000,0.000,0.000
1605106526489733888,10.0.1.137,57,place,-0.080,-0.080,-0.080,0.000,0.000,0.000
1605106527489468928,10.0.1.137,55,place,-0.070,-0.070,-0.070,0.000,0.000,0.000
1605106528482408960,10.0.1.137,47,place,-0.060,-0.060,-0.060,0.000,0.000,0.000
1605106529486109952,10.0.1.137,49,place,-0.050,-0.050,-0.050,0.000,0.000,0.000
1605106530486771200,10.0.1.137,49,place,-0.040,-0.040,-0.040,0.000,0.000,0.000
1605106531485435136,10.0.1.137,46,place,-0.030,-0.030,-0.030,0.000,0.000,0.000
1605106532485681920,10.0.1.137,46,place,-0.020,-0.020,-0.020,0.000,0.000,0.000
1605106534490905088,10.0.1.137,47,place,0.000,0.000,0.000,0.000,0.000,0.000
1605106535933601024,10.0.1.137,488,move_down,-0.020,-0.020,-0.020,0.000,0.000,0.000
1605106537540285184,10.0.1.137,514,move_down,-0.040,-0.040,-0.040,0.000,0.000,0.000
1605106539079291136,10.0.1.137,451,move_down,-0.060,-0.060,-0.060,0.000,0.000,0.000
1605106540660398848,10.0.1.137,506,move_down,-0.080,-0.080,-0.080,0.000,0.000,0.000
1605106542120163840,10.0.1.137,421,move_down,-0.100,-0.100,-0.100,0.000,0.000,0.000
1605106543739123968,10.0.1.137,495,move_down,-0.120,-0.120,-0.120,0.000,0.000,0.000
1605106545252051200,10.0.1.137,456,move_down,-0.140,-0.140,-0.140,0.000,0.000,0.000
1605106546802841856,10.0.1.137,477,move_down,-0.160,-0.160,-0.160,0.000,0.000,0.000
1605106548402178048,10.0.1.137,510,move_down,-0.180,-0.180,-0.180,0.000,0.000,0.000
1605106549957443072,10.0.1.137,484,move_down,-0.200,-0.200,-0.200,0.000,0.000,0.000
1605106551552313088,10.0.1.137,555,move_down,-0.220,-0.220,-0.220,0.000,0.000,0.000
1605106553083842048,10.0.1.137,463,move_down,-0.240,-0.240,-0.240,0.000,0.000,0.000
1605106554648922880,10.0.1.137,497,move_down,-0.260,-0.260,-0.260,0.000,0.000,0.000
1605106556230011904,10.0.1.137,489,move_down,-0.280,-0.280,-0.280,0.000,0.000,0.000
1605106557784356096,10.0.1.137,504,move_down,-0.300,-0.300,-0.300,0.000,0.000,0.000
1605106559435382016,10.0.1.137,563,move_down,-0.320,-0.320,-0.320,0.000,0.000,0.000
1605106560992368896,10.0.1.137,499,move_down,-0.340,-0.340,-0.340,0.000,0.000,0.000
1605106562661079808,10.0.1.137,513,move_down,-0.360,-0.360,-0.360,0.000,0.000,0.000
1605106564267952896,10.0.1.137,539,move_down,-0.380,-0.380,-0.380,0.000,0.000,0.000
1605106565991930112,10.0.1.137,658,move_down,-0.400,-0.400,-0.400,0.000,0.000,0.000
1605106567652098816,10.0.1.137,585,move_down,-0.420,-0.420,-0.420,0.000,0.000,0.000
1605106569181693184,10.0.1.137,484,move_down,-0.440,-0.440,-0.440,0.000,0.000,0.000
1605106570756523008,10.0.1.137,517,move_down,-0.460,-0.460,-0.460,0.000,0.000,0.000
1605106572283041024,10.0.1.137,452,move_down,-0.480,-0.480,-0.480,0.000,0.000,0.000
1605106573865345024,10.0.1.137,529,move_down,-0.500,-0.500,-0.500,0.000,0.000,0.000
1605106575532133120,10.0.1.137,569,move_down,-0.520,-0.520,-0.520,0.000,0.000,0.000
1605106577013660928,10.0.1.137,467,move_down,-0.540,-0.540,-0.540,0.000,0.000,0.000
1605106578655442944,10.0.1.137,554,move_down,-0.560,-0.560,-0.560,0.000,0.000,0.000
1605106580258310912,10.0.1.137,536,move_down,-0.580,-0.580,-0.580,0.000,0.000,0.000
1605106581438144000,10.0.1.137,50,pick,-0.590,-0.590,-0.590,0.000,0.000,0.000
1605106582430123008,10.0.1.137,40,pick,-0.600,-0.600,-0.600,0.000,0.000,0.000
1605106583430604032,10.0.1.137,40,pick,-0.610,-0.610,-0.610,0.000,0.000,0.000
1605106584448641024,10.0.1.137,55,pick,-0.620,-0.620,-0.620,0.000,0.000,0.000
1605106585432699904,10.0.1.137,37,pick,-0.630,-0.630,-0.630,0.000,0.000,0.000
1605106586471749120,10.0.1.137,71,pick,-0.640,-0.640,-0.640,0.000,0.000,0.000
1605106587456000000,10.0.1.137,46,pick,-0.650,-0.650,-0.650,0.000,0.000,0.000
1605106588449532928,10.0.1.137,38,pick,-0.660,-0.660,-0.660,0.000,0.000,0.000
1605106589450118144,10.0.1.137,38,pick,-0.670,-0.670,-0.670,0.000,0.000,0.000
1605106590451333888,10.0.1.137,37,pick,-0.680,-0.680,-0.680,0.000,0.000,0.000
1605106592468584960,10.0.1.137,48,pick,-0.700,-0.700,-0.700,0.000,0.000,0.000
1605106593469878784,10.0.1.137,45,pick,-0.710,-0.710,-0.710,0.000,0.000,0.000
1605106594469086976,10.0.1.137,42,pick,-0.720,-0.720,-0.720,0.000,0.000,0.000
1605106595468764160,10.0.1.137,41,pick,-0.730,-0.730,-0.730,0.000,0.000,0.000
1605106596481213184,10.0.1.137,52,pick,-0.740,-0.740,-0.740,0.000,0.000,0.000
1605106597481352960,10.0.1.137,50,pick,-0.750,-0.750,-0.750,0.000,0.000,0.000
1605106598481904128,10.0.1.137,49,pick,-0.760,-0.760,-0.760,0.000,0.000,0.000
1605106599486767104,10.0.1.137,53,pick,-0.770,-0.770,-0.770,0.000,0.000,0.000
1605106600927931136,10.0.1.137,493,move_up,-0.750,-0.750,-0.750,0.000,0.000,0.000
1605106602519673088,10.0.1.137,493,move_up,-0.730,-0.730,-0.730,0.000,0.000,0.000
1605106604017579008,10.0.1.137,437,move_up,-0.710,-0.710,-0.710,0.000,0.000,0.000
1605106605520994048,10.0.1.137,479,move_up,-0.690,-0.690,-0.690,0.000,0.000,0.000
1605106607107172096,10.0.1.137,501,move_up,-0.670,-0.670,-0.670,0.000,0.000,0.000
1605106608647810816,10.0.1.137,419,move_up,-0.650,-0.650,-0.650,0.000,0.000,0.000
1605106610384044032,10.0.1.137,660,move_up,-0.630,-0.630,-0.630,0.000,0.000,0.000
1605106611925542144,10.0.1.137,488,move_up,-0.610,-0.610,-0.610,0.000,0.000,0.000
1605106613514839040,10.0.1.137,513,move_up,-0.590,-0.590,-0.590,0.000,0.000,0.000
1605106615174518016,10.0.1.137,540,move_up,-0.570,-0.570,-0.570,0.000,0.000,0.000
1605106616701585920,10.0.1.137,455,move_up,-0.550,-0.550,-0.550,0.000,0.000,0.000
1605106618254106880,10.0.1.137,495,move_up,-0.530,-0.530,-0.530,0.000,0.000,0.000
1605106619962696960,10.0.1.137,563,move_up,-0.510,-0.510,-0.510,0.000,0.000,0.000
1605106621556134912,10.0.1.137,481,move_up,-0.490,-0.490,-0.490,0.000,0.000,0.000
1605106623204142080,10.0.1.137,570,move_up,-0.470,-0.470,-0.470,0.000,0.000,0.000
1605106624899849984,10.0.1.137,644,move_up,-0.450,-0.450,-0.450,0.000,0.000,0.000
1605106626509251072,10.0.1.137,526,move_up,-0.430,-0.430,-0.430,0.000,0.000,0.000
1605106628118618880,10.0.1.137,510,move_up,-0.410,-0.410,-0.410,0.000,0.000,0.000
1605106629788712960,10.0.1.137,571,move_up,-0.390,-0.390,-0.390,0.000,0.000,0.000
1605106631471304960,10.0.1.137,565,move_up,-0.370,-0.370,-0.370,0.000,0.000,0.000
1605106633224492032,10.0.1.137,656,move_up,-0.350,-0.350,-0.350,0.000,0.000,0.000
1605106634857506048,10.0.1.137,532,move_up,-0.330,-0.330,-0.330,0.000,0.000,0.000
1605106636392033024,10.0.1.137,494,move_up,-0.310,-0.310,-0.310,0.000,0.000,0.000
1605106638032537856,10.0.1.137,560,move_up,-0.290,-0.290,-0.290,0.000,0.000,0.000
1605106639589209088,10.0.1.137,462,move_up,-0.270,-0.270,-0.270,0.000,0.000,0.000
1605106641127203072,10.0.1.137,448,move_up,-0.250,-0.250,-0.250,0.000,0.000,0.000
1605106642713140992,10.0.1.137,493,move_up,-0.230,-0.230,-0.230,0.000,0.000,0.000
1605106644688878080,10.0.1.137,891,move_up,-0.210,-0.210,-0.210,0.000,0.000,0.000
1605106646258534912,10.0.1.137,509,move_up,-0.190,-0.190,-0.190,0.000,0.000,0.000
1605106647412257024,10.0.1.137,60,place,-0.180,-0.180,-0.180,0.000,0.000,0.000
1605106648406290176,10.0.1.137,52,place,-0.170,-0.170,-0.170,0.000,0.000,0.000
1605106650417035008,10.0.1.137,59,place,-0.150,-0.150,-0.150,0.000,0.000,0.000
1605106651418103040,10.0.1.137,51,place,-0.140,-0.140,-0.140,0.000,0.000,0.000
1605106652412587776,10.0.1.137,37,place,-0.130,-0.130,-0.130,0.000,0.000,0.000
1605106653422044928,10.0.1.137,45,place,-0.120,-0.120,-0.120,0.000,0.000,0.000
1605106654424992000,10.0.1.137,46,place,-0.110,-0.110,-0.110,0.000,0.000,0.000
1605106655433771008,10.0.1.137,53,place,-0.100,-0.100,-0.100,0.000,0.000,0.000
1605106656426587136,10.0.1.137,45,place,-0.090,-0.090,-0.090,0.000,0.000,0.000
1605106657428764160,10.0.1.137,44,place,-0.080,-0.080,-0.080,0.000,0.000,0.000
1605106658445574144,10.0.1.137,60,place,-0.070,-0.070,-0.070,0.000,0.000,0.000
1605106659429069056,10.0.1.137,41,place,-0.060,-0.060,-0.060,0.000,0.000,0.000
1605106660436284928,10.0.1.137,46,place,-0.050,-0.050,-0.050,0.000,0.000,0.000
1605106661420166912,10.0.1.137,29,place,-0.040,-0.040,-0.040,0.000,0.000,0.000
1605106662447729152,10.0.1.137,52,place,-0.030,-0.030,-0.030,0.000,0.000,0.000
1605106663447331840,10.0.1.137,50,place,-0.020,-0.020,-0.020,0.000,0.000,0.000
1605106664447081984,10.0.1.137,42,place,-0.010,-0.010,-0.010,0.000,0.000,0.000
1605106665445421824,10.0.1.137,39,place,0.000,0.000,0.000,0.000,0.000,0.000
1605106666889026048,10.0.1.137,482,move_down,-0.020,-0.020,-0.020,0.000,0.000,0.000
1605106668478828032,10.0.1.137,539,move_down,-0.040,-0.040,-0.040,0.000,0.000,0.000
1605106670109036800,10.0.1.137,488,move_down,-0.060,-0.060,-0.060,0.000,0.000,0.000
1605106671650765824,10.0.1.137,428,move_down,-0.080,-0.080,-0.080,0.000,0.000,0.000
1605106673140832000,10.0.1.137,474,move_down,-0.100,-0.100,-0.100,0.000,0.000,0.000
1605106674684936960,10.0.1.137,472,move_down,-0.120,-0.120,-0.120,0.000,0.000,0.000
1605106676251651072,10.0.1.137,489,move_down,-0.140,-0.140,-0.140,0.000,0.000,0.000
1605106677930007808,10.0.1.137,602,move_down,-0.160,-0.160,-0.160,0.000,0.000,0.000
1605106679435123968,10.0.1.137,463,move_down,-0.180,-0.180,-0.180,0.000,0.000,0.000
1605106681055766016,10.0.1.137,546,move_down,-0.200,-0.200,-0.200,0.000,0.000,0.000
1605106682635045120,10.0.1.137,548,move_down,-0.220,-0.220,-0.220,0.000,0.000,0.000
1605106684239265792,10.0.1.137,508,move_down,-0.240,-0.240,-0.240,0.000,0.000,0.000
1605106685771650048,10.0.1.137,478,move_down,-0.260,-0.260,-0.260,0.000,0.000,0.000
1605106687386900992,10.0.1.137,554,move_down,-0.280,-0.280,-0.280,0.000,0.000,0.000
1605106688919181056,10.0.1.137,444,move_down,-0.300,-0.300,-0.300,0.000,0.000,0.000
1605106690551308032,10.0.1.137,539,move_down,-0.320,-0.320,-0.320,0.000,0.000,0.000
1605106692074025984,10.0.1.137,502,move_down,-0.340,-0.340,-0.340,0.000,0.000,0.000
1605106693730598912,10.0.1.137,531,move_down,-0.360,-0.360,-0.360,0.000,0.000,0.000
1605106695312033024,10.0.1.137,491,move_down,-0.380,-0.380,-0.380,0.000,0.000,0.000
1605106696840024064,10.0.1.137,448,move_down,-0.400,-0.400,-0.400,0.000,0.000,0.000
1605106698439384064,10.0.1.137,504,move_down,-0.420,-0.420,-0.420,0.000,0.000,0.000
1605106700090961920,10.0.1.137,615,move_down,-0.440,-0.440,-0.440,0.000,0.000,0.000
1605106701752705024,10.0.1.137,550,move_down,-0.460,-0.460,-0.460,0.000,0.000,0.000
1605106703453751040,10.0.1.137,617,move_down,-0.480,-0.480,-0.480,0.000,0.000,0.000
1605106705251821056,10.0.1.137,755,move_down,-0.500,-0.500,-0.500,0.000,0.000,0.000
1605106706841757184,10.0.1.137,546,move_down,-0.520,-0.520,-0.520,0.000,0.000,0.000
1605106708603197952,10.0.1.137,661,move_down,-0.540,-0.540,-0.540,0.000,0.000,0.000
1605106710324614144,10.0.1.137,650,move_down,-0.560,-0.560,-0.560,0.000,0.000,0.000
1605106712258765056,10.0.1.137,707,move_down,-0.580,-0.580,-0.580,0.000,0.000,0.000
1605106713398379008,10.0.1.137,85,pick,-0.590,-0.590,-0.590,0.000,0.000,0.000
1605106714375828992,10.0.1.137,60,pick,-0.600,-0.600,-0.600,0.000,0.000,0.000
1605106715364881920,10.0.1.137,49,pick,-0.610,-0.610,-0.610,0.000,0.000,0.000
1605106716392636928,10.0.1.137,64,pick,-0.620,-0.620,-0.620,0.000,0.000,0.000
1605106717392424192,10.0.1.137,59,pick,-0.630,-0.630,-0.630,0.000,0.000,0.000
1605106718389483008,10.0.1.137,55,pick,-0.640,-0.640,-0.640,0.000,0.000,0.000
1605106719405193984,10.0.1.137,53,pick,-0.650,-0.650,-0.650,0.000,0.000,0.000
1605106720386816000,10.0.1.137,34,pick,-0.660,-0.660,-0.660,0.000,0.000,0.000
1605106721403848960,10.0.1.137,49,pick,-0.670,-0.670,-0.670,0.000,0.000,0.000
1605106722398161920,10.0.1.137,33,pick,-0.680,-0.680,-0.680,0.000,0.000,0.000
1605106723401164032,10.0.1.137,33,pick,-0.690,-0.690,-0.690,0.000,0.000,0.000
1605106725438509056,10.0.1.137,64,pick,-0.710,-0.710,-0.710,0.000,0.000,0.000
1605106726437720064,10.0.1.137,59,pick,-0.720,-0.720,-0.720,0.000,0.000,0.000
1605106727429303808,10.0.1.137,49,pick,-0.730,-0.730,-0.730,0.000,0.000,0.000
1605106728442800128,10.0.1.137,56,pick,-0.740,-0.740,-0.740,0.000,0.000,0.000
1605106729436242176,10.0.1.137,48,pick,-0.750,-0.750,-0.750,0.000,0.000,0.000
1605106730432190976,10.0.1.137,42,pick,-0.760,-0.760,-0.760,0.000,0.000,0.000
1605106732890464000,10.0.1.137,486,move_up,-0.750,-0.750,-0.750,0.000,0.000,0.000
1605106734579776000,10.0.1.137,618,move_up,-0.730,-0.730,-0.730,0.000,0.000,0.000
1605106736239643136,10.0.1.137,569,move_up,-0.710,-0.710,-0.710,0.000,0.000,0.000
1605106737837704960,10.0.1.137,538,move_up,-0.690,-0.690,-0.690,0.000,0.000,0.000
1605106739488715008,10.0.1.137,517,move_up,-0.670,-0.670,-0.670,0.000,0.000,0.000
1605106741090446848,10.0.1.137,539,move_up,-0.650,-0.650,-0.650,0.000,0.000,0.000
1605106742800168960,10.0.1.137,633,move_up,-0.630,-0.630,-0.630,0.000,0.000,0.000
1605106744602235136,10.0.1.137,695,move_up,-0.610,-0.610,-0.610,0.000,0.000,0.000
1605106746153330176,10.0.1.137,460,move_up,-0.590,-0.590,-0.590,0.000,0.000,0.000
1605106747846714880,10.0.1.137,625,move_up,-0.570,-0.570,-0.570,0.000,0.000,0.000
1605106749412517120,10.0.1.137,486,move_up,-0.550,-0.550,-0.550,0.000,0.000,0.000
1605106751045725184,10.0.1.137,580,move_up,-0.530,-0.530,-0.530,0.000,0.000,0.000
1605106752622962944,10.0.1.137,519,move_up,-0.510,-0.510,-0.510,0.000,0.000,0.000
1605106754134898944,10.0.1.137,508,move_up,-0.490,-0.490,-0.490,0.000,0.000,0.000
1605106755826294016,10.0.1.137,596,move_up,-0.470,-0.470,-0.470,0.000,0.000,0.000
1605106757341300992,10.0.1.137,509,move_up,-0.450,-0.450,-0.450,0.000,0.000,0.000
1605106759043006976,10.0.1.137,573,move_up,-0.430,-0.430,-0.430,0.000,0.000,0.000
1605106760775190016,10.0.1.137,544,move_up,-0.410,-0.410,-0.410,0.000,0.000,0.000
1605106762369213184,10.0.1.137,572,move_up,-0.390,-0.390,-0.390,0.000,0.000,0.000
1605106763970345984,10.0.1.137,528,move_up,-0.370,-0.370,-0.370,0.000,0.000,0.000
1605106765522216192,10.0.1.137,470,move_up,-0.350,-0.350,-0.350,0.000,0.000,0.000
1605106767106631936,10.0.1.137,501,move_up,-0.330,-0.330,-0.330,0.000,0.000,0.000
1605106768788784896,10.0.1.137,582,move_up,-0.310,-0.310,-0.310,0.000,0.000,0.000
1605106770597337856,10.0.1.137,715,move_up,-0.290,-0.290,-0.290,0.000,0.000,0.000
1605106772242187008,10.0.1.137,698,move_up,-0.270,-0.270,-0.270,0.000,0.000,0.000
1605106774080146944,10.0.1.137,754,move_up,-0.250,-0.250,-0.250,0.000,0.000,0.000
1605106775832940032,10.0.1.137,619,move_up,-0.230,-0.230,-0.230,0.000,0.000,0.000
1605106777638686976,10.0.1.137,603,move_up,-0.210,-0.210,-0.210,0.000,0.000,0.000
1605106779242238976,10.0.1.137,526,move_up,-0.190,-0.190,-0.190,0.000,0.000,0.000
1605106780420171008,10.0.1.137,40,place,-0.180,-0.180,-0.180,0.000,0.000,0.000
1605106781426765824,10.0.1.137,46,place,-0.170,-0.170,-0.170,0.000,0.000,0.000
1605106782436837888,10.0.1.137,55,place,-0.160,-0.160,-0.160,0.000,0.000,0.000
1605106783441095168,10.0.1.137,55,place,-0.150,-0.150,-0.150,0.000,0.000,0.000
1605106784442955008,10.0.1.137,54,place,-0.140,-0.140,-0.140,0.000,0.000,0.000
1605106785448147968,10.0.1.137,57,place,-0.130,-0.130,-0.130,0.000,0.000,0.000
1605106786442915840,10.0.1.137,51,place,-0.120,-0.120,-0.120,0.000,0.000,0.000
1605106787455048960,10.0.1.137,62,place,-0.110,-0.110,-0.110,0.000,0.000,0.000
1605106788458280192,10.0.1.137,56,place,-0.100,-0.100,-0.100,0.000,0.000,0.000
1605106789457787136,10.0.1.137,49,place,-0.090,-0.090,-0.090,0.000,0.000,0.000
1605106790445410048,10.0.1.137,36,place,-0.080,-0.080,-0.080,0.000,0.000,0.000
1605106791456914944,10.0.1.137,46,place,-0.070,-0.070,-0.070,0.000,0.000,0.000
1605106792456023808,10.0.1.137,44,place,-0.060,-0.060,-0.060,0.000,0.000,0.000
1605106793464268032,10.0.1.137,50,place,-0.050,-0.050,-0.050,0.000,0.000,0.000
1605106794456999168,10.0.1.137,41,place,-0.040,-0.040,-0.040,0.000,0.000,0.000
1605106795472166912,10.0.1.137,56,place,-0.030,-0.030,-0.030,0.000,0.000,0.000
1605106796454104064,10.0.1.137,37,place,-0.020,-0.020,-0.020,0.000,0.000,0.000
1605106797456296960,10.0.1.137,38,place,-0.010,-0.010,-0.010,0.000,0.000,0.000
1605106798465136128,10.0.1.137,45,place,0.000,0.000,0.000,0.000,0.000,0.000
1605106799983126016,10.0.1.137,562,move_down,-0.020,-0.020,-0.020,0.000,0.000,0.000
1605106801572640000,10.0.1.137,515,move_down,-0.040,-0.040,-0.040,0.000,0.000,0.000
1605106803105395968,10.0.1.137,447,move_down,-0.060,-0.060,-0.060,0.000,0.000,0.000
1605106804844958976,10.0.1.137,613,move_down,-0.080,-0.080,-0.080,0.000,0.000,0.000
1605106806426493952,10.0.1.137,469,move_down,-0.100,-0.100,-0.100,0.000,0.000,0.000
1605106808128595968,10.0.1.137,634,move_down,-0.120,-0.120,-0.120,0.000,0.000,0.000
1605106809865734144,10.0.1.137,659,move_down,-0.140,-0.140,-0.140,0.000,0.000,0.000
1605106811834682112,10.0.1.137,839,move_down,-0.160,-0.160,-0.160,0.000,0.000,0.000
1605106813713704960,10.0.1.137,759,move_down,-0.180,-0.180,-0.180,0.000,0.000,0.000
1605106815269107968,10.0.1.137,474,move_down,-0.200,-0.200,-0.200,0.000,0.000,0.000
1605106816987092992,10.0.1.137,624,move_down,-0.220,-0.220,-0.220,0.000,0.000,0.000
1605106818655544064,10.0.1.137,555,move_down,-0.240,-0.240,-0.240,0.000,0.000,0.000
1605106820396330240,10.0.1.137,661,move_down,-0.260,-0.260,-0.260,0.000,0.000,0.000
1605106822063257088,10.0.1.137,614,move_down,-0.280,-0.280,-0.280,0.000,0.000,0.000
1605106823687126016,10.0.1.137,493,move_down,-0.300,-0.300,-0.300,0.000,0.000,0.000
1605106825298707968,10.0.1.137,569,move_down,-0.320,-0.320,-0.320,0.000,0.000,0.000
1605106827034476032,10.0.1.137,591,move_down,-0.340,-0.340,-0.340,0.000,0.000,0.000
1605106828673494016,10.0.1.137,577,move_down,-0.360,-0.360,-0.360,0.000,0.000,0.000
1605106830388299008,10.0.1.137,589,move_down,-0.380,-0.380,-0.380,0.000,0.000,0.000
1605106832131938816,10.0.1.137,521,move_down,-0.400,-0.400,-0.400,0.000,0.000,0.000
1605106833934861824,10.0.1.137,650,move_down,-0.420,-0.420,-0.420,0.000,0.000,0.000
1605106835714405120,10.0.1.137,593,move_down,-0.440,-0.440,-0.440,0.000,0.000,0.000
1605106837341094912,10.0.1.137,571,move_down,-0.460,-0.460,-0.460,0.000,0.000,0.000
1605106838900829952,10.0.1.137,488,move_down,-0.480,-0.480,-0.480,0.000,0.000,0.000
1605106840630215936,10.0.1.137,612,move_down,-0.500,-0.500,-0.500,0.000,0.000,0.000
1605106842199073024,10.0.1.137,506,move_down,-0.520,-0.520,-0.520,0.000,0.000,0.000
1605106843934572032,10.0.1.137,620,move_down,-0.540,-0.540,-0.540,0.000,0.000,0.000
1605106845478785024,10.0.1.137,472,move_down,-0.560,-0.560,-0.560,0.000,0.000,0.000
1605106847128109056,10.0.1.137,490,move_down,-0.580,-0.580,-0.580,0.000,0.000,0.000
1605106848239665152,10.0.1.137,42,pick,-0.590,-0.590,-0.590,0.000,0.000,0.000
1605106849245306880,10.0.1.137,47,pick,-0.600,-0.600,-0.600,0.000,0.000,0.000
1605106850252697088,10.0.1.137,53,pick,-0.610,-0.610,-0.610,0.000,0.000,0.000
1605106851261153024,10.0.1.137,57,pick,-0.620,-0.620,-0.620,0.000,0.000,0.000
1605106852260244992,10.0.1.137,54,pick,-0.630,-0.630,-0.630,0.000,0.000,0.000
1605106853284184832,10.0.1.137,75,pick,-0.640,-0.640,-0.640,0.000,0.000,0.000
1605106854256774912,10.0.1.137,46,pick,-0.650,-0.650,-0.650,0.000,0.000,0.000
1605106855257196800,10.0.1.137,42,pick,-0.660,-0.660,-0.660,0.000,0.000,0.000
1605106856278426880,10.0.1.137,61,pick,-0.670,-0.670,-0.670,0.000,0.000,0.000
1605106857257582848,10.0.1.137,39,pick,-0.680,-0.680,-0.680,0.000,0.000,0.000
1605106858258238976,10.0.1.137,35,pick,-0.690,-0.690,-0.690,0.000,0.000,0.000
1605106860290317056,10.0.1.137,65,pick,-0.710,-0.710,-0.710,0.000,0.000,0.000
1605106861280561920,10.0.1.137,54,pick,-0.720,-0.720,-0.720,0.000,0.000,0.000
1605106862297796864,10.0.1.137,66,pick,-0.730,-0.730,-0.730,0.000,0.000,0.000
1605106863287048192,10.0.1.137,53,pick,-0.740,-0.740,-0.740,0.000,0.000,0.000
1605106864271126016,10.0.1.137,36,pick,-0.750,-0.750,-0.750,0.000,0.000,0.000
1605106865278896128,10.0.1.137,43,pick,-0.760,-0.760,-0.760,0.000,0.000,0.000
1605106866282771968,10.0.1.137,46,pick,-0.770,-0.770,-0.770,0.000,0.000,0.000
1605106867641315840,10.0.1.137,404,move_up,-0.750,-0.750,-0.750,0.000,0.000,0.000
1605106869279578880,10.0.1.137,457,move_up,-0.730,-0.730,-0.730,0.000,0.000,0.000
1605106870929441024,10.0.1.137,595,move_up,-0.710,-0.710,-0.710,0.000,0.000,0.000
1605106872581083904,10.0.1.137,549,move_up,-0.690,-0.690,-0.690,0.000,0.000,0.000
1605106874199795968,10.0.1.137,539,move_up,-0.670,-0.670,-0.670,0.000,0.000,0.000
1605106875784744960,10.0.1.137,503,move_up,-0.650,-0.650,-0.650,0.000,0.000,0.000
1605106877611023872,10.0.1.137,627,move_up,-0.630,-0.630,-0.630,0.000,0.000,0.000
1605106879370270976,10.0.1.137,653,move_up,-0.610,-0.610,-0.610,0.000,0.000,0.000
1605106881197132032,10.0.1.137,777,move_up,-0.590,-0.590,-0.590,0.000,0.000,0.000
1605106882831752960,10.0.1.137,633,move_up,-0.570,-0.570,-0.570,0.000,0.000,0.000
1605106884532870912,10.0.1.137,592,move_up,-0.550,-0.550,-0.550,0.000,0.000,0.000
1605106886284642048,10.0.1.137,645,move_up,-0.530,-0.530,-0.530,0.000,0.000,0.000
1605106887831984128,10.0.1.137,533,move_up,-0.510,-0.510,-0.510,0.000,0.000,0.000
1605106889541347072,10.0.1.137,569,move_up,-0.490,-0.490,-0.490,0.000,0.000,0.000
1605106891192645120,10.0.1.137,522,move_up,-0.470,-0.470,-0.470,0.000,0.000,0.000
1605106892704171008,10.0.1.137,445,move_up,-0.450,-0.450,-0.450,0.000,0.000,0.000
1605106894518758144,10.0.1.137,724,move_up,-0.430,-0.430,-0.430,0.000,0.000,0.000
1605106896131979008,10.0.1.137,479,move_up,-0.410,-0.410,-0.410,0.000,0.000,0.000
1605106897934952960,10.0.1.137,713,move_up,-0.390,-0.390,-0.390,0.000,0.000,0.000
1605106899516637184,10.0.1.137,508,move_up,-0.370,-0.370,-0.370,0.000,0.000,0.000
1605106901198558208,10.0.1.137,545,move_up,-0.350,-0.350,-0.350,0.000,0.000,0.000
1605106902799767040,10.0.1.137,508,move_up,-0.330,-0.330,-0.330,0.000,0.000,0.000
1605106904305005056,10.0.1.137,459,move_up,-0.310,-0.310,-0.310,0.000,0.000,0.000
1605106905954685952,10.0.1.137,557,move_up,-0.290,-0.290,-0.290,0.000,0.000,0.000
1605106907544531968,10.0.1.137,533,move_up,-0.270,-0.270,-0.270,0.000,0.000,0.000
1605106909142467072,10.0.1.137,534,move_up,-0.250,-0.250,-0.250,0.000,0.000,0.000
1605106910729163776,10.0.1.137,527,move_up,-0.230,-0.230,-0.230,0.000,0.000,0.000
1605106912343124992,10.0.1.137,566,move_up,-0.210,-0.210,-0.210,0.000,0.000,0.000
1605106913913624064,10.0.1.137,524,move_up,-0.190,-0.190,-0.190,0.000,0.000,0.000
1605106915018789120,10.0.1.137,43,place,-0.180,-0.180,-0.180,0.000,0.000,0.000
1605106916033030912,10.0.1.137,56,place,-0.170,-0.170,-0.170,0.000,0.000,0.000
1605106917026746112,10.0.1.137,43,place,-0.160,-0.160,-0.160,0.000,0.000,0.000
1605106918051342080,10.0.1.137,65,place,-0.150,-0.150,-0.150,0.000,0.000,0.000
1605106920034501120,10.0.1.137,45,place,-0.130,-0.130,-0.130,0.000,0.000,0.000
1605106921035120128,10.0.1.137,45,place,-0.120,-0.120,-0.120,0.000,0.000,0.000
1605106922057739008,10.0.1.137,51,place,-0.110,-0.110,-0.110,0.000,0.000,0.000
1605106923058893824,10.0.1.137,51,place,-0.100,-0.100,-0.100,0.000,0.000,0.000
1605106924056952832,10.0.1.137,47,place,-0.090,-0.090,-0.090,0.000,0.000,0.000
1605106925082307072,10.0.1.137,70,place,-0.080,-0.080,-0.080,0.000,0.000,0.000
1605106926062840064,10.0.1.137,49,place,-0.070,-0.070,-0.070,0.000,0.000,0.000
1605106927064471040,10.0.1.137,48,place,-0.060,-0.060,-0.060,0.000,0.000,0.000
1605106928057518080,10.0.1.137,39,place,-0.050,-0.050,-0.050,0.000,0.000,0.000
1605106929063065088,10.0.1.137,41,place,-0.040,-0.040,-0.040,0.000,0.000,0.000
1605106930076698112,10.0.1.137,54,place,-0.030,-0.030,-0.030,0.000,0.000,0.000
1605106931084952064,10.0.1.137,57,place,-0.020,-0.020,-0.020,0.000,0.000,0.000
1605106932081228032,10.0.1.137,52,place,-0.010,-0.010,-0.010,0.000,0.000,0.000
1605106933096625920,10.0.1.137,67,place,0.000,0.000,0.000,0.000,0.000,0.000
1605106934563795200,10.0.1.137,533,move_down,-0.020,-0.020,-0.020,0.000,0.000,0.000
1605106936082423808,10.0.1.137,471,move_down,-0.040,-0.040,-0.040,0.000,0.000,0.000
1605106937716068864,10.0.1.137,520,move_down,-0.060,-0.060,-0.060,0.000,0.000,0.000
1605106939387465984,10.0.1.137,595,move_down,-0.080,-0.080,-0.080,0.000,0.000,0.000
1605106940998411008,10.0.1.137,544,move_down,-0.100,-0.100,-0.100,0.000,0.000,0.000
1605106942483475968,10.0.1.137,453,move_down,-0.120,-0.120,-0.120,0.000,0.000,0.000
1605106944189193984,10.0.1.137,627,move_down,-0.140,-0.140,-0.140,0.000,0.000,0.000
1605106945932141056,10.0.1.137,597,move_down,-0.160,-0.160,-0.160,0.000,0.000,0.000
1605106947586739968,10.0.1.137,478,move_down,-0.180,-0.180,-0.180,0.000,0.000,0.000
1605106949206373888,10.0.1.137,536,move_down,-0.200,-0.200,-0.200,0.000,0.000,0.000
1605106950847013888,10.0.1.137,550,move_down,-0.220,-0.220,-0.220,0.000,0.000,0.000
1605106952626235136,10.0.1.137,716,move_down,-0.240,-0.240,-0.240,0.000,0.000,0.000
1605106954305638912,10.0.1.137,630,move_down,-0.260,-0.260,-0.260,0.000,0.000,0.000
1605106955893483008,10.0.1.137,511,move_down,-0.280,-0.280,-0.280,0.000,0.000,0.000
1605106957563386880,10.0.1.137,609,move_down,-0.300,-0.300,-0.300,0.000,0.000,0.000
1605106959184054016,10.0.1.137,562,move_down,-0.320,-0.320,-0.320,0.000,0.000,0.000
1605106960852529920,10.0.1.137,621,move_down,-0.340,-0.340,-0.340,0.000,0.000,0.000
1605106962484169984,10.0.1.137,593,move_down,-0.360,-0.360,-0.360,0.000,0.000,0.000
1605106964158951168,10.0.1.137,590,move_down,-0.380,-0.380,-0.380,0.000,0.000,0.000
1605106966074930944,10.0.1.137,700,move_down,-0.400,-0.400,-0.400,0.000,0.000,0.000
1605106967753470976,10.0.1.137,592,move_down,-0.420,-0.420,-0.420,0.000,0.000,0.000
1605106969461790976,10.0.1.137,666,move_down,-0.440,-0.440,-0.440,0.000,0.000,0.000
1605106971340869888,10.0.1.137,713,move_down,-0.460,-0.460,-0.460,0.000,0.000,0.000
1605106972834135040,10.0.1.137,473,move_down,-0.480,-0.480,-0.480,0.000,0.000,0.000
1605106974602351872,10.0.1.137,706,move_down,-0.500,-0.500,-0.500,0.000,0.000,0.000
1605106976234376960,10.0.1.137,508,move_down,-0.520,-0.520,-0.520,0.000,0.000,0.000
1605106977976082944,10.0.1.137,677,move_down,-0.540,-0.540,-0.540,0.000,0.000,0.000
1605106979589389056,10.0.1.137,528,move_down,-0.560,-0.560,-0.560,0.000,0.000,0.000
1605106981255467008,10.0.1.137,569,move_down,-0.580,-0.580,-0.580,0.000,0.000,0.000
1605106983382685952,10.0.1.137,53,pick,-0.600,-0.600,-0.600,0.000,0.000,0.000
1605106984395709952,10.0.1.137,62,pick,-0.610,-0.610,-0.610,0.000,0.000,0.000
1605106985426927104,10.0.1.137,91,pick,-0.620,-0.620,-0.620,0.000,0.000,0.000
1605106986400152832,10.0.1.137,63,pick,-0.630,-0.630,-0.630,0.000,0.000,0.000
1605106987396569088,10.0.1.137,58,pick,-0.640,-0.640,-0.640,0.000,0.000,0.000
1605106988395788800,10.0.1.137,56,pick,-0.650,-0.650,-0.650,0.000,0.000,0.000
1605106990393060096,10.0.1.137,50,pick,-0.670,-0.670,-0.670,0.000,0.000,0.000
1605106991395344896,10.0.1.137,47,pick,-0.680,-0.680,-0.680,0.000,0.000,0.000
1605106992407980032,10.0.1.137,58,pick,-0.690,-0.690,-0.690,0.000,0.000,0.000
1605106993406106880,10.0.1.137,55,pick,-0.700,-0.700,-0.700,0.000,0.000,0.000
1605106994433145088,10.0.1.137,81,pick,-0.710,-0.710,-0.710,0.000,0.000,0.000
1605106995421270016,10.0.1.137,61,pick,-0.720,-0.720,-0.720,0.000,0.000,0.000
1605106996408427008,10.0.1.137,41,pick,-0.730,-0.730,-0.730,0.000,0.000,0.000
1605106997405852928,10.0.1.137,37,pick,-0.740,-0.740,-0.740,0.000,0.000,0.000
1605106998429122816,10.0.1.137,50,pick,-0.750,-0.750,-0.750,0.000,0.000,0.000
1605106999434878208,10.0.1.137,54,pick,-0.760,-0.760,-0.760,0.000,0.000,0.000
1605107000435369984,10.0.1.137,52,pick,-0.770,-0.770,-0.770,0.000,0.000,0.000
1605107001957711104,10.0.1.137,573,move_up,-0.750,-0.750,-0.750,0.000,0.000,0.000
1605107003579659008,10.0.1.137,534,move_up,-0.730,-0.730,-0.730,0.000,0.000,0.000
1605107005207563008,10.0.1.137,599,move_up,-0.710,-0.710,-0.710,0.000,0.000,0.000
1605107006912183040,10.0.1.137,535,move_up,-0.690,-0.690,-0.690,0.000,0.000,0.000
1605107008601207040,10.0.1.137,572,move_up,-0.670,-0.670,-0.670,0.000,0.000,0.000
1605107010226796032,10.0.1.137,534,move_up,-0.650,-0.650,-0.650,0.000,0.000,0.000
1605107011938585088,10.0.1.137,675,move_up,-0.630,-0.630,-0.630,0.000,0.000,0.000
1605107013956312064,10.0.1.137,915,move_up,-0.610,-0.610,-0.610,0.000,0.000,0.000
1605107015675448064,10.0.1.137,513,move_up,-0.590,-0.590,-0.590,0.000,0.000,0.000
1605107017289277952,10.0.1.137,525,move_up,-0.570,-0.570,-0.570,0.000,0.000,0.000
1605107018949081856,10.0.1.137,586,move_up,-0.550,-0.550,-0.550,0.000,0.000,0.000
1605107020559118080,10.0.1.137,601,move_up,-0.530,-0.530,-0.530,0.000,0.000,0.000
1605107022268064000,10.0.1.137,494,move_up,-0.510,-0.510,-0.510,0.000,0.000,0.000
1605107023886488832,10.0.1.137,550,move_up,-0.490,-0.490,-0.490,0.000,0.000,0.000
1605107025545651968,10.0.1.137,615,move_up,-0.470,-0.470,-0.470,0.000,0.000,0.000
1605107027359659008,10.0.1.137,621,move_up,-0.450,-0.450,-0.450,0.000,0.000,0.000
1605107029209799936,10.0.1.137,704,move_up,-0.430,-0.430,-0.430,0.000,0.000,0.000
1605107031098063104,10.0.1.137,651,move_up,-0.410,-0.410,-0.410,0.000,0.000,0.000
1605107032794342912,10.0.1.137,578,move_up,-0.390,-0.390,-0.390,0.000,0.000,0.000
1605107034497595904,10.0.1.137,618,move_up,-0.370,-0.370,-0.370,0.000,0.000,0.000
1605107036164948992,10.0.1.137,526,move_up,-0.350,-0.350,-0.350,0.000,0.000,0.000
1605107037831769088,10.0.1.137,550,move_up,-0.330,-0.330,-0.330,0.000,0.000,0.000
1605107039673922048,10.0.1.137,742,move_up,-0.310,-0.310,-0.310,0.000,0.000,0.000
1605107041316523008,10.0.1.137,561,move_up,-0.290,-0.290,-0.290,0.000,0.000,0.000
1605107043142423040,10.0.1.137,669,move_up,-0.270,-0.270,-0.270,0.000,0.000,0.000
1605107044756040192,10.0.1.137,566,move_up,-0.250,-0.250,-0.250,0.000,0.000,0.000
1605107046395287040,10.0.1.137,564,move_up,-0.230,-0.230,-0.230,0.000,0.000,0.000
1605107048024410880,10.0.1.137,600,move_up,-0.210,-0.210,-0.210,0.000,0.000,0.000
1605107049580024832,10.0.1.137,530,move_up,-0.190,-0.190,-0.190,0.000,0.000,0.000
1605107050725229056,10.0.1.137,61,place,-0.180,-0.180,-0.180,0.000,0.000,0.000
1605107051724869120,10.0.1.137,59,place,-0.170,-0.170,-0.170,0.000,0.000,0.000
1605107052731379968,10.0.1.137,63,place,-0.160,-0.160,-0.160,0.000,0.000,0.000
1605107053731794176,10.0.1.137,63,place,-0.150,-0.150,-0.150,0.000,0.000,0.000
1605107054718582016,10.0.1.137,46,place,-0.140,-0.140,-0.140,0.000,0.000,0.000
1605107055730664960,10.0.1.137,56,place,-0.130,-0.130,-0.130,0.000,0.000,0.000
1605107056763837952,10.0.1.137,88,place,-0.120,-0.120,-0.120,0.000,0.000,0.000
1605107057719278080,10.0.1.137,43,place,-0.110,-0.110,-0.110,0.000,0.000,0.000
1605107058753668096,10.0.1.137,71,place,-0.100,-0.100,-0.100,0.000,0.000,0.000
1605107059740512000,10.0.1.137,57,place,-0.090,-0.090,-0.090,0.000,0.000,0.000
1605107060821281792,10.0.1.137,136,place,-0.080,-0.080,-0.080,0.000,0.000,0.000
1605107061728337152,10.0.1.137,42,place,-0.070,-0.070,-0.070,0.000,0.000,0.000
1605107062731260160,10.0.1.137,43,place,-0.060,-0.060,-0.060,0.000,0.000,0.000
1605107063736346112,10.0.1.137,46,place,-0.050,-0.050,-0.050,0.000,0.000,0.000
1605107064729289984,10.0.1.137,37,place,-0.040,-0.040,-0.040,0.000,0.000,0.000
1605107066805881088,10.0.1.137,111,place,-0.020,-0.020,-0.020,0.000,0.000,0.000
1605107067751184896,10.0.1.137,55,place,-0.010,-0.010,-0.010,0.000,0.000,0.000
1605107068760416000,10.0.1.137,63,place,0.000,0.000,0.000,0.000,0.000,0.000
1605107070283038976,10.0.1.137,583,move_down,-0.020,-0.020,-0.020,0.000,0.000,0.000
1605107071813838080,10.0.1.137,471,move_down,-0.040,-0.040,-0.040,0.000,0.000,0.000
1605107073748389120,10.0.1.137,848,move_down,-0.060,-0.060,-0.060,0.000,0.000,0.000
1605107075401495808,10.0.1.137,531,move_down,-0.080,-0.080,-0.080,0.000,0.000,0.000
1605107076977672192,10.0.1.137,525,move_down,-0.100,-0.100,-0.100,0.000,0.000,0.000
1605107078748738048,10.0.1.137,643,move_down,-0.120,-0.120,-0.120,0.000,0.000,0.000
1605107080605842944,10.0.1.137,722,move_down,-0.140,-0.140,-0.140,0.000,0.000,0.000
1605107082512438016,10.0.1.137,776,move_down,-0.160,-0.160,-0.160,0.000,0.000,0.000
1605107084368009984,10.0.1.137,721,move_down,-0.180,-0.180,-0.180,0.000,0.000,0.000
1605107086585239808,10.0.1.137,1097,move_down,-0.200,-0.200,-0.200,0.000,0.000,0.000
1605107088337409024,10.0.1.137,627,move_down,-0.220,-0.220,-0.220,0.000,0.000,0.000
1605107090257832960,10.0.1.137,782,move_down,-0.240,-0.240,-0.240,0.000,0.000,0.000
1605107091994232832,10.0.1.137,538,move_down,-0.260,-0.260,-0.260,0.000,0.000,0.000
1605107093612803840,10.0.1.137,567,move_down,-0.280,-0.280,-0.280,0.000,0.000,0.000
1605107095299153152,10.0.1.137,576,move_down,-0.300,-0.300,-0.300,0.000,0.000,0.000
1605107097019133952,10.0.1.137,658,move_down,-0.320,-0.320,-0.320,0.000,0.000,0.000
1605107098733443072,10.0.1.137,693,move_down,-0.340,-0.340,-0.340,0.000,0.000,0.000
1605107100268145152,10.0.1.137,465,move_down,-0.360,-0.360,-0.360,0.000,0.000,0.000
1605107101999094016,10.0.1.137,590,move_down,-0.380,-0.380,-0.380,0.000,0.000,0.000
1605107104123588096,10.0.1.137,1073,move_down,-0.400,-0.400,-0.400,0.000,0.000,0.000
1605107105968192000,10.0.1.137,735,move_down,-0.420,-0.420,-0.420,0.000,0.000,0.000
1605107107721683968,10.0.1.137,676,move_down,-0.440,-0.440,-0.440,0.000,0.000,0.000
1605107109442293760,10.0.1.137,631,move_down,-0.460,-0.460,-0.460,0.000,0.000,0.000
1605107111062689024,10.0.1.137,466,move_down,-0.480,-0.480,-0.480,0.000,0.000,0.000
1605107112786675968,10.0.1.137,559,move_down,-0.500,-0.500,-0.500,0.000,0.000,0.000
1605107114496733952,10.0.1.137,672,move_down,-0.520,-0.520,-0.520,0.000,0.000,0.000
1605107116164239872,10.0.1.137,627,move_down,-0.540,-0.540,-0.540,0.000,0.000,0.000
1605107117912435968,10.0.1.137,690,move_down,-0.560,-0.560,-0.560,0.000,0.000,0.000
1605107119696800000,10.0.1.137,627,move_down,-0.580,-0.580,-0.580,0.000,0.000,0.000
1605107121888322048,10.0.1.137,44,pick,-0.600,-0.600,-0.600,0.000,0.000,0.000
1605107123883287040,10.0.1.137,29,pick,-0.620,-0.620,-0.620,0.000,0.000,0.000
1605107124915585024,10.0.1.137,58,pick,-0.630,-0.630,-0.630,0.000,0.000,0.000
1605107125920563968,10.0.1.137,62,pick,-0.640,-0.640,-0.640,0.000,0.000,0.000
1605107126905000960,10.0.1.137,45,pick,-0.650,-0.650,-0.650,0.000,0.000,0.000
1605107127957526016,10.0.1.137,94,pick,-0.660,-0.660,-0.660,0.000,0.000,0.000
1605107128931847936,10.0.1.137,63,pick,-0.670,-0.670,-0.670,0.000,0.000,0.000
1605107129987101952,10.0.1.137,114,pick,-0.680,-0.680,-0.680,0.000,0.000,0.000
1605107130929056768,10.0.1.137,54,pick,-0.690,-0.690,-0.690,0.000,0.000,0.000
1605107131946099968,10.0.1.137,70,pick,-0.700,-0.700,-0.700,0.000,0.000,0.000
1605107132965212160,10.0.1.137,88,pick,-0.710,-0.710,-0.710,0.000,0.000,0.000
1605107133959427072,10.0.1.137,78,pick,-0.720,-0.720,-0.720,0.000,0.000,0.000
1605107134949561088,10.0.1.137,67,pick,-0.730,-0.730,-0.730,0.000,0.000,0.000
1605107135966653184,10.0.1.137,83,pick,-0.740,-0.740,-0.740,0.000,0.000,0.000
1605107136943470848,10.0.1.137,58,pick,-0.750,-0.750,-0.750,0.000,0.000,0.000
1605107138934429952,10.0.1.137,47,pick,-0.770,-0.770,-0.770,0.000,0.000,0.000
1605107140415602944,10.0.1.137,526,move_up,-0.750,-0.750,-0.750,0.000,0.000,0.000
1605107142108226048,10.0.1.137,569,move_up,-0.730,-0.730,-0.730,0.000,0.000,0.000
1605107143706147840,10.0.1.137,564,move_up,-0.710,-0.710,-0.710,0.000,0.000,0.000
1605107145290478848,10.0.1.137,544,move_up,-0.690,-0.690,-0.690,0.000,0.000,0.000
1605107146939245824,10.0.1.137,541,move_up,-0.670,-0.670,-0.670,0.000,0.000,0.000
1605107148507693056,10.0.1.137,526,move_up,-0.650,-0.650,-0.650,0.000,0.000,0.000
1605107150190669056,10.0.1.137,561,move_up,-0.630,-0.630,-0.630,0.000,0.000,0.000
1605107151748289024,10.0.1.137,527,move_up,-0.610,-0.610,-0.610,0.000,0.000,0.000
1605107153545698048,10.0.1.137,619,move_up,-0.590,-0.590,-0.590,0.000,0.000,0.000
1605107155102104064,10.0.1.137,525,move_up,-0.570,-0.570,-0.570,0.000,0.000,0.000
1605107156921283072,10.0.1.137,709,move_up,-0.550,-0.550,-0.550,0.000,0.000,0.000
1605107158820718080,10.0.1.137,903,move_up,-0.530,-0.530,-0.530,0.000,0.000,0.000
1605107160633078016,10.0.1.137,729,move_up,-0.510,-0.510,-0.510,0.000,0.000,0.000
1605107162184897024,10.0.1.137,545,move_up,-0.490,-0.490,-0.490,0.000,0.000,0.000
1605107163864711168,10.0.1.137,624,move_up,-0.470,-0.470,-0.470,0.000,0.000,0.000
1605107165709058048,10.0.1.137,675,move_up,-0.450,-0.450,-0.450,0.000,0.000,0.000
1605107167473893888,10.0.1.137,611,move_up,-0.430,-0.430,-0.430,0.000,0.000,0.000
1605107169254093824,10.0.1.137,705,move_up,-0.410,-0.410,-0.410,0.000,0.000,0.000
1605107170905483008,10.0.1.137,588,move_up,-0.390,-0.390,-0.390,0.000,0.000,0.000
1605107172571589888,10.0.1.137,516,move_up,-0.370,-0.370,-0.370,0.000,0.000,0.000
1605107174295972096,10.0.1.137,576,move_up,-0.350,-0.350,-0.350,0.000,0.000,0.000
1605107176020891904,10.0.1.137,589,move_up,-0.330,-0.330,-0.330,0.000,0.000,0.000
1605107177673382144,10.0.1.137,602,move_up,-0.310,-0.310,-0.310,0.000,0.000,0.000
1605107179468754944,10.0.1.137,691,move_up,-0.290,-0.290,-0.290,0.000,0.000,0.000
1605107181345650944,10.0.1.137,674,move_up,-0.270,-0.270,-0.270,0.000,0.000,0.000
1605107183084903936,10.0.1.137,667,move_up,-0.250,-0.250,-0.250,0.000,0.000,0.000
1605107184974793984,10.0.1.137,752,move_up,-0.230,-0.230,-0.230,0.000,0.000,0.000
1605107186500706816,10.0.1.137,522,move_up,-0.210,-0.210,-0.210,0.000,0.000,0.000
1605107188460318208,10.0.1.137,878,move_up,-0.190,-0.190,-0.190,0.000,0.000,0.000
1605107189676986880,10.0.1.137,49,place,-0.180,-0.180,-0.180,0.000,0.000,0.000
1605107192713649920,10.0.1.137,45,place,-0.150,-0.150,-0.150,0.000,0.000,0.000
1605107193722476032,10.0.1.137,52,place,-0.140,-0.140,-0.140,0.000,0.000,0.000
1605107194735147008,10.0.1.137,61,place,-0.130,-0.130,-0.130,0.000,0.000,0.000
1605107195756342016,10.0.1.137,75,place,-0.120,-0.120,-0.120,0.000,0.000,0.000
1605107196739716096,10.0.1.137,57,place,-0.110,-0.110,-0.110,0.000,0.000,0.000
1605107197750551040,10.0.1.137,61,place,-0.100,-0.100,-0.100,0.000,0.000,0.000
1605107199746712832,10.0.1.137,52,place,-0.080,-0.080,-0.080,0.000,0.000,0.000
1605107200746251008,10.0.1.137,48,place,-0.070,-0.070,-0.070,0.000,0.000,0.000
1605107201755002112,10.0.1.137,56,place,-0.060,-0.060,-0.060,0.000,0.000,0.000
1605107202770688000,10.0.1.137,66,place,-0.050,-0.050,-0.050,0.000,0.000,0.000
1605107203791897088,10.0.1.137,86,place,-0.040,-0.040,-0.040,0.000,0.000,0.000
1605107205786270976,10.0.1.137,65,place,-0.020,-0.020,-0.020,0.000,0.000,0.000
1605107206795245824,10.0.1.137,71,place,-0.010,-0.010,-0.010,0.000,0.000,0.000
1605107207828655104,10.0.1.137,103,place,0.000,0.000,0.000,0.000,0.000,0.000
1605107209324996096,10.0.1.137,595,move_down,-0.020,-0.020,-0.020,0.000,0.000,0.000
1605107210945072896,10.0.1.137,569,move_down,-0.040,-0.040,-0.040,0.000,0.000,0.000
1605107212549606912,10.0.1.137,555,move_down,-0.060,-0.060,-0.060,0.000,0.000,0.000
1605107214336462848,10.0.1.137,711,move_down,-0.080,-0.080,-0.080,0.000,0.000,0.000
1605107216005156096,10.0.1.137,493,move_down,-0.100,-0.100,-0.100,0.000,0.000,0.000
1605107217732398080,10.0.1.137,594,move_down,-0.120,-0.120,-0.120,0.000,0.000,0.000
1605107219605812992,10.0.1.137,735,move_down,-0.140,-0.140,-0.140,0.000,0.000,0.000
1605107221215369984,10.0.1.137,522,move_down,-0.160,-0.160,-0.160,0.000,0.000,0.000
1605107223063784960,10.0.1.137,813,move_down,-0.180,-0.180,-0.180,0.000,0.000,0.000
1605107224883387136,10.0.1.137,686,move_down,-0.200,-0.200,-0.200,0.000,0.000,0.000
1605107226537120000,10.0.1.137,574,move_down,-0.220,-0.220,-0.220,0.000,0.000,0.000
1605107228406028032,10.0.1.137,760,move_down,-0.240,-0.240,-0.240,0.000,0.000,0.000
1605107230158008064,10.0.1.137,746,move_down,-0.260,-0.260,-0.260,0.000,0.000,0.000
1605107231986139904,10.0.1.137,690,move_down,-0.280,-0.280,-0.280,0.000,0.000,0.000
1605107233981409024,10.0.1.137,779,move_down,-0.300,-0.300,-0.300,0.000,0.000,0.000
1605107235783261952,10.0.1.137,674,move_down,-0.320,-0.320,-0.320,0.000,0.000,0.000
1605107237449150208,10.0.1.137,607,move_down,-0.340,-0.340,-0.340,0.000,0.000,0.000
1605107239043482112,10.0.1.137,563,move_down,-0.360,-0.360,-0.360,0.000,0.000,0.000
1605107240658370048,10.0.1.137,566,move_down,-0.380,-0.380,-0.380,0.000,0.000,0.000
1605107242323883008,10.0.1.137,622,move_down,-0.400,-0.400,-0.400,0.000,0.000,0.000
1605107244182430976,10.0.1.137,730,move_down,-0.420,-0.420,-0.420,0.000,0.000,0.000
1605107245840081920,10.0.1.137,583,move_down,-0.440,-0.440,-0.440,0.000,0.000,0.000
1605107247652942848,10.0.1.137,718,move_down,-0.460,-0.460,-0.460,0.000,0.000,0.000
1605107249485532160,10.0.1.137,662,move_down,-0.480,-0.480,-0.480,0.000,0.000,0.000
1605107251620742144,10.0.1.137,1047,move_down,-0.500,-0.500,-0.500,0.000,0.000,0.000
1605107253315737856,10.0.1.137,674,move_down,-0.520,-0.520,-0.520,0.000,0.000,0.000
1605107255315866880,10.0.1.137,900,move_down,-0.540,-0.540,-0.540,0.000,0.000,0.000
1605107256952694016,10.0.1.137,569,move_down,-0.560,-0.560,-0.560,0.000,0.000,0.000
1605107258569786112,10.0.1.137,553,move_down,-0.580,-0.580,-0.580,0.000,0.000,0.000
1605107260837382144,10.0.1.137,45,pick,-0.600,-0.600,-0.600,0.000,0.000,0.000
1605107261841415936,10.0.1.137,48,pick,-0.610,-0.610,-0.610,0.000,0.000,0.000
1605107262842345984,10.0.1.137,48,pick,-0.620,-0.620,-0.620,0.000,0.000,0.000
1605107263881349120,10.0.1.137,70,pick,-0.630,-0.630,-0.630,0.000,0.000,0.000
1605107265847963136,10.0.1.137,33,pick,-0.650,-0.650,-0.650,0.000,0.000,0.000
1605107266862615040,10.0.1.137,46,pick,-0.660,-0.660,-0.660,0.000,0.000,0.000
1605107267864377088,10.0.1.137,47,pick,-0.670,-0.670,-0.670,0.000,0.000,0.000
1605107268897522944,10.0.1.137,79,pick,-0.680,-0.680,-0.680,0.000,0.000,0.000
1605107269906673920,10.0.1.137,47,pick,-0.690,-0.690,-0.690,0.000,0.000,0.000
1605107270901907968,10.0.1.137,39,pick,-0.700,-0.700,-0.700,0.000,0.000,0.000
1605107271913897984,10.0.1.137,50,pick,-0.710,-0.710,-0.710,0.000,0.000,0.000
1605107272932327936,10.0.1.137,61,pick,-0.720,-0.720,-0.720,0.000,0.000,0.000
1605107273928733184,10.0.1.137,57,pick,-0.730,-0.730,-0.730,0.000,0.000,0.000
1605107274933620992,10.0.1.137,59,pick,-0.740,-0.740,-0.740,0.000,0.000,0.000
1605107275952628992,10.0.1.137,77,pick,-0.750,-0.750,-0.750,0.000,0.000,0.000
1605107276916251904,10.0.1.137,39,pick,-0.760,-0.760,-0.760,0.000,0.000,0.000
1605107277930422016,10.0.1.137,52,pick,-0.770,-0.770,-0.770,0.000,0.000,0.000
1605107279606479872,10.0.1.137,727,move_up,-0.750,-0.750,-0.750,0.000,0.000,0.000
1605107281188930048,10.0.1.137,510,move_up,-0.730,-0.730,-0.730,0.000,0.000,0.000
1605107282981623040,10.0.1.137,704,move_up,-0.710,-0.710,-0.710,0.000,0.000,0.000
1605107284900402944,10.0.1.137,772,move_up,-0.690,-0.690,-0.690,0.000,0.000,0.000
1605107286532840960,10.0.1.137,574,move_up,-0.670,-0.670,-0.670,0.000,0.000,0.000
1605107288130130176,10.0.1.137,538,move_up,-0.650,-0.650,-0.650,0.000,0.000,0.000
1605107289722182144,10.0.1.137,471,move_up,-0.630,-0.630,-0.630,0.000,0.000,0.000
1605107291393570048,10.0.1.137,587,move_up,-0.610,-0.610,-0.610,0.000,0.000,0.000
1605107293414385920,10.0.1.137,886,move_up,-0.590,-0.590,-0.590,0.000,0.000,0.000
1605107295294956032,10.0.1.137,792,move_up,-0.570,-0.570,-0.570,0.000,0.000,0.000
1605107297273880064,10.0.1.137,852,move_up,-0.550,-0.550,-0.550,0.000,0.000,0.000
1605107298881263104,10.0.1.137,522,move_up,-0.530,-0.530,-0.530,0.000,0.000,0.000
1605107300976096000,10.0.1.137,1033,move_up,-0.510,-0.510,-0.510,0.000,0.000,0.000
1605107302687380992,10.0.1.137,681,move_up,-0.490,-0.490,-0.490,0.000,0.000,0.000
1605107304430483200,10.0.1.137,719,move_up,-0.470,-0.470,-0.470,0.000,0.000,0.000
1605107306323851008,10.0.1.137,814,move_up,-0.450,-0.450,-0.450,0.000,0.000,0.000
1605107307980374016,10.0.1.137,568,move_up,-0.430,-0.430,-0.430,0.000,0.000,0.000
1605107309581737984,10.0.1.137,554,move_up,-0.410,-0.410,-0.410,0.000,0.000,0.000
1605107311176742912,10.0.1.137,492,move_up,-0.390,-0.390,-0.390,0.000,0.000,0.000
1605107312859230976,10.0.1.137,560,move_up,-0.370,-0.370,-0.370,0.000,0.000,0.000
1605107314848355072,10.0.1.137,899,move_up,-0.350,-0.350,-0.350,0.000,0.000,0.000
1605107316588614912,10.0.1.137,601,move_up,-0.330,-0.330,-0.330,0.000,0.000,0.000
1605107318389974016,10.0.1.137,671,move_up,-0.310,-0.310,-0.310,0.000,0.000,0.000
1605107320211045120,10.0.1.137,733,move_up,-0.290,-0.290,-0.290,0.000,0.000,0.000
1605107322218993920,10.0.1.137,919,move_up,-0.270,-0.270,-0.270,0.000,0.000,0.000
1605107324101650944,10.0.1.137,826,move_up,-0.250,-0.250,-0.250,0.000,0.000,0.000
1605107326207104000,10.0.1.137,615,move_up,-0.230,-0.230,-0.230,0.000,0.000,0.000
1605107327961602048,10.0.1.137,678,move_up,-0.210,-0.210,-0.210,0.000,0.000,0.000
1605107329978898944,10.0.1.137,735,move_up,-0.190,-0.190,-0.190,0.000,0.000,0.000
1605107331163024896,10.0.1.137,63,place,-0.180,-0.180,-0.180,0.000,0.000,0.000
1605107332226302976,10.0.1.137,124,place,-0.170,-0.170,-0.170,0.000,0.000,0.000
1605107334164904192,10.0.1.137,59,place,-0.150,-0.150,-0.150,0.000,0.000,0.000
1605107335163096832,10.0.1.137,57,place,-0.140,-0.140,-0.140,0.000,0.000,0.000
1605107337205039872,10.0.1.137,91,place,-0.120,-0.120,-0.120,0.000,0.000,0.000
1605107339187604992,10.0.1.137,69,place,-0.100,-0.100,-0.100,0.000,0.000,0.000
1605107341184891904,10.0.1.137,52,place,-0.080,-0.080,-0.080,0.000,0.000,0.000
1605107342190043904,10.0.1.137,56,place,-0.070,-0.070,-0.070,0.000,0.000,0.000
1605107343185683968,10.0.1.137,49,place,-0.060,-0.060,-0.060,0.000,0.000,0.000
1605107344187365888,10.0.1.137,49,place,-0.050,-0.050,-0.050,0.000,0.000,0.000
1605107346193027072,10.0.1.137,50,place,-0.030,-0.030,-0.030,0.000,0.000,0.000
1605107348232244992,10.0.1.137,65,place,-0.010,-0.010,-0.010,0.000,0.000,0.000
1605107349202076928,10.0.1.137,34,place,0.000,0.000,0.000,0.000,0.000,0.000
1605107350888532992,10.0.1.137,719,move_down,-0.020,-0.020,-0.020,0.000,0.000,0.000
1605107352548749056,10.0.1.137,498,move_down,-0.040,-0.040,-0.040,0.000,0.000,0.000
1605107354190191872,10.0.1.137,521,move_down,-0.060,-0.060,-0.060,0.000,0.000,0.000
1605107356065684992,10.0.1.137,761,move_down,-0.080,-0.080,-0.080,0.000,0.000,0.000
1605107357753721856,10.0.1.137,619,move_down,-0.100,-0.100,-0.100,0.000,0.000,0.000
1605107359379148032,10.0.1.137,580,move_down,-0.120,-0.120,-0.120,0.000,0.000,0.000
1605107361026489088,10.0.1.137,573,move_down,-0.140,-0.140,-0.140,0.000,0.000,0.000
1605107363024642048,10.0.1.137,921,move_down,-0.160,-0.160,-0.160,0.000,0.000,0.000
1605107364688941056,10.0.1.137,627,move_down,-0.180,-0.180,-0.180,0.000,0.000,0.000
1605107366544495104,10.0.1.137,672,move_down,-0.200,-0.200,-0.200,0.000,0.000,0.000
1605107368201672192,10.0.1.137,581,move_down,-0.220,-0.220,-0.220,0.000,0.000,0.000
1605107369945300224,10.0.1.137,669,move_down,-0.240,-0.240,-0.240,0.000,0.000,0.000
1605107371522375168,10.0.1.137,471,move_down,-0.260,-0.260,-0.260,0.000,0.000,0.000
1605107373481384960,10.0.1.137,867,move_down,-0.280,-0.280,-0.280,0.000,0.000,0.000
1605107375273565952,10.0.1.137,592,move_down,-0.300,-0.300,-0.300,0.000,0.000,0.000
1605107377486526976,10.0.1.137,1077,move_down,-0.320,-0.320,-0.320,0.000,0.000,0.000
1605107379404214016,10.0.1.137,817,move_down,-0.340,-0.340,-0.340,0.000,0.000,0.000
1605107381108190976,10.0.1.137,638,move_down,-0.360,-0.360,-0.360,0.000,0.000,0.000
1605107382910056192,10.0.1.137,767,move_down,-0.380,-0.380,-0.380,0.000,0.000,0.000
1605107384601799936,10.0.1.137,494,move_down,-0.400,-0.400,-0.400,0.000,0.000,0.000
1605107386330172928,10.0.1.137,623,move_down,-0.420,-0.420,-0.420,0.000,0.000,0.000
1605107388126140160,10.0.1.137,637,move_down,-0.440,-0.440,-0.440,0.000,0.000,0.000
1605107389693677824,10.0.1.137,496,move_down,-0.460,-0.460,-0.460,0.000,0.000,0.000
1605107391615398912,10.0.1.137,649,move_down,-0.480,-0.480,-0.480,0.000,0.000,0.000
1605107393135706880,10.0.1.137,496,move_down,-0.500,-0.500,-0.500,0.000,0.000,0.000
1605107395100161024,10.0.1.137,815,move_down,-0.520,-0.520,-0.520,0.000,0.000,0.000
1605107396658013952,10.0.1.137,514,move_down,-0.540,-0.540,-0.540,0.000,0.000,0.000
1605107398299823104,10.0.1.137,579,move_down,-0.560,-0.560,-0.560,0.000,0.000,0.000
1605107400188709120,10.0.1.137,733,move_down,-0.580,-0.580,-0.580,0.000,0.000,0.000
1605107401448878080,10.0.1.137,44,pick,-0.590,-0.590,-0.590,0.000,0.000,0.000
1605107402462359808,10.0.1.137,56,pick,-0.600,-0.600,-0.600,0.000,0.000,0.000
1605107403493506048,10.0.1.137,75,pick,-0.610,-0.610,-0.610,0.000,0.000,0.000
1605107405479241984,10.0.1.137,48,pick,-0.630,-0.630,-0.630,0.000,0.000,0.000
1605107407477556992,10.0.1.137,40,pick,-0.650,-0.650,-0.650,0.000,0.000,0.000
1605107408506913792,10.0.1.137,68,pick,-0.660,-0.660,-0.660,0.000,0.000,0.000
1605107409556471040,10.0.1.137,116,pick,-0.670,-0.670,-0.670,0.000,0.000,0.000
1605107410492146944,10.0.1.137,51,pick,-0.680,-0.680,-0.680,0.000,0.000,0.000
1605107412482534912,10.0.1.137,39,pick,-0.700,-0.700,-0.700,0.000,0.000,0.000
1605107414525243904,10.0.1.137,66,pick,-0.720,-0.720,-0.720,0.000,0.000,0.000
1605107416524504064,10.0.1.137,52,pick,-0.740,-0.740,-0.740,0.000,0.000,0.000
1605107417530253056,10.0.1.137,48,pick,-0.750,-0.750,-0.750,0.000,0.000,0.000
1605107418542193920,10.0.1.137,60,pick,-0.760,-0.760,-0.760,0.000,0.000,0.000
1605107419556333056,10.0.1.137,73,pick,-0.770,-0.770,-0.770,0.000,0.000,0.000
1605107421185260032,10.0.1.137,698,move_up,-0.750,-0.750,-0.750,0.000,0.000,0.000
1605107422776505856,10.0.1.137,563,move_up,-0.730,-0.730,-0.730,0.000,0.000,0.000
1605107424622201856,10.0.1.137,745,move_up,-0.710,-0.710,-0.710,0.000,0.000,0.000
1605107426269289984,10.0.1.137,581,move_up,-0.690,-0.690,-0.690,0.000,0.000,0.000
1605107428003117056,10.0.1.137,707,move_up,-0.670,-0.670,-0.670,0.000,0.000,0.000
1605107429638902016,10.0.1.137,555,move_up,-0.650,-0.650,-0.650,0.000,0.000,0.000
1605107431181524992,10.0.1.137,490,move_up,-0.630,-0.630,-0.630,0.000,0.000,0.000
1605107432870755840,10.0.1.137,631,move_up,-0.610,-0.610,-0.610,0.000,0.000,0.000
1605107434435609088,10.0.1.137,472,move_up,-0.590,-0.590,-0.590,0.000,0.000,0.000
1605107436185457920,10.0.1.137,721,move_up,-0.570,-0.570,-0.570,0.000,0.000,0.000
1605107437876926976,10.0.1.137,602,move_up,-0.550,-0.550,-0.550,0.000,0.000,0.000
1605107439746949888,10.0.1.137,780,move_up,-0.530,-0.530,-0.530,0.000,0.000,0.000
1605107441444492032,10.0.1.137,624,move_up,-0.510,-0.510,-0.510,0.000,0.000,0.000
1605107443079459072,10.0.1.137,579,move_up,-0.490,-0.490,-0.490,0.000,0.000,0.000
1605107445109946880,10.0.1.137,802,move_up,-0.470,-0.470,-0.470,0.000,0.000,0.000
1605107447096496128,10.0.1.137,773,move_up,-0.450,-0.450,-0.450,0.000,0.000,0.000
1605107449276747008,10.0.1.137,1001,move_up,-0.430,-0.430,-0.430,0.000,0.000,0.000
1605107451349531904,10.0.1.137,971,move_up,-0.410,-0.410,-0.410,0.000,0.000,0.000
1605107453129998848,10.0.1.137,658,move_up,-0.390,-0.390,-0.390,0.000,0.000,0.000
1605107455087315200,10.0.1.137,844,move_up,-0.370,-0.370,-0.370,0.000,0.000,0.000
1605107456822025984,10.0.1.137,534,move_up,-0.350,-0.350,-0.350,0.000,0.000,0.000
1605107458814522112,10.0.1.137,891,move_up,-0.330,-0.330,-0.330,0.000,0.000,0.000
1605107460682857984,10.0.1.137,844,move_up,-0.310,-0.310,-0.310,0.000,0.000,0.000
1605107462416882944,10.0.1.137,573,move_up,-0.290,-0.290,-0.290,0.000,0.000,0.000
1605107464230916096,10.0.1.137,737,move_up,-0.270,-0.270,-0.270,0.000,0.000,0.000
1605107466036420096,10.0.1.137,727,move_up,-0.250,-0.250,-0.250,0.000,0.000,0.000
1605107468096026880,10.0.1.137,928,move_up,-0.230,-0.230,-0.230,0.000,0.000,0.000
1605107469787104000,10.0.1.137,590,move_up,-0.210,-0.210,-0.210,0.000,0.000,0.000
1605107471864037120,10.0.1.137,946,move_up,-0.190,-0.190,-0.190,0.000,0.000,0.000
1605107473002895104,10.0.1.137,94,place,-0.180,-0.180,-0.180,0.000,0.000,0.000
1605107475985209856,10.0.1.137,50,place,-0.150,-0.150,-0.150,0.000,0.000,0.000
1605107479006324992,10.0.1.137,55,place,-0.120,-0.120,-0.120,0.000,0.000,0.000
1605107480029295872,10.0.1.137,69,place,-0.110,-0.110,-0.110,0.000,0.000,0.000
1605107481028374016,10.0.1.137,66,place,-0.100,-0.100,-0.100,0.000,0.000,0.000
1605107482030508032,10.0.1.137,53,place,-0.090,-0.090,-0.090,0.000,0.000,0.000
1605107483102631936,10.0.1.137,73,place,-0.080,-0.080,-0.080,0.000,0.000,0.000
1605107484103951104,10.0.1.137,70,place,-0.070,-0.070,-0.070,0.000,0.000,0.000
1605107485083763968,10.0.1.137,43,place,-0.060,-0.060,-0.060,0.000,0.000,0.000
1605107486094723072,10.0.1.137,53,place,-0.050,-0.050,-0.050,0.000,0.000,0.000
1605107488076711936,10.0.1.137,31,place,-0.030,-0.030,-0.030,0.000,0.000,0.000
1605107490105644032,10.0.1.137,51,place,-0.010,-0.010,-0.010,0.000,0.000,0.000
1605107491089968896,10.0.1.137,31,place,0.000,0.000,0.000,0.000,0.000,0.000
1605107493024448000,10.0.1.137,964,move_down,-0.020,-0.020,-0.020,0.000,0.000,0.000
1605107495004937984,10.0.1.137,923,move_down,-0.040,-0.040,-0.040,0.000,0.000,0.000
1605107496958782976,10.0.1.137,827,move_down,-0.060,-0.060,-0.060,0.000,0.000,0.000
1605107498756044032,10.0.1.137,740,move_down,-0.080,-0.080,-0.080,0.000,0.000,0.000
1605107500622136064,10.0.1.137,624,move_down,-0.100,-0.100,-0.100,0.000,0.000,0.000
1605107502393504000,10.0.1.137,680,move_down,-0.120,-0.120,-0.120,0.000,0.000,0.000
1605107504201849856,10.0.1.137,707,move_down,-0.140,-0.140,-0.140,0.000,0.000,0.000
1605107505860424960,10.0.1.137,640,move_down,-0.160,-0.160,-0.160,0.000,0.000,0.000
1605107507827264000,10.0.1.137,891,move_down,-0.180,-0.180,-0.180,0.000,0.000,0.000
1605107509632699904,10.0.1.137,742,move_down,-0.200,-0.200,-0.200,0.000,0.000,0.000
1605107511499181056,10.0.1.137,729,move_down,-0.220,-0.220,-0.220,0.000,0.000,0.000
1605107513199708928,10.0.1.137,624,move_down,-0.240,-0.240,-0.240,0.000,0.000,0.000
1605107514782470912,10.0.1.137,536,move_down,-0.260,-0.260,-0.260,0.000,0.000,0.000
1605107516408570112,10.0.1.137,555,move_down,-0.280,-0.280,-0.280,0.000,0.000,0.000
1605107518318985984,10.0.1.137,817,move_down,-0.300,-0.300,-0.300,0.000,0.000,0.000
1605107520065809920,10.0.1.137,738,move_down,-0.320,-0.320,-0.320,0.000,0.000,0.000
1605107521789721856,10.0.1.137,669,move_down,-0.340,-0.340,-0.340,0.000,0.000,0.000
1605107523628171008,10.0.1.137,729,move_down,-0.360,-0.360,-0.360,0.000,0.000,0.000
1605107525519494144,10.0.1.137,867,move_down,-0.380,-0.380,-0.380,0.000,0.000,0.000
1605107527442515968,10.0.1.137,874,move_down,-0.400,-0.400,-0.400,0.000,0.000,0.000
1605107529202067968,10.0.1.137,642,move_down,-0.420,-0.420,-0.420,0.000,0.000,0.000
1605107530795401216,10.0.1.137,569,move_down,-0.440,-0.440,-0.440,0.000,0.000,0.000
1605107532493606144,10.0.1.137,623,move_down,-0.460,-0.460,-0.460,0.000,0.000,0.000
1605107534256387840,10.0.1.137,687,move_down,-0.480,-0.480,-0.480,0.000,0.000,0.000
1605107536131494144,10.0.1.137,838,move_down,-0.500,-0.500,-0.500,0.000,0.000,0.000
1605107537882888960,10.0.1.137,739,move_down,-0.520,-0.520,-0.520,0.000,0.000,0.000
1605107539551512832,10.0.1.137,612,move_down,-0.540,-0.540,-0.540,0.000,0.000,0.000
1605107541514550016,10.0.1.137,869,move_down,-0.560,-0.560,-0.560,0.000,0.000,0.000
1605107543637872896,10.0.1.137,973,move_down,-0.580,-0.580,-0.580,0.000,0.000,0.000
1605107544779803136,10.0.1.137,66,pick,-0.590,-0.590,-0.590,0.000,0.000,0.000
1605107545813501952,10.0.1.137,91,pick,-0.600,-0.600,-0.600,0.000,0.000,0.000
1605107546794897152,10.0.1.137,64,pick,-0.610,-0.610,-0.610,0.000,0.000,0.000
1605107547814001152,10.0.1.137,79,pick,-0.620,-0.620,-0.620,0.000,0.000,0.000
1605107548779570944,10.0.1.137,34,pick,-0.630,-0.630,-0.630,0.000,0.000,0.000
1605107549826689024,10.0.1.137,63,pick,-0.640,-0.640,-0.640,0.000,0.000,0.000
1605107551844070912,10.0.1.137,73,pick,-0.660,-0.660,-0.660,0.000,0.000,0.000
1605107555861505024,10.0.1.137,67,pick,-0.700,-0.700,-0.700,0.000,0.000,0.000
1605107558898394112,10.0.1.137,51,pick,-0.730,-0.730,-0.730,0.000,0.000,0.000
1605107559900271872,10.0.1.137,51,pick,-0.740,-0.740,-0.740,0.000,0.000,0.000
1605107560922795008,10.0.1.137,70,pick,-0.750,-0.750,-0.750,0.000,0.000,0.000
1605107561923956992,10.0.1.137,70,pick,-0.760,-0.760,-0.760,0.000,0.000,0.000
1605107564792190976,10.0.1.137,932,move_up,-0.750,-0.750,-0.750,0.000,0.000,0.000
1605107566447813888,10.0.1.137,574,move_up,-0.730,-0.730,-0.730,0.000,0.000,0.000
1605107568383080960,10.0.1.137,703,move_up,-0.710,-0.710,-0.710,0.000,0.000,0.000
1605107570886110976,10.0.1.137,1393,move_up,-0.690,-0.690,-0.690,0.000,0.000,0.000
1605107572657764864,10.0.1.137,749,move_up,-0.670,-0.670,-0.670,0.000,0.000,0.000
1605107574483473920,10.0.1.137,660,move_up,-0.650,-0.650,-0.650,0.000,0.000,0.000
1605107576436172032,10.0.1.137,779,move_up,-0.630,-0.630,-0.630,0.000,0.000,0.000
1605107578379774208,10.0.1.137,831,move_up,-0.610,-0.610,-0.610,0.000,0.000,0.000
1605107580221283840,10.0.1.137,660,move_up,-0.590,-0.590,-0.590,0.000,0.000,0.000
1605107582024174848,10.0.1.137,677,move_up,-0.570,-0.570,-0.570,0.000,0.000,0.000
1605107583887695104,10.0.1.137,789,move_up,-0.550,-0.550,-0.550,0.000,0.000,0.000
1605107585529030912,10.0.1.137,593,move_up,-0.530,-0.530,-0.530,0.000,0.000,0.000
1605107587504126976,10.0.1.137,744,move_up,-0.510,-0.510,-0.510,0.000,0.000,0.000
1605107589430414080,10.0.1.137,780,move_up,-0.490,-0.490,-0.490,0.000,0.000,0.000
1605107591331832832,10.0.1.137,772,move_up,-0.470,-0.470,-0.470,0.000,0.000,0.000
1605107593097579008,10.0.1.137,715,move_up,-0.450,-0.450,-0.450,0.000,0.000,0.000
1605107594765541120,10.0.1.137,614,move_up,-0.430,-0.430,-0.430,0.000,0.000,0.000
1605107596676667904,10.0.1.137,801,move_up,-0.410,-0.410,-0.410,0.000,0.000,0.000
1605107598623250944,10.0.1.137,825,move_up,-0.390,-0.390,-0.390,0.000,0.000,0.000
1605107600526243840,10.0.1.137,721,move_up,-0.370,-0.370,-0.370,0.000,0.000,0.000
1605107602550822144,10.0.1.137,912,move_up,-0.350,-0.350,-0.350,0.000,0.000,0.000
1605107604504882944,10.0.1.137,838,move_up,-0.330,-0.330,-0.330,0.000,0.000,0.000
1605107606655185920,10.0.1.137,1061,move_up,-0.310,-0.310,-0.310,0.000,0.000,0.000
1605107608350848000,10.0.1.137,560,move_up,-0.290,-0.290,-0.290,0.000,0.000,0.000
1605107610301396992,10.0.1.137,839,move_up,-0.270,-0.270,-0.270,0.000,0.000,0.000
1605107612097652992,10.0.1.137,725,move_up,-0.250,-0.250,-0.250,0.000,0.000,0.000
1605107613941818880,10.0.1.137,687,move_up,-0.230,-0.230,-0.230,0.000,0.000,0.000
1605107615994417920,10.0.1.137,896,move_up,-0.210,-0.210,-0.210,0.000,0.000,0.000
1605107618150796032,10.0.1.137,1025,move_up,-0.190,-0.190,-0.190,0.000,0.000,0.000
1605107620253513984,10.0.1.137,73,place,-0.170,-0.170,-0.170,0.000,0.000,0.000
1605107621239226112,10.0.1.137,58,place,-0.160,-0.160,-0.160,0.000,0.000,0.000
1605107623291667968,10.0.1.137,85,place,-0.140,-0.140,-0.140,0.000,0.000,0.000
1605107624285844992,10.0.1.137,78,place,-0.130,-0.130,-0.130,0.000,0.000,0.000
1605107627281483776,10.0.1.137,58,place,-0.100,-0.100,-0.100,0.000,0.000,0.000
1605107628385113088,10.0.1.137,151,place,-0.090,-0.090,-0.090,0.000,0.000,0.000
1605107629293068032,10.0.1.137,51,place,-0.080,-0.080,-0.080,0.000,0.000,0.000
1605107630304605952,10.0.1.137,55,place,-0.070,-0.070,-0.070,0.000,0.000,0.000
1605107631330318080,10.0.1.137,81,place,-0.060,-0.060,-0.060,0.000,0.000,0.000
1605107632307815936,10.0.1.137,56,place,-0.050,-0.050,-0.050,0.000,0.000,0.000
1605107633298970112,10.0.1.137,47,place,-0.040,-0.040,-0.040,0.000,0.000,0.000
1605107635323672064,10.0.1.137,51,place,-0.020,-0.020,-0.020,0.000,0.000,0.000
1605107636328324096,10.0.1.137,54,place,-0.010,-0.010,-0.010,0.000,0.000,0.000
1605107639221843968,10.0.1.137,883,move_down,-0.020,-0.020,-0.020,0.000,0.000,0.000
1605107641035684096,10.0.1.137,643,move_down,-0.040,-0.040,-0.040,0.000,0.000,0.000
1605107642808728064,10.0.1.137,671,move_down,-0.060,-0.060,-0.060,0.000,0.000,0.000
1605107644903745024,10.0.1.137,704,move_down,-0.080,-0.080,-0.080,0.000,0.000,0.000
1605107646866499072,10.0.1.137,878,move_down,-0.100,-0.100,-0.100,0.000,0.000,0.000
1605107649194375936,10.0.1.137,1032,move_down,-0.120,-0.120,-0.120,0.000,0.000,0.000
1605107651284580864,10.0.1.137,1000,move_down,-0.140,-0.140,-0.140,0.000,0.000,0.000
1605107653147697920,10.0.1.137,653,move_down,-0.160,-0.160,-0.160,0.000,0.000,0.000
1605107654944451072,10.0.1.137,612,move_down,-0.180,-0.180,-0.180,0.000,0.000,0.000
1605107656643834112,10.0.1.137,668,move_down,-0.200,-0.200,-0.200,0.000,0.000,0.000
1605107659481981952,10.0.1.137,1766,move_down,-0.220,-0.220,-0.220,0.000,0.000,0.000
1605107661341368064,10.0.1.137,760,move_down,-0.240,-0.240,-0.240,0.000,0.000,0.000
1605107663344197120,10.0.1.137,770,move_down,-0.260,-0.260,-0.260,0.000,0.000,0.000
1605107665140953088,10.0.1.137,686,move_down,-0.280,-0.280,-0.280,0.000,0.000,0.000
1605107667243653120,10.0.1.137,872,move_down,-0.300,-0.300,-0.300,0.000,0.000,0.000
1605107669339975168,10.0.1.137,986,move_down,-0.320,-0.320,-0.320,0.000,0.000,0.000
1605107671089633024,10.0.1.137,641,move_down,-0.340,-0.340,-0.340,0.000,0.000,0.000
1605107672955894016,10.0.1.137,721,move_down,-0.360,-0.360,-0.360,0.000,0.000,0.000
1605107674626312960,10.0.1.137,567,move_down,-0.380,-0.380,-0.380,0.000,0.000,0.000
1605107676787535872,10.0.1.137,1077,move_down,-0.400,-0.400,-0.400,0.000,0.000,0.000
1605107678649175808,10.0.1.137,761,move_down,-0.420,-0.420,-0.420,0.000,0.000,0.000
1605107680671570176,10.0.1.137,797,move_down,-0.440,-0.440,-0.440,0.000,0.000,0.000
1605107682782139136,10.0.1.137,866,move_down,-0.460,-0.460,-0.460,0.000,0.000,0.000
1605107684995949056,10.0.1.137,1158,move_down,-0.480,-0.480,-0.480,0.000,0.000,0.000
1605107686969314048,10.0.1.137,811,move_down,-0.500,-0.500,-0.500,0.000,0.000,0.000
1605107689184801024,10.0.1.137,1098,move_down,-0.520,-0.520,-0.520,0.000,0.000,0.000
1605107690964046080,10.0.1.137,619,move_down,-0.540,-0.540,-0.540,0.000,0.000,0.000
1605107692923121920,10.0.1.137,791,move_down,-0.560,-0.560,-0.560,0.000,0.000,0.000
1605107694972194048,10.0.1.137,987,move_down,-0.580,-0.580,-0.580,0.000,0.000,0.000
1605107696059442944,10.0.1.137,30,pick,-0.590,-0.590,-0.590,0.000,0.000,0.000
1605107700147168000,10.0.1.137,58,pick,-0.630,-0.630,-0.630,0.000,0.000,0.000
1605107701137435904,10.0.1.137,46,pick,-0.640,-0.640,-0.640,0.000,0.000,0.000
1605107702159944960,10.0.1.137,58,pick,-0.650,-0.650,-0.650,0.000,0.000,0.000
1605107703194236928,10.0.1.137,73,pick,-0.660,-0.660,-0.660,0.000,0.000,0.000
1605107705187845888,10.0.1.137,50,pick,-0.680,-0.680,-0.680,0.000,0.000,0.000
1605107706197807104,10.0.1.137,55,pick,-0.690,-0.690,-0.690,0.000,0.000,0.000
1605107707215162112,10.0.1.137,67,pick,-0.700,-0.700,-0.700,0.000,0.000,0.000
1605107708237811968,10.0.1.137,80,pick,-0.710,-0.710,-0.710,0.000,0.000,0.000
1605107711259371008,10.0.1.137,92,pick,-0.740,-0.740,-0.740,0.000,0.000,0.000
1605107712236037888,10.0.1.137,60,pick,-0.750,-0.750,-0.750,0.000,0.000,0.000
1605107713255400960,10.0.1.137,67,pick,-0.760,-0.760,-0.760,0.000,0.000,0.000
1605107714244113920,10.0.1.137,55,pick,-0.770,-0.770,-0.770,0.000,0.000,0.000
1605107716063560960,10.0.1.137,873,move_up,-0.750,-0.750,-0.750,0.000,0.000,0.000
1605107718073741824,10.0.1.137,877,move_up,-0.730,-0.730,-0.730,0.000,0.000,0.000
1605107719831376128,10.0.1.137,647,move_up,-0.710,-0.710,-0.710,0.000,0.000,0.000
1605107721681093888,10.0.1.137,733,move_up,-0.690,-0.690,-0.690,0.000,0.000,0.000
1605107723357700096,10.0.1.137,643,move_up,-0.670,-0.670,-0.670,0.000,0.000,0.000
1605107725317133056,10.0.1.137,824,move_up,-0.650,-0.650,-0.650,0.000,0.000,0.000
1605107727401537024,10.0.1.137,927,move_up,-0.630,-0.630,-0.630,0.000,0.000,0.000
1605107729472681984,10.0.1.137,827,move_up,-0.610,-0.610,-0.610,0.000,0.000,0.000
1605107731332432896,10.0.1.137,696,move_up,-0.590,-0.590,-0.590,0.000,0.000,0.000
1605107733154930176,10.0.1.137,605,move_up,-0.570,-0.570,-0.570,0.000,0.000,0.000
1605107735035404032,10.0.1.137,745,move_up,-0.550,-0.550,-0.550,0.000,0.000,0.000
1605107736990571008,10.0.1.137,945,move_up,-0.530,-0.530,-0.530,0.000,0.000,0.000
1605107739148338176,10.0.1.137,1038,move_up,-0.510,-0.510,-0.510,0.000,0.000,0.000
1605107741586193152,10.0.1.137,1296,move_up,-0.490,-0.490,-0.490,0.000,0.000,0.000
1605107743884944896,10.0.1.137,1060,move_up,-0.470,-0.470,-0.470,0.000,0.000,0.000
1605107746160339968,10.0.1.137,802,move_up,-0.450,-0.450,-0.450,0.000,0.000,0.000
1605107748518510080,10.0.1.137,1208,move_up,-0.430,-0.430,-0.430,0.000,0.000,0.000
1605107750579677184,10.0.1.137,950,move_up,-0.410,-0.410,-0.410,0.000,0.000,0.000
1605107752783424000,10.0.1.137,1091,move_up,-0.390,-0.390,-0.390,0.000,0.000,0.000
1605107755043837184,10.0.1.137,1173,move_up,-0.370,-0.370,-0.370,0.000,0.000,0.000
1605107756867696128,10.0.1.137,775,move_up,-0.350,-0.350,-0.350,0.000,0.000,0.000
1605107758944912896,10.0.1.137,939,move_up,-0.330,-0.330,-0.330,0.000,0.000,0.000
1605107761142615040,10.0.1.137,1112,move_up,-0.310,-0.310,-0.310,0.000,0.000,0.000
1605107763019150848,10.0.1.137,834,move_up,-0.290,-0.290,-0.290,0.000,0.000,0.000
1605107765023473920,10.0.1.137,775,move_up,-0.270,-0.270,-0.270,0.000,0.000,0.000
1605107767241113856,10.0.1.137,1064,move_up,-0.250,-0.250,-0.250,0.000,0.000,0.000
1605107769300854016,10.0.1.137,807,move_up,-0.230,-0.230,-0.230,0.000,0.000,0.000
1605107771370311936,10.0.1.137,956,move_up,-0.210,-0.210,-0.210,0.000,0.000,0.000
1605107773144921088,10.0.1.137,630,move_up,-0.190,-0.190,-0.190,0.000,0.000,0.000
1605107774270948864,10.0.1.137,50,place,-0.180,-0.180,-0.180,0.000,0.000,0.000
1605107775321317888,10.0.1.137,76,place,-0.170,-0.170,-0.170,0.000,0.000,0.000
1605107776306027008,10.0.1.137,58,place,-0.160,-0.160,-0.160,0.000,0.000,0.000
1605107777432521216,10.0.1.137,75,place,-0.150,-0.150,-0.150,0.000,0.000,0.000
1605107780421745152,10.0.1.137,49,place,-0.120,-0.120,-0.120,0.000,0.000,0.000
1605107781448527104,10.0.1.137,68,place,-0.110,-0.110,-0.110,0.000,0.000,0.000
1605107782427939840,10.0.1.137,46,place,-0.100,-0.100,-0.100,0.000,0.000,0.000
1605107783425085184,10.0.1.137,41,place,-0.090,-0.090,-0.090,0.000,0.000,0.000
1605107784484143872,10.0.1.137,88,place,-0.080,-0.080,-0.080,0.000,0.000,0.000
1605107786447776000,10.0.1.137,48,place,-0.060,-0.060,-0.060,0.000,0.000,0.000
1605107787481144832,10.0.1.137,80,place,-0.050,-0.050,-0.050,0.000,0.000,0.000
1605107788515276032,10.0.1.137,110,place,-0.040,-0.040,-0.040,0.000,0.000,0.000
1605107789498998016,10.0.1.137,55,place,-0.030,-0.030,-0.030,0.000,0.000,0.000
1605107790509197824,10.0.1.137,62,place,-0.020,-0.020,-0.020,0.000,0.000,0.000
1605107792528187136,10.0.1.137,62,place,0.000,0.000,0.000,0.000,0.000,0.000
1605107794402036992,10.0.1.137,935,move_down,-0.020,-0.020,-0.020,0.000,0.000,0.000
1605107797109918976,10.0.1.137,1509,move_down,-0.040,-0.040,-0.040,0.000,0.000,0.000
1605107799034493952,10.0.1.137,730,move_down,-0.060,-0.060,-0.060,0.000,0.000,0.000
1605107801011113984,10.0.1.137,916,move_down,-0.080,-0.080,-0.080,0.000,0.000,0.000
1605107803573355008,10.0.1.137,1016,move_down,-0.100,-0.100,-0.100,0.000,0.000,0.000
1605107805434781952,10.0.1.137,775,move_down,-0.120,-0.120,-0.120,0.000,0.000,0.000
1605107807532154112,10.0.1.137,1025,move_down,-0.140,-0.140,-0.140,0.000,0.000,0.000
1605107809395788032,10.0.1.137,703,move_down,-0.160,-0.160,-0.160,0.000,0.000,0.000
1605107811313883904,10.0.1.137,830,move_down,-0.180,-0.180,-0.180,0.000,0.000,0.000
1605107813418610944,10.0.1.137,943,move_down,-0.200,-0.200,-0.200,0.000,0.000,0.000
1605107815201533184,10.0.1.137,688,move_down,-0.220,-0.220,-0.220,0.000,0.000,0.000
1605107816991062016,10.0.1.137,656,move_down,-0.240,-0.240,-0.240,0.000,0.000,0.000
1605107818847898880,10.0.1.137,764,move_down,-0.260,-0.260,-0.260,0.000,0.000,0.000
1605107820963959040,10.0.1.137,772,move_down,-0.280,-0.280,-0.280,0.000,0.000,0.000
1605107823290426880,10.0.1.137,969,move_down,-0.300,-0.300,-0.300,0.000,0.000,0.000
1605107825131390208,10.0.1.137,771,move_down,-0.320,-0.320,-0.320,0.000,0.000,0.000
1605107827469774080,10.0.1.137,1193,move_down,-0.340,-0.340,-0.340,0.000,0.000,0.000
1605107829356143872,10.0.1.137,785,move_down,-0.360,-0.360,-0.360,0.000,0.000,0.000
1605107831201346048,10.0.1.137,773,move_down,-0.380,-0.380,-0.380,0.000,0.000,0.000
1605107832996802048,10.0.1.137,727,move_down,-0.400,-0.400,-0.400,0.000,0.000,0.000
1605107834809950976,10.0.1.137,668,move_down,-0.420,-0.420,-0.420,0.000,0.000,0.000
1605107836583762944,10.0.1.137,664,move_down,-0.440,-0.440,-0.440,0.000,0.000,0.000
1605107838463862784,10.0.1.137,801,move_down,-0.460,-0.460,-0.460,0.000,0.000,0.000
1605107840658649088,10.0.1.137,1145,move_down,-0.480,-0.480,-0.480,0.000,0.000,0.000
1605107842625123072,10.0.1.137,814,move_down,-0.500,-0.500,-0.500,0.000,0.000,0.000
1605107845095275008,10.0.1.137,1215,move_down,-0.520,-0.520,-0.520,0.000,0.000,0.000
1605107847254019072,10.0.1.137,844,move_down,-0.540,-0.540,-0.540,0.000,0.000,0.000
1605107849545222912,10.0.1.137,1074,move_down,-0.560,-0.560,-0.560,0.000,0.000,0.000
1605107851690000896,10.0.1.137,1143,move_down,-0.580,-0.580,-0.580,0.000,0.000,0.000
1605107852831834112,10.0.1.137,53,pick,-0.590,-0.590,-0.590,0.000,0.000,0.000
1605107856910087168,10.0.1.137,48,pick,-0.630,-0.630,-0.630,0.000,0.000,0.000
1605107857926018048,10.0.1.137,57,pick,-0.640,-0.640,-0.640,0.000,0.000,0.000
1605107859924834048,10.0.1.137,53,pick,-0.660,-0.660,-0.660,0.000,0.000,0.000
1605107861988428032,10.0.1.137,104,pick,-0.680,-0.680,-0.680,0.000,0.000,0.000
1605107862952686080,10.0.1.137,67,pick,-0.690,-0.690,-0.690,0.000,0.000,0.000
1605107863943859968,10.0.1.137,53,pick,-0.700,-0.700,-0.700,0.000,0.000,0.000
1605107864971479040,10.0.1.137,75,pick,-0.710,-0.710,-0.710,0.000,0.000,0.000
1605107865980324864,10.0.1.137,78,pick,-0.720,-0.720,-0.720,0.000,0.000,0.000
1605107866994315008,10.0.1.137,75,pick,-0.730,-0.730,-0.730,0.000,0.000,0.000
1605107867985246976,10.0.1.137,65,pick,-0.740,-0.740,-0.740,0.000,0.000,0.000
1605107869025274880,10.0.1.137,103,pick,-0.750,-0.750,-0.750,0.000,0.000,0.000
1605107869981307904,10.0.1.137,57,pick,-0.760,-0.760,-0.760,0.000,0.000,0.000
1605107871041970944,10.0.1.137,117,pick,-0.770,-0.770,-0.770,0.000,0.000,0.000
