milangroshev/digital-twin-scalability/logs/run1-300s/10.0.1.143.csv
timestamp,node,latency,action,joint_1,joint_2,joint_3,joint_4,joint_5,joint_6
1605107163464888064,10.0.1.143,2013,,0.000,0.000,0.000,0.000,0.000,0.000
1605107167042885120,10.0.1.143,1587,move_down,-0.020,-0.020,-0.020,0.000,0.000,0.000
1605107168740474112,10.0.1.143,637,move_down,-0.040,-0.040,-0.040,0.000,0.000,0.000
1605107170370085888,10.0.1.143,520,move_down,-0.060,-0.060,-0.060,0.000,0.000,0.000
1605107172171774976,10.0.1.143,678,move_down,-0.080,-0.080,-0.080,0.000,0.000,0.000
1605107173776897024,10.0.1.143,571,move_down,-0.100,-0.100,-0.100,0.000,0.000,0.000
1605107175474093824,10.0.1.143,659,move_down,-0.120,-0.120,-0.120,0.000,0.000,0.000
1605107177118814976,10.0.1.143,553,move_down,-0.140,-0.140,-0.140,0.000,0.000,0.000
1605107178761306112,10.0.1.143,473,move_down,-0.160,-0.160,-0.160,0.000,0.000,0.000
1605107180656014080,10.0.1.143,827,move_down,-0.180,-0.180,-0.180,0.000,0.000,0.000
1605107182546530048,10.0.1.143,818,move_down,-0.200,-0.200,-0.200,0.000,0.000,0.000
1605107184360879872,10.0.1.143,764,move_down,-0.220,-0.220,-0.220,0.000,0.000,0.000
1605107186186064128,10.0.1.143,776,move_down,-0.240,-0.240,-0.240,0.000,0.000,0.000
1605107187823705856,10.0.1.143,550,move_down,-0.260,-0.260,-0.260,0.000,0.000,0.000
1605107189536012032,10.0.1.143,682,move_down,-0.280,-0.280,-0.280,0.000,0.000,0.000
1605107191131762944,10.0.1.143,547,move_down,-0.300,-0.300,-0.300,0.000,0.000,0.000
1605107192886038016,10.0.1.143,650,move_down,-0.320,-0.320,-0.320,0.000,0.000,0.000
1605107194772145920,10.0.1.143,821,move_down,-0.340,-0.340,-0.340,0.000,0.000,0.000
1605107196370699776,10.0.1.143,600,move_down,-0.360,-0.360,-0.360,0.000,0.000,0.000
1605107198168262912,10.0.1.143,710,move_down,-0.380,-0.380,-0.380,0.000,0.000,0.000
1605107199832087040,10.0.1.143,630,move_down,-0.400,-0.400,-0.400,0.000,0.000,0.000
1605107201673976832,10.0.1.143,756,move_down,-0.420,-0.420,-0.420,0.000,0.000,0.000
1605107203272226048,10.0.1.143,493,move_down,-0.440,-0.440,-0.440,0.000,0.000,0.000
1605107205028995072,10.0.1.143,470,move_down,-0.460,-0.460,-0.460,0.000,0.000,0.000
1605107206817446912,10.0.1.143,717,move_down,-0.480,-0.480,-0.480,0.000,0.000,0.000
1605107208488635904,10.0.1.143,524,move_down,-0.500,-0.500,-0.500,0.000,0.000,0.000
1605107210176328960,10.0.1.143,553,move_down,-0.520,-0.520,-0.520,0.000,0.000,0.000
1605107211713391104,10.0.1.143,504,move_down,-0.540,-0.540,-0.540,0.000,0.000,0.000
1605107213300640000,10.0.1.143,486,move_down,-0.560,-0.560,-0.560,0.000,0.000,0.000
1605107214969677824,10.0.1.143,587,move_down,-0.580,-0.580,-0.580,0.000,0.000,0.000
1605107216127249920,10.0.1.143,47,pick,-0.590,-0.590,-0.590,0.000,0.000,0.000
1605107217152348160,10.0.1.143,71,pick,-0.600,-0.600,-0.600,0.000,0.000,0.000
1605107218155561984,10.0.1.143,73,pick,-0.610,-0.610,-0.610,0.000,0.000,0.000
1605107219131340032,10.0.1.143,46,pick,-0.620,-0.620,-0.620,0.000,0.000,0.000
1605107220139982848,10.0.1.143,53,pick,-0.630,-0.630,-0.630,0.000,0.000,0.000
1605107221159368960,10.0.1.143,71,pick,-0.640,-0.640,-0.640,0.000,0.000,0.000
1605107222138354176,10.0.1.143,48,pick,-0.650,-0.650,-0.650,0.000,0.000,0.000
1605107223133827840,10.0.1.143,41,pick,-0.660,-0.660,-0.660,0.000,0.000,0.000
1605107224147025152,10.0.1.143,52,pick,-0.670,-0.670,-0.670,0.000,0.000,0.000
1605107225139054080,10.0.1.143,43,pick,-0.680,-0.680,-0.680,0.000,0.000,0.000
1605107226141135872,10.0.1.143,44,pick,-0.690,-0.690,-0.690,0.000,0.000,0.000
1605107227148391936,10.0.1.143,46,pick,-0.700,-0.700,-0.700,0.000,0.000,0.000
1605107228160242176,10.0.1.143,54,pick,-0.710,-0.710,-0.710,0.000,0.000,0.000
1605107229165998080,10.0.1.143,58,pick,-0.720,-0.720,-0.720,0.000,0.000,0.000
1605107230173441024,10.0.1.143,55,pick,-0.730,-0.730,-0.730,0.000,0.000,0.000
1605107231154469120,10.0.1.143,35,pick,-0.740,-0.740,-0.740,0.000,0.000,0.000
1605107232224370944,10.0.1.143,91,pick,-0.750,-0.750,-0.750,0.000,0.000,0.000
1605107233193836800,10.0.1.143,48,pick,-0.760,-0.760,-0.760,0.000,0.000,0.000
1605107234193223936,10.0.1.143,46,pick,-0.770,-0.770,-0.770,0.000,0.000,0.000
1605107235751287040,10.0.1.143,603,move_up,-0.750,-0.750,-0.750,0.000,0.000,0.000
1605107237392088064,10.0.1.143,554,move_up,-0.730,-0.730,-0.730,0.000,0.000,0.000
1605107239276628992,10.0.1.143,688,move_up,-0.710,-0.710,-0.710,0.000,0.000,0.000
1605107240940068096,10.0.1.143,605,move_up,-0.690,-0.690,-0.690,0.000,0.000,0.000
1605107242644131072,10.0.1.143,574,move_up,-0.670,-0.670,-0.670,0.000,0.000,0.000
1605107244357636864,10.0.1.143,609,move_up,-0.650,-0.650,-0.650,0.000,0.000,0.000
1605107246087886080,10.0.1.143,570,move_up,-0.630,-0.630,-0.630,0.000,0.000,0.000
1605107247747812096,10.0.1.143,599,move_up,-0.610,-0.610,-0.610,0.000,0.000,0.000
1605107249455919872,10.0.1.143,621,move_up,-0.590,-0.590,-0.590,0.000,0.000,0.000
1605107251429650176,10.0.1.143,839,move_up,-0.570,-0.570,-0.570,0.000,0.000,0.000
1605107253265458176,10.0.1.143,764,move_up,-0.550,-0.550,-0.550,0.000,0.000,0.000
1605107255040924928,10.0.1.143,718,move_up,-0.530,-0.530,-0.530,0.000,0.000,0.000
1605107256710576896,10.0.1.143,620,move_up,-0.510,-0.510,-0.510,0.000,0.000,0.000
1605107258360666112,10.0.1.143,589,move_up,-0.490,-0.490,-0.490,0.000,0.000,0.000
1605107260009298176,10.0.1.143,578,move_up,-0.470,-0.470,-0.470,0.000,0.000,0.000
1605107261607426816,10.0.1.143,569,move_up,-0.450,-0.450,-0.450,0.000,0.000,0.000
1605107263428947968,10.0.1.143,532,move_up,-0.430,-0.430,-0.430,0.000,0.000,0.000
1605107265160695040,10.0.1.143,620,move_up,-0.410,-0.410,-0.410,0.000,0.000,0.000
1605107266816036096,10.0.1.143,577,move_up,-0.390,-0.390,-0.390,0.000,0.000,0.000
1605107268590255872,10.0.1.143,734,move_up,-0.370,-0.370,-0.370,0.000,0.000,0.000
1605107270389213184,10.0.1.143,674,move_up,-0.350,-0.350,-0.350,0.000,0.000,0.000
1605107272173777152,10.0.1.143,617,move_up,-0.330,-0.330,-0.330,0.000,0.000,0.000
1605107273916219904,10.0.1.143,652,move_up,-0.310,-0.310,-0.310,0.000,0.000,0.000
1605107275614087168,10.0.1.143,571,move_up,-0.290,-0.290,-0.290,0.000,0.000,0.000
1605107277293026816,10.0.1.143,607,move_up,-0.270,-0.270,-0.270,0.000,0.000,0.000
1605107279045277184,10.0.1.143,690,move_up,-0.250,-0.250,-0.250,0.000,0.000,0.000
1605107280674449920,10.0.1.143,531,move_up,-0.230,-0.230,-0.230,0.000,0.000,0.000
1605107282384579840,10.0.1.143,592,move_up,-0.210,-0.210,-0.210,0.000,0.000,0.000
1605107284036730880,10.0.1.143,587,move_up,-0.190,-0.190,-0.190,0.000,0.000,0.000
1605107285193541120,10.0.1.143,60,place,-0.180,-0.180,-0.180,0.000,0.000,0.000
1605107286229545216,10.0.1.143,83,place,-0.170,-0.170,-0.170,0.000,0.000,0.000
1605107287193895168,10.0.1.143,41,place,-0.160,-0.160,-0.160,0.000,0.000,0.000
1605107290202109952,10.0.1.143,44,place,-0.130,-0.130,-0.130,0.000,0.000,0.000
1605107291272850944,10.0.1.143,102,place,-0.120,-0.120,-0.120,0.000,0.000,0.000
1605107292216109056,10.0.1.143,40,place,-0.110,-0.110,-0.110,0.000,0.000,0.000
1605107293217690112,10.0.1.143,40,place,-0.100,-0.100,-0.100,0.000,0.000,0.000
1605107295241085952,10.0.1.143,43,place,-0.080,-0.080,-0.080,0.000,0.000,0.000
1605107296249856000,10.0.1.143,50,place,-0.070,-0.070,-0.070,0.000,0.000,0.000
1605107297262407936,10.0.1.143,62,place,-0.060,-0.060,-0.060,0.000,0.000,0.000
1605107298256453120,10.0.1.143,47,place,-0.050,-0.050,-0.050,0.000,0.000,0.000
1605107299257120000,10.0.1.143,38,place,-0.040,-0.040,-0.040,0.000,0.000,0.000
1605107300309305856,10.0.1.143,87,place,-0.030,-0.030,-0.030,0.000,0.000,0.000
1605107301279331840,10.0.1.143,55,place,-0.020,-0.020,-0.020,0.000,0.000,0.000
1605107302281018112,10.0.1.143,56,place,-0.010,-0.010,-0.010,0.000,0.000,0.000
1605107303271010048,10.0.1.143,43,place,0.000,0.000,0.000,0.000,0.000,0.000
1605107304825223936,10.0.1.143,596,move_down,-0.020,-0.020,-0.020,0.000,0.000,0.000
1605107306614398976,10.0.1.143,697,move_down,-0.040,-0.040,-0.040,0.000,0.000,0.000
1605107308255255040,10.0.1.143,563,move_down,-0.060,-0.060,-0.060,0.000,0.000,0.000
1605107310083771904,10.0.1.143,747,move_down,-0.080,-0.080,-0.080,0.000,0.000,0.000
1605107311803989760,10.0.1.143,669,move_down,-0.100,-0.100,-0.100,0.000,0.000,0.000
1605107313456660992,10.0.1.143,582,move_down,-0.120,-0.120,-0.120,0.000,0.000,0.000
1605107315423191040,10.0.1.143,782,move_down,-0.140,-0.140,-0.140,0.000,0.000,0.000
1605107317086401024,10.0.1.143,574,move_down,-0.160,-0.160,-0.160,0.000,0.000,0.000
1605107318818126848,10.0.1.143,634,move_down,-0.180,-0.180,-0.180,0.000,0.000,0.000
1605107320457643008,10.0.1.143,630,move_down,-0.200,-0.200,-0.200,0.000,0.000,0.000
1605107322218302976,10.0.1.143,663,move_down,-0.220,-0.220,-0.220,0.000,0.000,0.000
1605107324055887104,10.0.1.143,752,move_down,-0.240,-0.240,-0.240,0.000,0.000,0.000
1605107326246119936,10.0.1.143,649,move_down,-0.260,-0.260,-0.260,0.000,0.000,0.000
1605107327987652096,10.0.1.143,655,move_down,-0.280,-0.280,-0.280,0.000,0.000,0.000
1605107329805316096,10.0.1.143,724,move_down,-0.300,-0.300,-0.300,0.000,0.000,0.000
1605107331614560000,10.0.1.143,705,move_down,-0.320,-0.320,-0.320,0.000,0.000,0.000
1605107333431488000,10.0.1.143,628,move_down,-0.340,-0.340,-0.340,0.000,0.000,0.000
1605107335163383040,10.0.1.143,668,move_down,-0.360,-0.360,-0.360,0.000,0.000,0.000
1605107336774801920,10.0.1.143,507,move_down,-0.380,-0.380,-0.380,0.000,0.000,0.000
1605107338360191232,10.0.1.143,562,move_down,-0.400,-0.400,-0.400,0.000,0.000,0.000
1605107339990880000,10.0.1.143,555,move_down,-0.420,-0.420,-0.420,0.000,0.000,0.000
1605107341679436800,10.0.1.143,593,move_down,-0.440,-0.440,-0.440,0.000,0.000,0.000
1605107343428192000,10.0.1.143,668,move_down,-0.460,-0.460,-0.460,0.000,0.000,0.000
1605107345086009088,10.0.1.143,622,move_down,-0.480,-0.480,-0.480,0.000,0.000,0.000
1605107347073810176,10.0.1.143,859,move_down,-0.500,-0.500,-0.500,0.000,0.000,0.000
1605107348740128000,10.0.1.143,585,move_down,-0.520,-0.520,-0.520,0.000,0.000,0.000
1605107350426287872,10.0.1.143,629,move_down,-0.540,-0.540,-0.540,0.000,0.000,0.000
1605107352057817088,10.0.1.143,526,move_down,-0.560,-0.560,-0.560,0.000,0.000,0.000
1605107353673158912,10.0.1.143,583,move_down,-0.580,-0.580,-0.580,0.000,0.000,0.000
1605107354833352960,10.0.1.143,64,pick,-0.590,-0.590,-0.590,0.000,0.000,0.000
1605107357823136000,10.0.1.143,47,pick,-0.620,-0.620,-0.620,0.000,0.000,0.000
1605107360817346048,10.0.1.143,34,pick,-0.650,-0.650,-0.650,0.000,0.000,0.000
1605107361835792896,10.0.1.143,50,pick,-0.660,-0.660,-0.660,0.000,0.000,0.000
1605107362850326016,10.0.1.143,56,pick,-0.670,-0.670,-0.670,0.000,0.000,0.000
1605107363851015936,10.0.1.143,49,pick,-0.680,-0.680,-0.680,0.000,0.000,0.000
1605107364845790976,10.0.1.143,42,pick,-0.690,-0.690,-0.690,0.000,0.000,0.000
1605107365873123840,10.0.1.143,61,pick,-0.700,-0.700,-0.700,0.000,0.000,0.000
1605107366854376960,10.0.1.143,41,pick,-0.710,-0.710,-0.710,0.000,0.000,0.000
1605107367853694976,10.0.1.143,38,pick,-0.720,-0.720,-0.720,0.000,0.000,0.000
1605107368915102976,10.0.1.143,92,pick,-0.730,-0.730,-0.730,0.000,0.000,0.000
1605107369861517824,10.0.1.143,37,pick,-0.740,-0.740,-0.740,0.000,0.000,0.000
1605107370863233024,10.0.1.143,38,pick,-0.750,-0.750,-0.750,0.000,0.000,0.000
1605107371883940864,10.0.1.143,55,pick,-0.760,-0.760,-0.760,0.000,0.000,0.000
1605107372877079040,10.0.1.143,46,pick,-0.770,-0.770,-0.770,0.000,0.000,0.000
1605107374393954048,10.0.1.143,560,move_up,-0.750,-0.750,-0.750,0.000,0.000,0.000
1605107375985907968,10.0.1.143,482,move_up,-0.730,-0.730,-0.730,0.000,0.000,0.000
1605107377559686912,10.0.1.143,548,move_up,-0.710,-0.710,-0.710,0.000,0.000,0.000
1605107379380951808,10.0.1.143,761,move_up,-0.690,-0.690,-0.690,0.000,0.000,0.000
1605107381119302912,10.0.1.143,594,move_up,-0.670,-0.670,-0.670,0.000,0.000,0.000
1605107382963746048,10.0.1.143,747,move_up,-0.650,-0.650,-0.650,0.000,0.000,0.000
1605107385075172864,10.0.1.143,488,move_up,-0.630,-0.630,-0.630,0.000,0.000,0.000
1605107386794992896,10.0.1.143,615,move_up,-0.610,-0.610,-0.610,0.000,0.000,0.000
1605107388600083968,10.0.1.143,673,move_up,-0.590,-0.590,-0.590,0.000,0.000,0.000
1605107390517606912,10.0.1.143,809,move_up,-0.570,-0.570,-0.570,0.000,0.000,0.000
1605107392397361152,10.0.1.143,697,move_up,-0.550,-0.550,-0.550,0.000,0.000,0.000
1605107394131181056,10.0.1.143,614,move_up,-0.530,-0.530,-0.530,0.000,0.000,0.000
1605107395974654976,10.0.1.143,605,move_up,-0.510,-0.510,-0.510,0.000,0.000,0.000
1605107397824261888,10.0.1.143,725,move_up,-0.490,-0.490,-0.490,0.000,0.000,0.000
1605107399593837056,10.0.1.143,754,move_up,-0.470,-0.470,-0.470,0.000,0.000,0.000
1605107401817981952,10.0.1.143,1022,move_up,-0.450,-0.450,-0.450,0.000,0.000,0.000
1605107403503746048,10.0.1.143,540,move_up,-0.430,-0.430,-0.430,0.000,0.000,0.000
1605107405400461824,10.0.1.143,833,move_up,-0.410,-0.410,-0.410,0.000,0.000,0.000
1605107407374365184,10.0.1.143,709,move_up,-0.390,-0.390,-0.390,0.000,0.000,0.000
1605107409072598016,10.0.1.143,587,move_up,-0.370,-0.370,-0.370,0.000,0.000,0.000
1605107410824416000,10.0.1.143,708,move_up,-0.350,-0.350,-0.350,0.000,0.000,0.000
1605107412466167808,10.0.1.143,625,move_up,-0.330,-0.330,-0.330,0.000,0.000,0.000
1605107414198750976,10.0.1.143,684,move_up,-0.310,-0.310,-0.310,0.000,0.000,0.000
1605107415882371840,10.0.1.143,657,move_up,-0.290,-0.290,-0.290,0.000,0.000,0.000
1605107417806502144,10.0.1.143,793,move_up,-0.270,-0.270,-0.270,0.000,0.000,0.000
1605107419495137024,10.0.1.143,643,move_up,-0.250,-0.250,-0.250,0.000,0.000,0.000
1605107421209979136,10.0.1.143,564,move_up,-0.230,-0.230,-0.230,0.000,0.000,0.000
1605107422867453952,10.0.1.143,593,move_up,-0.210,-0.210,-0.210,0.000,0.000,0.000
1605107424532701952,10.0.1.143,559,move_up,-0.190,-0.190,-0.190,0.000,0.000,0.000
1605107425638328064,10.0.1.143,36,place,-0.180,-0.180,-0.180,0.000,0.000,0.000
1605107426691217920,10.0.1.143,87,place,-0.170,-0.170,-0.170,0.000,0.000,0.000
1605107428660795904,10.0.1.143,47,place,-0.150,-0.150,-0.150,0.000,0.000,0.000
1605107429665980160,10.0.1.143,45,place,-0.140,-0.140,-0.140,0.000,0.000,0.000
1605107430687560192,10.0.1.143,65,place,-0.130,-0.130,-0.130,0.000,0.000,0.000
1605107431679148032,10.0.1.143,53,place,-0.120,-0.120,-0.120,0.000,0.000,0.000
1605107432678921984,10.0.1.143,51,place,-0.110,-0.110,-0.110,0.000,0.000,0.000
1605107433694942976,10.0.1.143,66,place,-0.100,-0.100,-0.100,0.000,0.000,0.000
1605107434675301120,10.0.1.143,46,place,-0.090,-0.090,-0.090,0.000,0.000,0.000
1605107435690900992,10.0.1.143,51,place,-0.080,-0.080,-0.080,0.000,0.000,0.000
1605107437677728768,10.0.1.143,36,place,-0.060,-0.060,-0.060,0.000,0.000,0.000
1605107438686181120,10.0.1.143,42,place,-0.050,-0.050,-0.050,0.000,0.000,0.000
1605107440677889024,10.0.1.143,32,place,-0.030,-0.030,-0.030,0.000,0.000,0.000
1605107441683351040,10.0.1.143,36,place,-0.020,-0.020,-0.020,0.000,0.000,0.000
1605107442724386816,10.0.1.143,75,place,-0.010,-0.010,-0.010,0.000,0.000,0.000
1605107443697366016,10.0.1.143,48,place,0.000,0.000,0.000,0.000,0.000,0.000
1605107445297489920,10.0.1.143,647,move_down,-0.020,-0.020,-0.020,0.000,0.000,0.000
1605107447026681856,10.0.1.143,683,move_down,-0.040,-0.040,-0.040,0.000,0.000,0.000
1605107448846561792,10.0.1.143,804,move_down,-0.060,-0.060,-0.060,0.000,0.000,0.000
1605107450867439104,10.0.1.143,961,move_down,-0.080,-0.080,-0.080,0.000,0.000,0.000
1605107452356293888,10.0.1.143,488,move_down,-0.100,-0.100,-0.100,0.000,0.000,0.000
1605107454069551104,10.0.1.143,637,move_down,-0.120,-0.120,-0.120,0.000,0.000,0.000
1605107455819226112,10.0.1.143,677,move_down,-0.140,-0.140,-0.140,0.000,0.000,0.000
1605107457701064960,10.0.1.143,738,move_down,-0.160,-0.160,-0.160,0.000,0.000,0.000
1605107459446886144,10.0.1.143,697,move_down,-0.180,-0.180,-0.180,0.000,0.000,0.000
1605107461070092032,10.0.1.143,595,move_down,-0.200,-0.200,-0.200,0.000,0.000,0.000
1605107462800183040,10.0.1.143,673,move_down,-0.220,-0.220,-0.220,0.000,0.000,0.000
1605107464687324160,10.0.1.143,767,move_down,-0.240,-0.240,-0.240,0.000,0.000,0.000
1605107466503470848,10.0.1.143,650,move_down,-0.260,-0.260,-0.260,0.000,0.000,0.000
1605107468226907904,10.0.1.143,741,move_down,-0.280,-0.280,-0.280,0.000,0.000,0.000
1605107470323468032,10.0.1.143,934,move_down,-0.300,-0.300,-0.300,0.000,0.000,0.000
1605107472557972992,10.0.1.143,982,move_down,-0.320,-0.320,-0.320,0.000,0.000,0.000
1605107474325117952,10.0.1.143,701,move_down,-0.340,-0.340,-0.340,0.000,0.000,0.000
1605107476206490880,10.0.1.143,863,move_down,-0.360,-0.360,-0.360,0.000,0.000,0.000
1605107477983060992,10.0.1.143,597,move_down,-0.380,-0.380,-0.380,0.000,0.000,0.000
1605107479867471104,10.0.1.143,813,move_down,-0.400,-0.400,-0.400,0.000,0.000,0.000
1605107481483431168,10.0.1.143,588,move_down,-0.420,-0.420,-0.420,0.000,0.000,0.000
1605107483631346944,10.0.1.143,1082,move_down,-0.440,-0.440,-0.440,0.000,0.000,0.000
1605107485407340032,10.0.1.143,696,move_down,-0.460,-0.460,-0.460,0.000,0.000,0.000
1605107487176698880,10.0.1.143,682,move_down,-0.480,-0.480,-0.480,0.000,0.000,0.000
1605107488949655040,10.0.1.143,716,move_down,-0.500,-0.500,-0.500,0.000,0.000,0.000
1605107491054351104,10.0.1.143,1003,move_down,-0.520,-0.520,-0.520,0.000,0.000,0.000
1605107493007635200,10.0.1.143,787,move_down,-0.540,-0.540,-0.540,0.000,0.000,0.000
1605107495086966016,10.0.1.143,977,move_down,-0.560,-0.560,-0.560,0.000,0.000,0.000
1605107496887640832,10.0.1.143,686,move_down,-0.580,-0.580,-0.580,0.000,0.000,0.000
1605107498030800128,10.0.1.143,53,pick,-0.590,-0.590,-0.590,0.000,0.000,0.000
1605107499053302016,10.0.1.143,60,pick,-0.600,-0.600,-0.600,0.000,0.000,0.000
1605107500047852032,10.0.1.143,54,pick,-0.610,-0.610,-0.610,0.000,0.000,0.000
1605107503049110784,10.0.1.143,42,pick,-0.640,-0.640,-0.640,0.000,0.000,0.000
1605107504068062976,10.0.1.143,50,pick,-0.650,-0.650,-0.650,0.000,0.000,0.000
1605107508128865024,10.0.1.143,48,pick,-0.690,-0.690,-0.690,0.000,0.000,0.000
1605107509151892992,10.0.1.143,67,pick,-0.700,-0.700,-0.700,0.000,0.000,0.000
1605107512146996992,10.0.1.143,58,pick,-0.730,-0.730,-0.730,0.000,0.000,0.000
1605107514152466176,10.0.1.143,55,pick,-0.750,-0.750,-0.750,0.000,0.000,0.000
1605107515162460160,10.0.1.143,62,pick,-0.760,-0.760,-0.760,0.000,0.000,0.000
1605107517778544896,10.0.1.143,675,move_up,-0.750,-0.750,-0.750,0.000,0.000,0.000
1605107519634066176,10.0.1.143,790,move_up,-0.730,-0.730,-0.730,0.000,0.000,0.000
1605107521656626944,10.0.1.143,962,move_up,-0.710,-0.710,-0.710,0.000,0.000,0.000
1605107523533979904,10.0.1.143,805,move_up,-0.690,-0.690,-0.690,0.000,0.000,0.000
1605107525433058048,10.0.1.143,868,move_up,-0.670,-0.670,-0.670,0.000,0.000,0.000
1605107527156694016,10.0.1.143,681,move_up,-0.650,-0.650,-0.650,0.000,0.000,0.000
1605107528829313024,10.0.1.143,594,move_up,-0.630,-0.630,-0.630,0.000,0.000,0.000
1605107530601831936,10.0.1.143,698,move_up,-0.610,-0.610,-0.610,0.000,0.000,0.000
1605107532264226048,10.0.1.143,534,move_up,-0.590,-0.590,-0.590,0.000,0.000,0.000
1605107534071439104,10.0.1.143,692,move_up,-0.570,-0.570,-0.570,0.000,0.000,0.000
1605107535827828992,10.0.1.143,724,move_up,-0.550,-0.550,-0.550,0.000,0.000,0.000
1605107537647098112,10.0.1.143,818,move_up,-0.530,-0.530,-0.530,0.000,0.000,0.000
1605107539542232064,10.0.1.143,794,move_up,-0.510,-0.510,-0.510,0.000,0.000,0.000
1605107541597202176,10.0.1.143,985,move_up,-0.490,-0.490,-0.490,0.000,0.000,0.000
1605107543577419008,10.0.1.143,916,move_up,-0.470,-0.470,-0.470,0.000,0.000,0.000
1605107545158170112,10.0.1.143,504,move_up,-0.450,-0.450,-0.450,0.000,0.000,0.000
1605107547192889088,10.0.1.143,825,move_up,-0.430,-0.430,-0.430,0.000,0.000,0.000
1605107549034835200,10.0.1.143,704,move_up,-0.410,-0.410,-0.410,0.000,0.000,0.000
1605107550791240960,10.0.1.143,723,move_up,-0.390,-0.390,-0.390,0.000,0.000,0.000
1605107552443635968,10.0.1.143,651,move_up,-0.370,-0.370,-0.370,0.000,0.000,0.000
1605107554490718976,10.0.1.143,939,move_up,-0.350,-0.350,-0.350,0.000,0.000,0.000
1605107556453114880,10.0.1.143,820,move_up,-0.330,-0.330,-0.330,0.000,0.000,0.000
1605107558120914944,10.0.1.143,589,move_up,-0.310,-0.310,-0.310,0.000,0.000,0.000
1605107560045451008,10.0.1.143,825,move_up,-0.290,-0.290,-0.290,0.000,0.000,0.000
1605107562033571840,10.0.1.143,923,move_up,-0.270,-0.270,-0.270,0.000,0.000,0.000
1605107563831689984,10.0.1.143,765,move_up,-0.250,-0.250,-0.250,0.000,0.000,0.000
1605107565829669888,10.0.1.143,807,move_up,-0.230,-0.230,-0.230,0.000,0.000,0.000
1605107567604281856,10.0.1.143,770,move_up,-0.210,-0.210,-0.210,0.000,0.000,0.000
1605107569380273152,10.0.1.143,732,move_up,-0.190,-0.190,-0.190,0.000,0.000,0.000
1605107570550008064,10.0.1.143,68,place,-0.180,-0.180,-0.180,0.000,0.000,0.000
1605107571537209088,10.0.1.143,48,place,-0.170,-0.170,-0.170,0.000,0.000,0.000
1605107573542636032,10.0.1.143,46,place,-0.150,-0.150,-0.150,0.000,0.000,0.000
1605107574588783872,10.0.1.143,62,place,-0.140,-0.140,-0.140,0.000,0.000,0.000
1605107575632617984,10.0.1.143,104,place,-0.130,-0.130,-0.130,0.000,0.000,0.000
1605107576595469056,10.0.1.143,60,place,-0.120,-0.120,-0.120,0.000,0.000,0.000
1605107577586381056,10.0.1.143,41,place,-0.110,-0.110,-0.110,0.000,0.000,0.000
1605107578613409024,10.0.1.143,67,place,-0.100,-0.100,-0.100,0.000,0.000,0.000
1605107579641430016,10.0.1.143,81,place,-0.090,-0.090,-0.090,0.000,0.000,0.000
1605107580612474880,10.0.1.143,51,place,-0.080,-0.080,-0.080,0.000,0.000,0.000
1605107581622036992,10.0.1.143,60,place,-0.070,-0.070,-0.070,0.000,0.000,0.000
1605107582594841856,10.0.1.143,32,place,-0.060,-0.060,-0.060,0.000,0.000,0.000
1605107584643309056,10.0.1.143,65,place,-0.040,-0.040,-0.040,0.000,0.000,0.000
1605107585774248960,10.0.1.143,195,place,-0.030,-0.030,-0.030,0.000,0.000,0.000
1605107586626117888,10.0.1.143,45,place,-0.020,-0.020,-0.020,0.000,0.000,0.000
1605107587687612160,10.0.1.143,104,place,-0.010,-0.010,-0.010,0.000,0.000,0.000
1605107588625936128,10.0.1.143,42,place,0.000,0.000,0.000,0.000,0.000,0.000
1605107590448841216,10.0.1.143,863,move_down,-0.020,-0.020,-0.020,0.000,0.000,0.000
1605107592031269120,10.0.1.143,486,move_down,-0.040,-0.040,-0.040,0.000,0.000,0.000
1605107593864204032,10.0.1.143,726,move_down,-0.060,-0.060,-0.060,0.000,0.000,0.000
1605107596136096000,10.0.1.143,1157,move_down,-0.080,-0.080,-0.080,0.000,0.000,0.000
1605107598331766016,10.0.1.143,1066,move_down,-0.100,-0.100,-0.100,0.000,0.000,0.000
1605107600338466816,10.0.1.143,844,move_down,-0.120,-0.120,-0.120,0.000,0.000,0.000
1605107602265218048,10.0.1.143,745,move_down,-0.140,-0.140,-0.140,0.000,0.000,0.000
1605107604472542976,10.0.1.143,1152,move_down,-0.160,-0.160,-0.160,0.000,0.000,0.000
1605107606402891008,10.0.1.143,884,move_down,-0.180,-0.180,-0.180,0.000,0.000,0.000
1605107608411525888,10.0.1.143,725,move_down,-0.200,-0.200,-0.200,0.000,0.000,0.000
1605107610372014080,10.0.1.143,908,move_down,-0.220,-0.220,-0.220,0.000,0.000,0.000
1605107612182810112,10.0.1.143,740,move_down,-0.240,-0.240,-0.240,0.000,0.000,0.000
1605107613927473920,10.0.1.143,635,move_down,-0.260,-0.260,-0.260,0.000,0.000,0.000
1605107615993818112,10.0.1.143,894,move_down,-0.280,-0.280,-0.280,0.000,0.000,0.000
1605107618242711040,10.0.1.143,1087,move_down,-0.300,-0.300,-0.300,0.000,0.000,0.000
1605107620005825024,10.0.1.143,741,move_down,-0.320,-0.320,-0.320,0.000,0.000,0.000
1605107621956316928,10.0.1.143,897,move_down,-0.340,-0.340,-0.340,0.000,0.000,0.000
1605107623645891072,10.0.1.143,643,move_down,-0.360,-0.360,-0.360,0.000,0.000,0.000
1605107625417712896,10.0.1.143,644,move_down,-0.380,-0.380,-0.380,0.000,0.000,0.000
1605107627198425088,10.0.1.143,660,move_down,-0.400,-0.400,-0.400,0.000,0.000,0.000
1605107629035752960,10.0.1.143,773,move_down,-0.420,-0.420,-0.420,0.000,0.000,0.000
1605107631094593024,10.0.1.143,886,move_down,-0.440,-0.440,-0.440,0.000,0.000,0.000
1605107632943730176,10.0.1.143,756,move_down,-0.460,-0.460,-0.460,0.000,0.000,0.000
1605107634697804032,10.0.1.143,644,move_down,-0.480,-0.480,-0.480,0.000,0.000,0.000
1605107636629395968,10.0.1.143,622,move_down,-0.500,-0.500,-0.500,0.000,0.000,0.000
1605107638426620928,10.0.1.143,672,move_down,-0.520,-0.520,-0.520,0.000,0.000,0.000
1605107640231378944,10.0.1.143,663,move_down,-0.540,-0.540,-0.540,0.000,0.000,0.000
1605107642280179968,10.0.1.143,931,move_down,-0.560,-0.560,-0.560,0.000,0.000,0.000
1605107644228670976,10.0.1.143,775,move_down,-0.580,-0.580,-0.580,0.000,0.000,0.000
1605107645599175936,10.0.1.143,52,pick,-0.590,-0.590,-0.590,0.000,0.000,0.000
1605107646616357120,10.0.1.143,65,pick,-0.600,-0.600,-0.600,0.000,0.000,0.000
1605107647607332864,10.0.1.143,44,pick,-0.610,-0.610,-0.610,0.000,0.000,0.000
1605107648629307904,10.0.1.143,54,pick,-0.620,-0.620,-0.620,0.000,0.000,0.000
1605107649646502144,10.0.1.143,66,pick,-0.630,-0.630,-0.630,0.000,0.000,0.000
1605107650640312064,10.0.1.143,58,pick,-0.640,-0.640,-0.640,0.000,0.000,0.000
1605107651621662976,10.0.1.143,38,pick,-0.650,-0.650,-0.650,0.000,0.000,0.000
1605107652654361088,10.0.1.143,55,pick,-0.660,-0.660,-0.660,0.000,0.000,0.000
1605107653650018048,10.0.1.143,50,pick,-0.670,-0.670,-0.670,0.000,0.000,0.000
1605107654689867008,10.0.1.143,85,pick,-0.680,-0.680,-0.680,0.000,0.000,0.000
1605107655671080192,10.0.1.143,55,pick,-0.690,-0.690,-0.690,0.000,0.000,0.000
1605107656699356160,10.0.1.143,82,pick,-0.700,-0.700,-0.700,0.000,0.000,0.000
1605107657660229888,10.0.1.143,41,pick,-0.710,-0.710,-0.710,0.000,0.000,0.000
1605107658700620032,10.0.1.143,80,pick,-0.720,-0.720,-0.720,0.000,0.000,0.000
1605107660675064064,10.0.1.143,50,pick,-0.740,-0.740,-0.740,0.000,0.000,0.000
1605107662684025088,10.0.1.143,51,pick,-0.760,-0.760,-0.760,0.000,0.000,0.000
1605107663690622976,10.0.1.143,56,pick,-0.770,-0.770,-0.770,0.000,0.000,0.000
1605107665311943936,10.0.1.143,676,move_up,-0.750,-0.750,-0.750,0.000,0.000,0.000
1605107667398494976,10.0.1.143,997,move_up,-0.730,-0.730,-0.730,0.000,0.000,0.000
1605107669308679168,10.0.1.143,802,move_up,-0.710,-0.710,-0.710,0.000,0.000,0.000
1605107671615668992,10.0.1.143,1076,move_up,-0.690,-0.690,-0.690,0.000,0.000,0.000
1605107673558032128,10.0.1.143,888,move_up,-0.670,-0.670,-0.670,0.000,0.000,0.000
1605107675460614912,10.0.1.143,791,move_up,-0.650,-0.650,-0.650,0.000,0.000,0.000
1605107677628675072,10.0.1.143,1062,move_up,-0.630,-0.630,-0.630,0.000,0.000,0.000
1605107679658170112,10.0.1.143,972,move_up,-0.610,-0.610,-0.610,0.000,0.000,0.000
1605107681385778944,10.0.1.143,635,move_up,-0.590,-0.590,-0.590,0.000,0.000,0.000
1605107683339116032,10.0.1.143,853,move_up,-0.570,-0.570,-0.570,0.000,0.000,0.000
1605107685280390144,10.0.1.143,846,move_up,-0.550,-0.550,-0.550,0.000,0.000,0.000
1605107687273696000,10.0.1.143,883,move_up,-0.530,-0.530,-0.530,0.000,0.000,0.000
1605107689394049792,10.0.1.143,1000,move_up,-0.510,-0.510,-0.510,0.000,0.000,0.000
1605107691026523136,10.0.1.143,545,move_up,-0.490,-0.490,-0.490,0.000,0.000,0.000
1605107692772762112,10.0.1.143,712,move_up,-0.470,-0.470,-0.470,0.000,0.000,0.000
1605107694848182016,10.0.1.143,996,move_up,-0.450,-0.450,-0.450,0.000,0.000,0.000
1605107696531846912,10.0.1.143,610,move_up,-0.430,-0.430,-0.430,0.000,0.000,0.000
1605107698372391936,10.0.1.143,716,move_up,-0.410,-0.410,-0.410,0.000,0.000,0.000
1605107700126426880,10.0.1.143,719,move_up,-0.390,-0.390,-0.390,0.000,0.000,0.000
1605107702322196992,10.0.1.143,1148,move_up,-0.370,-0.370,-0.370,0.000,0.000,0.000
1605107704538098176,10.0.1.143,1098,move_up,-0.350,-0.350,-0.350,0.000,0.000,0.000
1605107706165911040,10.0.1.143,613,move_up,-0.330,-0.330,-0.330,0.000,0.000,0.000
1605107708004820224,10.0.1.143,687,move_up,-0.310,-0.310,-0.310,0.000,0.000,0.000
1605107710099216896,10.0.1.143,995,move_up,-0.290,-0.290,-0.290,0.000,0.000,0.000
1605107711691848960,10.0.1.143,607,move_up,-0.270,-0.270,-0.270,0.000,0.000,0.000
1605107713544838912,10.0.1.143,831,move_up,-0.250,-0.250,-0.250,0.000,0.000,0.000
1605107715404102144,10.0.1.143,797,move_up,-0.230,-0.230,-0.230,0.000,0.000,0.000
1605107717182141952,10.0.1.143,721,move_up,-0.210,-0.210,-0.210,0.000,0.000,0.000
1605107719338818048,10.0.1.143,1085,move_up,-0.190,-0.190,-0.190,0.000,0.000,0.000
1605107720528596992,10.0.1.143,62,place,-0.180,-0.180,-0.180,0.000,0.000,0.000
1605107721586889984,10.0.1.143,118,place,-0.170,-0.170,-0.170,0.000,0.000,0.000
1605107722539980800,10.0.1.143,61,place,-0.160,-0.160,-0.160,0.000,0.000,0.000
1605107723544014848,10.0.1.143,63,place,-0.150,-0.150,-0.150,0.000,0.000,0.000
1605107724552745216,10.0.1.143,61,place,-0.140,-0.140,-0.140,0.000,0.000,0.000
1605107725594309120,10.0.1.143,97,place,-0.130,-0.130,-0.130,0.000,0.000,0.000
1605107726577042176,10.0.1.143,76,place,-0.120,-0.120,-0.120,0.000,0.000,0.000
1605107727553297152,10.0.1.143,51,place,-0.110,-0.110,-0.110,0.000,0.000,0.000
1605107730562254080,10.0.1.143,49,place,-0.080,-0.080,-0.080,0.000,0.000,0.000
1605107731582696960,10.0.1.143,63,place,-0.070,-0.070,-0.070,0.000,0.000,0.000
1605107732574733056,10.0.1.143,50,place,-0.060,-0.060,-0.060,0.000,0.000,0.000
1605107734613600000,10.0.1.143,61,place,-0.040,-0.040,-0.040,0.000,0.000,0.000
1605107737619900928,10.0.1.143,62,place,-0.010,-0.010,-0.010,0.000,0.000,0.000
1605107740157907968,10.0.1.143,597,move_down,-0.020,-0.020,-0.020,0.000,0.000,0.000
1605107742437288960,10.0.1.143,1168,move_down,-0.040,-0.040,-0.040,0.000,0.000,0.000
1605107744289266176,10.0.1.143,725,move_down,-0.060,-0.060,-0.060,0.000,0.000,0.000
1605107746183542016,10.0.1.143,844,move_down,-0.080,-0.080,-0.080,0.000,0.000,0.000
1605107748310832896,10.0.1.143,980,move_down,-0.100,-0.100,-0.100,0.000,0.000,0.000
1605107750552505856,10.0.1.143,1121,move_down,-0.120,-0.120,-0.120,0.000,0.000,0.000
1605107752691912960,10.0.1.143,1009,move_down,-0.140,-0.140,-0.140,0.000,0.000,0.000
1605107754525840128,10.0.1.143,748,move_down,-0.160,-0.160,-0.160,0.000,0.000,0.000
1605107757035758080,10.0.1.143,1303,move_down,-0.180,-0.180,-0.180,0.000,0.000,0.000
1605107759132328960,10.0.1.143,951,move_down,-0.200,-0.200,-0.200,0.000,0.000,0.000
1605107761214621952,10.0.1.143,1050,move_down,-0.220,-0.220,-0.220,0.000,0.000,0.000
1605107763243287040,10.0.1.143,948,move_down,-0.240,-0.240,-0.240,0.000,0.000,0.000
1605107765081725952,10.0.1.143,787,move_down,-0.260,-0.260,-0.260,0.000,0.000,0.000
1605107767318497024,10.0.1.143,1124,move_down,-0.280,-0.280,-0.280,0.000,0.000,0.000
1605107769104797952,10.0.1.143,661,move_down,-0.300,-0.300,-0.300,0.000,0.000,0.000
1605107770843576064,10.0.1.143,593,move_down,-0.320,-0.320,-0.320,0.000,0.000,0.000
1605107772540481024,10.0.1.143,581,move_down,-0.340,-0.340,-0.340,0.000,0.000,0.000
1605107774468655104,10.0.1.143,809,move_down,-0.360,-0.360,-0.360,0.000,0.000,0.000
1605107776369352192,10.0.1.143,797,move_down,-0.380,-0.380,-0.380,0.000,0.000,0.000
1605107778512813056,10.0.1.143,986,move_down,-0.400,-0.400,-0.400,0.000,0.000,0.000
1605107780205394944,10.0.1.143,645,move_down,-0.420,-0.420,-0.420,0.000,0.000,0.000
1605107782335485952,10.0.1.143,1046,move_down,-0.440,-0.440,-0.440,0.000,0.000,0.000
1605107784006263040,10.0.1.143,627,move_down,-0.460,-0.460,-0.460,0.000,0.000,0.000
1605107786082312960,10.0.1.143,922,move_down,-0.480,-0.480,-0.480,0.000,0.000,0.000
1605107787722703872,10.0.1.143,586,move_down,-0.500,-0.500,-0.500,0.000,0.000,0.000
1605107789603280128,10.0.1.143,693,move_down,-0.520,-0.520,-0.520,0.000,0.000,0.000
1605107791824558080,10.0.1.143,1147,move_down,-0.540,-0.540,-0.540,0.000,0.000,0.000
1605107793955294976,10.0.1.143,931,move_down,-0.560,-0.560,-0.560,0.000,0.000,0.000
1605107795532749056,10.0.1.143,557,move_down,-0.580,-0.580,-0.580,0.000,0.000,0.000
1605107797669526016,10.0.1.143,57,pick,-0.600,-0.600,-0.600,0.000,0.000,0.000
1605107798707719168,10.0.1.143,95,pick,-0.610,-0.610,-0.610,0.000,0.000,0.000
1605107799676316928,10.0.1.143,61,pick,-0.620,-0.620,-0.620,0.000,0.000,0.000
1605107801680464128,10.0.1.143,52,pick,-0.640,-0.640,-0.640,0.000,0.000,0.000
1605107803702539008,10.0.1.143,59,pick,-0.660,-0.660,-0.660,0.000,0.000,0.000
1605107804718106112,10.0.1.143,59,pick,-0.670,-0.670,-0.670,0.000,0.000,0.000
1605107805732039936,10.0.1.143,70,pick,-0.680,-0.680,-0.680,0.000,0.000,0.000
1605107806721378048,10.0.1.143,57,pick,-0.690,-0.690,-0.690,0.000,0.000,0.000
1605107807754864896,10.0.1.143,88,pick,-0.700,-0.700,-0.700,0.000,0.000,0.000
1605107808719280128,10.0.1.143,43,pick,-0.710,-0.710,-0.710,0.000,0.000,0.000
1605107809741262080,10.0.1.143,64,pick,-0.720,-0.720,-0.720,0.000,0.000,0.000
1605107810738387200,10.0.1.143,59,pick,-0.730,-0.730,-0.730,0.000,0.000,0.000
1605107811795881984,10.0.1.143,101,pick,-0.740,-0.740,-0.740,0.000,0.000,0.000
1605107812761030912,10.0.1.143,54,pick,-0.750,-0.750,-0.750,0.000,0.000,0.000
1605107813750489856,10.0.1.143,42,pick,-0.760,-0.760,-0.760,0.000,0.000,0.000
1605107816307430144,10.0.1.143,551,move_up,-0.750,-0.750,-0.750,0.000,0.000,0.000
1605107817972593920,10.0.1.143,607,move_up,-0.730,-0.730,-0.730,0.000,0.000,0.000
1605107819886321152,10.0.1.143,809,move_up,-0.710,-0.710,-0.710,0.000,0.000,0.000
1605107821919367168,10.0.1.143,912,move_up,-0.690,-0.690,-0.690,0.000,0.000,0.000
1605107823825345024,10.0.1.143,799,move_up,-0.670,-0.670,-0.670,0.000,0.000,0.000
1605107825775965952,10.0.1.143,848,move_up,-0.650,-0.650,-0.650,0.000,0.000,0.000
1605107828094896128,10.0.1.143,1213,move_up,-0.630,-0.630,-0.630,0.000,0.000,0.000
1605107830158018048,10.0.1.143,962,move_up,-0.610,-0.610,-0.610,0.000,0.000,0.000
1605107831992339968,10.0.1.143,791,move_up,-0.590,-0.590,-0.590,0.000,0.000,0.000
1605107833809078016,10.0.1.143,751,move_up,-0.570,-0.570,-0.570,0.000,0.000,0.000
1605107835532787968,10.0.1.143,686,move_up,-0.550,-0.550,-0.550,0.000,0.000,0.000
1605107837446481920,10.0.1.143,756,move_up,-0.530,-0.530,-0.530,0.000,0.000,0.000
1605107839557272832,10.0.1.143,1044,move_up,-0.510,-0.510,-0.510,0.000,0.000,0.000
1605107842161783808,10.0.1.143,1345,move_up,-0.490,-0.490,-0.490,0.000,0.000,0.000
1605107844361129984,10.0.1.143,1038,move_up,-0.470,-0.470,-0.470,0.000,0.000,0.000
1605107846147328000,10.0.1.143,575,move_up,-0.450,-0.450,-0.450,0.000,0.000,0.000
1605107847941421056,10.0.1.143,747,move_up,-0.430,-0.430,-0.430,0.000,0.000,0.000
1605107849994612992,10.0.1.143,935,move_up,-0.410,-0.410,-0.410,0.000,0.000,0.000
1605107851809833984,10.0.1.143,710,move_up,-0.390,-0.390,-0.390,0.000,0.000,0.000
1605107854419718144,10.0.1.143,1336,move_up,-0.370,-0.370,-0.370,0.000,0.000,0.000
1605107856523544064,10.0.1.143,1037,move_up,-0.350,-0.350,-0.350,0.000,0.000,0.000
1605107859000528128,10.0.1.143,1407,move_up,-0.330,-0.330,-0.330,0.000,0.000,0.000
1605107861286737920,10.0.1.143,1285,move_up,-0.310,-0.310,-0.310,0.000,0.000,0.000
1605107863659176960,10.0.1.143,1329,move_up,-0.290,-0.290,-0.290,0.000,0.000,0.000
1605107866970050048,10.0.1.143,1965,move_up,-0.270,-0.270,-0.270,0.000,0.000,0.000
1605107869177185024,10.0.1.143,1068,move_up,-0.250,-0.250,-0.250,0.000,0.000,0.000
1605107871228079104,10.0.1.143,862,move_up,-0.230,-0.230,-0.230,0.000,0.000,0.000
1605107873598793984,10.0.1.143,1323,move_up,-0.210,-0.210,-0.210,0.000,0.000,0.000
1605107876091720192,10.0.1.143,1294,move_up,-0.190,-0.190,-0.190,0.000,0.000,0.000
1605107878314734080,10.0.1.143,48,place,-0.170,-0.170,-0.170,0.000,0.000,0.000
1605107880359309056,10.0.1.143,59,place,-0.150,-0.150,-0.150,0.000,0.000,0.000
1605107881366637056,10.0.1.143,63,place,-0.140,-0.140,-0.140,0.000,0.000,0.000
1605107882385551872,10.0.1.143,78,place,-0.130,-0.130,-0.130,0.000,0.000,0.000
1605107886377810944,10.0.1.143,53,place,-0.090,-0.090,-0.090,0.000,0.000,0.000
1605107887379323904,10.0.1.143,52,place,-0.080,-0.080,-0.080,0.000,0.000,0.000
1605107888368992000,10.0.1.143,41,place,-0.070,-0.070,-0.070,0.000,0.000,0.000
1605107890459361024,10.0.1.143,119,place,-0.050,-0.050,-0.050,0.000,0.000,0.000
1605107891408204032,10.0.1.143,67,place,-0.040,-0.040,-0.040,0.000,0.000,0.000
1605107893438460160,10.0.1.143,88,place,-0.020,-0.020,-0.020,0.000,0.000,0.000
1605107894393445888,10.0.1.143,40,place,-0.010,-0.010,-0.010,0.000,0.000,0.000
1605107897443059968,10.0.1.143,1082,move_down,-0.020,-0.020,-0.020,0.000,0.000,0.000
1605107899168334848,10.0.1.143,592,move_down,-0.040,-0.040,-0.040,0.000,0.000,0.000
1605107901376657920,10.0.1.143,1074,move_down,-0.060,-0.060,-0.060,0.000,0.000,0.000
1605107903604896000,10.0.1.143,1174,move_down,-0.080,-0.080,-0.080,0.000,0.000,0.000
1605107905817307904,10.0.1.143,1184,move_down,-0.100,-0.100,-0.100,0.000,0.000,0.000
1605107908153196032,10.0.1.143,1250,move_down,-0.120,-0.120,-0.120,0.000,0.000,0.000
1605107910359631104,10.0.1.143,1096,move_down,-0.140,-0.140,-0.140,0.000,0.000,0.000
1605107912417437952,10.0.1.143,966,move_down,-0.160,-0.160,-0.160,0.000,0.000,0.000
1605107914792774912,10.0.1.143,1218,move_down,-0.180,-0.180,-0.180,0.000,0.000,0.000
1605107916505209088,10.0.1.143,725,move_down,-0.200,-0.200,-0.200,0.000,0.000,0.000
1605107918509750016,10.0.1.143,963,move_down,-0.220,-0.220,-0.220,0.000,0.000,0.000
1605107920781415936,10.0.1.143,1162,move_down,-0.240,-0.240,-0.240,0.000,0.000,0.000
1605107923036908032,10.0.1.143,1084,move_down,-0.260,-0.260,-0.260,0.000,0.000,0.000
1605107925347638016,10.0.1.143,1323,move_down,-0.280,-0.280,-0.280,0.000,0.000,0.000
1605107927619406848,10.0.1.143,1040,move_down,-0.300,-0.300,-0.300,0.000,0.000,0.000
1605107929579113984,10.0.1.143,894,move_down,-0.320,-0.320,-0.320,0.000,0.000,0.000
1605107931529104896,10.0.1.143,925,move_down,-0.340,-0.340,-0.340,0.000,0.000,0.000
1605107933773417984,10.0.1.143,1103,move_down,-0.360,-0.360,-0.360,0.000,0.000,0.000
1605107935992358912,10.0.1.143,1037,move_down,-0.380,-0.380,-0.380,0.000,0.000,0.000
1605107938032726016,10.0.1.143,875,move_down,-0.400,-0.400,-0.400,0.000,0.000,0.000
1605107940338366976,10.0.1.143,1109,move_down,-0.420,-0.420,-0.420,0.000,0.000,0.000
1605107942230014208,10.0.1.143,854,move_down,-0.440,-0.440,-0.440,0.000,0.000,0.000
1605107945054400000,10.0.1.143,1302,move_down,-0.460,-0.460,-0.460,0.000,0.000,0.000
1605107946785427200,10.0.1.143,702,move_down,-0.480,-0.480,-0.480,0.000,0.000,0.000
1605107948846743040,10.0.1.143,893,move_down,-0.500,-0.500,-0.500,0.000,0.000,0.000
1605107950784337152,10.0.1.143,893,move_down,-0.520,-0.520,-0.520,0.000,0.000,0.000
1605107953077806080,10.0.1.143,1216,move_down,-0.540,-0.540,-0.540,0.000,0.000,0.000
1605107955245811968,10.0.1.143,889,move_down,-0.560,-0.560,-0.560,0.000,0.000,0.000
1605107957531259904,10.0.1.143,1207,move_down,-0.580,-0.580,-0.580,0.000,0.000,0.000
1605107958676465152,10.0.1.143,61,pick,-0.590,-0.590,-0.590,0.000,0.000,0.000
1605107960745116928,10.0.1.143,108,pick,-0.610,-0.610,-0.610,0.000,0.000,0.000
1605107963711886848,10.0.1.143,55,pick,-0.640,-0.640,-0.640,0.000,0.000,0.000
1605107965710772992,10.0.1.143,52,pick,-0.660,-0.660,-0.660,0.000,0.000,0.000
1605107966817326080,10.0.1.143,144,pick,-0.670,-0.670,-0.670,0.000,0.000,0.000
1605107970747233024,10.0.1.143,50,pick,-0.710,-0.710,-0.710,0.000,0.000,0.000
1605107971735979008,10.0.1.143,34,pick,-0.720,-0.720,-0.720,0.000,0.000,0.000
1605107973817555968,10.0.1.143,109,pick,-0.740,-0.740,-0.740,0.000,0.000,0.000
1605107974826666240,10.0.1.143,108,pick,-0.750,-0.750,-0.750,0.000,0.000,0.000
1605107975799362816,10.0.1.143,68,pick,-0.760,-0.760,-0.760,0.000,0.000,0.000
1605107976779035136,10.0.1.143,46,pick,-0.770,-0.770,-0.770,0.000,0.000,0.000
1605107978554465024,10.0.1.143,812,move_up,-0.750,-0.750,-0.750,0.000,0.000,0.000
1605107980493092096,10.0.1.143,926,move_up,-0.730,-0.730,-0.730,0.000,0.000,0.000
1605107982944951040,10.0.1.143,1178,move_up,-0.710,-0.710,-0.710,0.000,0.000,0.000
1605107985114593024,10.0.1.143,1114,move_up,-0.690,-0.690,-0.690,0.000,0.000,0.000
1605107987338342912,10.0.1.143,1002,move_up,-0.670,-0.670,-0.670,0.000,0.000,0.000
1605107989081425920,10.0.1.143,674,move_up,-0.650,-0.650,-0.650,0.000,0.000,0.000
1605107991089228032,10.0.1.143,943,move_up,-0.630,-0.630,-0.630,0.000,0.000,0.000
1605107993288541184,10.0.1.143,1206,move_up,-0.610,-0.610,-0.610,0.000,0.000,0.000
1605107996025656832,10.0.1.143,1341,move_up,-0.590,-0.590,-0.590,0.000,0.000,0.000
1605107998341496064,10.0.1.143,935,move_up,-0.570,-0.570,-0.570,0.000,0.000,0.000
1605108000181431040,10.0.1.143,808,move_up,-0.550,-0.550,-0.550,0.000,0.000,0.000
1605108002108921088,10.0.1.143,736,move_up,-0.530,-0.530,-0.530,0.000,0.000,0.000
1605108003982204928,10.0.1.143,780,move_up,-0.510,-0.510,-0.510,0.000,0.000,0.000
1605108006257467136,10.0.1.143,1201,move_up,-0.490,-0.490,-0.490,0.000,0.000,0.000
1605108008512747008,10.0.1.143,1159,move_up,-0.470,-0.470,-0.470,0.000,0.000,0.000
1605108011075763968,10.0.1.143,1471,move_up,-0.450,-0.450,-0.450,0.000,0.000,0.000
1605108013284454144,10.0.1.143,943,move_up,-0.430,-0.430,-0.430,0.000,0.000,0.000
1605108016061139968,10.0.1.143,1293,move_up,-0.410,-0.410,-0.410,0.000,0.000,0.000
1605108018184557056,10.0.1.143,854,move_up,-0.390,-0.390,-0.390,0.000,0.000,0.000
1605108020517151232,10.0.1.143,1154,move_up,-0.370,-0.370,-0.370,0.000,0.000,0.000
1605108022350940928,10.0.1.143,792,move_up,-0.350,-0.350,-0.350,0.000,0.000,0.000
1605108024590461952,10.0.1.143,972,move_up,-0.330,-0.330,-0.330,0.000,0.000,0.000
1605108026717710848,10.0.1.143,1070,move_up,-0.310,-0.310,-0.310,0.000,0.000,0.000
1605108028982074112,10.0.1.143,1214,move_up,-0.290,-0.290,-0.290,0.000,0.000,0.000
1605108031636229120,10.0.1.143,1573,move_up,-0.270,-0.270,-0.270,0.000,0.000,0.000
1605108033934350848,10.0.1.143,903,move_up,-0.250,-0.250,-0.250,0.000,0.000,0.000
1605108035886537984,10.0.1.143,762,move_up,-0.230,-0.230,-0.230,0.000,0.000,0.000
1605108038032686848,10.0.1.143,990,move_up,-0.210,-0.210,-0.210,0.000,0.000,0.000
1605108040181371904,10.0.1.143,1136,move_up,-0.190,-0.190,-0.190,0.000,0.000,0.000
1605108042383518976,10.0.1.143,64,place,-0.170,-0.170,-0.170,0.000,0.000,0.000
1605108050599802112,10.0.1.143,67,place,-0.090,-0.090,-0.090,0.000,0.000,0.000
1605108051630448128,10.0.1.143,82,place,-0.080,-0.080,-0.080,0.000,0.000,0.000
1605108053616206848,10.0.1.143,56,place,-0.060,-0.060,-0.060,0.000,0.000,0.000
1605108054628254976,10.0.1.143,55,place,-0.050,-0.050,-0.050,0.000,0.000,0.000
1605108057665047040,10.0.1.143,86,place,-0.020,-0.020,-0.020,0.000,0.000,0.000
1605108058650199040,10.0.1.143,60,place,-0.010,-0.010,-0.010,0.000,0.000,0.000
1605108059669707008,10.0.1.143,79,place,0.000,0.000,0.000,0.000,0.000,0.000
1605108061198018048,10.0.1.143,606,move_down,-0.020,-0.020,-0.020,0.000,0.000,0.000
1605108063113410048,10.0.1.143,777,move_down,-0.040,-0.040,-0.040,0.000,0.000,0.000
1605108065171924224,10.0.1.143,985,move_down,-0.060,-0.060,-0.060,0.000,0.000,0.000
1605108067329476096,10.0.1.143,1105,move_down,-0.080,-0.080,-0.080,0.000,0.000,0.000
1605108069361360128,10.0.1.143,901,move_down,-0.100,-0.100,-0.100,0.000,0.000,0.000
1605108071352988928,10.0.1.143,877,move_down,-0.120,-0.120,-0.120,0.000,0.000,0.000
1605108073287611904,10.0.1.143,845,move_down,-0.140,-0.140,-0.140,0.000,0.000,0.000
1605108075216937984,10.0.1.143,774,move_down,-0.160,-0.160,-0.160,0.000,0.000,0.000
1605108076947249920,10.0.1.143,658,move_down,-0.180,-0.180,-0.180,0.000,0.000,0.000
1605108078922064896,10.0.1.143,944,move_down,-0.200,-0.200,-0.200,0.000,0.000,0.000
1605108080835699200,10.0.1.143,576,move_down,-0.220,-0.220,-0.220,0.000,0.000,0.000
1605108083223351040,10.0.1.143,1325,move_down,-0.240,-0.240,-0.240,0.000,0.000,0.000
1605108085917666048,10.0.1.143,1640,move_down,-0.260,-0.260,-0.260,0.000,0.000,0.000
1605108087910377984,10.0.1.143,954,move_down,-0.280,-0.280,-0.280,0.000,0.000,0.000
1605108089913741056,10.0.1.143,916,move_down,-0.300,-0.300,-0.300,0.000,0.000,0.000
1605108091999789056,10.0.1.143,931,move_down,-0.320,-0.320,-0.320,0.000,0.000,0.000
1605108093862801920,10.0.1.143,845,move_down,-0.340,-0.340,-0.340,0.000,0.000,0.000
1605108096381413888,10.0.1.143,1288,move_down,-0.360,-0.360,-0.360,0.000,0.000,0.000
1605108098392685824,10.0.1.143,850,move_down,-0.380,-0.380,-0.380,0.000,0.000,0.000
1605108100534311936,10.0.1.143,872,move_down,-0.400,-0.400,-0.400,0.000,0.000,0.000
1605108102741817088,10.0.1.143,1136,move_down,-0.420,-0.420,-0.420,0.000,0.000,0.000
1605108105023983872,10.0.1.143,1196,move_down,-0.440,-0.440,-0.440,0.000,0.000,0.000
1605108107607650048,10.0.1.143,1428,move_down,-0.460,-0.460,-0.460,0.000,0.000,0.000
1605108109888784896,10.0.1.143,1063,move_down,-0.480,-0.480,-0.480,0.000,0.000,0.000
1605108112569065984,10.0.1.143,1256,move_down,-0.500,-0.500,-0.500,0.000,0.000,0.000
1605108114705502976,10.0.1.143,1072,move_down,-0.520,-0.520,-0.520,0.000,0.000,0.000
1605108116698892032,10.0.1.143,837,move_down,-0.540,-0.540,-0.540,0.000,0.000,0.000
1605108119069618944,10.0.1.143,1318,move_down,-0.560,-0.560,-0.560,0.000,0.000,0.000
1605108121066134016,10.0.1.143,818,move_down,-0.580,-0.580,-0.580,0.000,0.000,0.000
1605108127315821824,10.0.1.143,78,pick,-0.640,-0.640,-0.640,0.000,0.000,0.000
1605108128329457152,10.0.1.143,88,pick,-0.650,-0.650,-0.650,0.000,0.000,0.000
1605108129297668864,10.0.1.143,53,pick,-0.660,-0.660,-0.660,0.000,0.000,0.000
1605108130299619072,10.0.1.143,51,pick,-0.670,-0.670,-0.670,0.000,0.000,0.000
1605108131388775168,10.0.1.143,137,pick,-0.680,-0.680,-0.680,0.000,0.000,0.000
1605108132315079936,10.0.1.143,62,pick,-0.690,-0.690,-0.690,0.000,0.000,0.000
1605108134336363008,10.0.1.143,64,pick,-0.710,-0.710,-0.710,0.000,0.000,0.000
1605108136397291008,10.0.1.143,70,pick,-0.730,-0.730,-0.730,0.000,0.000,0.000
1605108137398523136,10.0.1.143,62,pick,-0.740,-0.740,-0.740,0.000,0.000,0.000
1605108138400589056,10.0.1.143,61,pick,-0.750,-0.750,-0.750,0.000,0.000,0.000
1605108139460582144,10.0.1.143,103,pick,-0.760,-0.760,-0.760,0.000,0.000,0.000
1605108140429428992,10.0.1.143,67,pick,-0.770,-0.770,-0.770,0.000,0.000,0.000
1605108142374728960,10.0.1.143,1011,move_up,-0.750,-0.750,-0.750,0.000,0.000,0.000
1605108144539215104,10.0.1.143,862,move_up,-0.730,-0.730,-0.730,0.000,0.000,0.000
1605108146404879104,10.0.1.143,848,move_up,-0.710,-0.710,-0.710,0.000,0.000,0.000
1605108148402187008,10.0.1.143,878,move_up,-0.690,-0.690,-0.690,0.000,0.000,0.000
1605108150545854976,10.0.1.143,921,move_up,-0.670,-0.670,-0.670,0.000,0.000,0.000
1605108152600913152,10.0.1.143,1048,move_up,-0.650,-0.650,-0.650,0.000,0.000,0.000
1605108154857518848,10.0.1.143,1028,move_up,-0.630,-0.630,-0.630,0.000,0.000,0.000
1605108157278991872,10.0.1.143,1233,move_up,-0.610,-0.610,-0.610,0.000,0.000,0.000
1605108159555154176,10.0.1.143,1156,move_up,-0.590,-0.590,-0.590,0.000,0.000,0.000
1605108161284059904,10.0.1.143,694,move_up,-0.570,-0.570,-0.570,0.000,0.000,0.000
1605108163409982976,10.0.1.143,991,move_up,-0.550,-0.550,-0.550,0.000,0.000,0.000
1605108165501816064,10.0.1.143,997,move_up,-0.530,-0.530,-0.530,0.000,0.000,0.000
1605108167446289920,10.0.1.143,725,move_up,-0.510,-0.510,-0.510,0.000,0.000,0.000
1605108170049282048,10.0.1.143,1403,move_up,-0.490,-0.490,-0.490,0.000,0.000,0.000
1605108172167633920,10.0.1.143,1024,move_up,-0.470,-0.470,-0.470,0.000,0.000,0.000
1605108174610821120,10.0.1.143,1075,move_up,-0.450,-0.450,-0.450,0.000,0.000,0.000
1605108177522313216,10.0.1.143,1662,move_up,-0.430,-0.430,-0.430,0.000,0.000,0.000
1605108179740261120,10.0.1.143,1056,move_up,-0.410,-0.410,-0.410,0.000,0.000,0.000
1605108182157215232,10.0.1.143,1373,move_up,-0.390,-0.390,-0.390,0.000,0.000,0.000
1605108183857534976,10.0.1.143,574,move_up,-0.370,-0.370,-0.370,0.000,0.000,0.000
1605108186267633920,10.0.1.143,1217,move_up,-0.350,-0.350,-0.350,0.000,0.000,0.000
1605108188402276096,10.0.1.143,1046,move_up,-0.330,-0.330,-0.330,0.000,0.000,0.000
1605108190357211136,10.0.1.143,901,move_up,-0.310,-0.310,-0.310,0.000,0.000,0.000
1605108192378107136,10.0.1.143,838,move_up,-0.290,-0.290,-0.290,0.000,0.000,0.000
1605108194489329152,10.0.1.143,850,move_up,-0.270,-0.270,-0.270,0.000,0.000,0.000
1605108197143148032,10.0.1.143,1579,move_up,-0.250,-0.250,-0.250,0.000,0.000,0.000
1605108199015351040,10.0.1.143,776,move_up,-0.230,-0.230,-0.230,0.000,0.000,0.000
1605108200793988096,10.0.1.143,658,move_up,-0.210,-0.210,-0.210,0.000,0.000,0.000
1605108202715364864,10.0.1.143,837,move_up,-0.190,-0.190,-0.190,0.000,0.000,0.000
1605108203935131904,10.0.1.143,97,place,-0.180,-0.180,-0.180,0.000,0.000,0.000
1605108205892263936,10.0.1.143,50,place,-0.160,-0.160,-0.160,0.000,0.000,0.000
1605108206896538112,10.0.1.143,53,place,-0.150,-0.150,-0.150,0.000,0.000,0.000
1605108208915066880,10.0.1.143,67,place,-0.130,-0.130,-0.130,0.000,0.000,0.000
1605108209915929088,10.0.1.143,64,place,-0.120,-0.120,-0.120,0.000,0.000,0.000
1605108210935173120,10.0.1.143,82,place,-0.110,-0.110,-0.110,0.000,0.000,0.000
1605108211907709952,10.0.1.143,53,place,-0.100,-0.100,-0.100,0.000,0.000,0.000
1605108212928733952,10.0.1.143,73,place,-0.090,-0.090,-0.090,0.000,0.000,0.000
1605108213968674048,10.0.1.143,69,place,-0.080,-0.080,-0.080,0.000,0.000,0.000
1605108218011194880,10.0.1.143,80,place,-0.040,-0.040,-0.040,0.000,0.000,0.000
1605108219024574976,10.0.1.143,92,place,-0.030,-0.030,-0.030,0.000,0.000,0.000
1605108220010116096,10.0.1.143,77,place,-0.020,-0.020,-0.020,0.000,0.000,0.000
1605108221979921152,10.0.1.143,43,place,0.000,0.000,0.000,0.000,0.000,0.000
1605108223670643968,10.0.1.143,732,move_down,-0.020,-0.020,-0.020,0.000,0.000,0.000
1605108226024211968,10.0.1.143,1318,move_down,-0.040,-0.040,-0.040,0.000,0.000,0.000
1605108228471822080,10.0.1.143,1327,move_down,-0.060,-0.060,-0.060,0.000,0.000,0.000
1605108230800345856,10.0.1.143,1192,move_down,-0.080,-0.080,-0.080,0.000,0.000,0.000
1605108233030188032,10.0.1.143,1003,move_down,-0.100,-0.100,-0.100,0.000,0.000,0.000
1605108235167089920,10.0.1.143,1082,move_down,-0.120,-0.120,-0.120,0.000,0.000,0.000
1605108237042810880,10.0.1.143,799,move_down,-0.140,-0.140,-0.140,0.000,0.000,0.000
1605108239031344896,10.0.1.143,890,move_down,-0.160,-0.160,-0.160,0.000,0.000,0.000
1605108242087580928,10.0.1.143,1732,move_down,-0.180,-0.180,-0.180,0.000,0.000,0.000
1605108243948147968,10.0.1.143,750,move_down,-0.200,-0.200,-0.200,0.000,0.000,0.000
1605108246970383872,10.0.1.143,1578,move_down,-0.220,-0.220,-0.220,0.000,0.000,0.000
1605108249975929856,10.0.1.143,1946,move_down,-0.240,-0.240,-0.240,0.000,0.000,0.000
1605108252340931840,10.0.1.143,1167,move_down,-0.260,-0.260,-0.260,0.000,0.000,0.000
1605108254710226944,10.0.1.143,1305,move_down,-0.280,-0.280,-0.280,0.000,0.000,0.000
1605108256666109184,10.0.1.143,797,move_down,-0.300,-0.300,-0.300,0.000,0.000,0.000
1605108259457400064,10.0.1.143,1673,move_down,-0.320,-0.320,-0.320,0.000,0.000,0.000
1605108261969808128,10.0.1.143,1214,move_down,-0.340,-0.340,-0.340,0.000,0.000,0.000
1605108264581312768,10.0.1.143,1510,move_down,-0.360,-0.360,-0.360,0.000,0.000,0.000
1605108267184047104,10.0.1.143,1394,move_down,-0.380,-0.380,-0.380,0.000,0.000,0.000
1605108271142564096,10.0.1.143,2589,move_down,-0.400,-0.400,-0.400,0.000,0.000,0.000
1605108275062717952,10.0.1.143,2604,move_down,-0.420,-0.420,-0.420,0.000,0.000,0.000
1605108277520320768,10.0.1.143,1416,move_down,-0.440,-0.440,-0.440,0.000,0.000,0.000
1605108279544487936,10.0.1.143,984,move_down,-0.460,-0.460,-0.460,0.000,0.000,0.000
1605108282358427904,10.0.1.143,1640,move_down,-0.480,-0.480,-0.480,0.000,0.000,0.000
1605108284766670848,10.0.1.143,1295,move_down,-0.500,-0.500,-0.500,0.000,0.000,0.000
1605108286570588160,10.0.1.143,725,move_down,-0.520,-0.520,-0.520,0.000,0.000,0.000
1605108289502379008,10.0.1.143,1596,move_down,-0.540,-0.540,-0.540,0.000,0.000,0.000
1605108291566142208,10.0.1.143,999,move_down,-0.560,-0.560,-0.560,0.000,0.000,0.000
1605108294748975104,10.0.1.143,1332,move_down,-0.580,-0.580,-0.580,0.000,0.000,0.000
1605108296995556096,10.0.1.143,131,pick,-0.600,-0.600,-0.600,0.000,0.000,0.000
1605108302041889024,10.0.1.143,84,pick,-0.650,-0.650,-0.650,0.000,0.000,0.000
1605108303058296064,10.0.1.143,90,pick,-0.660,-0.660,-0.660,0.000,0.000,0.000
1605108304137470976,10.0.1.143,130,pick,-0.670,-0.670,-0.670,0.000,0.000,0.000
1605108306047259136,10.0.1.143,38,pick,-0.690,-0.690,-0.690,0.000,0.000,0.000
1605108307072241920,10.0.1.143,48,pick,-0.700,-0.700,-0.700,0.000,0.000,0.000
1605108309167883008,10.0.1.143,137,pick,-0.720,-0.720,-0.720,0.000,0.000,0.000
1605108310128770048,10.0.1.143,87,pick,-0.730,-0.730,-0.730,0.000,0.000,0.000
1605108312120364032,10.0.1.143,71,pick,-0.750,-0.750,-0.750,0.000,0.000,0.000
1605108313218120192,10.0.1.143,161,pick,-0.760,-0.760,-0.760,0.000,0.000,0.000
1605108314113465088,10.0.1.143,52,pick,-0.770,-0.770,-0.770,0.000,0.000,0.000
1605108316039760128,10.0.1.143,964,move_up,-0.750,-0.750,-0.750,0.000,0.000,0.000
1605108322601181952,10.0.1.143,1009,move_up,-0.730,-0.730,-0.730,0.000,0.000,0.000
1605108325297505024,10.0.1.143,1459,move_up,-0.710,-0.710,-0.710,0.000,0.000,0.000
1605108327274473984,10.0.1.143,857,move_up,-0.690,-0.690,-0.690,0.000,0.000,0.000
1605108329946902016,10.0.1.143,1535,move_up,-0.670,-0.670,-0.670,0.000,0.000,0.000
1605108332070810112,10.0.1.143,944,move_up,-0.650,-0.650,-0.650,0.000,0.000,0.000
1605108334513243904,10.0.1.143,1265,move_up,-0.630,-0.630,-0.630,0.000,0.000,0.000
1605108336301995008,10.0.1.143,732,move_up,-0.610,-0.610,-0.610,0.000,0.000,0.000
1605108338733238016,10.0.1.143,1355,move_up,-0.590,-0.590,-0.590,0.000,0.000,0.000
1605108340960833024,10.0.1.143,967,move_up,-0.570,-0.570,-0.570,0.000,0.000,0.000
1605108342723531008,10.0.1.143,676,move_up,-0.550,-0.550,-0.550,0.000,0.000,0.000
1605108344774979072,10.0.1.143,965,move_up,-0.530,-0.530,-0.530,0.000,0.000,0.000
1605108346912823040,10.0.1.143,1060,move_up,-0.510,-0.510,-0.510,0.000,0.000,0.000
1605108348525783040,10.0.1.143,718,move_up,-0.490,-0.490,-0.490,0.000,0.000,0.000
1605108350898132992,10.0.1.143,1244,move_up,-0.470,-0.470,-0.470,0.000,0.000,0.000
1605108353119854080,10.0.1.143,1081,move_up,-0.450,-0.450,-0.450,0.000,0.000,0.000
1605108355293680896,10.0.1.143,974,move_up,-0.430,-0.430,-0.430,0.000,0.000,0.000
1605108357792794880,10.0.1.143,1124,move_up,-0.410,-0.410,-0.410,0.000,0.000,0.000
1605108360433984000,10.0.1.143,1138,move_up,-0.390,-0.390,-0.390,0.000,0.000,0.000
1605108362685182976,10.0.1.143,1217,move_up,-0.370,-0.370,-0.370,0.000,0.000,0.000
1605108365290513920,10.0.1.143,1504,move_up,-0.350,-0.350,-0.350,0.000,0.000,0.000
1605108367997016832,10.0.1.143,1247,move_up,-0.330,-0.330,-0.330,0.000,0.000,0.000
1605108369871891968,10.0.1.143,763,move_up,-0.310,-0.310,-0.310,0.000,0.000,0.000
1605108372194906880,10.0.1.143,934,move_up,-0.290,-0.290,-0.290,0.000,0.000,0.000
1605108374063815168,10.0.1.143,853,move_up,-0.270,-0.270,-0.270,0.000,0.000,0.000
1605108376944632064,10.0.1.143,1798,move_up,-0.250,-0.250,-0.250,0.000,0.000,0.000
1605108379060089088,10.0.1.143,1001,move_up,-0.230,-0.230,-0.230,0.000,0.000,0.000
1605108381287586048,10.0.1.143,1124,move_up,-0.210,-0.210,-0.210,0.000,0.000,0.000
1605108384045677056,10.0.1.143,1491,move_up,-0.190,-0.190,-0.190,0.000,0.000,0.000
1605108386166119168,10.0.1.143,49,place,-0.170,-0.170,-0.170,0.000,0.000,0.000
1605108390235290112,10.0.1.143,95,place,-0.130,-0.130,-0.130,0.000,0.000,0.000
1605108393217459968,10.0.1.143,60,place,-0.100,-0.100,-0.100,0.000,0.000,0.000
1605108394247732992,10.0.1.143,85,place,-0.090,-0.090,-0.090,0.000,0.000,0.000
1605108395297619968,10.0.1.143,125,place,-0.080,-0.080,-0.080,0.000,0.000,0.000
1605108396260523008,10.0.1.143,87,place,-0.070,-0.070,-0.070,0.000,0.000,0.000
1605108397224338944,10.0.1.143,49,place,-0.060,-0.060,-0.060,0.000,0.000,0.000
1605108398261177088,10.0.1.143,67,place,-0.050,-0.050,-0.050,0.000,0.000,0.000
1605108399238851072,10.0.1.143,43,place,-0.040,-0.040,-0.040,0.000,0.000,0.000
1605108400259296768,10.0.1.143,61,place,-0.030,-0.030,-0.030,0.000,0.000,0.000
1605108401258422016,10.0.1.143,58,place,-0.020,-0.020,-0.020,0.000,0.000,0.000
1605108404247898112,10.0.1.143,23,move_down,-0.020,-0.020,-0.020,0.000,0.000,0.000
1605108407226092032,10.0.1.143,1288,move_down,-0.040,-0.040,-0.040,0.000,0.000,0.000
1605108409384924928,10.0.1.143,907,move_down,-0.060,-0.060,-0.060,0.000,0.000,0.000
1605108412048911104,10.0.1.143,1658,move_down,-0.080,-0.080,-0.080,0.000,0.000,0.000
1605108414176438016,10.0.1.143,1079,move_down,-0.100,-0.100,-0.100,0.000,0.000,0.000
1605108416100188928,10.0.1.143,916,move_down,-0.120,-0.120,-0.120,0.000,0.000,0.000
1605108418264375808,10.0.1.143,1156,move_down,-0.140,-0.140,-0.140,0.000,0.000,0.000
1605108421016012800,10.0.1.143,1641,move_down,-0.160,-0.160,-0.160,0.000,0.000,0.000
1605108424028062208,10.0.1.143,1690,move_down,-0.180,-0.180,-0.180,0.000,0.000,0.000
1605108426178131200,10.0.1.143,1036,move_down,-0.200,-0.200,-0.200,0.000,0.000,0.000
1605108428108429056,10.0.1.143,765,move_down,-0.220,-0.220,-0.220,0.000,0.000,0.000
1605108430524353024,10.0.1.143,1129,move_down,-0.240,-0.240,-0.240,0.000,0.000,0.000
1605108432863152896,10.0.1.143,887,move_down,-0.260,-0.260,-0.260,0.000,0.000,0.000
1605108434552174080,10.0.1.143,627,move_down,-0.280,-0.280,-0.280,0.000,0.000,0.000
1605108436860505088,10.0.1.143,1178,move_down,-0.300,-0.300,-0.300,0.000,0.000,0.000
1605108439340340992,10.0.1.143,1196,move_down,-0.320,-0.320,-0.320,0.000,0.000,0.000
1605108442146977792,10.0.1.143,1649,move_down,-0.340,-0.340,-0.340,0.000,0.000,0.000
1605108444467550976,10.0.1.143,1036,move_down,-0.360,-0.360,-0.360,0.000,0.000,0.000
1605108446519033856,10.0.1.143,979,move_down,-0.380,-0.380,-0.380,0.000,0.000,0.000
1605108448820646144,10.0.1.143,1258,move_down,-0.400,-0.400,-0.400,0.000,0.000,0.000
1605108450864231168,10.0.1.143,1002,move_down,-0.420,-0.420,-0.420,0.000,0.000,0.000
1605108453360071936,10.0.1.143,1446,move_down,-0.440,-0.440,-0.440,0.000,0.000,0.000
1605108455726174208,10.0.1.143,1076,move_down,-0.460,-0.460,-0.460,0.000,0.000,0.000
1605108458051326976,10.0.1.143,881,move_down,-0.480,-0.480,-0.480,0.000,0.000,0.000
1605108460618151936,10.0.1.143,1014,move_down,-0.500,-0.500,-0.500,0.000,0.000,0.000
1605108463821934848,10.0.1.143,1979,move_down,-0.520,-0.520,-0.520,0.000,0.000,0.000
1605108465829174016,10.0.1.143,646,move_down,-0.540,-0.540,-0.540,0.000,0.000,0.000
1605108468082913024,10.0.1.143,1197,move_down,-0.560,-0.560,-0.560,0.000,0.000,0.000
1605108470478049024,10.0.1.143,1358,move_down,-0.580,-0.580,-0.580,0.000,0.000,0.000
1605108471547938048,10.0.1.143,52,pick,-0.590,-0.590,-0.590,0.000,0.000,0.000
1605108473547780864,10.0.1.143,49,pick,-0.610,-0.610,-0.610,0.000,0.000,0.000
1605108474576952064,10.0.1.143,52,pick,-0.620,-0.620,-0.620,0.000,0.000,0.000
1605108476569835008,10.0.1.143,42,pick,-0.640,-0.640,-0.640,0.000,0.000,0.000
1605108477593184000,10.0.1.143,64,pick,-0.650,-0.650,-0.650,0.000,0.000,0.000
1605108478607936000,10.0.1.143,78,pick,-0.660,-0.660,-0.660,0.000,0.000,0.000
1605108481578491904,10.0.1.143,41,pick,-0.690,-0.690,-0.690,0.000,0.000,0.000
1605108482610550016,10.0.1.143,53,pick,-0.700,-0.700,-0.700,0.000,0.000,0.000
1605108485695975936,10.0.1.143,133,pick,-0.730,-0.730,-0.730,0.000,0.000,0.000
1605108486617497088,10.0.1.143,46,pick,-0.740,-0.740,-0.740,0.000,0.000,0.000
1605108488661302016,10.0.1.143,83,pick,-0.760,-0.760,-0.760,0.000,0.000,0.000
1605108489677523968,10.0.1.143,93,pick,-0.770,-0.770,-0.770,0.000,0.000,0.000
1605108492478681088,10.0.1.143,1893,move_up,-0.750,-0.750,-0.750,0.000,0.000,0.000
1605108495194305792,10.0.1.143,1427,move_up,-0.730,-0.730,-0.730,0.000,0.000,0.000
1605108497795666944,10.0.1.143,1480,move_up,-0.710,-0.710,-0.710,0.000,0.000,0.000
1605108500224520960,10.0.1.143,1398,move_up,-0.690,-0.690,-0.690,0.000,0.000,0.000
1605108502649043968,10.0.1.143,1276,move_up,-0.670,-0.670,-0.670,0.000,0.000,0.000
1605108505661042944,10.0.1.143,1642,move_up,-0.650,-0.650,-0.650,0.000,0.000,0.000
1605108508874515968,10.0.1.143,1832,move_up,-0.630,-0.630,-0.630,0.000,0.000,0.000
1605108511536416000,10.0.1.143,1507,move_up,-0.610,-0.610,-0.610,0.000,0.000,0.000
1605108515035751936,10.0.1.143,2314,move_up,-0.590,-0.590,-0.590,0.000,0.000,0.000
1605108517678864128,10.0.1.143,1439,move_up,-0.570,-0.570,-0.570,0.000,0.000,0.000
1605108519955054080,10.0.1.143,1127,move_up,-0.550,-0.550,-0.550,0.000,0.000,0.000
1605108522135375872,10.0.1.143,939,move_up,-0.530,-0.530,-0.530,0.000,0.000,0.000
1605108525029242112,10.0.1.143,1529,move_up,-0.510,-0.510,-0.510,0.000,0.000,0.000
1605108528735606016,10.0.1.143,1997,move_up,-0.490,-0.490,-0.490,0.000,0.000,0.000
1605108531423769856,10.0.1.143,1556,move_up,-0.470,-0.470,-0.470,0.000,0.000,0.000
1605108533531138048,10.0.1.143,901,move_up,-0.450,-0.450,-0.450,0.000,0.000,0.000
1605108536614320128,10.0.1.143,1749,move_up,-0.430,-0.430,-0.430,0.000,0.000,0.000
1605108538752499968,10.0.1.143,929,move_up,-0.410,-0.410,-0.410,0.000,0.000,0.000
1605108540897899008,10.0.1.143,1052,move_up,-0.390,-0.390,-0.390,0.000,0.000,0.000
1605108543406161920,10.0.1.143,1076,move_up,-0.370,-0.370,-0.370,0.000,0.000,0.000
1605108545252027136,10.0.1.143,771,move_up,-0.350,-0.350,-0.350,0.000,0.000,0.000
1605108547496762112,10.0.1.143,1009,move_up,-0.330,-0.330,-0.330,0.000,0.000,0.000
1605108549517710848,10.0.1.143,930,move_up,-0.310,-0.310,-0.310,0.000,0.000,0.000
1605108552468633856,10.0.1.143,1523,move_up,-0.290,-0.290,-0.290,0.000,0.000,0.000
1605108554928993024,10.0.1.143,1209,move_up,-0.270,-0.270,-0.270,0.000,0.000,0.000
1605108557294200064,10.0.1.143,1164,move_up,-0.250,-0.250,-0.250,0.000,0.000,0.000
1605108559547858944,10.0.1.143,1053,move_up,-0.230,-0.230,-0.230,0.000,0.000,0.000
1605108562142369024,10.0.1.143,1540,move_up,-0.210,-0.210,-0.210,0.000,0.000,0.000
1605108564489801984,10.0.1.143,1076,move_up,-0.190,-0.190,-0.190,0.000,0.000,0.000
1605108567059695104,10.0.1.143,52,place,-0.170,-0.170,-0.170,0.000,0.000,0.000
1605108568067266816,10.0.1.143,57,place,-0.160,-0.160,-0.160,0.000,0.000,0.000
1605108569058049792,10.0.1.143,45,place,-0.150,-0.150,-0.150,0.000,0.000,0.000
1605108570094139136,10.0.1.143,80,place,-0.140,-0.140,-0.140,0.000,0.000,0.000
1605108571104921088,10.0.1.143,68,place,-0.130,-0.130,-0.130,0.000,0.000,0.000
1605108573099375872,10.0.1.143,56,place,-0.110,-0.110,-0.110,0.000,0.000,0.000
1605108577179995136,10.0.1.143,104,place,-0.070,-0.070,-0.070,0.000,0.000,0.000
1605108578166168064,10.0.1.143,83,place,-0.060,-0.060,-0.060,0.000,0.000,0.000
1605108579152301056,10.0.1.143,67,place,-0.050,-0.050,-0.050,0.000,0.000,0.000
1605108580151258880,10.0.1.143,64,place,-0.040,-0.040,-0.040,0.000,0.000,0.000
1605108582179224064,10.0.1.143,82,place,-0.020,-0.020,-0.020,0.000,0.000,0.000
1605108583147623168,10.0.1.143,48,place,-0.010,-0.010,-0.010,0.000,0.000,0.000
1605108584166053120,10.0.1.143,61,place,0.000,0.000,0.000,0.000,0.000,0.000
1605108586011995904,10.0.1.143,906,move_down,-0.020,-0.020,-0.020,0.000,0.000,0.000
1605108588457839872,10.0.1.143,1302,move_down,-0.040,-0.040,-0.040,0.000,0.000,0.000
1605108590523473152,10.0.1.143,989,move_down,-0.060,-0.060,-0.060,0.000,0.000,0.000
1605108592948141056,10.0.1.143,1268,move_down,-0.080,-0.080,-0.080,0.000,0.000,0.000
1605108595340851968,10.0.1.143,1178,move_down,-0.100,-0.100,-0.100,0.000,0.000,0.000
1605108598817632000,10.0.1.143,1058,move_down,-0.120,-0.120,-0.120,0.000,0.000,0.000
1605108601546643968,10.0.1.143,1470,move_down,-0.140,-0.140,-0.140,0.000,0.000,0.000
1605108603763223808,10.0.1.143,755,move_down,-0.160,-0.160,-0.160,0.000,0.000,0.000
1605108606148912896,10.0.1.143,1312,move_down,-0.180,-0.180,-0.180,0.000,0.000,0.000
1605108608129936896,10.0.1.143,723,move_down,-0.200,-0.200,-0.200,0.000,0.000,0.000
1605108611152054016,10.0.1.143,1590,move_down,-0.220,-0.220,-0.220,0.000,0.000,0.000
1605108613885811968,10.0.1.143,1540,move_down,-0.240,-0.240,-0.240,0.000,0.000,0.000
1605108616144644864,10.0.1.143,1207,move_down,-0.260,-0.260,-0.260,0.000,0.000,0.000
1605108618219438080,10.0.1.143,941,move_down,-0.280,-0.280,-0.280,0.000,0.000,0.000
1605108621102267904,10.0.1.143,1756,move_down,-0.300,-0.300,-0.300,0.000,0.000,0.000
1605108623677961984,10.0.1.143,1383,move_down,-0.320,-0.320,-0.320,0.000,0.000,0.000
1605108625909778944,10.0.1.143,953,move_down,-0.340,-0.340,-0.340,0.000,0.000,0.000
1605108628875674112,10.0.1.143,1893,move_down,-0.360,-0.360,-0.360,0.000,0.000,0.000
1605108631390989056,10.0.1.143,1168,move_down,-0.380,-0.380,-0.380,0.000,0.000,0.000
1605108635000716032,10.0.1.143,2223,move_down,-0.400,-0.400,-0.400,0.000,0.000,0.000
1605108636882379008,10.0.1.143,748,move_down,-0.420,-0.420,-0.420,0.000,0.000,0.000
1605108639428569088,10.0.1.143,1385,move_down,-0.440,-0.440,-0.440,0.000,0.000,0.000
1605108641957968896,10.0.1.143,1341,move_down,-0.460,-0.460,-0.460,0.000,0.000,0.000
1605108644570043136,10.0.1.143,1575,move_down,-0.480,-0.480,-0.480,0.000,0.000,0.000
1605108646499484928,10.0.1.143,878,move_down,-0.500,-0.500,-0.500,0.000,0.000,0.000
1605108650020766976,10.0.1.143,2458,move_down,-0.520,-0.520,-0.520,0.000,0.000,0.000
1605108652438533120,10.0.1.143,1282,move_down,-0.540,-0.540,-0.540,0.000,0.000,0.000
1605108654406887168,10.0.1.143,877,move_down,-0.560,-0.560,-0.560,0.000,0.000,0.000
1605108656244888064,10.0.1.143,769,move_down,-0.580,-0.580,-0.580,0.000,0.000,0.000
1605108657881169152,10.0.1.143,89,pick,-0.590,-0.590,-0.590,0.000,0.000,0.000
1605108659845588992,10.0.1.143,50,pick,-0.610,-0.610,-0.610,0.000,0.000,0.000
1605108661919062016,10.0.1.143,114,pick,-0.630,-0.630,-0.630,0.000,0.000,0.000
1605108662872812032,10.0.1.143,62,pick,-0.640,-0.640,-0.640,0.000,0.000,0.000
1605108665907062016,10.0.1.143,89,pick,-0.670,-0.670,-0.670,0.000,0.000,0.000
1605108666885211904,10.0.1.143,64,pick,-0.680,-0.680,-0.680,0.000,0.000,0.000
1605108667879559936,10.0.1.143,54,pick,-0.690,-0.690,-0.690,0.000,0.000,0.000
1605108668884648960,10.0.1.143,45,pick,-0.700,-0.700,-0.700,0.000,0.000,0.000
1605108669914580992,10.0.1.143,67,pick,-0.710,-0.710,-0.710,0.000,0.000,0.000
1605108670913661952,10.0.1.143,66,pick,-0.720,-0.720,-0.720,0.000,0.000,0.000
1605108671908813056,10.0.1.143,52,pick,-0.730,-0.730,-0.730,0.000,0.000,0.000
1605108672902715904,10.0.1.143,45,pick,-0.740,-0.740,-0.740,0.000,0.000,0.000
1605108673927112192,10.0.1.143,68,pick,-0.750,-0.750,-0.750,0.000,0.000,0.000
1605108674915968000,10.0.1.143,53,pick,-0.760,-0.760,-0.760,0.000,0.000,0.000
1605108675932524800,10.0.1.143,56,pick,-0.770,-0.770,-0.770,0.000,0.000,0.000
1605108678210742016,10.0.1.143,1333,move_up,-0.750,-0.750,-0.750,0.000,0.000,0.000
1605108680808246016,10.0.1.143,1142,move_up,-0.730,-0.730,-0.730,0.000,0.000,0.000
1605108683306160896,10.0.1.143,1377,move_up,-0.710,-0.710,-0.710,0.000,0.000,0.000
1605108685332498944,10.0.1.143,962,move_up,-0.690,-0.690,-0.690,0.000,0.000,0.000
1605108688406343936,10.0.1.143,1978,move_up,-0.670,-0.670,-0.670,0.000,0.000,0.000
1605108694946289152,10.0.1.143,1757,move_up,-0.650,-0.650,-0.650,0.000,0.000,0.000
1605108697002976000,10.0.1.143,978,move_up,-0.630,-0.630,-0.630,0.000,0.000,0.000
1605108699904246016,10.0.1.143,1605,move_up,-0.610,-0.610,-0.610,0.000,0.000,0.000
1605108702226872832,10.0.1.143,1220,move_up,-0.590,-0.590,-0.590,0.000,0.000,0.000
1605108704262109952,10.0.1.143,929,move_up,-0.570,-0.570,-0.570,0.000,0.000,0.000
1605108707126600960,10.0.1.143,1583,move_up,-0.550,-0.550,-0.550,0.000,0.000,0.000
1605108709335969024,10.0.1.143,1026,move_up,-0.530,-0.530,-0.530,0.000,0.000,0.000
1605108711913628928,10.0.1.143,1524,move_up,-0.510,-0.510,-0.510,0.000,0.000,0.000
1605108713985921024,10.0.1.143,927,move_up,-0.490,-0.490,-0.490,0.000,0.000,0.000
1605108716539362048,10.0.1.143,1212,move_up,-0.470,-0.470,-0.470,0.000,0.000,0.000
1605108718758586880,10.0.1.143,1078,move_up,-0.450,-0.450,-0.450,0.000,0.000,0.000
1605108720340570880,10.0.1.143,516,move_up,-0.430,-0.430,-0.430,0.000,0.000,0.000
1605108722989830912,10.0.1.143,1567,move_up,-0.410,-0.410,-0.410,0.000,0.000,0.000
1605108725532674048,10.0.1.143,1330,move_up,-0.390,-0.390,-0.390,0.000,0.000,0.000
1605108727427532032,10.0.1.143,875,move_up,-0.370,-0.370,-0.370,0.000,0.000,0.000
1605108730731859968,10.0.1.143,1620,move_up,-0.350,-0.350,-0.350,0.000,0.000,0.000
1605108732747908096,10.0.1.143,899,move_up,-0.330,-0.330,-0.330,0.000,0.000,0.000
1605108735181936896,10.0.1.143,1341,move_up,-0.310,-0.310,-0.310,0.000,0.000,0.000
1605108738473858048,10.0.1.143,1926,move_up,-0.290,-0.290,-0.290,0.000,0.000,0.000
1605108740926486016,10.0.1.143,1320,move_up,-0.270,-0.270,-0.270,0.000,0.000,0.000
1605108743539892992,10.0.1.143,1037,move_up,-0.250,-0.250,-0.250,0.000,0.000,0.000
1605108746588627200,10.0.1.143,1838,move_up,-0.230,-0.230,-0.230,0.000,0.000,0.000
1605108749153760000,10.0.1.143,1520,move_up,-0.210,-0.210,-0.210,0.000,0.000,0.000
1605108751964531968,10.0.1.143,1430,move_up,-0.190,-0.190,-0.190,0.000,0.000,0.000
1605108753096467968,10.0.1.143,79,place,-0.180,-0.180,-0.180,0.000,0.000,0.000
1605108756227795968,10.0.1.143,83,place,-0.150,-0.150,-0.150,0.000,0.000,0.000
1605108757224934144,10.0.1.143,77,place,-0.140,-0.140,-0.140,0.000,0.000,0.000
1605108759286472192,10.0.1.143,95,place,-0.120,-0.120,-0.120,0.000,0.000,0.000
1605108761272190976,10.0.1.143,48,place,-0.100,-0.100,-0.100,0.000,0.000,0.000
1605108762354459904,10.0.1.143,129,place,-0.090,-0.090,-0.090,0.000,0.000,0.000
1605108763308496896,10.0.1.143,82,place,-0.080,-0.080,-0.080,0.000,0.000,0.000
1605108764303910912,10.0.1.143,76,place,-0.070,-0.070,-0.070,0.000,0.000,0.000
1605108766279279104,10.0.1.143,47,place,-0.050,-0.050,-0.050,0.000,0.000,0.000
1605108767415250176,10.0.1.143,157,place,-0.040,-0.040,-0.040,0.000,0.000,0.000
1605108769400180224,10.0.1.143,45,place,-0.020,-0.020,-0.020,0.000,0.000,0.000
1605108770401715968,10.0.1.143,46,place,-0.010,-0.010,-0.010,0.000,0.000,0.000
1605108773755609088,10.0.1.143,1394,move_down,-0.020,-0.020,-0.020,0.000,0.000,0.000
1605108776250492160,10.0.1.143,1268,move_down,-0.040,-0.040,-0.040,0.000,0.000,0.000
1605108778352515072,10.0.1.143,1035,move_down,-0.060,-0.060,-0.060,0.000,0.000,0.000
1605108780304444160,10.0.1.143,837,move_down,-0.080,-0.080,-0.080,0.000,0.000,0.000
1605108782884069888,10.0.1.143,1448,move_down,-0.100,-0.100,-0.100,0.000,0.000,0.000
1605108784992425984,10.0.1.143,1084,move_down,-0.120,-0.120,-0.120,0.000,0.000,0.000
1605108788250505984,10.0.1.143,1627,move_down,-0.140,-0.140,-0.140,0.000,0.000,0.000
1605108790969191936,10.0.1.143,1696,move_down,-0.160,-0.160,-0.160,0.000,0.000,0.000
1605108792800306944,10.0.1.143,771,move_down,-0.180,-0.180,-0.180,0.000,0.000,0.000
1605108794856900096,10.0.1.143,1019,move_down,-0.200,-0.200,-0.200,0.000,0.000,0.000
1605108797117532928,10.0.1.143,1196,move_down,-0.220,-0.220,-0.220,0.000,0.000,0.000
1605108798828259072,10.0.1.143,660,move_down,-0.240,-0.240,-0.240,0.000,0.000,0.000
1605108801430020096,10.0.1.143,1532,move_down,-0.260,-0.260,-0.260,0.000,0.000,0.000
1605108804424007936,10.0.1.143,1558,move_down,-0.280,-0.280,-0.280,0.000,0.000,0.000
1605108806661569024,10.0.1.143,1010,move_down,-0.300,-0.300,-0.300,0.000,0.000,0.000
1605108809460028928,10.0.1.143,1698,move_down,-0.320,-0.320,-0.320,0.000,0.000,0.000
1605108811895940096,10.0.1.143,1315,move_down,-0.340,-0.340,-0.340,0.000,0.000,0.000
1605108814357907968,10.0.1.143,1302,move_down,-0.360,-0.360,-0.360,0.000,0.000,0.000
1605108817085923072,10.0.1.143,1598,move_down,-0.380,-0.380,-0.380,0.000,0.000,0.000
1605108819346484992,10.0.1.143,1086,move_down,-0.400,-0.400,-0.400,0.000,0.000,0.000
1605108821261465088,10.0.1.143,768,move_down,-0.420,-0.420,-0.420,0.000,0.000,0.000
1605108823374353920,10.0.1.143,1008,move_down,-0.440,-0.440,-0.440,0.000,0.000,0.000
1605108825572087040,10.0.1.143,1076,move_down,-0.460,-0.460,-0.460,0.000,0.000,0.000
1605108828367827968,10.0.1.143,1541,move_down,-0.480,-0.480,-0.480,0.000,0.000,0.000
1605108830965111040,10.0.1.143,1258,move_down,-0.500,-0.500,-0.500,0.000,0.000,0.000
1605108833451823104,10.0.1.143,1348,move_down,-0.520,-0.520,-0.520,0.000,0.000,0.000
1605108835318726912,10.0.1.143,757,move_down,-0.540,-0.540,-0.540,0.000,0.000,0.000
1605108837795384832,10.0.1.143,1378,move_down,-0.560,-0.560,-0.560,0.000,0.000,0.000
1605108840386210048,10.0.1.143,1285,move_down,-0.580,-0.580,-0.580,0.000,0.000,0.000
1605108844725598976,10.0.1.143,58,pick,-0.620,-0.620,-0.620,0.000,0.000,0.000
1605108845766603008,10.0.1.143,92,pick,-0.630,-0.630,-0.630,0.000,0.000,0.000
1605108846716924928,10.0.1.143,41,pick,-0.640,-0.640,-0.640,0.000,0.000,0.000
1605108847746130944,10.0.1.143,63,pick,-0.650,-0.650,-0.650,0.000,0.000,0.000
1605108848764886016,10.0.1.143,59,pick,-0.660,-0.660,-0.660,0.000,0.000,0.000
1605108855771173888,10.0.1.143,48,pick,-0.730,-0.730,-0.730,0.000,0.000,0.000
1605108856786406144,10.0.1.143,61,pick,-0.740,-0.740,-0.740,0.000,0.000,0.000
1605108857791930880,10.0.1.143,64,pick,-0.750,-0.750,-0.750,0.000,0.000,0.000
1605108858789871872,10.0.1.143,61,pick,-0.760,-0.760,-0.760,0.000,0.000,0.000
1605108859863246080,10.0.1.143,116,pick,-0.770,-0.770,-0.770,0.000,0.000,0.000
1605108862172765952,10.0.1.143,1425,move_up,-0.750,-0.750,-0.750,0.000,0.000,0.000
1605108864306775040,10.0.1.143,1036,move_up,-0.730,-0.730,-0.730,0.000,0.000,0.000
1605108866730813952,10.0.1.143,1270,move_up,-0.710,-0.710,-0.710,0.000,0.000,0.000
1605108870560707072,10.0.1.143,2309,move_up,-0.690,-0.690,-0.690,0.000,0.000,0.000
1605108873021584128,10.0.1.143,1249,move_up,-0.670,-0.670,-0.670,0.000,0.000,0.000
1605108875594067968,10.0.1.143,1435,move_up,-0.650,-0.650,-0.650,0.000,0.000,0.000
1605108878294797824,10.0.1.143,1474,move_up,-0.630,-0.630,-0.630,0.000,0.000,0.000
1605108881050779136,10.0.1.143,1529,move_up,-0.610,-0.610,-0.610,0.000,0.000,0.000
1605108882980423936,10.0.1.143,790,move_up,-0.590,-0.590,-0.590,0.000,0.000,0.000
1605108885041168896,10.0.1.143,976,move_up,-0.570,-0.570,-0.570,0.000,0.000,0.000
1605108887114753024,10.0.1.143,785,move_up,-0.550,-0.550,-0.550,0.000,0.000,0.000
1605108889411650048,10.0.1.143,1190,move_up,-0.530,-0.530,-0.530,0.000,0.000,0.000
1605108891815546880,10.0.1.143,1192,move_up,-0.510,-0.510,-0.510,0.000,0.000,0.000
1605108894569231104,10.0.1.143,1565,move_up,-0.490,-0.490,-0.490,0.000,0.000,0.000
1605108897051230976,10.0.1.143,1440,move_up,-0.470,-0.470,-0.470,0.000,0.000,0.000
1605108900048318976,10.0.1.143,1458,move_up,-0.450,-0.450,-0.450,0.000,0.000,0.000
1605108902362106112,10.0.1.143,1127,move_up,-0.430,-0.430,-0.430,0.000,0.000,0.000
1605108904971239936,10.0.1.143,1541,move_up,-0.410,-0.410,-0.410,0.000,0.000,0.000
1605108907380687872,10.0.1.143,1238,move_up,-0.390,-0.390,-0.390,0.000,0.000,0.000
1605108909816957952,10.0.1.143,1054,move_up,-0.370,-0.370,-0.370,0.000,0.000,0.000
1605108912170379008,10.0.1.143,1095,move_up,-0.350,-0.350,-0.350,0.000,0.000,0.000
1605108914546601984,10.0.1.143,1210,move_up,-0.330,-0.330,-0.330,0.000,0.000,0.000
1605108917075629056,10.0.1.143,1253,move_up,-0.310,-0.310,-0.310,0.000,0.000,0.000
1605108919527142912,10.0.1.143,1437,move_up,-0.290,-0.290,-0.290,0.000,0.000,0.000
1605108921651315968,10.0.1.143,1020,move_up,-0.270,-0.270,-0.270,0.000,0.000,0.000
1605108924123798016,10.0.1.143,1172,move_up,-0.250,-0.250,-0.250,0.000,0.000,0.000
1605108925964297984,10.0.1.143,646,move_up,-0.230,-0.230,-0.230,0.000,0.000,0.000
1605108928507337984,10.0.1.143,1246,move_up,-0.210,-0.210,-0.210,0.000,0.000,0.000
1605108930951962880,10.0.1.143,1364,move_up,-0.190,-0.190,-0.190,0.000,0.000,0.000
1605108932182941952,10.0.1.143,65,place,-0.180,-0.180,-0.180,0.000,0.000,0.000
1605108933202233088,10.0.1.143,77,place,-0.170,-0.170,-0.170,0.000,0.000,0.000
1605108934196476928,10.0.1.143,68,place,-0.160,-0.160,-0.160,0.000,0.000,0.000
1605108935334758144,10.0.1.143,73,place,-0.150,-0.150,-0.150,0.000,0.000,0.000
1605108937303169024,10.0.1.143,36,place,-0.130,-0.130,-0.130,0.000,0.000,0.000
1605108939357168896,10.0.1.143,73,place,-0.110,-0.110,-0.110,0.000,0.000,0.000
1605108940417773056,10.0.1.143,103,place,-0.100,-0.100,-0.100,0.000,0.000,0.000
1605108941388788992,10.0.1.143,73,place,-0.090,-0.090,-0.090,0.000,0.000,0.000
1605108943395873024,10.0.1.143,58,place,-0.070,-0.070,-0.070,0.000,0.000,0.000
1605108944408327168,10.0.1.143,57,place,-0.060,-0.060,-0.060,0.000,0.000,0.000
1605108945450212096,10.0.1.143,82,place,-0.050,-0.050,-0.050,0.000,0.000,0.000
1605108946441078016,10.0.1.143,70,place,-0.040,-0.040,-0.040,0.000,0.000,0.000
1605108947446398976,10.0.1.143,71,place,-0.030,-0.030,-0.030,0.000,0.000,0.000
1605108953441088000,10.0.1.143,2041,move_down,-0.020,-0.020,-0.020,0.000,0.000,0.000
1605108956715833856,10.0.1.143,1593,move_down,-0.040,-0.040,-0.040,0.000,0.000,0.000
1605108959420943104,10.0.1.143,1580,move_down,-0.060,-0.060,-0.060,0.000,0.000,0.000
1605108962306668032,10.0.1.143,1580,move_down,-0.080,-0.080,-0.080,0.000,0.000,0.000
1605108964992638208,10.0.1.143,1329,move_down,-0.100,-0.100,-0.100,0.000,0.000,0.000
1605108967687324928,10.0.1.143,1583,move_down,-0.120,-0.120,-0.120,0.000,0.000,0.000
1605108970088393984,10.0.1.143,1225,move_down,-0.140,-0.140,-0.140,0.000,0.000,0.000
1605108973265481984,10.0.1.143,1954,move_down,-0.160,-0.160,-0.160,0.000,0.000,0.000
1605108975173056000,10.0.1.143,726,move_down,-0.180,-0.180,-0.180,0.000,0.000,0.000
1605108981075251200,10.0.1.143,1208,move_down,-0.200,-0.200,-0.200,0.000,0.000,0.000
1605108983509833984,10.0.1.143,1209,move_down,-0.220,-0.220,-0.220,0.000,0.000,0.000
1605108986658422016,10.0.1.143,1509,move_down,-0.240,-0.240,-0.240,0.000,0.000,0.000
1605108989283601152,10.0.1.143,1362,move_down,-0.260,-0.260,-0.260,0.000,0.000,0.000
1605108992436284928,10.0.1.143,1586,move_down,-0.280,-0.280,-0.280,0.000,0.000,0.000
1605108994891684096,10.0.1.143,1287,move_down,-0.300,-0.300,-0.300,0.000,0.000,0.000
1605108997582434048,10.0.1.143,1246,move_down,-0.320,-0.320,-0.320,0.000,0.000,0.000
1605109001095640832,10.0.1.143,2391,move_down,-0.340,-0.340,-0.340,0.000,0.000,0.000
1605109003636240896,10.0.1.143,1374,move_down,-0.360,-0.360,-0.360,0.000,0.000,0.000
1605109005851526144,10.0.1.143,881,move_down,-0.380,-0.380,-0.380,0.000,0.000,0.000
1605109008133197056,10.0.1.143,1170,move_down,-0.400,-0.400,-0.400,0.000,0.000,0.000
1605109010522737152,10.0.1.143,1197,move_down,-0.420,-0.420,-0.420,0.000,0.000,0.000
1605109013065630976,10.0.1.143,1435,move_down,-0.440,-0.440,-0.440,0.000,0.000,0.000
1605109015597456896,10.0.1.143,1334,move_down,-0.460,-0.460,-0.460,0.000,0.000,0.000
1605109017475811072,10.0.1.143,1010,move_down,-0.480,-0.480,-0.480,0.000,0.000,0.000
1605109020077733888,10.0.1.143,1496,move_down,-0.500,-0.500,-0.500,0.000,0.000,0.000
1605109023118515968,10.0.1.143,1901,move_down,-0.520,-0.520,-0.520,0.000,0.000,0.000
1605109025879697920,10.0.1.143,1296,move_down,-0.540,-0.540,-0.540,0.000,0.000,0.000
1605109028325357824,10.0.1.143,1295,move_down,-0.560,-0.560,-0.560,0.000,0.000,0.000
1605109031079403008,10.0.1.143,1518,move_down,-0.580,-0.580,-0.580,0.000,0.000,0.000
1605109032658592000,10.0.1.143,94,pick,-0.590,-0.590,-0.590,0.000,0.000,0.000
1605109033625721088,10.0.1.143,60,pick,-0.600,-0.600,-0.600,0.000,0.000,0.000
1605109034621378816,10.0.1.143,46,pick,-0.610,-0.610,-0.610,0.000,0.000,0.000
1605109035642307072,10.0.1.143,64,pick,-0.620,-0.620,-0.620,0.000,0.000,0.000
1605109036652064000,10.0.1.143,53,pick,-0.630,-0.630,-0.630,0.000,0.000,0.000
1605109037682929920,10.0.1.143,83,pick,-0.640,-0.640,-0.640,0.000,0.000,0.000
1605109038685905920,10.0.1.143,82,pick,-0.650,-0.650,-0.650,0.000,0.000,0.000
1605109040686150144,10.0.1.143,74,pick,-0.670,-0.670,-0.670,0.000,0.000,0.000
1605109041678721792,10.0.1.143,60,pick,-0.680,-0.680,-0.680,0.000,0.000,0.000
1605109043685300224,10.0.1.143,59,pick,-0.700,-0.700,-0.700,0.000,0.000,0.000
1605109044689063168,10.0.1.143,61,pick,-0.710,-0.710,-0.710,0.000,0.000,0.000
1605109045722394112,10.0.1.143,69,pick,-0.720,-0.720,-0.720,0.000,0.000,0.000
1605109046723144960,10.0.1.143,69,pick,-0.730,-0.730,-0.730,0.000,0.000,0.000
1605109047706845952,10.0.1.143,48,pick,-0.740,-0.740,-0.740,0.000,0.000,0.000
1605109048971330048,10.0.1.143,293,pick,-0.750,-0.750,-0.750,0.000,0.000,0.000
1605109050758646016,10.0.1.143,74,pick,-0.770,-0.770,-0.770,0.000,0.000,0.000
1605109052435116032,10.0.1.143,749,move_up,-0.750,-0.750,-0.750,0.000,0.000,0.000
1605109055260206080,10.0.1.143,1539,move_up,-0.730,-0.730,-0.730,0.000,0.000,0.000
1605109057457905920,10.0.1.143,1108,move_up,-0.710,-0.710,-0.710,0.000,0.000,0.000
1605109060210052096,10.0.1.143,1520,move_up,-0.690,-0.690,-0.690,0.000,0.000,0.000
1605109063081672960,10.0.1.143,1662,move_up,-0.670,-0.670,-0.670,0.000,0.000,0.000
1605109065465881088,10.0.1.143,1117,move_up,-0.650,-0.650,-0.650,0.000,0.000,0.000
1605109067386321152,10.0.1.143,849,move_up,-0.630,-0.630,-0.630,0.000,0.000,0.000
1605109069751440896,10.0.1.143,1280,move_up,-0.610,-0.610,-0.610,0.000,0.000,0.000
1605109071684946944,10.0.1.143,778,move_up,-0.590,-0.590,-0.590,0.000,0.000,0.000
1605109073703417088,10.0.1.143,866,move_up,-0.570,-0.570,-0.570,0.000,0.000,0.000
1605109077173652992,10.0.1.143,2346,move_up,-0.550,-0.550,-0.550,0.000,0.000,0.000
1605109080011288832,10.0.1.143,1307,move_up,-0.530,-0.530,-0.530,0.000,0.000,0.000
1605109082172233984,10.0.1.143,863,move_up,-0.510,-0.510,-0.510,0.000,0.000,0.000
1605109084471788800,10.0.1.143,1172,move_up,-0.490,-0.490,-0.490,0.000,0.000,0.000
1605109087244945152,10.0.1.143,1538,move_up,-0.470,-0.470,-0.470,0.000,0.000,0.000
1605109090177517824,10.0.1.143,1571,move_up,-0.450,-0.450,-0.450,0.000,0.000,0.000
1605109093864187904,10.0.1.143,2433,move_up,-0.430,-0.430,-0.430,0.000,0.000,0.000
1605109097160841984,10.0.1.143,1684,move_up,-0.410,-0.410,-0.410,0.000,0.000,0.000
1605109099491012096,10.0.1.143,987,move_up,-0.390,-0.390,-0.390,0.000,0.000,0.000
1605109102557899008,10.0.1.143,1686,move_up,-0.370,-0.370,-0.370,0.000,0.000,0.000
1605109104571490048,10.0.1.143,830,move_up,-0.350,-0.350,-0.350,0.000,0.000,0.000
1605109106651804928,10.0.1.143,718,move_up,-0.330,-0.330,-0.330,0.000,0.000,0.000
1605109108553744128,10.0.1.143,860,move_up,-0.310,-0.310,-0.310,0.000,0.000,0.000
1605109110848102144,10.0.1.143,1066,move_up,-0.290,-0.290,-0.290,0.000,0.000,0.000
1605109113153656064,10.0.1.143,1021,move_up,-0.270,-0.270,-0.270,0.000,0.000,0.000
1605109115317734912,10.0.1.143,912,move_up,-0.250,-0.250,-0.250,0.000,0.000,0.000
1605109117540476928,10.0.1.143,1207,move_up,-0.230,-0.230,-0.230,0.000,0.000,0.000
1605109120288173056,10.0.1.143,1627,move_up,-0.210,-0.210,-0.210,0.000,0.000,0.000
1605109123073860864,10.0.1.143,1523,move_up,-0.190,-0.190,-0.190,0.000,0.000,0.000
1605109126356734976,10.0.1.143,124,place,-0.160,-0.160,-0.160,0.000,0.000,0.000
1605109127335897088,10.0.1.143,88,place,-0.150,-0.150,-0.150,0.000,0.000,0.000
1605109130299418880,10.0.1.143,39,place,-0.120,-0.120,-0.120,0.000,0.000,0.000
1605109131309243904,10.0.1.143,43,place,-0.110,-0.110,-0.110,0.000,0.000,0.000
1605109135325222912,10.0.1.143,42,place,-0.070,-0.070,-0.070,0.000,0.000,0.000
1605109137649427968,10.0.1.143,107,place,-0.050,-0.050,-0.050,0.000,0.000,0.000
1605109140627401984,10.0.1.143,63,place,-0.020,-0.020,-0.020,0.000,0.000,0.000
1605109141623287808,10.0.1.143,57,place,-0.010,-0.010,-0.010,0.000,0.000,0.000
1605109142651421184,10.0.1.143,61,place,0.000,0.000,0.000,0.000,0.000,0.000
1605109144550985984,10.0.1.143,948,move_down,-0.020,-0.020,-0.020,0.000,0.000,0.000
1605109147162464000,10.0.1.143,1495,move_down,-0.040,-0.040,-0.040,0.000,0.000,0.000
1605109149974606080,10.0.1.143,1458,move_down,-0.060,-0.060,-0.060,0.000,0.000,0.000
1605109153105789952,10.0.1.143,834,move_down,-0.080,-0.080,-0.080,0.000,0.000,0.000
1605109155492686080,10.0.1.143,745,move_down,-0.100,-0.100,-0.100,0.000,0.000,0.000
1605109158689352960,10.0.1.143,2047,move_down,-0.120,-0.120,-0.120,0.000,0.000,0.000
1605109161580329984,10.0.1.143,1586,move_down,-0.140,-0.140,-0.140,0.000,0.000,0.000
1605109164715894016,10.0.1.143,1395,move_down,-0.160,-0.160,-0.160,0.000,0.000,0.000
1605109167114937088,10.0.1.143,1227,move_down,-0.180,-0.180,-0.180,0.000,0.000,0.000
1605109169792308992,10.0.1.143,1575,move_down,-0.200,-0.200,-0.200,0.000,0.000,0.000
1605109173072578048,10.0.1.143,1775,move_down,-0.220,-0.220,-0.220,0.000,0.000,0.000
1605109175036264960,10.0.1.143,932,move_down,-0.240,-0.240,-0.240,0.000,0.000,0.000
1605109177106266112,10.0.1.143,924,move_down,-0.260,-0.260,-0.260,0.000,0.000,0.000
1605109179693161984,10.0.1.143,1137,move_down,-0.280,-0.280,-0.280,0.000,0.000,0.000
1605109182292113152,10.0.1.143,1282,move_down,-0.300,-0.300,-0.300,0.000,0.000,0.000
1605109184500404992,10.0.1.143,1108,move_down,-0.320,-0.320,-0.320,0.000,0.000,0.000
1605109187689815040,10.0.1.143,1864,move_down,-0.340,-0.340,-0.340,0.000,0.000,0.000
1605109190934007808,10.0.1.143,2048,move_down,-0.360,-0.360,-0.360,0.000,0.000,0.000
1605109193544249088,10.0.1.143,1215,move_down,-0.380,-0.380,-0.380,0.000,0.000,0.000
1605109199244833024,10.0.1.143,1190,move_down,-0.400,-0.400,-0.400,0.000,0.000,0.000
1605109201813828864,10.0.1.143,1399,move_down,-0.420,-0.420,-0.420,0.000,0.000,0.000
1605109204373718016,10.0.1.143,1349,move_down,-0.440,-0.440,-0.440,0.000,0.000,0.000
1605109206600944128,10.0.1.143,1116,move_down,-0.460,-0.460,-0.460,0.000,0.000,0.000
1605109209537668096,10.0.1.143,1466,move_down,-0.480,-0.480,-0.480,0.000,0.000,0.000
1605109213071022080,10.0.1.143,2377,move_down,-0.500,-0.500,-0.500,0.000,0.000,0.000
1605109215309773824,10.0.1.143,691,move_down,-0.520,-0.520,-0.520,0.000,0.000,0.000
1605109217210850048,10.0.1.143,715,move_down,-0.540,-0.540,-0.540,0.000,0.000,0.000
1605109219935326976,10.0.1.143,1516,move_down,-0.560,-0.560,-0.560,0.000,0.000,0.000
1605109223130055936,10.0.1.143,1851,move_down,-0.580,-0.580,-0.580,0.000,0.000,0.000
1605109225403459072,10.0.1.143,113,pick,-0.600,-0.600,-0.600,0.000,0.000,0.000
1605109226332608000,10.0.1.143,37,pick,-0.610,-0.610,-0.610,0.000,0.000,0.000
1605109228352276992,10.0.1.143,49,pick,-0.630,-0.630,-0.630,0.000,0.000,0.000
1605109229357667840,10.0.1.143,51,pick,-0.640,-0.640,-0.640,0.000,0.000,0.000
1605109235404933888,10.0.1.143,62,pick,-0.700,-0.700,-0.700,0.000,0.000,0.000
1605109236413080064,10.0.1.143,62,pick,-0.710,-0.710,-0.710,0.000,0.000,0.000
1605109237410813952,10.0.1.143,59,pick,-0.720,-0.720,-0.720,0.000,0.000,0.000
1605109238437593088,10.0.1.143,63,pick,-0.730,-0.730,-0.730,0.000,0.000,0.000
1605109241480550144,10.0.1.143,54,pick,-0.760,-0.760,-0.760,0.000,0.000,0.000
1605109242466782976,10.0.1.143,39,pick,-0.770,-0.770,-0.770,0.000,0.000,0.000
1605109245241123840,10.0.1.143,1812,move_up,-0.750,-0.750,-0.750,0.000,0.000,0.000
1605109247317913088,10.0.1.143,911,move_up,-0.730,-0.730,-0.730,0.000,0.000,0.000
1605109250058657792,10.0.1.143,1449,move_up,-0.710,-0.710,-0.710,0.000,0.000,0.000
1605109252080823040,10.0.1.143,795,move_up,-0.690,-0.690,-0.690,0.000,0.000,0.000
1605109254153493760,10.0.1.143,912,move_up,-0.670,-0.670,-0.670,0.000,0.000,0.000
1605109256767556864,10.0.1.143,1579,move_up,-0.650,-0.650,-0.650,0.000,0.000,0.000
1605109259134632192,10.0.1.143,1297,move_up,-0.630,-0.630,-0.630,0.000,0.000,0.000
1605109261771483904,10.0.1.143,1408,move_up,-0.610,-0.610,-0.610,0.000,0.000,0.000
1605109264229069824,10.0.1.143,1015,move_up,-0.590,-0.590,-0.590,0.000,0.000,0.000
1605109266438313984,10.0.1.143,1034,move_up,-0.570,-0.570,-0.570,0.000,0.000,0.000
1605109268954426880,10.0.1.143,1163,move_up,-0.550,-0.550,-0.550,0.000,0.000,0.000
1605109271759949056,10.0.1.143,1576,move_up,-0.530,-0.530,-0.530,0.000,0.000,0.000
1605109274592478976,10.0.1.143,1228,move_up,-0.510,-0.510,-0.510,0.000,0.000,0.000
1605109276539088128,10.0.1.143,822,move_up,-0.490,-0.490,-0.490,0.000,0.000,0.000
1605109280165355008,10.0.1.143,2590,move_up,-0.470,-0.470,-0.470,0.000,0.000,0.000
1605109282407450880,10.0.1.143,896,move_up,-0.450,-0.450,-0.450,0.000,0.000,0.000
1605109285258596864,10.0.1.143,1422,move_up,-0.430,-0.430,-0.430,0.000,0.000,0.000
1605109287931052032,10.0.1.143,1569,move_up,-0.410,-0.410,-0.410,0.000,0.000,0.000
1605109290957869056,10.0.1.143,1791,move_up,-0.390,-0.390,-0.390,0.000,0.000,0.000
1605109293765882880,10.0.1.143,1558,move_up,-0.370,-0.370,-0.370,0.000,0.000,0.000
1605109295900048128,10.0.1.143,1132,move_up,-0.350,-0.350,-0.350,0.000,0.000,0.000
1605109298365967872,10.0.1.143,1420,move_up,-0.330,-0.330,-0.330,0.000,0.000,0.000
1605109300342409984,10.0.1.143,884,move_up,-0.310,-0.310,-0.310,0.000,0.000,0.000
1605109302967612928,10.0.1.143,1466,move_up,-0.290,-0.290,-0.290,0.000,0.000,0.000
1605109305105544960,10.0.1.143,1029,move_up,-0.270,-0.270,-0.270,0.000,0.000,0.000
1605109308110927104,10.0.1.143,1047,move_up,-0.250,-0.250,-0.250,0.000,0.000,0.000
1605109312337316096,10.0.1.143,2822,move_up,-0.230,-0.230,-0.230,0.000,0.000,0.000
1605109314413981952,10.0.1.143,851,move_up,-0.210,-0.210,-0.210,0.000,0.000,0.000
1605109316645796096,10.0.1.143,874,move_up,-0.190,-0.190,-0.190,0.000,0.000,0.000
1605109318851789824,10.0.1.143,82,place,-0.170,-0.170,-0.170,0.000,0.000,0.000
1605109319828342016,10.0.1.143,50,place,-0.160,-0.160,-0.160,0.000,0.000,0.000
1605109321876080896,10.0.1.143,79,place,-0.140,-0.140,-0.140,0.000,0.000,0.000
1605109322855803136,10.0.1.143,57,place,-0.130,-0.130,-0.130,0.000,0.000,0.000
1605109323865919232,10.0.1.143,58,place,-0.120,-0.120,-0.120,0.000,0.000,0.000
1605109325955065856,10.0.1.143,141,place,-0.100,-0.100,-0.100,0.000,0.000,0.000
1605109326865778944,10.0.1.143,49,place,-0.090,-0.090,-0.090,0.000,0.000,0.000
1605109327886845184,10.0.1.143,68,place,-0.080,-0.080,-0.080,0.000,0.000,0.000
1605109329931799040,10.0.1.143,86,place,-0.060,-0.060,-0.060,0.000,0.000,0.000
1605109331902148096,10.0.1.143,53,place,-0.040,-0.040,-0.040,0.000,0.000,0.000
1605109332904436224,10.0.1.143,54,place,-0.030,-0.030,-0.030,0.000,0.000,0.000
1605109333912513024,10.0.1.143,61,place,-0.020,-0.020,-0.020,0.000,0.000,0.000
1605109334958290176,10.0.1.143,98,place,-0.010,-0.010,-0.010,0.000,0.000,0.000
1605109335932996864,10.0.1.143,72,place,0.000,0.000,0.000,0.000,0.000,0.000
1605109337596705024,10.0.1.143,732,move_down,-0.020,-0.020,-0.020,0.000,0.000,0.000
1605109340963659008,10.0.1.143,1628,move_down,-0.040,-0.040,-0.040,0.000,0.000,0.000
1605109344209771008,10.0.1.143,1641,move_down,-0.060,-0.060,-0.060,0.000,0.000,0.000
1605109346451809792,10.0.1.143,1129,move_down,-0.080,-0.080,-0.080,0.000,0.000,0.000
1605109349554088960,10.0.1.143,1979,move_down,-0.100,-0.100,-0.100,0.000,0.000,0.000
1605109353291575808,10.0.1.143,2516,move_down,-0.120,-0.120,-0.120,0.000,0.000,0.000
1605109356244494080,10.0.1.143,1827,move_down,-0.140,-0.140,-0.140,0.000,0.000,0.000
1605109358708669952,10.0.1.143,1347,move_down,-0.160,-0.160,-0.160,0.000,0.000,0.000
1605109360660281856,10.0.1.143,857,move_down,-0.180,-0.180,-0.180,0.000,0.000,0.000
1605109363804659968,10.0.1.143,1470,move_down,-0.200,-0.200,-0.200,0.000,0.000,0.000
1605109365755419904,10.0.1.143,948,move_down,-0.220,-0.220,-0.220,0.000,0.000,0.000
1605109367945713152,10.0.1.143,1121,move_down,-0.240,-0.240,-0.240,0.000,0.000,0.000
1605109370085844992,10.0.1.143,860,move_down,-0.260,-0.260,-0.260,0.000,0.000,0.000
1605109372225521152,10.0.1.143,897,move_down,-0.280,-0.280,-0.280,0.000,0.000,0.000
1605109374366290944,10.0.1.143,1076,move_down,-0.300,-0.300,-0.300,0.000,0.000,0.000
1605109376880168960,10.0.1.143,1134,move_down,-0.320,-0.320,-0.320,0.000,0.000,0.000
1605109379248866048,10.0.1.143,1191,move_down,-0.340,-0.340,-0.340,0.000,0.000,0.000
1605109381273997056,10.0.1.143,921,move_down,-0.360,-0.360,-0.360,0.000,0.000,0.000
1605109383514419968,10.0.1.143,907,move_down,-0.380,-0.380,-0.380,0.000,0.000,0.000
1605109385862629888,10.0.1.143,1180,move_down,-0.400,-0.400,-0.400,0.000,0.000,0.000
1605109388319086080,10.0.1.143,1079,move_down,-0.420,-0.420,-0.420,0.000,0.000,0.000
1605109391126868992,10.0.1.143,1607,move_down,-0.440,-0.440,-0.440,0.000,0.000,0.000
1605109393629487872,10.0.1.143,1289,move_down,-0.460,-0.460,-0.460,0.000,0.000,0.000
1605109395863267072,10.0.1.143,1056,move_down,-0.480,-0.480,-0.480,0.000,0.000,0.000
1605109398272969984,10.0.1.143,1342,move_down,-0.500,-0.500,-0.500,0.000,0.000,0.000
1605109400737256960,10.0.1.143,1133,move_down,-0.520,-0.520,-0.520,0.000,0.000,0.000
1605109403468382976,10.0.1.143,1595,move_down,-0.540,-0.540,-0.540,0.000,0.000,0.000
1605109406767137024,10.0.1.143,1563,move_down,-0.560,-0.560,-0.560,0.000,0.000,0.000
1605109409899668992,10.0.1.143,2053,move_down,-0.580,-0.580,-0.580,0.000,0.000,0.000
1605109415457182976,10.0.1.143,52,pick,-0.630,-0.630,-0.630,0.000,0.000,0.000
1605109418507031808,10.0.1.143,55,pick,-0.660,-0.660,-0.660,0.000,0.000,0.000
1605109419527993856,10.0.1.143,70,pick,-0.670,-0.670,-0.670,0.000,0.000,0.000
1605109423519164160,10.0.1.143,43,pick,-0.710,-0.710,-0.710,0.000,0.000,0.000
1605109425554088192,10.0.1.143,64,pick,-0.730,-0.730,-0.730,0.000,0.000,0.000
1605109426549958912,10.0.1.143,54,pick,-0.740,-0.740,-0.740,0.000,0.000,0.000
1605109429569627904,10.0.1.143,70,pick,-0.770,-0.770,-0.770,0.000,0.000,0.000
1605109432255393024,10.0.1.143,1749,move_up,-0.750,-0.750,-0.750,0.000,0.000,0.000
1605109434575366144,10.0.1.143,1182,move_up,-0.730,-0.730,-0.730,0.000,0.000,0.000
1605109437154974976,10.0.1.143,1501,move_up,-0.710,-0.710,-0.710,0.000,0.000,0.000
1605109439596445184,10.0.1.143,1347,move_up,-0.690,-0.690,-0.690,0.000,0.000,0.000
1605109442749035008,10.0.1.143,1342,move_up,-0.670,-0.670,-0.670,0.000,0.000,0.000
1605109445073911040,10.0.1.143,1242,move_up,-0.650,-0.650,-0.650,0.000,0.000,0.000
1605109447443288064,10.0.1.143,1252,move_up,-0.630,-0.630,-0.630,0.000,0.000,0.000
1605109449886518016,10.0.1.143,1337,move_up,-0.610,-0.610,-0.610,0.000,0.000,0.000
1605109452495099904,10.0.1.143,1360,move_up,-0.590,-0.590,-0.590,0.000,0.000,0.000
1605109455564527104,10.0.1.143,1801,move_up,-0.570,-0.570,-0.570,0.000,0.000,0.000
1605109457865238784,10.0.1.143,1177,move_up,-0.550,-0.550,-0.550,0.000,0.000,0.000
1605109460168463872,10.0.1.143,1203,move_up,-0.530,-0.530,-0.530,0.000,0.000,0.000
1605109462985169920,10.0.1.143,1511,move_up,-0.510,-0.510,-0.510,0.000,0.000,0.000
1605109465715111936,10.0.1.143,1155,move_up,-0.490,-0.490,-0.490,0.000,0.000,0.000
1605109468781804032,10.0.1.143,1890,move_up,-0.470,-0.470,-0.470,0.000,0.000,0.000
1605109471229960960,10.0.1.143,1122,move_up,-0.450,-0.450,-0.450,0.000,0.000,0.000
1605109474397639936,10.0.1.143,2076,move_up,-0.430,-0.430,-0.430,0.000,0.000,0.000
1605109477575197952,10.0.1.143,1794,move_up,-0.410,-0.410,-0.410,0.000,0.000,0.000
1605109480201572864,10.0.1.143,1504,move_up,-0.390,-0.390,-0.390,0.000,0.000,0.000
1605109482570106112,10.0.1.143,1190,move_up,-0.370,-0.370,-0.370,0.000,0.000,0.000
1605109486900641792,10.0.1.143,3275,move_up,-0.350,-0.350,-0.350,0.000,0.000,0.000
1605109489475778048,10.0.1.143,1414,move_up,-0.330,-0.330,-0.330,0.000,0.000,0.000
1605109492135886080,10.0.1.143,1179,move_up,-0.310,-0.310,-0.310,0.000,0.000,0.000
1605109495390692096,10.0.1.143,1215,move_up,-0.290,-0.290,-0.290,0.000,0.000,0.000
1605109497912905984,10.0.1.143,1083,move_up,-0.270,-0.270,-0.270,0.000,0.000,0.000
1605109499859576832,10.0.1.143,693,move_up,-0.250,-0.250,-0.250,0.000,0.000,0.000
1605109501769503232,10.0.1.143,677,move_up,-0.230,-0.230,-0.230,0.000,0.000,0.000
1605109504859344128,10.0.1.143,1982,move_up,-0.210,-0.210,-0.210,0.000,0.000,0.000
1605109507311148800,10.0.1.143,1275,move_up,-0.190,-0.190,-0.190,0.000,0.000,0.000
1605109509704907008,10.0.1.143,112,place,-0.170,-0.170,-0.170,0.000,0.000,0.000
1605109511716773888,10.0.1.143,47,place,-0.150,-0.150,-0.150,0.000,0.000,0.000
1605109512733451008,10.0.1.143,51,place,-0.140,-0.140,-0.140,0.000,0.000,0.000
1605109513729566208,10.0.1.143,45,place,-0.130,-0.130,-0.130,0.000,0.000,0.000
1605109514738343936,10.0.1.143,49,place,-0.120,-0.120,-0.120,0.000,0.000,0.000
1605109515788034816,10.0.1.143,93,place,-0.110,-0.110,-0.110,0.000,0.000,0.000
1605109516770952960,10.0.1.143,63,place,-0.100,-0.100,-0.100,0.000,0.000,0.000
1605109520786427136,10.0.1.143,54,place,-0.060,-0.060,-0.060,0.000,0.000,0.000
1605109521799962112,10.0.1.143,62,place,-0.050,-0.050,-0.050,0.000,0.000,0.000
1605109523795399936,10.0.1.143,39,place,-0.030,-0.030,-0.030,0.000,0.000,0.000
1605109524804275968,10.0.1.143,47,place,-0.020,-0.020,-0.020,0.000,0.000,0.000
1605109526817140224,10.0.1.143,54,place,0.000,0.000,0.000,0.000,0.000,0.000
1605109528697214976,10.0.1.143,933,move_down,-0.020,-0.020,-0.020,0.000,0.000,0.000
1605109531153656064,10.0.1.143,970,move_down,-0.040,-0.040,-0.040,0.000,0.000,0.000
1605109533590274048,10.0.1.143,1357,move_down,-0.060,-0.060,-0.060,0.000,0.000,0.000
1605109536503066112,10.0.1.143,1681,move_down,-0.080,-0.080,-0.080,0.000,0.000,0.000
1605109538939290112,10.0.1.143,1126,move_down,-0.100,-0.100,-0.100,0.000,0.000,0.000
1605109541408480000,10.0.1.143,1362,move_down,-0.120,-0.120,-0.120,0.000,0.000,0.000
1605109543669456128,10.0.1.143,1154,move_down,-0.140,-0.140,-0.140,0.000,0.000,0.000
1605109546511280128,10.0.1.143,1352,move_down,-0.160,-0.160,-0.160,0.000,0.000,0.000
1605109548803080192,10.0.1.143,1120,move_down,-0.180,-0.180,-0.180,0.000,0.000,0.000
1605109551526598912,10.0.1.143,1233,move_down,-0.200,-0.200,-0.200,0.000,0.000,0.000
1605109553829368064,10.0.1.143,1142,move_down,-0.220,-0.220,-0.220,0.000,0.000,0.000
1605109556797935104,10.0.1.143,1307,move_down,-0.240,-0.240,-0.240,0.000,0.000,0.000
1605109559192524800,10.0.1.143,1441,move_down,-0.260,-0.260,-0.260,0.000,0.000,0.000
1605109561380135936,10.0.1.143,1033,move_down,-0.280,-0.280,-0.280,0.000,0.000,0.000
1605109563955383040,10.0.1.143,1332,move_down,-0.300,-0.300,-0.300,0.000,0.000,0.000
1605109567089289984,10.0.1.143,896,move_down,-0.320,-0.320,-0.320,0.000,0.000,0.000
1605109570187067904,10.0.1.143,1935,move_down,-0.340,-0.340,-0.340,0.000,0.000,0.000
1605109573218981888,10.0.1.143,1490,move_down,-0.360,-0.360,-0.360,0.000,0.000,0.000
1605109575846093824,10.0.1.143,1514,move_down,-0.380,-0.380,-0.380,0.000,0.000,0.000
1605109579021908992,10.0.1.143,2048,move_down,-0.400,-0.400,-0.400,0.000,0.000,0.000
1605109581557733120,10.0.1.143,1455,move_down,-0.420,-0.420,-0.420,0.000,0.000,0.000
1605109583868797184,10.0.1.143,1077,move_down,-0.440,-0.440,-0.440,0.000,0.000,0.000
1605109586304092928,10.0.1.143,1345,move_down,-0.460,-0.460,-0.460,0.000,0.000,0.000
1605109589284163840,10.0.1.143,1428,move_down,-0.480,-0.480,-0.480,0.000,0.000,0.000
1605109591579031040,10.0.1.143,646,move_down,-0.500,-0.500,-0.500,0.000,0.000,0.000
1605109596253902848,10.0.1.143,3252,move_down,-0.520,-0.520,-0.520,0.000,0.000,0.000
1605109599062540032,10.0.1.143,1293,move_down,-0.540,-0.540,-0.540,0.000,0.000,0.000
1605109601975394048,10.0.1.143,1451,move_down,-0.560,-0.560,-0.560,0.000,0.000,0.000
1605109603998694912,10.0.1.143,881,move_down,-0.580,-0.580,-0.580,0.000,0.000,0.000
1605109607497932800,10.0.1.143,61,pick,-0.610,-0.610,-0.610,0.000,0.000,0.000
1605109608534542080,10.0.1.143,88,pick,-0.620,-0.620,-0.620,0.000,0.000,0.000
1605109610494738176,10.0.1.143,47,pick,-0.640,-0.640,-0.640,0.000,0.000,0.000
