milangroshev/digital-twin-scalability/logs/run3-60s-nan/10.0.1.131.csv
timestamp,node,latency,action,joint_1,joint_2,joint_3,joint_4,joint_5,joint_6
1605183147845241088,10.0.1.131,NaN,,0.000,0.000,0.000,0.000,0.000,0.000
1605183149853498880,10.0.1.131,2008,,0.000,0.000,0.000,0.000,0.000,0.000
1605183152436347904,10.0.1.131,586,move_down,-0.020,-0.020,-0.020,0.000,0.000,0.000
1605183153907013888,10.0.1.131,404,move_down,-0.040,-0.040,-0.040,0.000,0.000,0.000
1605183155357263104,10.0.1.131,375,move_down,-0.060,-0.060,-0.060,0.000,0.000,0.000
1605183156826977024,10.0.1.131,393,move_down,-0.080,-0.080,-0.080,0.000,0.000,0.000
1605183158286717952,10.0.1.131,377,move_down,-0.100,-0.100,-0.100,0.000,0.000,0.000
1605183159749072128,10.0.1.131,386,move_down,-0.120,-0.120,-0.120,0.000,0.000,0.000
1605183161168350976,10.0.1.131,374,move_down,-0.140,-0.140,-0.140,0.000,0.000,0.000
1605183162626882048,10.0.1.131,388,move_down,-0.160,-0.160,-0.160,0.000,0.000,0.000
1605183164168960000,10.0.1.131,418,move_down,-0.180,-0.180,-0.180,0.000,0.000,0.000
1605183165626797056,10.0.1.131,398,move_down,-0.200,-0.200,-0.200,0.000,0.000,0.000
1605183167116926976,10.0.1.131,407,move_down,-0.220,-0.220,-0.220,0.000,0.000,0.000
1605183168596126976,10.0.1.131,397,move_down,-0.240,-0.240,-0.240,0.000,0.000,0.000
1605183170037064960,10.0.1.131,384,move_down,-0.260,-0.260,-0.260,0.000,0.000,0.000
1605183171487451904,10.0.1.131,400,move_down,-0.280,-0.280,-0.280,0.000,0.000,0.000
1605183172967299072,10.0.1.131,402,move_down,-0.300,-0.300,-0.300,0.000,0.000,0.000
1605183174426699008,10.0.1.131,383,move_down,-0.320,-0.320,-0.320,0.000,0.000,0.000
1605183175916966912,10.0.1.131,395,move_down,-0.340,-0.340,-0.340,0.000,0.000,0.000
1605183177381020160,10.0.1.131,404,move_down,-0.360,-0.360,-0.360,0.000,0.000,0.000
1605183178827383040,10.0.1.131,402,move_down,-0.380,-0.380,-0.380,0.000,0.000,0.000
1605183180337171200,10.0.1.131,429,move_down,-0.400,-0.400,-0.400,0.000,0.000,0.000
1605183181849039104,10.0.1.131,423,move_down,-0.420,-0.420,-0.420,0.000,0.000,0.000
1605183183247745024,10.0.1.131,393,move_down,-0.440,-0.440,-0.440,0.000,0.000,0.000
1605183184727122944,10.0.1.131,411,move_down,-0.460,-0.460,-0.460,0.000,0.000,0.000
1605183186187009024,10.0.1.131,395,move_down,-0.480,-0.480,-0.480,0.000,0.000,0.000
1605183187653012992,10.0.1.131,389,move_down,-0.500,-0.500,-0.500,0.000,0.000,0.000
1605183189117968128,10.0.1.131,414,move_down,-0.520,-0.520,-0.520,0.000,0.000,0.000
1605183190560583168,10.0.1.131,374,move_down,-0.540,-0.540,-0.540,0.000,0.000,0.000
1605183192026828032,10.0.1.131,397,move_down,-0.560,-0.560,-0.560,0.000,0.000,0.000
1605183193506995968,10.0.1.131,402,move_down,-0.580,-0.580,-0.580,0.000,0.000,0.000
1605183194630373120,10.0.1.131,44,pick,-0.590,-0.590,-0.590,0.000,0.000,0.000
1605183195627623168,10.0.1.131,40,pick,-0.600,-0.600,-0.600,0.000,0.000,0.000
1605183196628604928,10.0.1.131,40,pick,-0.610,-0.610,-0.610,0.000,0.000,0.000
1605183197627979008,10.0.1.131,37,pick,-0.620,-0.620,-0.620,0.000,0.000,0.000
1605183198629924096,10.0.1.131,37,pick,-0.630,-0.630,-0.630,0.000,0.000,0.000
1605183199633923072,10.0.1.131,40,pick,-0.640,-0.640,-0.640,0.000,0.000,0.000
1605183200627753984,10.0.1.131,32,pick,-0.650,-0.650,-0.650,0.000,0.000,0.000
1605183201648576000,10.0.1.131,52,pick,-0.660,-0.660,-0.660,0.000,0.000,0.000
1605183202648457984,10.0.1.131,50,pick,-0.670,-0.670,-0.670,0.000,0.000,0.000
1605183203649089024,10.0.1.131,46,pick,-0.680,-0.680,-0.680,0.000,0.000,0.000
1605183204647165184,10.0.1.131,43,pick,-0.690,-0.690,-0.690,0.000,0.000,0.000
1605183205657017088,10.0.1.131,52,pick,-0.700,-0.700,-0.700,0.000,0.000,0.000
1605183206654011904,10.0.1.131,48,pick,-0.710,-0.710,-0.710,0.000,0.000,0.000
1605183207653146112,10.0.1.131,44,pick,-0.720,-0.720,-0.720,0.000,0.000,0.000
1605183208661858048,10.0.1.131,52,pick,-0.730,-0.730,-0.730,0.000,0.000,0.000
1605183209651122944,10.0.1.131,39,pick,-0.740,-0.740,-0.740,0.000,0.000,0.000
1605183210655112960,10.0.1.131,41,pick,-0.750,-0.750,-0.750,0.000,0.000,0.000
1605183211649907968,10.0.1.131,35,pick,-0.760,-0.760,-0.760,0.000,0.000,0.000
1605183212657692928,10.0.1.131,41,pick,-0.770,-0.770,-0.770,0.000,0.000,0.000
1605183214048239104,10.0.1.131,429,move_up,-0.750,-0.750,-0.750,0.000,0.000,0.000
1605183215543740160,10.0.1.131,400,move_up,-0.730,-0.730,-0.730,0.000,0.000,0.000
1605183217043098880,10.0.1.131,420,move_up,-0.710,-0.710,-0.710,0.000,0.000,0.000
1605183218509094912,10.0.1.131,405,move_up,-0.690,-0.690,-0.690,0.000,0.000,0.000
1605183219947643136,10.0.1.131,413,move_up,-0.670,-0.670,-0.670,0.000,0.000,0.000
1605183221431803904,10.0.1.131,420,move_up,-0.650,-0.650,-0.650,0.000,0.000,0.000
1605183222889507072,10.0.1.131,399,move_up,-0.630,-0.630,-0.630,0.000,0.000,0.000
1605183224343600128,10.0.1.131,406,move_up,-0.610,-0.610,-0.610,0.000,0.000,0.000
1605183225828165120,10.0.1.131,406,move_up,-0.590,-0.590,-0.590,0.000,0.000,0.000
1605183227270919936,10.0.1.131,417,move_up,-0.570,-0.570,-0.570,0.000,0.000,0.000
1605183228779877888,10.0.1.131,467,move_up,-0.550,-0.550,-0.550,0.000,0.000,0.000
1605183230254665984,10.0.1.131,405,move_up,-0.530,-0.530,-0.530,0.000,0.000,0.000
1605183231809044992,10.0.1.131,455,move_up,-0.510,-0.510,-0.510,0.000,0.000,0.000
1605183233324958976,10.0.1.131,421,move_up,-0.490,-0.490,-0.490,0.000,0.000,0.000
1605183234808454912,10.0.1.131,417,move_up,-0.470,-0.470,-0.470,0.000,0.000,0.000
1605183236270508032,10.0.1.131,428,move_up,-0.450,-0.450,-0.450,0.000,0.000,0.000
1605183237749408000,10.0.1.131,425,move_up,-0.430,-0.430,-0.430,0.000,0.000,0.000
1605183239258797824,10.0.1.131,425,move_up,-0.410,-0.410,-0.410,0.000,0.000,0.000
1605183240757970944,10.0.1.131,410,move_up,-0.390,-0.390,-0.390,0.000,0.000,0.000
1605183242258382080,10.0.1.131,436,move_up,-0.370,-0.370,-0.370,0.000,0.000,0.000
1605183243750246912,10.0.1.131,422,move_up,-0.350,-0.350,-0.350,0.000,0.000,0.000
1605183245218873088,10.0.1.131,405,move_up,-0.330,-0.330,-0.330,0.000,0.000,0.000
1605183246689112832,10.0.1.131,398,move_up,-0.310,-0.310,-0.310,0.000,0.000,0.000
1605183248158478080,10.0.1.131,437,move_up,-0.290,-0.290,-0.290,0.000,0.000,0.000
1605183249589711872,10.0.1.131,388,move_up,-0.270,-0.270,-0.270,0.000,0.000,0.000
1605183251064445952,10.0.1.131,428,move_up,-0.250,-0.250,-0.250,0.000,0.000,0.000
1605183252664977920,10.0.1.131,496,move_up,-0.230,-0.230,-0.230,0.000,0.000,0.000
1605183254132425984,10.0.1.131,430,move_up,-0.210,-0.210,-0.210,0.000,0.000,0.000
1605183255710629888,10.0.1.131,476,move_up,-0.190,-0.190,-0.190,0.000,0.000,0.000
1605183256811710976,10.0.1.131,31,place,-0.180,-0.180,-0.180,0.000,0.000,0.000
1605183257832923904,10.0.1.131,51,place,-0.170,-0.170,-0.170,0.000,0.000,0.000
1605183258830023936,10.0.1.131,47,place,-0.160,-0.160,-0.160,0.000,0.000,0.000
1605183259834622976,10.0.1.131,50,place,-0.150,-0.150,-0.150,0.000,0.000,0.000
1605183260829719040,10.0.1.131,44,place,-0.140,-0.140,-0.140,0.000,0.000,0.000
1605183261831255040,10.0.1.131,44,place,-0.130,-0.130,-0.130,0.000,0.000,0.000
1605183262833570048,10.0.1.131,43,place,-0.120,-0.120,-0.120,0.000,0.000,0.000
1605183263831659008,10.0.1.131,39,place,-0.110,-0.110,-0.110,0.000,0.000,0.000
1605183264837327872,10.0.1.131,44,place,-0.100,-0.100,-0.100,0.000,0.000,0.000
1605183265830681088,10.0.1.131,36,place,-0.090,-0.090,-0.090,0.000,0.000,0.000
1605183266831404800,10.0.1.131,36,place,-0.080,-0.080,-0.080,0.000,0.000,0.000
1605183267833380096,10.0.1.131,37,place,-0.070,-0.070,-0.070,0.000,0.000,0.000
1605183268836657920,10.0.1.131,39,place,-0.060,-0.060,-0.060,0.000,0.000,0.000
1605183269852701952,10.0.1.131,53,place,-0.050,-0.050,-0.050,0.000,0.000,0.000
1605183270857347840,10.0.1.131,57,place,-0.040,-0.040,-0.040,0.000,0.000,0.000
1605183271857038080,10.0.1.131,56,place,-0.030,-0.030,-0.030,0.000,0.000,0.000
1605183272859375104,10.0.1.131,53,place,-0.020,-0.020,-0.020,0.000,0.000,0.000
1605183273851406080,10.0.1.131,44,place,-0.010,-0.010,-0.010,0.000,0.000,0.000
1605183274852091904,10.0.1.131,44,place,0.000,0.000,0.000,0.000,0.000,0.000
1605183276271777024,10.0.1.131,462,move_down,-0.020,-0.020,-0.020,0.000,0.000,0.000
1605183277755698944,10.0.1.131,415,move_down,-0.040,-0.040,-0.040,0.000,0.000,0.000
1605183279201358080,10.0.1.131,403,move_down,-0.060,-0.060,-0.060,0.000,0.000,0.000
1605183280662246912,10.0.1.131,414,move_down,-0.080,-0.080,-0.080,0.000,0.000,0.000
1605183282113828864,10.0.1.131,389,move_down,-0.100,-0.100,-0.100,0.000,0.000,0.000
1605183283575606016,10.0.1.131,394,move_down,-0.120,-0.120,-0.120,0.000,0.000,0.000
1605183285122973952,10.0.1.131,497,move_down,-0.140,-0.140,-0.140,0.000,0.000,0.000
1605183286601227008,10.0.1.131,425,move_down,-0.160,-0.160,-0.160,0.000,0.000,0.000
1605183288043209984,10.0.1.131,390,move_down,-0.180,-0.180,-0.180,0.000,0.000,0.000
1605183289495426048,10.0.1.131,421,move_down,-0.200,-0.200,-0.200,0.000,0.000,0.000
1605183291019196928,10.0.1.131,438,move_down,-0.220,-0.220,-0.220,0.000,0.000,0.000
1605183292569221120,10.0.1.131,457,move_down,-0.240,-0.240,-0.240,0.000,0.000,0.000
1605183294024146944,10.0.1.131,400,move_down,-0.260,-0.260,-0.260,0.000,0.000,0.000
1605183295416840960,10.0.1.131,370,move_down,-0.280,-0.280,-0.280,0.000,0.000,0.000
1605183296893910016,10.0.1.131,426,move_down,-0.300,-0.300,-0.300,0.000,0.000,0.000
1605183298464360960,10.0.1.131,471,move_down,-0.320,-0.320,-0.320,0.000,0.000,0.000
1605183299964593920,10.0.1.131,435,move_down,-0.340,-0.340,-0.340,0.000,0.000,0.000
1605183301433656064,10.0.1.131,433,move_down,-0.360,-0.360,-0.360,0.000,0.000,0.000
1605183302923212032,10.0.1.131,400,move_down,-0.380,-0.380,-0.380,0.000,0.000,0.000
1605183304413854976,10.0.1.131,411,move_down,-0.400,-0.400,-0.400,0.000,0.000,0.000
1605183305912311040,10.0.1.131,427,move_down,-0.420,-0.420,-0.420,0.000,0.000,0.000
1605183307364049920,10.0.1.131,391,move_down,-0.440,-0.440,-0.440,0.000,0.000,0.000
1605183308875011072,10.0.1.131,449,move_down,-0.460,-0.460,-0.460,0.000,0.000,0.000
1605183310363804160,10.0.1.131,407,move_down,-0.480,-0.480,-0.480,0.000,0.000,0.000
1605183311864759808,10.0.1.131,429,move_down,-0.500,-0.500,-0.500,0.000,0.000,0.000
1605183313325131776,10.0.1.131,432,move_down,-0.520,-0.520,-0.520,0.000,0.000,0.000
1605183314822827008,10.0.1.131,435,move_down,-0.540,-0.540,-0.540,0.000,0.000,0.000
1605183316282860032,10.0.1.131,408,move_down,-0.560,-0.560,-0.560,0.000,0.000,0.000
1605183317783128064,10.0.1.131,487,move_down,-0.580,-0.580,-0.580,0.000,0.000,0.000
1605183318886017024,10.0.1.131,39,pick,-0.590,-0.590,-0.590,0.000,0.000,0.000
1605183319885734144,10.0.1.131,37,pick,-0.600,-0.600,-0.600,0.000,0.000,0.000
1605183320904506880,10.0.1.131,54,pick,-0.610,-0.610,-0.610,0.000,0.000,0.000
1605183321886426880,10.0.1.131,34,pick,-0.620,-0.620,-0.620,0.000,0.000,0.000
1605183322909995008,10.0.1.131,56,pick,-0.630,-0.630,-0.630,0.000,0.000,0.000
1605183324855853056,10.0.1.131,NaN,pick,-0.650,-0.650,-0.650,0.000,0.000,0.000
1605183324904641024,10.0.1.131,48,pick,-0.650,-0.650,-0.650,0.000,0.000,0.000
1605183325904266240,10.0.1.131,46,pick,-0.660,-0.660,-0.660,0.000,0.000,0.000
1605183326911427072,10.0.1.131,51,pick,-0.670,-0.670,-0.670,0.000,0.000,0.000
1605183327904733952,10.0.1.131,43,pick,-0.680,-0.680,-0.680,0.000,0.000,0.000
1605183328905719040,10.0.1.131,43,pick,-0.690,-0.690,-0.690,0.000,0.000,0.000
1605183329904346112,10.0.1.131,38,pick,-0.700,-0.700,-0.700,0.000,0.000,0.000
1605183330915437056,10.0.1.131,48,pick,-0.710,-0.710,-0.710,0.000,0.000,0.000
1605183331903621888,10.0.1.131,35,pick,-0.720,-0.720,-0.720,0.000,0.000,0.000
1605183332904030208,10.0.1.131,31,pick,-0.730,-0.730,-0.730,0.000,0.000,0.000
1605183333926789888,10.0.1.131,52,pick,-0.740,-0.740,-0.740,0.000,0.000,0.000
1605183334926080000,10.0.1.131,50,pick,-0.750,-0.750,-0.750,0.000,0.000,0.000
1605183335924068096,10.0.1.131,47,pick,-0.760,-0.760,-0.760,0.000,0.000,0.000
1605183336926014976,10.0.1.131,47,pick,-0.770,-0.770,-0.770,0.000,0.000,0.000
1605183338378712064,10.0.1.131,498,move_up,-0.750,-0.750,-0.750,0.000,0.000,0.000
1605183339857780992,10.0.1.131,456,move_up,-0.730,-0.730,-0.730,0.000,0.000,0.000
1605183341455214080,10.0.1.131,503,move_up,-0.710,-0.710,-0.710,0.000,0.000,0.000
1605183342940960000,10.0.1.131,456,move_up,-0.690,-0.690,-0.690,0.000,0.000,0.000
1605183344581938944,10.0.1.131,566,move_up,-0.670,-0.670,-0.670,0.000,0.000,0.000
1605183346137758976,10.0.1.131,471,move_up,-0.650,-0.650,-0.650,0.000,0.000,0.000
1605183347638488064,10.0.1.131,439,move_up,-0.630,-0.630,-0.630,0.000,0.000,0.000
1605183349171089920,10.0.1.131,433,move_up,-0.610,-0.610,-0.610,0.000,0.000,0.000
1605183350680964096,10.0.1.131,436,move_up,-0.590,-0.590,-0.590,0.000,0.000,0.000
1605183352258411776,10.0.1.131,467,move_up,-0.570,-0.570,-0.570,0.000,0.000,0.000
1605183353718806016,10.0.1.131,418,move_up,-0.550,-0.550,-0.550,0.000,0.000,0.000
1605183355208751872,10.0.1.131,425,move_up,-0.530,-0.530,-0.530,0.000,0.000,0.000
1605183356730649088,10.0.1.131,431,move_up,-0.510,-0.510,-0.510,0.000,0.000,0.000
1605183358187143936,10.0.1.131,404,move_up,-0.490,-0.490,-0.490,0.000,0.000,0.000
1605183359678320896,10.0.1.131,439,move_up,-0.470,-0.470,-0.470,0.000,0.000,0.000
1605183361220349952,10.0.1.131,470,move_up,-0.450,-0.450,-0.450,0.000,0.000,0.000
1605183362822032896,10.0.1.131,544,move_up,-0.430,-0.430,-0.430,0.000,0.000,0.000
1605183364329277952,10.0.1.131,453,move_up,-0.410,-0.410,-0.410,0.000,0.000,0.000
1605183365863593216,10.0.1.131,457,move_up,-0.390,-0.390,-0.390,0.000,0.000,0.000
1605183367410980096,10.0.1.131,474,move_up,-0.370,-0.370,-0.370,0.000,0.000,0.000
1605183368887335168,10.0.1.131,411,move_up,-0.350,-0.350,-0.350,0.000,0.000,0.000
1605183370386904832,10.0.1.131,413,move_up,-0.330,-0.330,-0.330,0.000,0.000,0.000
1605183371957995776,10.0.1.131,498,move_up,-0.310,-0.310,-0.310,0.000,0.000,0.000
1605183373465440000,10.0.1.131,440,move_up,-0.290,-0.290,-0.290,0.000,0.000,0.000
1605183375015408128,10.0.1.131,467,move_up,-0.270,-0.270,-0.270,0.000,0.000,0.000
1605183376506324992,10.0.1.131,451,move_up,-0.250,-0.250,-0.250,0.000,0.000,0.000
1605183378014792960,10.0.1.131,439,move_up,-0.230,-0.230,-0.230,0.000,0.000,0.000
1605183379446780928,10.0.1.131,414,move_up,-0.210,-0.210,-0.210,0.000,0.000,0.000
1605183380927401984,10.0.1.131,413,move_up,-0.190,-0.190,-0.190,0.000,0.000,0.000
1605183382030093824,10.0.1.131,50,place,-0.180,-0.180,-0.180,0.000,0.000,0.000
1605183383036413952,10.0.1.131,55,place,-0.170,-0.170,-0.170,0.000,0.000,0.000
1605183384056307968,10.0.1.131,74,place,-0.160,-0.160,-0.160,0.000,0.000,0.000
1605183385025764864,10.0.1.131,39,place,-0.150,-0.150,-0.150,0.000,0.000,0.000
1605183386024722176,10.0.1.131,37,place,-0.140,-0.140,-0.140,0.000,0.000,0.000
1605183387030044928,10.0.1.131,40,place,-0.130,-0.130,-0.130,0.000,0.000,0.000
1605183388022854144,10.0.1.131,32,place,-0.120,-0.120,-0.120,0.000,0.000,0.000
1605183389024884992,10.0.1.131,32,place,-0.110,-0.110,-0.110,0.000,0.000,0.000
1605183390041684992,10.0.1.131,48,place,-0.100,-0.100,-0.100,0.000,0.000,0.000
1605183391043752960,10.0.1.131,49,place,-0.090,-0.090,-0.090,0.000,0.000,0.000
1605183392047543040,10.0.1.131,52,place,-0.080,-0.080,-0.080,0.000,0.000,0.000
1605183393045476864,10.0.1.131,49,place,-0.070,-0.070,-0.070,0.000,0.000,0.000
1605183394041931008,10.0.1.131,44,place,-0.060,-0.060,-0.060,0.000,0.000,0.000
1605183395053078784,10.0.1.131,48,place,-0.050,-0.050,-0.050,0.000,0.000,0.000
1605183396041671936,10.0.1.131,35,place,-0.040,-0.040,-0.040,0.000,0.000,0.000
1605183397054230016,10.0.1.131,47,place,-0.030,-0.030,-0.030,0.000,0.000,0.000
1605183398071846912,10.0.1.131,59,place,-0.020,-0.020,-0.020,0.000,0.000,0.000
1605183399065664000,10.0.1.131,51,place,-0.010,-0.010,-0.010,0.000,0.000,0.000
1605183400065555200,10.0.1.131,48,place,0.000,0.000,0.000,0.000,0.000,0.000
1605183401437285888,10.0.1.131,418,move_down,-0.020,-0.020,-0.020,0.000,0.000,0.000
1605183402944752896,10.0.1.131,425,move_down,-0.040,-0.040,-0.040,0.000,0.000,0.000
1605183404472920064,10.0.1.131,439,move_down,-0.060,-0.060,-0.060,0.000,0.000,0.000
1605183406023778048,10.0.1.131,462,move_down,-0.080,-0.080,-0.080,0.000,0.000,0.000
1605183407520791040,10.0.1.131,458,move_down,-0.100,-0.100,-0.100,0.000,0.000,0.000
1605183409178747904,10.0.1.131,545,move_down,-0.120,-0.120,-0.120,0.000,0.000,0.000
1605183410723345920,10.0.1.131,455,move_down,-0.140,-0.140,-0.140,0.000,0.000,0.000
1605183412232892160,10.0.1.131,419,move_down,-0.160,-0.160,-0.160,0.000,0.000,0.000
1605183413812502016,10.0.1.131,472,move_down,-0.180,-0.180,-0.180,0.000,0.000,0.000
1605183415296279040,10.0.1.131,426,move_down,-0.200,-0.200,-0.200,0.000,0.000,0.000
1605183416844710144,10.0.1.131,477,move_down,-0.220,-0.220,-0.220,0.000,0.000,0.000
1605183418346051072,10.0.1.131,442,move_down,-0.240,-0.240,-0.240,0.000,0.000,0.000
1605183419884217856,10.0.1.131,464,move_down,-0.260,-0.260,-0.260,0.000,0.000,0.000
1605183421438296064,10.0.1.131,459,move_down,-0.280,-0.280,-0.280,0.000,0.000,0.000
1605183422984368128,10.0.1.131,464,move_down,-0.300,-0.300,-0.300,0.000,0.000,0.000
1605183424537432832,10.0.1.131,477,move_down,-0.320,-0.320,-0.320,0.000,0.000,0.000
1605183426064694784,10.0.1.131,473,move_down,-0.340,-0.340,-0.340,0.000,0.000,0.000
1605183427596656128,10.0.1.131,459,move_down,-0.360,-0.360,-0.360,0.000,0.000,0.000
1605183429152379904,10.0.1.131,459,move_down,-0.380,-0.380,-0.380,0.000,0.000,0.000
1605183430673976832,10.0.1.131,471,move_down,-0.400,-0.400,-0.400,0.000,0.000,0.000
1605183432174546944,10.0.1.131,386,move_down,-0.420,-0.420,-0.420,0.000,0.000,0.000
1605183433756151040,10.0.1.131,490,move_down,-0.440,-0.440,-0.440,0.000,0.000,0.000
1605183435316595968,10.0.1.131,452,move_down,-0.460,-0.460,-0.460,0.000,0.000,0.000
1605183436797705984,10.0.1.131,435,move_down,-0.480,-0.480,-0.480,0.000,0.000,0.000
1605183438333401856,10.0.1.131,467,move_down,-0.500,-0.500,-0.500,0.000,0.000,0.000
1605183439834667008,10.0.1.131,431,move_down,-0.520,-0.520,-0.520,0.000,0.000,0.000
1605183441363761920,10.0.1.131,466,move_down,-0.540,-0.540,-0.540,0.000,0.000,0.000
1605183442884006144,10.0.1.131,447,move_down,-0.560,-0.560,-0.560,0.000,0.000,0.000
1605183444496001024,10.0.1.131,496,move_down,-0.580,-0.580,-0.580,0.000,0.000,0.000
1605183445632908032,10.0.1.131,45,pick,-0.590,-0.590,-0.590,0.000,0.000,0.000
1605183446633042944,10.0.1.131,43,pick,-0.600,-0.600,-0.600,0.000,0.000,0.000
1605183447633688832,10.0.1.131,43,pick,-0.610,-0.610,-0.610,0.000,0.000,0.000
1605183448640482048,10.0.1.131,48,pick,-0.620,-0.620,-0.620,0.000,0.000,0.000
1605183449634796032,10.0.1.131,40,pick,-0.630,-0.630,-0.630,0.000,0.000,0.000
1605183450632410112,10.0.1.131,36,pick,-0.640,-0.640,-0.640,0.000,0.000,0.000
1605183451634728960,10.0.1.131,37,pick,-0.650,-0.650,-0.650,0.000,0.000,0.000
1605183452633914112,10.0.1.131,35,pick,-0.660,-0.660,-0.660,0.000,0.000,0.000
1605183453635004928,10.0.1.131,35,pick,-0.670,-0.670,-0.670,0.000,0.000,0.000
1605183454633291008,10.0.1.131,31,pick,-0.680,-0.680,-0.680,0.000,0.000,0.000
1605183455634907904,10.0.1.131,32,pick,-0.690,-0.690,-0.690,0.000,0.000,0.000
1605183456653646848,10.0.1.131,49,pick,-0.700,-0.700,-0.700,0.000,0.000,0.000
1605183457653261824,10.0.1.131,47,pick,-0.710,-0.710,-0.710,0.000,0.000,0.000
1605183458657373952,10.0.1.131,50,pick,-0.720,-0.720,-0.720,0.000,0.000,0.000
1605183459661329920,10.0.1.131,52,pick,-0.730,-0.730,-0.730,0.000,0.000,0.000
1605183460657593088,10.0.1.131,47,pick,-0.740,-0.740,-0.740,0.000,0.000,0.000
1605183461647180032,10.0.1.131,34,pick,-0.750,-0.750,-0.750,0.000,0.000,0.000
1605183462653687040,10.0.1.131,32,pick,-0.760,-0.760,-0.760,0.000,0.000,0.000
1605183463675034112,10.0.1.131,52,pick,-0.770,-0.770,-0.770,0.000,0.000,0.000
1605183465069665792,10.0.1.131,445,move_up,-0.750,-0.750,-0.750,0.000,0.000,0.000
1605183466572730112,10.0.1.131,422,move_up,-0.730,-0.730,-0.730,0.000,0.000,0.000
1605183468117688832,10.0.1.131,464,move_up,-0.710,-0.710,-0.710,0.000,0.000,0.000
1605183469680442112,10.0.1.131,496,move_up,-0.690,-0.690,-0.690,0.000,0.000,0.000
1605183471138468096,10.0.1.131,432,move_up,-0.670,-0.670,-0.670,0.000,0.000,0.000
1605183472777040128,10.0.1.131,556,move_up,-0.650,-0.650,-0.650,0.000,0.000,0.000
1605183474354876160,10.0.1.131,512,move_up,-0.630,-0.630,-0.630,0.000,0.000,0.000
1605183476050482944,10.0.1.131,583,move_up,-0.610,-0.610,-0.610,0.000,0.000,0.000
1605183477748091904,10.0.1.131,629,move_up,-0.590,-0.590,-0.590,0.000,0.000,0.000
1605183479471548160,10.0.1.131,583,move_up,-0.570,-0.570,-0.570,0.000,0.000,0.000
1605183481117542144,10.0.1.131,524,move_up,-0.550,-0.550,-0.550,0.000,0.000,0.000
1605183482653992960,10.0.1.131,453,move_up,-0.530,-0.530,-0.530,0.000,0.000,0.000
1605183484195179008,10.0.1.131,468,move_up,-0.510,-0.510,-0.510,0.000,0.000,0.000
1605183485823962880,10.0.1.131,453,move_up,-0.490,-0.490,-0.490,0.000,0.000,0.000
1605183487338917888,10.0.1.131,431,move_up,-0.470,-0.470,-0.470,0.000,0.000,0.000
1605183488882622976,10.0.1.131,466,move_up,-0.450,-0.450,-0.450,0.000,0.000,0.000
1605183490295120128,10.0.1.131,394,move_up,-0.430,-0.430,-0.430,0.000,0.000,0.000
1605183491853965056,10.0.1.131,440,move_up,-0.410,-0.410,-0.410,0.000,0.000,0.000
1605183493387873792,10.0.1.131,456,move_up,-0.390,-0.390,-0.390,0.000,0.000,0.000
1605183494995790848,10.0.1.131,542,move_up,-0.370,-0.370,-0.370,0.000,0.000,0.000
1605183496594966016,10.0.1.131,497,move_up,-0.350,-0.350,-0.350,0.000,0.000,0.000
1605183498122798080,10.0.1.131,438,move_up,-0.330,-0.330,-0.330,0.000,0.000,0.000
1605183499694760192,10.0.1.131,460,move_up,-0.310,-0.310,-0.310,0.000,0.000,0.000
1605183501206775808,10.0.1.131,490,move_up,-0.290,-0.290,-0.290,0.000,0.000,0.000
1605183502650593024,10.0.1.131,411,move_up,-0.270,-0.270,-0.270,0.000,0.000,0.000
1605183504228059136,10.0.1.131,500,move_up,-0.250,-0.250,-0.250,0.000,0.000,0.000
1605183505753929984,10.0.1.131,467,move_up,-0.230,-0.230,-0.230,0.000,0.000,0.000
1605183507257997056,10.0.1.131,436,move_up,-0.210,-0.210,-0.210,0.000,0.000,0.000
1605183508774209024,10.0.1.131,414,move_up,-0.190,-0.190,-0.190,0.000,0.000,0.000
1605183509894853120,10.0.1.131,34,place,-0.180,-0.180,-0.180,0.000,0.000,0.000
1605183510890553856,10.0.1.131,28,place,-0.170,-0.170,-0.170,0.000,0.000,0.000
1605183511915465216,10.0.1.131,52,place,-0.160,-0.160,-0.160,0.000,0.000,0.000
1605183512913476096,10.0.1.131,48,place,-0.150,-0.150,-0.150,0.000,0.000,0.000
1605183513917742080,10.0.1.131,51,place,-0.140,-0.140,-0.140,0.000,0.000,0.000
1605183514913212928,10.0.1.131,46,place,-0.130,-0.130,-0.130,0.000,0.000,0.000
1605183515913937152,10.0.1.131,45,place,-0.120,-0.120,-0.120,0.000,0.000,0.000
1605183516915822080,10.0.1.131,39,place,-0.110,-0.110,-0.110,0.000,0.000,0.000
1605183517912524032,10.0.1.131,33,place,-0.100,-0.100,-0.100,0.000,0.000,0.000
1605183518914302208,10.0.1.131,34,place,-0.090,-0.090,-0.090,0.000,0.000,0.000
1605183519919717120,10.0.1.131,38,place,-0.080,-0.080,-0.080,0.000,0.000,0.000
1605183520941042944,10.0.1.131,58,place,-0.070,-0.070,-0.070,0.000,0.000,0.000
1605183521942984960,10.0.1.131,58,place,-0.060,-0.060,-0.060,0.000,0.000,0.000
1605183522939764992,10.0.1.131,53,place,-0.050,-0.050,-0.050,0.000,0.000,0.000
1605183523938129920,10.0.1.131,50,place,-0.040,-0.040,-0.040,0.000,0.000,0.000
1605183524941464064,10.0.1.131,51,place,-0.030,-0.030,-0.030,0.000,0.000,0.000
1605183525950130944,10.0.1.131,58,place,-0.020,-0.020,-0.020,0.000,0.000,0.000
1605183526945817088,10.0.1.131,52,place,-0.010,-0.010,-0.010,0.000,0.000,0.000
1605183527951628800,10.0.1.131,57,place,0.000,0.000,0.000,0.000,0.000,0.000
1605183529368963072,10.0.1.131,472,move_down,-0.020,-0.020,-0.020,0.000,0.000,0.000
1605183530913948160,10.0.1.131,474,move_down,-0.040,-0.040,-0.040,0.000,0.000,0.000
1605183532438131200,10.0.1.131,456,move_down,-0.060,-0.060,-0.060,0.000,0.000,0.000
1605183533913536000,10.0.1.131,446,move_down,-0.080,-0.080,-0.080,0.000,0.000,0.000
1605183535413707008,10.0.1.131,451,move_down,-0.100,-0.100,-0.100,0.000,0.000,0.000
1605183536912521984,10.0.1.131,451,move_down,-0.120,-0.120,-0.120,0.000,0.000,0.000
1605183538370354944,10.0.1.131,404,move_down,-0.140,-0.140,-0.140,0.000,0.000,0.000
1605183539961625088,10.0.1.131,462,move_down,-0.160,-0.160,-0.160,0.000,0.000,0.000
1605183541763330048,10.0.1.131,770,move_down,-0.180,-0.180,-0.180,0.000,0.000,0.000
1605183543510649088,10.0.1.131,663,move_down,-0.200,-0.200,-0.200,0.000,0.000,0.000
1605183545071922944,10.0.1.131,488,move_down,-0.220,-0.220,-0.220,0.000,0.000,0.000
1605183546553869056,10.0.1.131,408,move_down,-0.240,-0.240,-0.240,0.000,0.000,0.000
1605183548070455040,10.0.1.131,439,move_down,-0.260,-0.260,-0.260,0.000,0.000,0.000
1605183549594327040,10.0.1.131,439,move_down,-0.280,-0.280,-0.280,0.000,0.000,0.000
1605183551158518016,10.0.1.131,448,move_down,-0.300,-0.300,-0.300,0.000,0.000,0.000
1605183552736109056,10.0.1.131,485,move_down,-0.320,-0.320,-0.320,0.000,0.000,0.000
1605183554290400000,10.0.1.131,455,move_down,-0.340,-0.340,-0.340,0.000,0.000,0.000
1605183555884093952,10.0.1.131,504,move_down,-0.360,-0.360,-0.360,0.000,0.000,0.000
1605183557411585024,10.0.1.131,435,move_down,-0.380,-0.380,-0.380,0.000,0.000,0.000
1605183558959225856,10.0.1.131,468,move_down,-0.400,-0.400,-0.400,0.000,0.000,0.000
1605183560560655104,10.0.1.131,548,move_down,-0.420,-0.420,-0.420,0.000,0.000,0.000
1605183562099628800,10.0.1.131,467,move_down,-0.440,-0.440,-0.440,0.000,0.000,0.000
1605183563589971968,10.0.1.131,489,move_down,-0.460,-0.460,-0.460,0.000,0.000,0.000
1605183565166109952,10.0.1.131,449,move_down,-0.480,-0.480,-0.480,0.000,0.000,0.000
1605183566720782080,10.0.1.131,488,move_down,-0.500,-0.500,-0.500,0.000,0.000,0.000
1605183568198417920,10.0.1.131,438,move_down,-0.520,-0.520,-0.520,0.000,0.000,0.000
1605183569723341824,10.0.1.131,413,move_down,-0.540,-0.540,-0.540,0.000,0.000,0.000
1605183571186925056,10.0.1.131,462,move_down,-0.560,-0.560,-0.560,0.000,0.000,0.000
1605183572812899072,10.0.1.131,477,move_down,-0.580,-0.580,-0.580,0.000,0.000,0.000
1605183573904514048,10.0.1.131,52,pick,-0.590,-0.590,-0.590,0.000,0.000,0.000
1605183575854644992,10.0.1.131,NaN,pick,-0.610,-0.610,-0.610,0.000,0.000,0.000
1605183575908355840,10.0.1.131,53,pick,-0.610,-0.610,-0.610,0.000,0.000,0.000
1605183576904156928,10.0.1.131,48,pick,-0.620,-0.620,-0.620,0.000,0.000,0.000
1605183577904696832,10.0.1.131,45,pick,-0.630,-0.630,-0.630,0.000,0.000,0.000
1605183578904481792,10.0.1.131,43,pick,-0.640,-0.640,-0.640,0.000,0.000,0.000
1605183579924377088,10.0.1.131,62,pick,-0.650,-0.650,-0.650,0.000,0.000,0.000
1605183580911695872,10.0.1.131,48,pick,-0.660,-0.660,-0.660,0.000,0.000,0.000
1605183581905083904,10.0.1.131,38,pick,-0.670,-0.670,-0.670,0.000,0.000,0.000
1605183582904481792,10.0.1.131,36,pick,-0.680,-0.680,-0.680,0.000,0.000,0.000
1605183583930962944,10.0.1.131,56,pick,-0.690,-0.690,-0.690,0.000,0.000,0.000
1605183584929990144,10.0.1.131,54,pick,-0.700,-0.700,-0.700,0.000,0.000,0.000
1605183585926556160,10.0.1.131,49,pick,-0.710,-0.710,-0.710,0.000,0.000,0.000
1605183586924407040,10.0.1.131,46,pick,-0.720,-0.720,-0.720,0.000,0.000,0.000
1605183587926381056,10.0.1.131,46,pick,-0.730,-0.730,-0.730,0.000,0.000,0.000
1605183588923553024,10.0.1.131,41,pick,-0.740,-0.740,-0.740,0.000,0.000,0.000
1605183589926098944,10.0.1.131,41,pick,-0.750,-0.750,-0.750,0.000,0.000,0.000
1605183590937870080,10.0.1.131,51,pick,-0.760,-0.760,-0.760,0.000,0.000,0.000
1605183591923106048,10.0.1.131,35,pick,-0.770,-0.770,-0.770,0.000,0.000,0.000
1605183593335267072,10.0.1.131,446,move_up,-0.750,-0.750,-0.750,0.000,0.000,0.000
1605183594880928000,10.0.1.131,476,move_up,-0.730,-0.730,-0.730,0.000,0.000,0.000
1605183596573088000,10.0.1.131,613,move_up,-0.710,-0.710,-0.710,0.000,0.000,0.000
1605183598297480960,10.0.1.131,594,move_up,-0.690,-0.690,-0.690,0.000,0.000,0.000
1605183599855186944,10.0.1.131,503,move_up,-0.670,-0.670,-0.670,0.000,0.000,0.000
1605183601387113216,10.0.1.131,452,move_up,-0.650,-0.650,-0.650,0.000,0.000,0.000
1605183602957003008,10.0.1.131,541,move_up,-0.630,-0.630,-0.630,0.000,0.000,0.000
1605183604479232000,10.0.1.131,465,move_up,-0.610,-0.610,-0.610,0.000,0.000,0.000
1605183606105626112,10.0.1.131,572,move_up,-0.590,-0.590,-0.590,0.000,0.000,0.000
1605183607641541120,10.0.1.131,498,move_up,-0.570,-0.570,-0.570,0.000,0.000,0.000
1605183609303698176,10.0.1.131,584,move_up,-0.550,-0.550,-0.550,0.000,0.000,0.000
1605183610880480000,10.0.1.131,532,move_up,-0.530,-0.530,-0.530,0.000,0.000,0.000
1605183612559281152,10.0.1.131,508,move_up,-0.510,-0.510,-0.510,0.000,0.000,0.000
1605183614418228992,10.0.1.131,717,move_up,-0.490,-0.490,-0.490,0.000,0.000,0.000
1605183616004012032,10.0.1.131,531,move_up,-0.470,-0.470,-0.470,0.000,0.000,0.000
1605183617769362944,10.0.1.131,641,move_up,-0.450,-0.450,-0.450,0.000,0.000,0.000
1605183619303205120,10.0.1.131,472,move_up,-0.430,-0.430,-0.430,0.000,0.000,0.000
1605183620822315008,10.0.1.131,453,move_up,-0.410,-0.410,-0.410,0.000,0.000,0.000
1605183622393080064,10.0.1.131,489,move_up,-0.390,-0.390,-0.390,0.000,0.000,0.000
1605183623993357056,10.0.1.131,542,move_up,-0.370,-0.370,-0.370,0.000,0.000,0.000
1605183625563389952,10.0.1.131,505,move_up,-0.350,-0.350,-0.350,0.000,0.000,0.000
1605183627177967104,10.0.1.131,478,move_up,-0.330,-0.330,-0.330,0.000,0.000,0.000
1605183628655128064,10.0.1.131,423,move_up,-0.310,-0.310,-0.310,0.000,0.000,0.000
1605183630323656192,10.0.1.131,570,move_up,-0.290,-0.290,-0.290,0.000,0.000,0.000
1605183631903572992,10.0.1.131,487,move_up,-0.270,-0.270,-0.270,0.000,0.000,0.000
1605183633566502144,10.0.1.131,564,move_up,-0.250,-0.250,-0.250,0.000,0.000,0.000
1605183635153696000,10.0.1.131,556,move_up,-0.230,-0.230,-0.230,0.000,0.000,0.000
1605183636818417920,10.0.1.131,567,move_up,-0.210,-0.210,-0.210,0.000,0.000,0.000
1605183638452995072,10.0.1.131,554,move_up,-0.190,-0.190,-0.190,0.000,0.000,0.000
1605183639524300032,10.0.1.131,33,place,-0.180,-0.180,-0.180,0.000,0.000,0.000
1605183640543306240,10.0.1.131,51,place,-0.170,-0.170,-0.170,0.000,0.000,0.000
1605183641547015936,10.0.1.131,47,place,-0.160,-0.160,-0.160,0.000,0.000,0.000
1605183642541084928,10.0.1.131,40,place,-0.150,-0.150,-0.150,0.000,0.000,0.000
1605183643567141120,10.0.1.131,65,place,-0.140,-0.140,-0.140,0.000,0.000,0.000
1605183644567353088,10.0.1.131,64,place,-0.130,-0.130,-0.130,0.000,0.000,0.000
1605183645556348160,10.0.1.131,50,place,-0.120,-0.120,-0.120,0.000,0.000,0.000
1605183646570476032,10.0.1.131,62,place,-0.110,-0.110,-0.110,0.000,0.000,0.000
1605183647561788928,10.0.1.131,52,place,-0.100,-0.100,-0.100,0.000,0.000,0.000
1605183648568599040,10.0.1.131,58,place,-0.090,-0.090,-0.090,0.000,0.000,0.000
1605183649583919104,10.0.1.131,72,place,-0.080,-0.080,-0.080,0.000,0.000,0.000
1605183650568398848,10.0.1.131,55,place,-0.070,-0.070,-0.070,0.000,0.000,0.000
1605183651562120960,10.0.1.131,44,place,-0.060,-0.060,-0.060,0.000,0.000,0.000
1605183652562105856,10.0.1.131,39,place,-0.050,-0.050,-0.050,0.000,0.000,0.000
1605183653597007872,10.0.1.131,72,place,-0.040,-0.040,-0.040,0.000,0.000,0.000
1605183654565078016,10.0.1.131,39,place,-0.030,-0.030,-0.030,0.000,0.000,0.000
1605183655588284928,10.0.1.131,58,place,-0.020,-0.020,-0.020,0.000,0.000,0.000
1605183656590519808,10.0.1.131,57,place,-0.010,-0.010,-0.010,0.000,0.000,0.000
1605183657581507072,10.0.1.131,47,place,0.000,0.000,0.000,0.000,0.000,0.000
1605183659148411904,10.0.1.131,611,move_down,-0.020,-0.020,-0.020,0.000,0.000,0.000
1605183660672862976,10.0.1.131,486,move_down,-0.040,-0.040,-0.040,0.000,0.000,0.000
1605183662226355968,10.0.1.131,490,move_down,-0.060,-0.060,-0.060,0.000,0.000,0.000
1605183663807094016,10.0.1.131,488,move_down,-0.080,-0.080,-0.080,0.000,0.000,0.000
1605183665424370176,10.0.1.131,515,move_down,-0.100,-0.100,-0.100,0.000,0.000,0.000
1605183666985286912,10.0.1.131,529,move_down,-0.120,-0.120,-0.120,0.000,0.000,0.000
1605183668513662976,10.0.1.131,524,move_down,-0.140,-0.140,-0.140,0.000,0.000,0.000
1605183670094345216,10.0.1.131,490,move_down,-0.160,-0.160,-0.160,0.000,0.000,0.000
1605183671655585024,10.0.1.131,497,move_down,-0.180,-0.180,-0.180,0.000,0.000,0.000
1605183673255252992,10.0.1.131,550,move_down,-0.200,-0.200,-0.200,0.000,0.000,0.000
1605183674837888000,10.0.1.131,529,move_down,-0.220,-0.220,-0.220,0.000,0.000,0.000
1605183676565120000,10.0.1.131,606,move_down,-0.240,-0.240,-0.240,0.000,0.000,0.000
1605183677642603008,10.0.1.131,-1,move_down,-0.260,-0.260,-0.260,0.000,0.000,0.000
1605183680030919936,10.0.1.131,711,move_down,-0.280,-0.280,-0.280,0.000,0.000,0.000
1605183681703254016,10.0.1.131,623,move_down,-0.300,-0.300,-0.300,0.000,0.000,0.000
1605183683494273792,10.0.1.131,646,move_down,-0.320,-0.320,-0.320,0.000,0.000,0.000
1605183685215150080,10.0.1.131,624,move_down,-0.340,-0.340,-0.340,0.000,0.000,0.000
1605183686782365184,10.0.1.131,489,move_down,-0.360,-0.360,-0.360,0.000,0.000,0.000
1605183688358275840,10.0.1.131,498,move_down,-0.380,-0.380,-0.380,0.000,0.000,0.000
1605183689902364928,10.0.1.131,464,move_down,-0.400,-0.400,-0.400,0.000,0.000,0.000
1605183691519144960,10.0.1.131,533,move_down,-0.420,-0.420,-0.420,0.000,0.000,0.000
1605183693221873152,10.0.1.131,604,move_down,-0.440,-0.440,-0.440,0.000,0.000,0.000
1605183694627943936,10.0.1.131,418,move_down,-0.460,-0.460,-0.460,0.000,0.000,0.000
1605183696188872192,10.0.1.131,461,move_down,-0.480,-0.480,-0.480,0.000,0.000,0.000
1605183697838821888,10.0.1.131,567,move_down,-0.500,-0.500,-0.500,0.000,0.000,0.000
1605183699415174912,10.0.1.131,491,move_down,-0.520,-0.520,-0.520,0.000,0.000,0.000
1605183701084336128,10.0.1.131,525,move_down,-0.540,-0.540,-0.540,0.000,0.000,0.000
1605183702713012992,10.0.1.131,608,move_down,-0.560,-0.560,-0.560,0.000,0.000,0.000
1605183704509062912,10.0.1.131,641,move_down,-0.580,-0.580,-0.580,0.000,0.000,0.000
1605183705544836096,10.0.1.131,64,pick,-0.590,-0.590,-0.590,0.000,0.000,0.000
1605183706535826944,10.0.1.131,53,pick,-0.600,-0.600,-0.600,0.000,0.000,0.000
1605183707542745088,10.0.1.131,58,pick,-0.610,-0.610,-0.610,0.000,0.000,0.000
1605183708546996992,10.0.1.131,61,pick,-0.620,-0.620,-0.620,0.000,0.000,0.000
1605183709534012160,10.0.1.131,46,pick,-0.630,-0.630,-0.630,0.000,0.000,0.000
1605183710547200000,10.0.1.131,58,pick,-0.640,-0.640,-0.640,0.000,0.000,0.000
1605183711548343040,10.0.1.131,57,pick,-0.650,-0.650,-0.650,0.000,0.000,0.000
1605183712532185088,10.0.1.131,40,pick,-0.660,-0.660,-0.660,0.000,0.000,0.000
1605183714493829120,10.0.1.131,NaN,pick,-0.680,-0.680,-0.680,0.000,0.000,0.000
1605183714534075904,10.0.1.131,40,pick,-0.680,-0.680,-0.680,0.000,0.000,0.000
1605183716500762880,10.0.1.131,NaN,pick,-0.700,-0.700,-0.700,0.000,0.000,0.000
1605183716557396992,10.0.1.131,56,pick,-0.700,-0.700,-0.700,0.000,0.000,0.000
1605183717603721984,10.0.1.131,98,pick,-0.710,-0.710,-0.710,0.000,0.000,0.000
1605183718563798016,10.0.1.131,57,pick,-0.720,-0.720,-0.720,0.000,0.000,0.000
1605183719565756928,10.0.1.131,58,pick,-0.730,-0.730,-0.730,0.000,0.000,0.000
1605183720553412864,10.0.1.131,43,pick,-0.740,-0.740,-0.740,0.000,0.000,0.000
1605183722512934912,10.0.1.131,NaN,pick,-0.760,-0.760,-0.760,0.000,0.000,0.000
1605183722557957888,10.0.1.131,44,pick,-0.760,-0.760,-0.760,0.000,0.000,0.000
1605183723585325056,10.0.1.131,71,pick,-0.770,-0.770,-0.770,0.000,0.000,0.000
1605183724971101952,10.0.1.131,456,move_up,-0.750,-0.750,-0.750,0.000,0.000,0.000
1605183726507805952,10.0.1.131,458,move_up,-0.730,-0.730,-0.730,0.000,0.000,0.000
1605183728117347840,10.0.1.131,521,move_up,-0.710,-0.710,-0.710,0.000,0.000,0.000
1605183729634718976,10.0.1.131,491,move_up,-0.690,-0.690,-0.690,0.000,0.000,0.000
1605183731248080128,10.0.1.131,492,move_up,-0.670,-0.670,-0.670,0.000,0.000,0.000
1605183732817029888,10.0.1.131,508,move_up,-0.650,-0.650,-0.650,0.000,0.000,0.000
1605183734379419136,10.0.1.131,469,move_up,-0.630,-0.630,-0.630,0.000,0.000,0.000
1605183735936881920,10.0.1.131,466,move_up,-0.610,-0.610,-0.610,0.000,0.000,0.000
1605183737568535040,10.0.1.131,543,move_up,-0.590,-0.590,-0.590,0.000,0.000,0.000
1605183739185789184,10.0.1.131,543,move_up,-0.570,-0.570,-0.570,0.000,0.000,0.000
1605183740800101888,10.0.1.131,552,move_up,-0.550,-0.550,-0.550,0.000,0.000,0.000
1605183742483556864,10.0.1.131,661,move_up,-0.530,-0.530,-0.530,0.000,0.000,0.000
1605183744118995968,10.0.1.131,546,move_up,-0.510,-0.510,-0.510,0.000,0.000,0.000
1605183745890272000,10.0.1.131,615,move_up,-0.490,-0.490,-0.490,0.000,0.000,0.000
1605183747797830144,10.0.1.131,719,move_up,-0.470,-0.470,-0.470,0.000,0.000,0.000
1605183749687138048,10.0.1.131,806,move_up,-0.450,-0.450,-0.450,0.000,0.000,0.000
1605183751331077120,10.0.1.131,551,move_up,-0.430,-0.430,-0.430,0.000,0.000,0.000
1605183753335958016,10.0.1.131,920,move_up,-0.410,-0.410,-0.410,0.000,0.000,0.000
1605183755050178048,10.0.1.131,590,move_up,-0.390,-0.390,-0.390,0.000,0.000,0.000
1605183756727417088,10.0.1.131,554,move_up,-0.370,-0.370,-0.370,0.000,0.000,0.000
1605183758498522112,10.0.1.131,662,move_up,-0.350,-0.350,-0.350,0.000,0.000,0.000
1605183760120294144,10.0.1.131,548,move_up,-0.330,-0.330,-0.330,0.000,0.000,0.000
1605183761860048896,10.0.1.131,658,move_up,-0.310,-0.310,-0.310,0.000,0.000,0.000
1605183763479827968,10.0.1.131,516,move_up,-0.290,-0.290,-0.290,0.000,0.000,0.000
1605183765059675904,10.0.1.131,514,move_up,-0.270,-0.270,-0.270,0.000,0.000,0.000
1605183766839440128,10.0.1.131,683,move_up,-0.250,-0.250,-0.250,0.000,0.000,0.000
1605183768702603008,10.0.1.131,721,move_up,-0.230,-0.230,-0.230,0.000,0.000,0.000
1605183770272005120,10.0.1.131,529,move_up,-0.210,-0.210,-0.210,0.000,0.000,0.000
1605183771980828928,10.0.1.131,573,move_up,-0.190,-0.190,-0.190,0.000,0.000,0.000
1605183773084393984,10.0.1.131,64,place,-0.180,-0.180,-0.180,0.000,0.000,0.000
1605183774061517056,10.0.1.131,40,place,-0.170,-0.170,-0.170,0.000,0.000,0.000
1605183775062924032,10.0.1.131,40,place,-0.160,-0.160,-0.160,0.000,0.000,0.000
1605183776067867136,10.0.1.131,44,place,-0.150,-0.150,-0.150,0.000,0.000,0.000
1605183777077554944,10.0.1.131,53,place,-0.140,-0.140,-0.140,0.000,0.000,0.000
1605183778061837056,10.0.1.131,34,place,-0.130,-0.130,-0.130,0.000,0.000,0.000
1605183779086443008,10.0.1.131,47,place,-0.120,-0.120,-0.120,0.000,0.000,0.000
1605183780093668096,10.0.1.131,53,place,-0.110,-0.110,-0.110,0.000,0.000,0.000
1605183781120980992,10.0.1.131,79,place,-0.100,-0.100,-0.100,0.000,0.000,0.000
1605183782088658176,10.0.1.131,45,place,-0.090,-0.090,-0.090,0.000,0.000,0.000
1605183783092087040,10.0.1.131,45,place,-0.080,-0.080,-0.080,0.000,0.000,0.000
1605183784092508160,10.0.1.131,44,place,-0.070,-0.070,-0.070,0.000,0.000,0.000
1605183785084131072,10.0.1.131,34,place,-0.060,-0.060,-0.060,0.000,0.000,0.000
1605183786102704896,10.0.1.131,48,place,-0.050,-0.050,-0.050,0.000,0.000,0.000
1605183787125981952,10.0.1.131,66,place,-0.040,-0.040,-0.040,0.000,0.000,0.000
1605183789082479104,10.0.1.131,NaN,place,-0.020,-0.020,-0.020,0.000,0.000,0.000
1605183789142487040,10.0.1.131,59,place,-0.020,-0.020,-0.020,0.000,0.000,0.000
1605183791091304960,10.0.1.131,NaN,place,0.000,0.000,0.000,0.000,0.000,0.000
1605183791162317056,10.0.1.131,70,place,0.000,0.000,0.000,0.000,0.000,0.000
1605183792677068032,10.0.1.131,584,move_down,-0.020,-0.020,-0.020,0.000,0.000,0.000
1605183794183120128,10.0.1.131,467,move_down,-0.040,-0.040,-0.040,0.000,0.000,0.000
1605183795822065152,10.0.1.131,542,move_down,-0.060,-0.060,-0.060,0.000,0.000,0.000
1605183797397758976,10.0.1.131,556,move_down,-0.080,-0.080,-0.080,0.000,0.000,0.000
1605183799062349056,10.0.1.131,562,move_down,-0.100,-0.100,-0.100,0.000,0.000,0.000
1605183800698923008,10.0.1.131,567,move_down,-0.120,-0.120,-0.120,0.000,0.000,0.000
1605183802336450048,10.0.1.131,552,move_down,-0.140,-0.140,-0.140,0.000,0.000,0.000
1605183804048784128,10.0.1.131,575,move_down,-0.160,-0.160,-0.160,0.000,0.000,0.000
1605183805526302976,10.0.1.131,452,move_down,-0.180,-0.180,-0.180,0.000,0.000,0.000
1605183807148196096,10.0.1.131,530,move_down,-0.200,-0.200,-0.200,0.000,0.000,0.000
1605183808781334016,10.0.1.131,576,move_down,-0.220,-0.220,-0.220,0.000,0.000,0.000
1605183810419752960,10.0.1.131,527,move_down,-0.240,-0.240,-0.240,0.000,0.000,0.000
1605183812053286144,10.0.1.131,563,move_down,-0.260,-0.260,-0.260,0.000,0.000,0.000
1605183813724808960,10.0.1.131,472,move_down,-0.280,-0.280,-0.280,0.000,0.000,0.000
1605183815383315968,10.0.1.131,595,move_down,-0.300,-0.300,-0.300,0.000,0.000,0.000
1605183817055182080,10.0.1.131,654,move_down,-0.320,-0.320,-0.320,0.000,0.000,0.000
1605183818525458944,10.0.1.131,435,move_down,-0.340,-0.340,-0.340,0.000,0.000,0.000
1605183820281459968,10.0.1.131,709,move_down,-0.360,-0.360,-0.360,0.000,0.000,0.000
1605183822090991104,10.0.1.131,712,move_down,-0.380,-0.380,-0.380,0.000,0.000,0.000
1605183823784590080,10.0.1.131,574,move_down,-0.400,-0.400,-0.400,0.000,0.000,0.000
1605183825495063040,10.0.1.131,543,move_down,-0.420,-0.420,-0.420,0.000,0.000,0.000
1605183827208355072,10.0.1.131,648,move_down,-0.440,-0.440,-0.440,0.000,0.000,0.000
1605183828985259008,10.0.1.131,685,move_down,-0.460,-0.460,-0.460,0.000,0.000,0.000
1605183830684958976,10.0.1.131,558,move_down,-0.480,-0.480,-0.480,0.000,0.000,0.000
1605183832205467904,10.0.1.131,503,move_down,-0.500,-0.500,-0.500,0.000,0.000,0.000
1605183833913230848,10.0.1.131,553,move_down,-0.520,-0.520,-0.520,0.000,0.000,0.000
1605183835627141888,10.0.1.131,654,move_down,-0.540,-0.540,-0.540,0.000,0.000,0.000
1605183837286226944,10.0.1.131,582,move_down,-0.560,-0.560,-0.560,0.000,0.000,0.000
1605183838932233984,10.0.1.131,548,move_down,-0.580,-0.580,-0.580,0.000,0.000,0.000
1605183840129689088,10.0.1.131,95,pick,-0.590,-0.590,-0.590,0.000,0.000,0.000
1605183841091752960,10.0.1.131,56,pick,-0.600,-0.600,-0.600,0.000,0.000,0.000
1605183842090270976,10.0.1.131,51,pick,-0.610,-0.610,-0.610,0.000,0.000,0.000
1605183844040971008,10.0.1.131,NaN,pick,-0.630,-0.630,-0.630,0.000,0.000,0.000
1605183844091019008,10.0.1.131,49,pick,-0.630,-0.630,-0.630,0.000,0.000,0.000
1605183845091932928,10.0.1.131,48,pick,-0.640,-0.640,-0.640,0.000,0.000,0.000
1605183846083916800,10.0.1.131,40,pick,-0.650,-0.650,-0.650,0.000,0.000,0.000
1605183848045274880,10.0.1.131,NaN,pick,-0.670,-0.670,-0.670,0.000,0.000,0.000
1605183848085319168,10.0.1.131,39,pick,-0.670,-0.670,-0.670,0.000,0.000,0.000
1605183849098918912,10.0.1.131,51,pick,-0.680,-0.680,-0.680,0.000,0.000,0.000
1605183850081271808,10.0.1.131,30,pick,-0.690,-0.690,-0.690,0.000,0.000,0.000
1605183851099441920,10.0.1.131,45,pick,-0.700,-0.700,-0.700,0.000,0.000,0.000
1605183852103555072,10.0.1.131,48,pick,-0.710,-0.710,-0.710,0.000,0.000,0.000
1605183853107994112,10.0.1.131,51,pick,-0.720,-0.720,-0.720,0.000,0.000,0.000
1605183854098035968,10.0.1.131,40,pick,-0.730,-0.730,-0.730,0.000,0.000,0.000
1605183856061036032,10.0.1.131,NaN,pick,-0.750,-0.750,-0.750,0.000,0.000,0.000
1605183856098368000,10.0.1.131,37,pick,-0.750,-0.750,-0.750,0.000,0.000,0.000
1605183857113820928,10.0.1.131,50,pick,-0.760,-0.760,-0.760,0.000,0.000,0.000
1605183858118603008,10.0.1.131,52,pick,-0.770,-0.770,-0.770,0.000,0.000,0.000
1605183859742747136,10.0.1.131,674,move_up,-0.750,-0.750,-0.750,0.000,0.000,0.000
1605183861602341888,10.0.1.131,698,move_up,-0.730,-0.730,-0.730,0.000,0.000,0.000
1605183863287708928,10.0.1.131,621,move_up,-0.710,-0.710,-0.710,0.000,0.000,0.000
1605183864926321920,10.0.1.131,583,move_up,-0.690,-0.690,-0.690,0.000,0.000,0.000
1605183866621798144,10.0.1.131,553,move_up,-0.670,-0.670,-0.670,0.000,0.000,0.000
1605183868166661120,10.0.1.131,525,move_up,-0.650,-0.650,-0.650,0.000,0.000,0.000
1605183869823550976,10.0.1.131,597,move_up,-0.630,-0.630,-0.630,0.000,0.000,0.000
1605183871686199040,10.0.1.131,770,move_up,-0.610,-0.610,-0.610,0.000,0.000,0.000
1605183873584734976,10.0.1.131,653,move_up,-0.590,-0.590,-0.590,0.000,0.000,0.000
1605183875354816000,10.0.1.131,680,move_up,-0.570,-0.570,-0.570,0.000,0.000,0.000
1605183877120356096,10.0.1.131,684,move_up,-0.550,-0.550,-0.550,0.000,0.000,0.000
1605183878963664128,10.0.1.131,709,move_up,-0.530,-0.530,-0.530,0.000,0.000,0.000
1605183880631057152,10.0.1.131,592,move_up,-0.510,-0.510,-0.510,0.000,0.000,0.000
1605183882602749184,10.0.1.131,845,move_up,-0.490,-0.490,-0.490,0.000,0.000,0.000
1605183884161668096,10.0.1.131,534,move_up,-0.470,-0.470,-0.470,0.000,0.000,0.000
1605183885863174912,10.0.1.131,599,move_up,-0.450,-0.450,-0.450,0.000,0.000,0.000
1605183887762029824,10.0.1.131,732,move_up,-0.430,-0.430,-0.430,0.000,0.000,0.000
1605183889946425856,10.0.1.131,1050,move_up,-0.410,-0.410,-0.410,0.000,0.000,0.000
1605183891808194048,10.0.1.131,578,move_up,-0.390,-0.390,-0.390,0.000,0.000,0.000
1605183893744374016,10.0.1.131,650,move_up,-0.370,-0.370,-0.370,0.000,0.000,0.000
1605183895495856896,10.0.1.131,638,move_up,-0.350,-0.350,-0.350,0.000,0.000,0.000
1605183897059028992,10.0.1.131,513,move_up,-0.330,-0.330,-0.330,0.000,0.000,0.000
1605183898643835136,10.0.1.131,517,move_up,-0.310,-0.310,-0.310,0.000,0.000,0.000
1605183900337630976,10.0.1.131,579,move_up,-0.290,-0.290,-0.290,0.000,0.000,0.000
1605183901861753856,10.0.1.131,542,move_up,-0.270,-0.270,-0.270,0.000,0.000,0.000
1605183904053879040,10.0.1.131,1040,move_up,-0.250,-0.250,-0.250,0.000,0.000,0.000
1605183906101075968,10.0.1.131,938,move_up,-0.230,-0.230,-0.230,0.000,0.000,0.000
1605183907788886016,10.0.1.131,623,move_up,-0.210,-0.210,-0.210,0.000,0.000,0.000
1605183909471937024,10.0.1.131,656,move_up,-0.190,-0.190,-0.190,0.000,0.000,0.000
1605183910656427008,10.0.1.131,47,place,-0.180,-0.180,-0.180,0.000,0.000,0.000
1605183911666448128,10.0.1.131,56,place,-0.170,-0.170,-0.170,0.000,0.000,0.000
1605183912660058880,10.0.1.131,46,place,-0.160,-0.160,-0.160,0.000,0.000,0.000
1605183914625330944,10.0.1.131,NaN,place,-0.140,-0.140,-0.140,0.000,0.000,0.000
1605183914676142848,10.0.1.131,50,place,-0.140,-0.140,-0.140,0.000,0.000,0.000
1605183915689835008,10.0.1.131,61,place,-0.130,-0.130,-0.130,0.000,0.000,0.000
1605183916698082816,10.0.1.131,63,place,-0.120,-0.120,-0.120,0.000,0.000,0.000
1605183917686772224,10.0.1.131,51,place,-0.110,-0.110,-0.110,0.000,0.000,0.000
1605183918678109952,10.0.1.131,41,place,-0.100,-0.100,-0.100,0.000,0.000,0.000
1605183919694937856,10.0.1.131,51,place,-0.090,-0.090,-0.090,0.000,0.000,0.000
1605183920695662080,10.0.1.131,50,place,-0.080,-0.080,-0.080,0.000,0.000,0.000
1605183922646554880,10.0.1.131,NaN,place,-0.060,-0.060,-0.060,0.000,0.000,0.000
1605183922697582848,10.0.1.131,50,place,-0.060,-0.060,-0.060,0.000,0.000,0.000
1605183923699600896,10.0.1.131,51,place,-0.050,-0.050,-0.050,0.000,0.000,0.000
1605183924708233216,10.0.1.131,59,place,-0.040,-0.040,-0.040,0.000,0.000,0.000
1605183925701550080,10.0.1.131,49,place,-0.030,-0.030,-0.030,0.000,0.000,0.000
1605183926707683072,10.0.1.131,53,place,-0.020,-0.020,-0.020,0.000,0.000,0.000
1605183927729871104,10.0.1.131,75,place,-0.010,-0.010,-0.010,0.000,0.000,0.000
1605183929658173952,10.0.1.131,NaN,move_down,-0.020,-0.020,-0.020,0.000,0.000,0.000
1605183930163575808,10.0.1.131,505,move_down,-0.020,-0.020,-0.020,0.000,0.000,0.000
1605183931855549184,10.0.1.131,610,move_down,-0.040,-0.040,-0.040,0.000,0.000,0.000
1605183933611702016,10.0.1.131,656,move_down,-0.060,-0.060,-0.060,0.000,0.000,0.000
1605183935200411136,10.0.1.131,518,move_down,-0.080,-0.080,-0.080,0.000,0.000,0.000
1605183936717011968,10.0.1.131,489,move_down,-0.100,-0.100,-0.100,0.000,0.000,0.000
1605183938306418944,10.0.1.131,555,move_down,-0.120,-0.120,-0.120,0.000,0.000,0.000
1605183939987077888,10.0.1.131,637,move_down,-0.140,-0.140,-0.140,0.000,0.000,0.000
1605183941580177920,10.0.1.131,555,move_down,-0.160,-0.160,-0.160,0.000,0.000,0.000
1605183943179134976,10.0.1.131,596,move_down,-0.180,-0.180,-0.180,0.000,0.000,0.000
1605183944852924160,10.0.1.131,621,move_down,-0.200,-0.200,-0.200,0.000,0.000,0.000
1605183946588080896,10.0.1.131,608,move_down,-0.220,-0.220,-0.220,0.000,0.000,0.000
1605183948216622080,10.0.1.131,550,move_down,-0.240,-0.240,-0.240,0.000,0.000,0.000
1605183949878617088,10.0.1.131,576,move_down,-0.260,-0.260,-0.260,0.000,0.000,0.000
1605183951641777152,10.0.1.131,607,move_down,-0.280,-0.280,-0.280,0.000,0.000,0.000
1605183953299760128,10.0.1.131,607,move_down,-0.300,-0.300,-0.300,0.000,0.000,0.000
1605183955075138048,10.0.1.131,701,move_down,-0.320,-0.320,-0.320,0.000,0.000,0.000
1605183956794424064,10.0.1.131,681,move_down,-0.340,-0.340,-0.340,0.000,0.000,0.000
1605183958503945216,10.0.1.131,663,move_down,-0.360,-0.360,-0.360,0.000,0.000,0.000
1605183960331845888,10.0.1.131,750,move_down,-0.380,-0.380,-0.380,0.000,0.000,0.000
1605183962094147840,10.0.1.131,693,move_down,-0.400,-0.400,-0.400,0.000,0.000,0.000
1605183964023268864,10.0.1.131,825,move_down,-0.420,-0.420,-0.420,0.000,0.000,0.000
1605183965775675136,10.0.1.131,680,move_down,-0.440,-0.440,-0.440,0.000,0.000,0.000
1605183967475848960,10.0.1.131,570,move_down,-0.460,-0.460,-0.460,0.000,0.000,0.000
1605183969299976192,10.0.1.131,705,move_down,-0.480,-0.480,-0.480,0.000,0.000,0.000
1605183971059819008,10.0.1.131,624,move_down,-0.500,-0.500,-0.500,0.000,0.000,0.000
1605183972734488064,10.0.1.131,606,move_down,-0.520,-0.520,-0.520,0.000,0.000,0.000
1605183974559734016,10.0.1.131,789,move_down,-0.540,-0.540,-0.540,0.000,0.000,0.000
1605183976257029120,10.0.1.131,654,move_down,-0.560,-0.560,-0.560,0.000,0.000,0.000
1605183977905953024,10.0.1.131,518,move_down,-0.580,-0.580,-0.580,0.000,0.000,0.000
1605183980009193984,10.0.1.131,NaN,pick,-0.600,-0.600,-0.600,0.000,0.000,0.000
1605183980059750912,10.0.1.131,50,pick,-0.600,-0.600,-0.600,0.000,0.000,0.000
1605183981044670976,10.0.1.131,33,pick,-0.610,-0.610,-0.610,0.000,0.000,0.000
1605183982073001984,10.0.1.131,59,pick,-0.620,-0.620,-0.620,0.000,0.000,0.000
1605183984020273920,10.0.1.131,NaN,pick,-0.640,-0.640,-0.640,0.000,0.000,0.000
1605183984086902016,10.0.1.131,66,pick,-0.640,-0.640,-0.640,0.000,0.000,0.000
1605183986024030976,10.0.1.131,NaN,pick,-0.660,-0.660,-0.660,0.000,0.000,0.000
1605183986082083840,10.0.1.131,57,pick,-0.660,-0.660,-0.660,0.000,0.000,0.000
1605183987068907008,10.0.1.131,43,pick,-0.670,-0.670,-0.670,0.000,0.000,0.000
1605183988063831040,10.0.1.131,36,pick,-0.680,-0.680,-0.680,0.000,0.000,0.000
1605183989089996032,10.0.1.131,60,pick,-0.690,-0.690,-0.690,0.000,0.000,0.000
1605183990062708992,10.0.1.131,32,pick,-0.700,-0.700,-0.700,0.000,0.000,0.000
1605183991091905024,10.0.1.131,59,pick,-0.710,-0.710,-0.710,0.000,0.000,0.000
1605183992094472960,10.0.1.131,61,pick,-0.720,-0.720,-0.720,0.000,0.000,0.000
1605183993089502976,10.0.1.131,53,pick,-0.730,-0.730,-0.730,0.000,0.000,0.000
1605183994082576896,10.0.1.131,44,pick,-0.740,-0.740,-0.740,0.000,0.000,0.000
1605183995097372160,10.0.1.131,58,pick,-0.750,-0.750,-0.750,0.000,0.000,0.000
1605183997044461056,10.0.1.131,NaN,pick,-0.770,-0.770,-0.770,0.000,0.000,0.000
1605183997086548992,10.0.1.131,41,pick,-0.770,-0.770,-0.770,0.000,0.000,0.000
1605183998505400832,10.0.1.131,448,move_up,-0.750,-0.750,-0.750,0.000,0.000,0.000
1605184000396105984,10.0.1.131,801,move_up,-0.730,-0.730,-0.730,0.000,0.000,0.000
1605184002185571072,10.0.1.131,704,move_up,-0.710,-0.710,-0.710,0.000,0.000,0.000
1605184003870384896,10.0.1.131,582,move_up,-0.690,-0.690,-0.690,0.000,0.000,0.000
1605184005716015104,10.0.1.131,686,move_up,-0.670,-0.670,-0.670,0.000,0.000,0.000
1605184007504160768,10.0.1.131,736,move_up,-0.650,-0.650,-0.650,0.000,0.000,0.000
1605184009408632064,10.0.1.131,806,move_up,-0.630,-0.630,-0.630,0.000,0.000,0.000
1605184011023662080,10.0.1.131,610,move_up,-0.610,-0.610,-0.610,0.000,0.000,0.000
1605184012768888064,10.0.1.131,632,move_up,-0.590,-0.590,-0.590,0.000,0.000,0.000
1605184014580177920,10.0.1.131,646,move_up,-0.570,-0.570,-0.570,0.000,0.000,0.000
1605184016278695936,10.0.1.131,648,move_up,-0.550,-0.550,-0.550,0.000,0.000,0.000
1605184018115467008,10.0.1.131,789,move_up,-0.530,-0.530,-0.530,0.000,0.000,0.000
1605184019897654016,10.0.1.131,713,move_up,-0.510,-0.510,-0.510,0.000,0.000,0.000
1605184022095040000,10.0.1.131,991,move_up,-0.490,-0.490,-0.490,0.000,0.000,0.000
1605184024192698880,10.0.1.131,764,move_up,-0.470,-0.470,-0.470,0.000,0.000,0.000
1605184026169089024,10.0.1.131,752,move_up,-0.450,-0.450,-0.450,0.000,0.000,0.000
1605184028130460928,10.0.1.131,878,move_up,-0.430,-0.430,-0.430,0.000,0.000,0.000
1605184029822430976,10.0.1.131,608,move_up,-0.410,-0.410,-0.410,0.000,0.000,0.000
1605184032095074048,10.0.1.131,1179,move_up,-0.390,-0.390,-0.390,0.000,0.000,0.000
1605184033871164928,10.0.1.131,684,move_up,-0.370,-0.370,-0.370,0.000,0.000,0.000
1605184035768043008,10.0.1.131,786,move_up,-0.350,-0.350,-0.350,0.000,0.000,0.000
1605184037580960000,10.0.1.131,705,move_up,-0.330,-0.330,-0.330,0.000,0.000,0.000
1605184039414104064,10.0.1.131,788,move_up,-0.310,-0.310,-0.310,0.000,0.000,0.000
1605184041064486912,10.0.1.131,554,move_up,-0.290,-0.290,-0.290,0.000,0.000,0.000
1605184043148876800,10.0.1.131,958,move_up,-0.270,-0.270,-0.270,0.000,0.000,0.000
1605184045029800960,10.0.1.131,878,move_up,-0.250,-0.250,-0.250,0.000,0.000,0.000
1605184046783267072,10.0.1.131,679,move_up,-0.230,-0.230,-0.230,0.000,0.000,0.000
1605184049068594944,10.0.1.131,1226,move_up,-0.210,-0.210,-0.210,0.000,0.000,0.000
1605184050817169920,10.0.1.131,687,move_up,-0.190,-0.190,-0.190,0.000,0.000,0.000
1605184051943878912,10.0.1.131,58,place,-0.180,-0.180,-0.180,0.000,0.000,0.000
1605184052962845184,10.0.1.131,73,place,-0.170,-0.170,-0.170,0.000,0.000,0.000
1605184053955339008,10.0.1.131,65,place,-0.160,-0.160,-0.160,0.000,0.000,0.000
1605184055912003072,10.0.1.131,NaN,place,-0.140,-0.140,-0.140,0.000,0.000,0.000
1605184055963091968,10.0.1.131,50,place,-0.140,-0.140,-0.140,0.000,0.000,0.000
1605184056989437952,10.0.1.131,73,place,-0.130,-0.130,-0.130,0.000,0.000,0.000
1605184057967139840,10.0.1.131,49,place,-0.120,-0.120,-0.120,0.000,0.000,0.000
1605184058990078976,10.0.1.131,68,place,-0.110,-0.110,-0.110,0.000,0.000,0.000
1605184059964157184,10.0.1.131,40,place,-0.100,-0.100,-0.100,0.000,0.000,0.000
1605184060970500864,10.0.1.131,44,place,-0.090,-0.090,-0.090,0.000,0.000,0.000
1605184062944248064,10.0.1.131,NaN,place,-0.070,-0.070,-0.070,0.000,0.000,0.000
1605184062997347072,10.0.1.131,52,place,-0.070,-0.070,-0.070,0.000,0.000,0.000
1605184064004148992,10.0.1.131,57,place,-0.060,-0.060,-0.060,0.000,0.000,0.000
1605184065004157184,10.0.1.131,53,place,-0.050,-0.050,-0.050,0.000,0.000,0.000
1605184065993464832,10.0.1.131,42,place,-0.040,-0.040,-0.040,0.000,0.000,0.000
1605184067061769984,10.0.1.131,92,place,-0.030,-0.030,-0.030,0.000,0.000,0.000
1605184068042496000,10.0.1.131,65,place,-0.020,-0.020,-0.020,0.000,0.000,0.000
1605184069025379840,10.0.1.131,46,place,-0.010,-0.010,-0.010,0.000,0.000,0.000
1605184070070533120,10.0.1.131,90,place,0.000,0.000,0.000,0.000,0.000,0.000
1605184071839389184,10.0.1.131,857,move_down,-0.020,-0.020,-0.020,0.000,0.000,0.000
1605184073511204096,10.0.1.131,585,move_down,-0.040,-0.040,-0.040,0.000,0.000,0.000
1605184075358515968,10.0.1.131,778,move_down,-0.060,-0.060,-0.060,0.000,0.000,0.000
1605184077265619968,10.0.1.131,785,move_down,-0.080,-0.080,-0.080,0.000,0.000,0.000
1605184079078157056,10.0.1.131,668,move_down,-0.100,-0.100,-0.100,0.000,0.000,0.000
1605184080678982912,10.0.1.131,542,move_down,-0.120,-0.120,-0.120,0.000,0.000,0.000
1605184082720321792,10.0.1.131,899,move_down,-0.140,-0.140,-0.140,0.000,0.000,0.000
1605184084654270976,10.0.1.131,757,move_down,-0.160,-0.160,-0.160,0.000,0.000,0.000
1605184086224328960,10.0.1.131,534,move_down,-0.180,-0.180,-0.180,0.000,0.000,0.000
1605184088184254976,10.0.1.131,876,move_down,-0.200,-0.200,-0.200,0.000,0.000,0.000
1605184089898575104,10.0.1.131,658,move_down,-0.220,-0.220,-0.220,0.000,0.000,0.000
1605184091554894080,10.0.1.131,540,move_down,-0.240,-0.240,-0.240,0.000,0.000,0.000
1605184093658967040,10.0.1.131,854,move_down,-0.260,-0.260,-0.260,0.000,0.000,0.000
1605184095707247104,10.0.1.131,814,move_down,-0.280,-0.280,-0.280,0.000,0.000,0.000
1605184097352880128,10.0.1.131,545,move_down,-0.300,-0.300,-0.300,0.000,0.000,0.000
1605184099091887104,10.0.1.131,628,move_down,-0.320,-0.320,-0.320,0.000,0.000,0.000
1605184100874691840,10.0.1.131,671,move_down,-0.340,-0.340,-0.340,0.000,0.000,0.000
1605184102529756160,10.0.1.131,604,move_down,-0.360,-0.360,-0.360,0.000,0.000,0.000
1605184104207855872,10.0.1.131,607,move_down,-0.380,-0.380,-0.380,0.000,0.000,0.000
1605184106056400128,10.0.1.131,776,move_down,-0.400,-0.400,-0.400,0.000,0.000,0.000
1605184108132945920,10.0.1.131,947,move_down,-0.420,-0.420,-0.420,0.000,0.000,0.000
