milangroshev/digital-twin-scalability/logs/run3-60s-nan/10.0.1.125.csv
timestamp,node,latency,action,joint_1,joint_2,joint_3,joint_4,joint_5,joint_6
1605182885575608064,10.0.1.125,NaN,,0.000,0.000,0.000,0.000,0.000,0.000
1605182887589411072,10.0.1.125,2013,,0.000,0.000,0.000,0.000,0.000,0.000
1605182890208924160,10.0.1.125,630,move_down,-0.020,-0.020,-0.020,0.000,0.000,0.000
1605182891619610112,10.0.1.125,380,move_down,-0.040,-0.040,-0.040,0.000,0.000,0.000
1605182893033391872,10.0.1.125,364,move_down,-0.060,-0.060,-0.060,0.000,0.000,0.000
1605182894460135936,10.0.1.125,369,move_down,-0.080,-0.080,-0.080,0.000,0.000,0.000
1605182895899209984,10.0.1.125,380,move_down,-0.100,-0.100,-0.100,0.000,0.000,0.000
1605182897371171840,10.0.1.125,401,move_down,-0.120,-0.120,-0.120,0.000,0.000,0.000
1605182898761082880,10.0.1.125,356,move_down,-0.140,-0.140,-0.140,0.000,0.000,0.000
1605182900229309184,10.0.1.125,405,move_down,-0.160,-0.160,-0.160,0.000,0.000,0.000
1605182901660340992,10.0.1.125,390,move_down,-0.180,-0.180,-0.180,0.000,0.000,0.000
1605182903128515840,10.0.1.125,417,move_down,-0.200,-0.200,-0.200,0.000,0.000,0.000
1605182904538393088,10.0.1.125,375,move_down,-0.220,-0.220,-0.220,0.000,0.000,0.000
1605182905980833024,10.0.1.125,390,move_down,-0.240,-0.240,-0.240,0.000,0.000,0.000
1605182907378903040,10.0.1.125,364,move_down,-0.260,-0.260,-0.260,0.000,0.000,0.000
1605182908840450048,10.0.1.125,409,move_down,-0.280,-0.280,-0.280,0.000,0.000,0.000
1605182910268454912,10.0.1.125,386,move_down,-0.300,-0.300,-0.300,0.000,0.000,0.000
1605182911750055936,10.0.1.125,394,move_down,-0.320,-0.320,-0.320,0.000,0.000,0.000
1605182913183346944,10.0.1.125,378,move_down,-0.340,-0.340,-0.340,0.000,0.000,0.000
1605182914609015040,10.0.1.125,379,move_down,-0.360,-0.360,-0.360,0.000,0.000,0.000
1605182916039035136,10.0.1.125,368,move_down,-0.380,-0.380,-0.380,0.000,0.000,0.000
1605182917528680960,10.0.1.125,440,move_down,-0.400,-0.400,-0.400,0.000,0.000,0.000
1605182918928625152,10.0.1.125,366,move_down,-0.420,-0.420,-0.420,0.000,0.000,0.000
1605182920409637888,10.0.1.125,403,move_down,-0.440,-0.440,-0.440,0.000,0.000,0.000
1605182921869577984,10.0.1.125,389,move_down,-0.460,-0.460,-0.460,0.000,0.000,0.000
1605182923308891904,10.0.1.125,389,move_down,-0.480,-0.480,-0.480,0.000,0.000,0.000
1605182924759137024,10.0.1.125,409,move_down,-0.500,-0.500,-0.500,0.000,0.000,0.000
1605182926169518848,10.0.1.125,379,move_down,-0.520,-0.520,-0.520,0.000,0.000,0.000
1605182927602392832,10.0.1.125,371,move_down,-0.540,-0.540,-0.540,0.000,0.000,0.000
1605182928998955008,10.0.1.125,395,move_down,-0.560,-0.560,-0.560,0.000,0.000,0.000
1605182930449701120,10.0.1.125,404,move_down,-0.580,-0.580,-0.580,0.000,0.000,0.000
1605182931528879872,10.0.1.125,47,pick,-0.590,-0.590,-0.590,0.000,0.000,0.000
1605182932528470016,10.0.1.125,45,pick,-0.600,-0.600,-0.600,0.000,0.000,0.000
1605182933528342016,10.0.1.125,44,pick,-0.610,-0.610,-0.610,0.000,0.000,0.000
1605182934528765952,10.0.1.125,43,pick,-0.620,-0.620,-0.620,0.000,0.000,0.000
1605182935529088000,10.0.1.125,42,pick,-0.630,-0.630,-0.630,0.000,0.000,0.000
1605182936529747968,10.0.1.125,41,pick,-0.640,-0.640,-0.640,0.000,0.000,0.000
1605182937528811008,10.0.1.125,39,pick,-0.650,-0.650,-0.650,0.000,0.000,0.000
1605182938528854016,10.0.1.125,38,pick,-0.660,-0.660,-0.660,0.000,0.000,0.000
1605182939530731008,10.0.1.125,38,pick,-0.670,-0.670,-0.670,0.000,0.000,0.000
1605182940528583168,10.0.1.125,35,pick,-0.680,-0.680,-0.680,0.000,0.000,0.000
1605182941530746880,10.0.1.125,36,pick,-0.690,-0.690,-0.690,0.000,0.000,0.000
1605182942542452992,10.0.1.125,46,pick,-0.700,-0.700,-0.700,0.000,0.000,0.000
1605182943542844160,10.0.1.125,42,pick,-0.710,-0.710,-0.710,0.000,0.000,0.000
1605182944551048960,10.0.1.125,49,pick,-0.720,-0.720,-0.720,0.000,0.000,0.000
1605182945528960000,10.0.1.125,25,pick,-0.730,-0.730,-0.730,0.000,0.000,0.000
1605182946556195072,10.0.1.125,51,pick,-0.740,-0.740,-0.740,0.000,0.000,0.000
1605182947550792960,10.0.1.125,45,pick,-0.750,-0.750,-0.750,0.000,0.000,0.000
1605182948550502144,10.0.1.125,43,pick,-0.760,-0.760,-0.760,0.000,0.000,0.000
1605182949550102016,10.0.1.125,42,pick,-0.770,-0.770,-0.770,0.000,0.000,0.000
1605182950880579840,10.0.1.125,371,move_up,-0.750,-0.750,-0.750,0.000,0.000,0.000
1605182952341198080,10.0.1.125,388,move_up,-0.730,-0.730,-0.730,0.000,0.000,0.000
1605182953772243968,10.0.1.125,376,move_up,-0.710,-0.710,-0.710,0.000,0.000,0.000
1605182955200244992,10.0.1.125,385,move_up,-0.690,-0.690,-0.690,0.000,0.000,0.000
1605182956625988096,10.0.1.125,369,move_up,-0.670,-0.670,-0.670,0.000,0.000,0.000
1605182958050962944,10.0.1.125,386,move_up,-0.650,-0.650,-0.650,0.000,0.000,0.000
1605182959475668992,10.0.1.125,376,move_up,-0.630,-0.630,-0.630,0.000,0.000,0.000
1605182960919058944,10.0.1.125,377,move_up,-0.610,-0.610,-0.610,0.000,0.000,0.000
1605182962329710848,10.0.1.125,357,move_up,-0.590,-0.590,-0.590,0.000,0.000,0.000
1605182963759089920,10.0.1.125,376,move_up,-0.570,-0.570,-0.570,0.000,0.000,0.000
1605182965191224064,10.0.1.125,389,move_up,-0.550,-0.550,-0.550,0.000,0.000,0.000
1605182966589592064,10.0.1.125,378,move_up,-0.530,-0.530,-0.530,0.000,0.000,0.000
1605182968050023936,10.0.1.125,388,move_up,-0.510,-0.510,-0.510,0.000,0.000,0.000
1605182969551814912,10.0.1.125,416,move_up,-0.490,-0.490,-0.490,0.000,0.000,0.000
1605182971052798976,10.0.1.125,430,move_up,-0.470,-0.470,-0.470,0.000,0.000,0.000
1605182972500493056,10.0.1.125,392,move_up,-0.450,-0.450,-0.450,0.000,0.000,0.000
1605182973920572928,10.0.1.125,392,move_up,-0.430,-0.430,-0.430,0.000,0.000,0.000
1605182975379448064,10.0.1.125,378,move_up,-0.410,-0.410,-0.410,0.000,0.000,0.000
1605182976799873024,10.0.1.125,384,move_up,-0.390,-0.390,-0.390,0.000,0.000,0.000
1605182978249186048,10.0.1.125,387,move_up,-0.370,-0.370,-0.370,0.000,0.000,0.000
1605182979741596928,10.0.1.125,399,move_up,-0.350,-0.350,-0.350,0.000,0.000,0.000
1605182981180062976,10.0.1.125,388,move_up,-0.330,-0.330,-0.330,0.000,0.000,0.000
1605182982609684992,10.0.1.125,392,move_up,-0.310,-0.310,-0.310,0.000,0.000,0.000
1605182984029423872,10.0.1.125,393,move_up,-0.290,-0.290,-0.290,0.000,0.000,0.000
1605182985450246144,10.0.1.125,366,move_up,-0.270,-0.270,-0.270,0.000,0.000,0.000
1605182986889425152,10.0.1.125,378,move_up,-0.250,-0.250,-0.250,0.000,0.000,0.000
1605182988325544960,10.0.1.125,394,move_up,-0.230,-0.230,-0.230,0.000,0.000,0.000
1605182989813435904,10.0.1.125,421,move_up,-0.210,-0.210,-0.210,0.000,0.000,0.000
1605182991269992960,10.0.1.125,386,move_up,-0.190,-0.190,-0.190,0.000,0.000,0.000
1605182992369499904,10.0.1.125,53,place,-0.180,-0.180,-0.180,0.000,0.000,0.000
1605182993349693952,10.0.1.125,32,place,-0.170,-0.170,-0.170,0.000,0.000,0.000
1605182994378649088,10.0.1.125,60,place,-0.160,-0.160,-0.160,0.000,0.000,0.000
1605182996321049088,10.0.1.125,NaN,place,-0.140,-0.140,-0.140,0.000,0.000,0.000
1605182996372376832,10.0.1.125,51,place,-0.140,-0.140,-0.140,0.000,0.000,0.000
1605182997370249984,10.0.1.125,47,place,-0.130,-0.130,-0.130,0.000,0.000,0.000
1605182998373539840,10.0.1.125,49,place,-0.120,-0.120,-0.120,0.000,0.000,0.000
1605182999371442944,10.0.1.125,46,place,-0.110,-0.110,-0.110,0.000,0.000,0.000
1605183000367737088,10.0.1.125,41,place,-0.100,-0.100,-0.100,0.000,0.000,0.000
1605183001370345216,10.0.1.125,42,place,-0.090,-0.090,-0.090,0.000,0.000,0.000
1605183002371469056,10.0.1.125,42,place,-0.080,-0.080,-0.080,0.000,0.000,0.000
1605183003369581824,10.0.1.125,39,place,-0.070,-0.070,-0.070,0.000,0.000,0.000
1605183004371334912,10.0.1.125,39,place,-0.060,-0.060,-0.060,0.000,0.000,0.000
1605183005371380992,10.0.1.125,38,place,-0.050,-0.050,-0.050,0.000,0.000,0.000
1605183006369600000,10.0.1.125,35,place,-0.040,-0.040,-0.040,0.000,0.000,0.000
1605183007369437952,10.0.1.125,34,place,-0.030,-0.030,-0.030,0.000,0.000,0.000
1605183008375542016,10.0.1.125,38,place,-0.020,-0.020,-0.020,0.000,0.000,0.000
1605183009389360896,10.0.1.125,50,place,-0.010,-0.010,-0.010,0.000,0.000,0.000
1605183010390088960,10.0.1.125,50,place,0.000,0.000,0.000,0.000,0.000,0.000
1605183011756672000,10.0.1.125,416,move_down,-0.020,-0.020,-0.020,0.000,0.000,0.000
1605183013240648960,10.0.1.125,403,move_down,-0.040,-0.040,-0.040,0.000,0.000,0.000
1605183014698703104,10.0.1.125,408,move_down,-0.060,-0.060,-0.060,0.000,0.000,0.000
1605183016118948864,10.0.1.125,379,move_down,-0.080,-0.080,-0.080,0.000,0.000,0.000
1605183017530854912,10.0.1.125,370,move_down,-0.100,-0.100,-0.100,0.000,0.000,0.000
1605183018959053056,10.0.1.125,372,move_down,-0.120,-0.120,-0.120,0.000,0.000,0.000
1605183020411761920,10.0.1.125,397,move_down,-0.140,-0.140,-0.140,0.000,0.000,0.000
1605183021879066112,10.0.1.125,417,move_down,-0.160,-0.160,-0.160,0.000,0.000,0.000
1605183023359052032,10.0.1.125,414,move_down,-0.180,-0.180,-0.180,0.000,0.000,0.000
1605183024799051008,10.0.1.125,379,move_down,-0.200,-0.200,-0.200,0.000,0.000,0.000
1605183026239002880,10.0.1.125,394,move_down,-0.220,-0.220,-0.220,0.000,0.000,0.000
1605183027659014912,10.0.1.125,372,move_down,-0.240,-0.240,-0.240,0.000,0.000,0.000
1605183029068823040,10.0.1.125,374,move_down,-0.260,-0.260,-0.260,0.000,0.000,0.000
1605183030538695168,10.0.1.125,417,move_down,-0.280,-0.280,-0.280,0.000,0.000,0.000
1605183031948579072,10.0.1.125,376,move_down,-0.300,-0.300,-0.300,0.000,0.000,0.000
1605183033409159936,10.0.1.125,396,move_down,-0.320,-0.320,-0.320,0.000,0.000,0.000
1605183034880256768,10.0.1.125,389,move_down,-0.340,-0.340,-0.340,0.000,0.000,0.000
1605183036319720960,10.0.1.125,385,move_down,-0.360,-0.360,-0.360,0.000,0.000,0.000
1605183037732232960,10.0.1.125,377,move_down,-0.380,-0.380,-0.380,0.000,0.000,0.000
1605183039163191040,10.0.1.125,360,move_down,-0.400,-0.400,-0.400,0.000,0.000,0.000
1605183040609111040,10.0.1.125,377,move_down,-0.420,-0.420,-0.420,0.000,0.000,0.000
1605183042029458944,10.0.1.125,371,move_down,-0.440,-0.440,-0.440,0.000,0.000,0.000
1605183043489164032,10.0.1.125,388,move_down,-0.460,-0.460,-0.460,0.000,0.000,0.000
1605183044940335872,10.0.1.125,396,move_down,-0.480,-0.480,-0.480,0.000,0.000,0.000
1605183046410329088,10.0.1.125,391,move_down,-0.500,-0.500,-0.500,0.000,0.000,0.000
1605183047869462016,10.0.1.125,399,move_down,-0.520,-0.520,-0.520,0.000,0.000,0.000
1605183049320416000,10.0.1.125,402,move_down,-0.540,-0.540,-0.540,0.000,0.000,0.000
1605183050773679872,10.0.1.125,376,move_down,-0.560,-0.560,-0.560,0.000,0.000,0.000
1605183052178674944,10.0.1.125,369,move_down,-0.580,-0.580,-0.580,0.000,0.000,0.000
1605183053260288000,10.0.1.125,33,pick,-0.590,-0.590,-0.590,0.000,0.000,0.000
1605183054259326976,10.0.1.125,31,pick,-0.600,-0.600,-0.600,0.000,0.000,0.000
1605183055279411200,10.0.1.125,50,pick,-0.610,-0.610,-0.610,0.000,0.000,0.000
1605183056279810816,10.0.1.125,49,pick,-0.620,-0.620,-0.620,0.000,0.000,0.000
1605183057279869184,10.0.1.125,48,pick,-0.630,-0.630,-0.630,0.000,0.000,0.000
1605183058279366912,10.0.1.125,46,pick,-0.640,-0.640,-0.640,0.000,0.000,0.000
1605183059280128000,10.0.1.125,46,pick,-0.650,-0.650,-0.650,0.000,0.000,0.000
1605183060279828992,10.0.1.125,44,pick,-0.660,-0.660,-0.660,0.000,0.000,0.000
1605183061282531072,10.0.1.125,46,pick,-0.670,-0.670,-0.670,0.000,0.000,0.000
1605183062281682944,10.0.1.125,44,pick,-0.680,-0.680,-0.680,0.000,0.000,0.000
1605183063278772992,10.0.1.125,40,pick,-0.690,-0.690,-0.690,0.000,0.000,0.000
1605183064278836992,10.0.1.125,40,pick,-0.700,-0.700,-0.700,0.000,0.000,0.000
1605183065279022848,10.0.1.125,39,pick,-0.710,-0.710,-0.710,0.000,0.000,0.000
1605183066279961088,10.0.1.125,39,pick,-0.720,-0.720,-0.720,0.000,0.000,0.000
1605183067278893824,10.0.1.125,36,pick,-0.730,-0.730,-0.730,0.000,0.000,0.000
1605183068279921152,10.0.1.125,36,pick,-0.740,-0.740,-0.740,0.000,0.000,0.000
1605183069279088128,10.0.1.125,33,pick,-0.750,-0.750,-0.750,0.000,0.000,0.000
1605183070284024064,10.0.1.125,36,pick,-0.760,-0.760,-0.760,0.000,0.000,0.000
1605183071279352064,10.0.1.125,31,pick,-0.770,-0.770,-0.770,0.000,0.000,0.000
1605183072665161984,10.0.1.125,414,move_up,-0.750,-0.750,-0.750,0.000,0.000,0.000
1605183074140475136,10.0.1.125,403,move_up,-0.730,-0.730,-0.730,0.000,0.000,0.000
1605183075661161984,10.0.1.125,412,move_up,-0.710,-0.710,-0.710,0.000,0.000,0.000
1605183077180372992,10.0.1.125,404,move_up,-0.690,-0.690,-0.690,0.000,0.000,0.000
1605183078695897088,10.0.1.125,432,move_up,-0.670,-0.670,-0.670,0.000,0.000,0.000
1605183080172471040,10.0.1.125,384,move_up,-0.650,-0.650,-0.650,0.000,0.000,0.000
1605183081630851072,10.0.1.125,396,move_up,-0.630,-0.630,-0.630,0.000,0.000,0.000
1605183083099740928,10.0.1.125,390,move_up,-0.610,-0.610,-0.610,0.000,0.000,0.000
1605183084529277952,10.0.1.125,378,move_up,-0.590,-0.590,-0.590,0.000,0.000,0.000
1605183085949364992,10.0.1.125,355,move_up,-0.570,-0.570,-0.570,0.000,0.000,0.000
1605183087389719040,10.0.1.125,387,move_up,-0.550,-0.550,-0.550,0.000,0.000,0.000
1605183088869592064,10.0.1.125,384,move_up,-0.530,-0.530,-0.530,0.000,0.000,0.000
1605183090289550080,10.0.1.125,379,move_up,-0.510,-0.510,-0.510,0.000,0.000,0.000
1605183091739248896,10.0.1.125,385,move_up,-0.490,-0.490,-0.490,0.000,0.000,0.000
1605183093190844928,10.0.1.125,392,move_up,-0.470,-0.470,-0.470,0.000,0.000,0.000
1605183094631164160,10.0.1.125,409,move_up,-0.450,-0.450,-0.450,0.000,0.000,0.000
1605183096052769792,10.0.1.125,386,move_up,-0.430,-0.430,-0.430,0.000,0.000,0.000
1605183097546161920,10.0.1.125,425,move_up,-0.410,-0.410,-0.410,0.000,0.000,0.000
1605183099060382976,10.0.1.125,447,move_up,-0.390,-0.390,-0.390,0.000,0.000,0.000
1605183100560246016,10.0.1.125,429,move_up,-0.370,-0.370,-0.370,0.000,0.000,0.000
1605183102040668928,10.0.1.125,384,move_up,-0.350,-0.350,-0.350,0.000,0.000,0.000
1605183103480644864,10.0.1.125,373,move_up,-0.330,-0.330,-0.330,0.000,0.000,0.000
1605183104959465984,10.0.1.125,402,move_up,-0.310,-0.310,-0.310,0.000,0.000,0.000
1605183106426642944,10.0.1.125,386,move_up,-0.290,-0.290,-0.290,0.000,0.000,0.000
1605183107889105152,10.0.1.125,405,move_up,-0.270,-0.270,-0.270,0.000,0.000,0.000
1605183109354609920,10.0.1.125,395,move_up,-0.250,-0.250,-0.250,0.000,0.000,0.000
1605183110780088832,10.0.1.125,383,move_up,-0.230,-0.230,-0.230,0.000,0.000,0.000
1605183112218945024,10.0.1.125,373,move_up,-0.210,-0.210,-0.210,0.000,0.000,0.000
1605183113648463104,10.0.1.125,394,move_up,-0.190,-0.190,-0.190,0.000,0.000,0.000
1605183114769270784,10.0.1.125,38,place,-0.180,-0.180,-0.180,0.000,0.000,0.000
1605183115769013760,10.0.1.125,37,place,-0.170,-0.170,-0.170,0.000,0.000,0.000
1605183116770746112,10.0.1.125,37,place,-0.160,-0.160,-0.160,0.000,0.000,0.000
1605183117768854016,10.0.1.125,34,place,-0.150,-0.150,-0.150,0.000,0.000,0.000
1605183118771457024,10.0.1.125,35,place,-0.140,-0.140,-0.140,0.000,0.000,0.000
1605183119774056960,10.0.1.125,37,place,-0.130,-0.130,-0.130,0.000,0.000,0.000
1605183120789315072,10.0.1.125,51,place,-0.120,-0.120,-0.120,0.000,0.000,0.000
1605183122743454976,10.0.1.125,NaN,place,-0.100,-0.100,-0.100,0.000,0.000,0.000
1605183122788225024,10.0.1.125,44,place,-0.100,-0.100,-0.100,0.000,0.000,0.000
1605183123792572928,10.0.1.125,47,place,-0.090,-0.090,-0.090,0.000,0.000,0.000
1605183124791433984,10.0.1.125,45,place,-0.080,-0.080,-0.080,0.000,0.000,0.000
1605183125793730048,10.0.1.125,46,place,-0.070,-0.070,-0.070,0.000,0.000,0.000
1605183126800532224,10.0.1.125,51,place,-0.060,-0.060,-0.060,0.000,0.000,0.000
1605183127794359040,10.0.1.125,44,place,-0.050,-0.050,-0.050,0.000,0.000,0.000
1605183128794354944,10.0.1.125,43,place,-0.040,-0.040,-0.040,0.000,0.000,0.000
1605183129792450048,10.0.1.125,40,place,-0.030,-0.030,-0.030,0.000,0.000,0.000
1605183130797491968,10.0.1.125,44,place,-0.020,-0.020,-0.020,0.000,0.000,0.000
1605183131793363200,10.0.1.125,38,place,-0.010,-0.010,-0.010,0.000,0.000,0.000
1605183132792805888,10.0.1.125,36,place,0.000,0.000,0.000,0.000,0.000,0.000
1605183134144919040,10.0.1.125,387,move_down,-0.020,-0.020,-0.020,0.000,0.000,0.000
1605183135592674048,10.0.1.125,383,move_down,-0.040,-0.040,-0.040,0.000,0.000,0.000
1605183137003707904,10.0.1.125,384,move_down,-0.060,-0.060,-0.060,0.000,0.000,0.000
1605183138476816896,10.0.1.125,384,move_down,-0.080,-0.080,-0.080,0.000,0.000,0.000
1605183139939887104,10.0.1.125,404,move_down,-0.100,-0.100,-0.100,0.000,0.000,0.000
1605183141392219904,10.0.1.125,422,move_down,-0.120,-0.120,-0.120,0.000,0.000,0.000
1605183142880358912,10.0.1.125,434,move_down,-0.140,-0.140,-0.140,0.000,0.000,0.000
1605183144375361792,10.0.1.125,411,move_down,-0.160,-0.160,-0.160,0.000,0.000,0.000
1605183145874178048,10.0.1.125,422,move_down,-0.180,-0.180,-0.180,0.000,0.000,0.000
1605183147354021120,10.0.1.125,382,move_down,-0.200,-0.200,-0.200,0.000,0.000,0.000
1605183148812647936,10.0.1.125,396,move_down,-0.220,-0.220,-0.220,0.000,0.000,0.000
1605183150274255872,10.0.1.125,382,move_down,-0.240,-0.240,-0.240,0.000,0.000,0.000
1605183151704102912,10.0.1.125,362,move_down,-0.260,-0.260,-0.260,0.000,0.000,0.000
1605183153122116096,10.0.1.125,398,move_down,-0.280,-0.280,-0.280,0.000,0.000,0.000
1605183154623277824,10.0.1.125,424,move_down,-0.300,-0.300,-0.300,0.000,0.000,0.000
1605183156116898048,10.0.1.125,403,move_down,-0.320,-0.320,-0.320,0.000,0.000,0.000
1605183157644925952,10.0.1.125,456,move_down,-0.340,-0.340,-0.340,0.000,0.000,0.000
1605183159092727808,10.0.1.125,383,move_down,-0.360,-0.360,-0.360,0.000,0.000,0.000
1605183160542366976,10.0.1.125,406,move_down,-0.380,-0.380,-0.380,0.000,0.000,0.000
1605183161992157952,10.0.1.125,377,move_down,-0.400,-0.400,-0.400,0.000,0.000,0.000
1605183163448812032,10.0.1.125,375,move_down,-0.420,-0.420,-0.420,0.000,0.000,0.000
1605183164899350784,10.0.1.125,415,move_down,-0.440,-0.440,-0.440,0.000,0.000,0.000
1605183166372397056,10.0.1.125,409,move_down,-0.460,-0.460,-0.460,0.000,0.000,0.000
1605183167834568960,10.0.1.125,389,move_down,-0.480,-0.480,-0.480,0.000,0.000,0.000
1605183169319964928,10.0.1.125,399,move_down,-0.500,-0.500,-0.500,0.000,0.000,0.000
1605183170723565056,10.0.1.125,386,move_down,-0.520,-0.520,-0.520,0.000,0.000,0.000
1605183172164222976,10.0.1.125,389,move_down,-0.540,-0.540,-0.540,0.000,0.000,0.000
1605183173592376832,10.0.1.125,377,move_down,-0.560,-0.560,-0.560,0.000,0.000,0.000
1605183175053394944,10.0.1.125,407,move_down,-0.580,-0.580,-0.580,0.000,0.000,0.000
1605183176172606976,10.0.1.125,45,pick,-0.590,-0.590,-0.590,0.000,0.000,0.000
1605183177172633856,10.0.1.125,44,pick,-0.600,-0.600,-0.600,0.000,0.000,0.000
1605183178172925952,10.0.1.125,43,pick,-0.610,-0.610,-0.610,0.000,0.000,0.000
1605183179175323904,10.0.1.125,44,pick,-0.620,-0.620,-0.620,0.000,0.000,0.000
1605183180172564992,10.0.1.125,40,pick,-0.630,-0.630,-0.630,0.000,0.000,0.000
1605183181177096960,10.0.1.125,44,pick,-0.640,-0.640,-0.640,0.000,0.000,0.000
1605183182174199040,10.0.1.125,40,pick,-0.650,-0.650,-0.650,0.000,0.000,0.000
1605183183172483840,10.0.1.125,37,pick,-0.660,-0.660,-0.660,0.000,0.000,0.000
1605183184172790016,10.0.1.125,36,pick,-0.670,-0.670,-0.670,0.000,0.000,0.000
1605183185172990208,10.0.1.125,34,pick,-0.680,-0.680,-0.680,0.000,0.000,0.000
1605183186175156224,10.0.1.125,35,pick,-0.690,-0.690,-0.690,0.000,0.000,0.000
1605183187173736192,10.0.1.125,33,pick,-0.700,-0.700,-0.700,0.000,0.000,0.000
1605183188177666816,10.0.1.125,36,pick,-0.710,-0.710,-0.710,0.000,0.000,0.000
1605183189192768000,10.0.1.125,49,pick,-0.720,-0.720,-0.720,0.000,0.000,0.000
1605183190193250048,10.0.1.125,49,pick,-0.730,-0.730,-0.730,0.000,0.000,0.000
1605183191192934144,10.0.1.125,47,pick,-0.740,-0.740,-0.740,0.000,0.000,0.000
1605183192193285888,10.0.1.125,46,pick,-0.750,-0.750,-0.750,0.000,0.000,0.000
1605183193194552832,10.0.1.125,46,pick,-0.760,-0.760,-0.760,0.000,0.000,0.000
1605183194193778944,10.0.1.125,42,pick,-0.770,-0.770,-0.770,0.000,0.000,0.000
1605183195552418048,10.0.1.125,398,move_up,-0.750,-0.750,-0.750,0.000,0.000,0.000
1605183197053692160,10.0.1.125,395,move_up,-0.730,-0.730,-0.730,0.000,0.000,0.000
1605183198543023104,10.0.1.125,437,move_up,-0.710,-0.710,-0.710,0.000,0.000,0.000
1605183200006195968,10.0.1.125,415,move_up,-0.690,-0.690,-0.690,0.000,0.000,0.000
1605183201403714816,10.0.1.125,396,move_up,-0.670,-0.670,-0.670,0.000,0.000,0.000
1605183202878397952,10.0.1.125,390,move_up,-0.650,-0.650,-0.650,0.000,0.000,0.000
1605183204414889984,10.0.1.125,412,move_up,-0.630,-0.630,-0.630,0.000,0.000,0.000
1605183205890050816,10.0.1.125,434,move_up,-0.610,-0.610,-0.610,0.000,0.000,0.000
1605183207462338048,10.0.1.125,505,move_up,-0.590,-0.590,-0.590,0.000,0.000,0.000
1605183208953403904,10.0.1.125,397,move_up,-0.570,-0.570,-0.570,0.000,0.000,0.000
1605183210466669056,10.0.1.125,482,move_up,-0.550,-0.550,-0.550,0.000,0.000,0.000
1605183211986721024,10.0.1.125,435,move_up,-0.530,-0.530,-0.530,0.000,0.000,0.000
1605183213585853184,10.0.1.125,494,move_up,-0.510,-0.510,-0.510,0.000,0.000,0.000
1605183215070363136,10.0.1.125,415,move_up,-0.490,-0.490,-0.490,0.000,0.000,0.000
1605183216535821056,10.0.1.125,403,move_up,-0.470,-0.470,-0.470,0.000,0.000,0.000
1605183218015746048,10.0.1.125,403,move_up,-0.450,-0.450,-0.450,0.000,0.000,0.000
1605183219451107072,10.0.1.125,396,move_up,-0.430,-0.430,-0.430,0.000,0.000,0.000
1605183220945765120,10.0.1.125,401,move_up,-0.410,-0.410,-0.410,0.000,0.000,0.000
1605183222391442176,10.0.1.125,398,move_up,-0.390,-0.390,-0.390,0.000,0.000,0.000
1605183223792007936,10.0.1.125,388,move_up,-0.370,-0.370,-0.370,0.000,0.000,0.000
1605183225237797888,10.0.1.125,391,move_up,-0.350,-0.350,-0.350,0.000,0.000,0.000
1605183226709731072,10.0.1.125,416,move_up,-0.330,-0.330,-0.330,0.000,0.000,0.000
1605183228191085056,10.0.1.125,415,move_up,-0.310,-0.310,-0.310,0.000,0.000,0.000
1605183229626771968,10.0.1.125,432,move_up,-0.290,-0.290,-0.290,0.000,0.000,0.000
1605183231106961920,10.0.1.125,427,move_up,-0.270,-0.270,-0.270,0.000,0.000,0.000
1605183232648732928,10.0.1.125,450,move_up,-0.250,-0.250,-0.250,0.000,0.000,0.000
1605183234107106816,10.0.1.125,422,move_up,-0.230,-0.230,-0.230,0.000,0.000,0.000
1605183235606512128,10.0.1.125,428,move_up,-0.210,-0.210,-0.210,0.000,0.000,0.000
1605183237105676032,10.0.1.125,418,move_up,-0.190,-0.190,-0.190,0.000,0.000,0.000
1605183238185786880,10.0.1.125,45,place,-0.180,-0.180,-0.180,0.000,0.000,0.000
1605183239187354112,10.0.1.125,46,place,-0.170,-0.170,-0.170,0.000,0.000,0.000
1605183240185883904,10.0.1.125,43,place,-0.160,-0.160,-0.160,0.000,0.000,0.000
1605183241185918208,10.0.1.125,42,place,-0.150,-0.150,-0.150,0.000,0.000,0.000
1605183242186537984,10.0.1.125,41,place,-0.140,-0.140,-0.140,0.000,0.000,0.000
1605183243189313024,10.0.1.125,43,place,-0.130,-0.130,-0.130,0.000,0.000,0.000
1605183244186395904,10.0.1.125,38,place,-0.120,-0.120,-0.120,0.000,0.000,0.000
1605183245186142976,10.0.1.125,34,place,-0.110,-0.110,-0.110,0.000,0.000,0.000
1605183246189903872,10.0.1.125,36,place,-0.100,-0.100,-0.100,0.000,0.000,0.000
1605183247187292160,10.0.1.125,32,place,-0.090,-0.090,-0.090,0.000,0.000,0.000
1605183248205732096,10.0.1.125,49,place,-0.080,-0.080,-0.080,0.000,0.000,0.000
1605183249217273088,10.0.1.125,60,place,-0.070,-0.070,-0.070,0.000,0.000,0.000
1605183250212302848,10.0.1.125,53,place,-0.060,-0.060,-0.060,0.000,0.000,0.000
1605183251210733056,10.0.1.125,49,place,-0.050,-0.050,-0.050,0.000,0.000,0.000
1605183252242053888,10.0.1.125,79,place,-0.040,-0.040,-0.040,0.000,0.000,0.000
1605183253209510144,10.0.1.125,45,place,-0.030,-0.030,-0.030,0.000,0.000,0.000
1605183254201874944,10.0.1.125,36,place,-0.020,-0.020,-0.020,0.000,0.000,0.000
1605183255207417088,10.0.1.125,40,place,-0.010,-0.010,-0.010,0.000,0.000,0.000
1605183256226574848,10.0.1.125,58,place,0.000,0.000,0.000,0.000,0.000,0.000
1605183257601628928,10.0.1.125,432,move_down,-0.020,-0.020,-0.020,0.000,0.000,0.000
1605183259074980096,10.0.1.125,386,move_down,-0.040,-0.040,-0.040,0.000,0.000,0.000
1605183260619646976,10.0.1.125,421,move_down,-0.060,-0.060,-0.060,0.000,0.000,0.000
1605183262080432896,10.0.1.125,416,move_down,-0.080,-0.080,-0.080,0.000,0.000,0.000
1605183263597021184,10.0.1.125,408,move_down,-0.100,-0.100,-0.100,0.000,0.000,0.000
1605183265064881920,10.0.1.125,422,move_down,-0.120,-0.120,-0.120,0.000,0.000,0.000
1605183266601481984,10.0.1.125,428,move_down,-0.140,-0.140,-0.140,0.000,0.000,0.000
1605183268086718208,10.0.1.125,418,move_down,-0.160,-0.160,-0.160,0.000,0.000,0.000
1605183269499092224,10.0.1.125,402,move_down,-0.180,-0.180,-0.180,0.000,0.000,0.000
1605183270996061952,10.0.1.125,417,move_down,-0.200,-0.200,-0.200,0.000,0.000,0.000
1605183272459752960,10.0.1.125,400,move_down,-0.220,-0.220,-0.220,0.000,0.000,0.000
1605183274008852992,10.0.1.125,506,move_down,-0.240,-0.240,-0.240,0.000,0.000,0.000
1605183275597256960,10.0.1.125,477,move_down,-0.260,-0.260,-0.260,0.000,0.000,0.000
1605183277189320192,10.0.1.125,435,move_down,-0.280,-0.280,-0.280,0.000,0.000,0.000
1605183278632376832,10.0.1.125,376,move_down,-0.300,-0.300,-0.300,0.000,0.000,0.000
1605183280118854912,10.0.1.125,380,move_down,-0.320,-0.320,-0.320,0.000,0.000,0.000
1605183281629390848,10.0.1.125,415,move_down,-0.340,-0.340,-0.340,0.000,0.000,0.000
1605183283046507008,10.0.1.125,400,move_down,-0.360,-0.360,-0.360,0.000,0.000,0.000
1605183284539681024,10.0.1.125,416,move_down,-0.380,-0.380,-0.380,0.000,0.000,0.000
1605183286015408896,10.0.1.125,411,move_down,-0.400,-0.400,-0.400,0.000,0.000,0.000
1605183287503182848,10.0.1.125,416,move_down,-0.420,-0.420,-0.420,0.000,0.000,0.000
1605183289029629952,10.0.1.125,457,move_down,-0.440,-0.440,-0.440,0.000,0.000,0.000
1605183290519932928,10.0.1.125,427,move_down,-0.460,-0.460,-0.460,0.000,0.000,0.000
1605183291982320896,10.0.1.125,401,move_down,-0.480,-0.480,-0.480,0.000,0.000,0.000
1605183293478571008,10.0.1.125,422,move_down,-0.500,-0.500,-0.500,0.000,0.000,0.000
1605183294959286016,10.0.1.125,380,move_down,-0.520,-0.520,-0.520,0.000,0.000,0.000
1605183296469985024,10.0.1.125,443,move_down,-0.540,-0.540,-0.540,0.000,0.000,0.000
1605183297928535040,10.0.1.125,414,move_down,-0.560,-0.560,-0.560,0.000,0.000,0.000
1605183299448133888,10.0.1.125,395,move_down,-0.580,-0.580,-0.580,0.000,0.000,0.000
1605183300587842048,10.0.1.125,50,pick,-0.590,-0.590,-0.590,0.000,0.000,0.000
1605183301588943104,10.0.1.125,47,pick,-0.600,-0.600,-0.600,0.000,0.000,0.000
1605183302599982080,10.0.1.125,57,pick,-0.610,-0.610,-0.610,0.000,0.000,0.000
1605183303588711936,10.0.1.125,41,pick,-0.620,-0.620,-0.620,0.000,0.000,0.000
1605183304588137984,10.0.1.125,38,pick,-0.630,-0.630,-0.630,0.000,0.000,0.000
1605183305598027008,10.0.1.125,46,pick,-0.640,-0.640,-0.640,0.000,0.000,0.000
1605183306588804864,10.0.1.125,35,pick,-0.650,-0.650,-0.650,0.000,0.000,0.000
1605183307594119168,10.0.1.125,40,pick,-0.660,-0.660,-0.660,0.000,0.000,0.000
1605183308589925888,10.0.1.125,34,pick,-0.670,-0.670,-0.670,0.000,0.000,0.000
1605183309610490112,10.0.1.125,53,pick,-0.680,-0.680,-0.680,0.000,0.000,0.000
1605183310609165056,10.0.1.125,50,pick,-0.690,-0.690,-0.690,0.000,0.000,0.000
1605183311611557120,10.0.1.125,52,pick,-0.700,-0.700,-0.700,0.000,0.000,0.000
1605183312614146048,10.0.1.125,52,pick,-0.710,-0.710,-0.710,0.000,0.000,0.000
1605183313616965120,10.0.1.125,54,pick,-0.720,-0.720,-0.720,0.000,0.000,0.000
1605183314610799104,10.0.1.125,44,pick,-0.730,-0.730,-0.730,0.000,0.000,0.000
1605183315607855104,10.0.1.125,37,pick,-0.740,-0.740,-0.740,0.000,0.000,0.000
1605183316615134976,10.0.1.125,42,pick,-0.750,-0.750,-0.750,0.000,0.000,0.000
1605183317630381056,10.0.1.125,56,pick,-0.760,-0.760,-0.760,0.000,0.000,0.000
1605183318610071040,10.0.1.125,33,pick,-0.770,-0.770,-0.770,0.000,0.000,0.000
1605183320008093952,10.0.1.125,430,move_up,-0.750,-0.750,-0.750,0.000,0.000,0.000
1605183321523410944,10.0.1.125,431,move_up,-0.730,-0.730,-0.730,0.000,0.000,0.000
1605183322967811072,10.0.1.125,420,move_up,-0.710,-0.710,-0.710,0.000,0.000,0.000
1605183324421381120,10.0.1.125,386,move_up,-0.690,-0.690,-0.690,0.000,0.000,0.000
1605183325932851968,10.0.1.125,437,move_up,-0.670,-0.670,-0.670,0.000,0.000,0.000
1605183327393021184,10.0.1.125,407,move_up,-0.650,-0.650,-0.650,0.000,0.000,0.000
1605183328899213056,10.0.1.125,414,move_up,-0.630,-0.630,-0.630,0.000,0.000,0.000
1605183330354240000,10.0.1.125,391,move_up,-0.610,-0.610,-0.610,0.000,0.000,0.000
1605183331838180096,10.0.1.125,398,move_up,-0.590,-0.590,-0.590,0.000,0.000,0.000
1605183333261516032,10.0.1.125,405,move_up,-0.570,-0.570,-0.570,0.000,0.000,0.000
1605183334806124800,10.0.1.125,465,move_up,-0.550,-0.550,-0.550,0.000,0.000,0.000
1605183336275757056,10.0.1.125,421,move_up,-0.530,-0.530,-0.530,0.000,0.000,0.000
1605183337801361152,10.0.1.125,447,move_up,-0.510,-0.510,-0.510,0.000,0.000,0.000
1605183339353744128,10.0.1.125,508,move_up,-0.490,-0.490,-0.490,0.000,0.000,0.000
1605183341029213952,10.0.1.125,534,move_up,-0.470,-0.470,-0.470,0.000,0.000,0.000
1605183342579644928,10.0.1.125,452,move_up,-0.450,-0.450,-0.450,0.000,0.000,0.000
1605183344131865088,10.0.1.125,497,move_up,-0.430,-0.430,-0.430,0.000,0.000,0.000
1605183345671310848,10.0.1.125,469,move_up,-0.410,-0.410,-0.410,0.000,0.000,0.000
1605183347210726912,10.0.1.125,491,move_up,-0.390,-0.390,-0.390,0.000,0.000,0.000
1605183348674339072,10.0.1.125,428,move_up,-0.370,-0.370,-0.370,0.000,0.000,0.000
1605183350214956032,10.0.1.125,439,move_up,-0.350,-0.350,-0.350,0.000,0.000,0.000
1605183351704775936,10.0.1.125,401,move_up,-0.330,-0.330,-0.330,0.000,0.000,0.000
1605183353256102144,10.0.1.125,452,move_up,-0.310,-0.310,-0.310,0.000,0.000,0.000
1605183354724740096,10.0.1.125,404,move_up,-0.290,-0.290,-0.290,0.000,0.000,0.000
1605183356228950016,10.0.1.125,418,move_up,-0.270,-0.270,-0.270,0.000,0.000,0.000
1605183357725426944,10.0.1.125,423,move_up,-0.250,-0.250,-0.250,0.000,0.000,0.000
1605183359227191808,10.0.1.125,421,move_up,-0.230,-0.230,-0.230,0.000,0.000,0.000
1605183360703351040,10.0.1.125,397,move_up,-0.210,-0.210,-0.210,0.000,0.000,0.000
1605183362239635968,10.0.1.125,447,move_up,-0.190,-0.190,-0.190,0.000,0.000,0.000
1605183363362224128,10.0.1.125,42,place,-0.180,-0.180,-0.180,0.000,0.000,0.000
1605183364378253824,10.0.1.125,52,place,-0.170,-0.170,-0.170,0.000,0.000,0.000
1605183365381122048,10.0.1.125,53,place,-0.160,-0.160,-0.160,0.000,0.000,0.000
1605183367332689152,10.0.1.125,NaN,place,-0.140,-0.140,-0.140,0.000,0.000,0.000
1605183367385660928,10.0.1.125,52,place,-0.140,-0.140,-0.140,0.000,0.000,0.000
1605183368414701056,10.0.1.125,79,place,-0.130,-0.130,-0.130,0.000,0.000,0.000
1605183369374114048,10.0.1.125,37,place,-0.120,-0.120,-0.120,0.000,0.000,0.000
1605183370379811072,10.0.1.125,42,place,-0.110,-0.110,-0.110,0.000,0.000,0.000
1605183371382491136,10.0.1.125,43,place,-0.100,-0.100,-0.100,0.000,0.000,0.000
1605183372383009024,10.0.1.125,41,place,-0.090,-0.090,-0.090,0.000,0.000,0.000
1605183373382118912,10.0.1.125,38,place,-0.080,-0.080,-0.080,0.000,0.000,0.000
1605183375345623040,10.0.1.125,NaN,place,-0.060,-0.060,-0.060,0.000,0.000,0.000
1605183375400943872,10.0.1.125,55,place,-0.060,-0.060,-0.060,0.000,0.000,0.000
1605183376397145088,10.0.1.125,48,place,-0.050,-0.050,-0.050,0.000,0.000,0.000
1605183378355400192,10.0.1.125,NaN,place,-0.030,-0.030,-0.030,0.000,0.000,0.000
1605183379357029888,10.0.1.125,NaN,place,-0.020,-0.020,-0.020,0.000,0.000,0.000
1605183379397242112,10.0.1.125,40,place,-0.020,-0.020,-0.020,0.000,0.000,0.000
1605183380395311104,10.0.1.125,36,place,-0.010,-0.010,-0.010,0.000,0.000,0.000
1605183381412962048,10.0.1.125,53,place,0.000,0.000,0.000,0.000,0.000,0.000
1605183382751218944,10.0.1.125,390,move_down,-0.020,-0.020,-0.020,0.000,0.000,0.000
1605183384403214848,10.0.1.125,578,move_down,-0.040,-0.040,-0.040,0.000,0.000,0.000
1605183385958360064,10.0.1.125,447,move_down,-0.060,-0.060,-0.060,0.000,0.000,0.000
1605183387498113024,10.0.1.125,446,move_down,-0.080,-0.080,-0.080,0.000,0.000,0.000
1605183389008222208,10.0.1.125,480,move_down,-0.100,-0.100,-0.100,0.000,0.000,0.000
1605183390575695104,10.0.1.125,444,move_down,-0.120,-0.120,-0.120,0.000,0.000,0.000
1605183392045526016,10.0.1.125,442,move_down,-0.140,-0.140,-0.140,0.000,0.000,0.000
1605183393611154176,10.0.1.125,467,move_down,-0.160,-0.160,-0.160,0.000,0.000,0.000
1605183395152098048,10.0.1.125,459,move_down,-0.180,-0.180,-0.180,0.000,0.000,0.000
1605183396635063040,10.0.1.125,419,move_down,-0.200,-0.200,-0.200,0.000,0.000,0.000
1605183398169869824,10.0.1.125,461,move_down,-0.220,-0.220,-0.220,0.000,0.000,0.000
1605183399649588992,10.0.1.125,438,move_down,-0.240,-0.240,-0.240,0.000,0.000,0.000
1605183401189902080,10.0.1.125,528,move_down,-0.260,-0.260,-0.260,0.000,0.000,0.000
1605183402739013888,10.0.1.125,490,move_down,-0.280,-0.280,-0.280,0.000,0.000,0.000
1605183404186074880,10.0.1.125,386,move_down,-0.300,-0.300,-0.300,0.000,0.000,0.000
1605183405721745920,10.0.1.125,435,move_down,-0.320,-0.320,-0.320,0.000,0.000,0.000
1605183407305520128,10.0.1.125,512,move_down,-0.340,-0.340,-0.340,0.000,0.000,0.000
1605183408936973056,10.0.1.125,591,move_down,-0.360,-0.360,-0.360,0.000,0.000,0.000
1605183410415945984,10.0.1.125,437,move_down,-0.380,-0.380,-0.380,0.000,0.000,0.000
1605183411999748864,10.0.1.125,482,move_down,-0.400,-0.400,-0.400,0.000,0.000,0.000
1605183413504847104,10.0.1.125,418,move_down,-0.420,-0.420,-0.420,0.000,0.000,0.000
1605183414954150912,10.0.1.125,432,move_down,-0.440,-0.440,-0.440,0.000,0.000,0.000
1605183416459815936,10.0.1.125,446,move_down,-0.460,-0.460,-0.460,0.000,0.000,0.000
1605183418000144128,10.0.1.125,471,move_down,-0.480,-0.480,-0.480,0.000,0.000,0.000
1605183419540887040,10.0.1.125,473,move_down,-0.500,-0.500,-0.500,0.000,0.000,0.000
1605183420997827072,10.0.1.125,424,move_down,-0.520,-0.520,-0.520,0.000,0.000,0.000
1605183422500425984,10.0.1.125,456,move_down,-0.540,-0.540,-0.540,0.000,0.000,0.000
1605183424107762176,10.0.1.125,472,move_down,-0.560,-0.560,-0.560,0.000,0.000,0.000
1605183425657146880,10.0.1.125,433,move_down,-0.580,-0.580,-0.580,0.000,0.000,0.000
1605183426798772224,10.0.1.125,35,pick,-0.590,-0.590,-0.590,0.000,0.000,0.000
1605183427796425984,10.0.1.125,31,pick,-0.600,-0.600,-0.600,0.000,0.000,0.000
1605183428821393920,10.0.1.125,54,pick,-0.610,-0.610,-0.610,0.000,0.000,0.000
1605183429820210944,10.0.1.125,51,pick,-0.620,-0.620,-0.620,0.000,0.000,0.000
1605183430818304000,10.0.1.125,41,pick,-0.630,-0.630,-0.630,0.000,0.000,0.000
1605183431836625152,10.0.1.125,59,pick,-0.640,-0.640,-0.640,0.000,0.000,0.000
1605183432818679040,10.0.1.125,39,pick,-0.650,-0.650,-0.650,0.000,0.000,0.000
1605183433844258048,10.0.1.125,62,pick,-0.660,-0.660,-0.660,0.000,0.000,0.000
1605183434817068032,10.0.1.125,34,pick,-0.670,-0.670,-0.670,0.000,0.000,0.000
1605183435815581184,10.0.1.125,31,pick,-0.680,-0.680,-0.680,0.000,0.000,0.000
1605183436837644032,10.0.1.125,53,pick,-0.690,-0.690,-0.690,0.000,0.000,0.000
1605183437829736960,10.0.1.125,44,pick,-0.700,-0.700,-0.700,0.000,0.000,0.000
1605183438837025024,10.0.1.125,50,pick,-0.710,-0.710,-0.710,0.000,0.000,0.000
1605183440788942080,10.0.1.125,NaN,pick,-0.730,-0.730,-0.730,0.000,0.000,0.000
1605183440828955904,10.0.1.125,39,pick,-0.730,-0.730,-0.730,0.000,0.000,0.000
1605183441828504064,10.0.1.125,37,pick,-0.740,-0.740,-0.740,0.000,0.000,0.000
1605183442836685056,10.0.1.125,44,pick,-0.750,-0.750,-0.750,0.000,0.000,0.000
1605183443835288064,10.0.1.125,42,pick,-0.760,-0.760,-0.760,0.000,0.000,0.000
1605183444870821888,10.0.1.125,76,pick,-0.770,-0.770,-0.770,0.000,0.000,0.000
1605183446194557952,10.0.1.125,399,move_up,-0.750,-0.750,-0.750,0.000,0.000,0.000
1605183447647214848,10.0.1.125,407,move_up,-0.730,-0.730,-0.730,0.000,0.000,0.000
1605183449153835008,10.0.1.125,439,move_up,-0.710,-0.710,-0.710,0.000,0.000,0.000
1605183450684151808,10.0.1.125,457,move_up,-0.690,-0.690,-0.690,0.000,0.000,0.000
1605183452165796096,10.0.1.125,402,move_up,-0.670,-0.670,-0.670,0.000,0.000,0.000
1605183453716346880,10.0.1.125,461,move_up,-0.650,-0.650,-0.650,0.000,0.000,0.000
1605183455277385984,10.0.1.125,469,move_up,-0.630,-0.630,-0.630,0.000,0.000,0.000
1605183456833730048,10.0.1.125,498,move_up,-0.610,-0.610,-0.610,0.000,0.000,0.000
1605183458348994048,10.0.1.125,469,move_up,-0.590,-0.590,-0.590,0.000,0.000,0.000
1605183459846383104,10.0.1.125,410,move_up,-0.570,-0.570,-0.570,0.000,0.000,0.000
1605183461355917056,10.0.1.125,429,move_up,-0.550,-0.550,-0.550,0.000,0.000,0.000
1605183462904057856,10.0.1.125,445,move_up,-0.530,-0.530,-0.530,0.000,0.000,0.000
1605183464430053120,10.0.1.125,433,move_up,-0.510,-0.510,-0.510,0.000,0.000,0.000
1605183466042223104,10.0.1.125,510,move_up,-0.490,-0.490,-0.490,0.000,0.000,0.000
1605183467574894848,10.0.1.125,453,move_up,-0.470,-0.470,-0.470,0.000,0.000,0.000
1605183469077415936,10.0.1.125,469,move_up,-0.450,-0.450,-0.450,0.000,0.000,0.000
1605183470545555200,10.0.1.125,422,move_up,-0.430,-0.430,-0.430,0.000,0.000,0.000
1605183472090516992,10.0.1.125,547,move_up,-0.410,-0.410,-0.410,0.000,0.000,0.000
1605183473633368064,10.0.1.125,466,move_up,-0.390,-0.390,-0.390,0.000,0.000,0.000
1605183475165309952,10.0.1.125,450,move_up,-0.370,-0.370,-0.370,0.000,0.000,0.000
1605183476766833152,10.0.1.125,521,move_up,-0.350,-0.350,-0.350,0.000,0.000,0.000
1605183478404706048,10.0.1.125,553,move_up,-0.330,-0.330,-0.330,0.000,0.000,0.000
1605183479954142976,10.0.1.125,470,move_up,-0.310,-0.310,-0.310,0.000,0.000,0.000
1605183481506467072,10.0.1.125,519,move_up,-0.290,-0.290,-0.290,0.000,0.000,0.000
1605183483026694144,10.0.1.125,472,move_up,-0.270,-0.270,-0.270,0.000,0.000,0.000
1605183484478146048,10.0.1.125,401,move_up,-0.250,-0.250,-0.250,0.000,0.000,0.000
1605183485959141120,10.0.1.125,401,move_up,-0.230,-0.230,-0.230,0.000,0.000,0.000
1605183487430852864,10.0.1.125,415,move_up,-0.210,-0.210,-0.210,0.000,0.000,0.000
1605183488953541888,10.0.1.125,493,move_up,-0.190,-0.190,-0.190,0.000,0.000,0.000
1605183490065166080,10.0.1.125,59,place,-0.180,-0.180,-0.180,0.000,0.000,0.000
1605183491047324928,10.0.1.125,39,place,-0.170,-0.170,-0.170,0.000,0.000,0.000
1605183492053867008,10.0.1.125,44,place,-0.160,-0.160,-0.160,0.000,0.000,0.000
1605183493045819136,10.0.1.125,34,place,-0.150,-0.150,-0.150,0.000,0.000,0.000
1605183494052545024,10.0.1.125,39,place,-0.140,-0.140,-0.140,0.000,0.000,0.000
1605183495066245120,10.0.1.125,51,place,-0.130,-0.130,-0.130,0.000,0.000,0.000
1605183496061479936,10.0.1.125,45,place,-0.120,-0.120,-0.120,0.000,0.000,0.000
1605183497052186112,10.0.1.125,35,place,-0.110,-0.110,-0.110,0.000,0.000,0.000
1605183498054126080,10.0.1.125,35,place,-0.100,-0.100,-0.100,0.000,0.000,0.000
1605183499078763008,10.0.1.125,59,place,-0.090,-0.090,-0.090,0.000,0.000,0.000
1605183500073231872,10.0.1.125,51,place,-0.080,-0.080,-0.080,0.000,0.000,0.000
1605183502028701184,10.0.1.125,NaN,place,-0.060,-0.060,-0.060,0.000,0.000,0.000
1605183502074441984,10.0.1.125,45,place,-0.060,-0.060,-0.060,0.000,0.000,0.000
1605183503079001856,10.0.1.125,48,place,-0.050,-0.050,-0.050,0.000,0.000,0.000
1605183504073054976,10.0.1.125,39,place,-0.040,-0.040,-0.040,0.000,0.000,0.000
1605183505079618048,10.0.1.125,44,place,-0.030,-0.030,-0.030,0.000,0.000,0.000
1605183506096683008,10.0.1.125,61,place,-0.020,-0.020,-0.020,0.000,0.000,0.000
1605183507086287104,10.0.1.125,49,place,-0.010,-0.010,-0.010,0.000,0.000,0.000
1605183508081347072,10.0.1.125,42,place,0.000,0.000,0.000,0.000,0.000,0.000
1605183509466366976,10.0.1.125,426,move_down,-0.020,-0.020,-0.020,0.000,0.000,0.000
1605183510956592128,10.0.1.125,468,move_down,-0.040,-0.040,-0.040,0.000,0.000,0.000
1605183512423602944,10.0.1.125,409,move_down,-0.060,-0.060,-0.060,0.000,0.000,0.000
1605183513925497088,10.0.1.125,474,move_down,-0.080,-0.080,-0.080,0.000,0.000,0.000
1605183515406301952,10.0.1.125,422,move_down,-0.100,-0.100,-0.100,0.000,0.000,0.000
1605183516961714944,10.0.1.125,490,move_down,-0.120,-0.120,-0.120,0.000,0.000,0.000
1605183518505483008,10.0.1.125,448,move_down,-0.140,-0.140,-0.140,0.000,0.000,0.000
1605183520181852160,10.0.1.125,614,move_down,-0.160,-0.160,-0.160,0.000,0.000,0.000
1605183521736257024,10.0.1.125,483,move_down,-0.180,-0.180,-0.180,0.000,0.000,0.000
1605183523237097984,10.0.1.125,465,move_down,-0.200,-0.200,-0.200,0.000,0.000,0.000
1605183524817980160,10.0.1.125,500,move_down,-0.220,-0.220,-0.220,0.000,0.000,0.000
1605183526442898944,10.0.1.125,602,move_down,-0.240,-0.240,-0.240,0.000,0.000,0.000
1605183527987656960,10.0.1.125,502,move_down,-0.260,-0.260,-0.260,0.000,0.000,0.000
1605183529580601088,10.0.1.125,501,move_down,-0.280,-0.280,-0.280,0.000,0.000,0.000
1605183531134721024,10.0.1.125,485,move_down,-0.300,-0.300,-0.300,0.000,0.000,0.000
1605183532592814080,10.0.1.125,431,move_down,-0.320,-0.320,-0.320,0.000,0.000,0.000
1605183534161052928,10.0.1.125,463,move_down,-0.340,-0.340,-0.340,0.000,0.000,0.000
1605183535630511872,10.0.1.125,413,move_down,-0.360,-0.360,-0.360,0.000,0.000,0.000
1605183537209518080,10.0.1.125,479,move_down,-0.380,-0.380,-0.380,0.000,0.000,0.000
1605183538790436096,10.0.1.125,556,move_down,-0.400,-0.400,-0.400,0.000,0.000,0.000
1605183540379568128,10.0.1.125,488,move_down,-0.420,-0.420,-0.420,0.000,0.000,0.000
1605183542030558208,10.0.1.125,578,move_down,-0.440,-0.440,-0.440,0.000,0.000,0.000
1605183543752593920,10.0.1.125,624,move_down,-0.460,-0.460,-0.460,0.000,0.000,0.000
1605183545417351936,10.0.1.125,545,move_down,-0.480,-0.480,-0.480,0.000,0.000,0.000
1605183546882957056,10.0.1.125,407,move_down,-0.500,-0.500,-0.500,0.000,0.000,0.000
1605183548456589056,10.0.1.125,459,move_down,-0.520,-0.520,-0.520,0.000,0.000,0.000
1605183550058337024,10.0.1.125,499,move_down,-0.540,-0.540,-0.540,0.000,0.000,0.000
1605183551593816064,10.0.1.125,484,move_down,-0.560,-0.560,-0.560,0.000,0.000,0.000
1605183553105284864,10.0.1.125,463,move_down,-0.580,-0.580,-0.580,0.000,0.000,0.000
1605183554221922048,10.0.1.125,49,pick,-0.590,-0.590,-0.590,0.000,0.000,0.000
1605183555222989056,10.0.1.125,48,pick,-0.600,-0.600,-0.600,0.000,0.000,0.000
1605183557180068096,10.0.1.125,NaN,pick,-0.620,-0.620,-0.620,0.000,0.000,0.000
1605183557226340096,10.0.1.125,46,pick,-0.620,-0.620,-0.620,0.000,0.000,0.000
1605183558222950912,10.0.1.125,41,pick,-0.630,-0.630,-0.630,0.000,0.000,0.000
1605183559225324032,10.0.1.125,43,pick,-0.640,-0.640,-0.640,0.000,0.000,0.000
1605183561194236928,10.0.1.125,NaN,pick,-0.660,-0.660,-0.660,0.000,0.000,0.000
1605183561245515008,10.0.1.125,51,pick,-0.660,-0.660,-0.660,0.000,0.000,0.000
1605183562243415040,10.0.1.125,34,pick,-0.670,-0.670,-0.670,0.000,0.000,0.000
1605183563244129792,10.0.1.125,33,pick,-0.680,-0.680,-0.680,0.000,0.000,0.000
1605183565213457152,10.0.1.125,NaN,pick,-0.700,-0.700,-0.700,0.000,0.000,0.000
1605183565244163072,10.0.1.125,30,pick,-0.700,-0.700,-0.700,0.000,0.000,0.000
1605183566268246016,10.0.1.125,53,pick,-0.710,-0.710,-0.710,0.000,0.000,0.000
1605183567267642880,10.0.1.125,41,pick,-0.720,-0.720,-0.720,0.000,0.000,0.000
1605183569229414912,10.0.1.125,NaN,pick,-0.740,-0.740,-0.740,0.000,0.000,0.000
1605183569263584000,10.0.1.125,34,pick,-0.740,-0.740,-0.740,0.000,0.000,0.000
1605183571231302144,10.0.1.125,NaN,pick,-0.760,-0.760,-0.760,0.000,0.000,0.000
1605183571264990976,10.0.1.125,33,pick,-0.760,-0.760,-0.760,0.000,0.000,0.000
1605183573239238144,10.0.1.125,NaN,move_up,-0.750,-0.750,-0.750,0.000,0.000,0.000
1605183573659305216,10.0.1.125,419,move_up,-0.750,-0.750,-0.750,0.000,0.000,0.000
1605183575209556992,10.0.1.125,477,move_up,-0.730,-0.730,-0.730,0.000,0.000,0.000
1605183576710354176,10.0.1.125,472,move_up,-0.710,-0.710,-0.710,0.000,0.000,0.000
1605183578213574912,10.0.1.125,436,move_up,-0.690,-0.690,-0.690,0.000,0.000,0.000
1605183579818006016,10.0.1.125,511,move_up,-0.670,-0.670,-0.670,0.000,0.000,0.000
1605183581280945152,10.0.1.125,433,move_up,-0.650,-0.650,-0.650,0.000,0.000,0.000
1605183582810009088,10.0.1.125,437,move_up,-0.630,-0.630,-0.630,0.000,0.000,0.000
1605183584340711168,10.0.1.125,474,move_up,-0.610,-0.610,-0.610,0.000,0.000,0.000
1605183585850507008,10.0.1.125,452,move_up,-0.590,-0.590,-0.590,0.000,0.000,0.000
1605183587380754944,10.0.1.125,455,move_up,-0.570,-0.570,-0.570,0.000,0.000,0.000
1605183588991811072,10.0.1.125,516,move_up,-0.550,-0.550,-0.550,0.000,0.000,0.000
1605183590532224000,10.0.1.125,480,move_up,-0.530,-0.530,-0.530,0.000,0.000,0.000
1605183592089740032,10.0.1.125,500,move_up,-0.510,-0.510,-0.510,0.000,0.000,0.000
1605183593689886208,10.0.1.125,502,move_up,-0.490,-0.490,-0.490,0.000,0.000,0.000
1605183595259661056,10.0.1.125,510,move_up,-0.470,-0.470,-0.470,0.000,0.000,0.000
1605183596754460928,10.0.1.125,442,move_up,-0.450,-0.450,-0.450,0.000,0.000,0.000
1605183598309112064,10.0.1.125,461,move_up,-0.430,-0.430,-0.430,0.000,0.000,0.000
1605183599809638912,10.0.1.125,423,move_up,-0.410,-0.410,-0.410,0.000,0.000,0.000
1605183601343215872,10.0.1.125,472,move_up,-0.390,-0.390,-0.390,0.000,0.000,0.000
1605183602930095872,10.0.1.125,538,move_up,-0.370,-0.370,-0.370,0.000,0.000,0.000
1605183604549626112,10.0.1.125,507,move_up,-0.350,-0.350,-0.350,0.000,0.000,0.000
1605183606171160064,10.0.1.125,511,move_up,-0.330,-0.330,-0.330,0.000,0.000,0.000
1605183607846829056,10.0.1.125,573,move_up,-0.310,-0.310,-0.310,0.000,0.000,0.000
1605183609509612032,10.0.1.125,565,move_up,-0.290,-0.290,-0.290,0.000,0.000,0.000
1605183611160246016,10.0.1.125,563,move_up,-0.270,-0.270,-0.270,0.000,0.000,0.000
1605183612799148032,10.0.1.125,591,move_up,-0.250,-0.250,-0.250,0.000,0.000,0.000
1605183614509501952,10.0.1.125,649,move_up,-0.230,-0.230,-0.230,0.000,0.000,0.000
1605183616138405120,10.0.1.125,525,move_up,-0.210,-0.210,-0.210,0.000,0.000,0.000
1605183617790626048,10.0.1.125,509,move_up,-0.190,-0.190,-0.190,0.000,0.000,0.000
1605183618923463168,10.0.1.125,40,place,-0.180,-0.180,-0.180,0.000,0.000,0.000
1605183619923759104,10.0.1.125,38,place,-0.170,-0.170,-0.170,0.000,0.000,0.000
1605183620929282816,10.0.1.125,42,place,-0.160,-0.160,-0.160,0.000,0.000,0.000
1605183621941679872,10.0.1.125,54,place,-0.150,-0.150,-0.150,0.000,0.000,0.000
1605183622927436032,10.0.1.125,38,place,-0.140,-0.140,-0.140,0.000,0.000,0.000
1605183623928449024,10.0.1.125,38,place,-0.130,-0.130,-0.130,0.000,0.000,0.000
1605183624956961024,10.0.1.125,64,place,-0.120,-0.120,-0.120,0.000,0.000,0.000
1605183625929126144,10.0.1.125,35,place,-0.110,-0.110,-0.110,0.000,0.000,0.000
1605183626940747008,10.0.1.125,46,place,-0.100,-0.100,-0.100,0.000,0.000,0.000
1605183627927548928,10.0.1.125,31,place,-0.090,-0.090,-0.090,0.000,0.000,0.000
1605183628952409088,10.0.1.125,55,place,-0.080,-0.080,-0.080,0.000,0.000,0.000
1605183629957238016,10.0.1.125,56,place,-0.070,-0.070,-0.070,0.000,0.000,0.000
1605183630952784128,10.0.1.125,50,place,-0.060,-0.060,-0.060,0.000,0.000,0.000
1605183631979809024,10.0.1.125,75,place,-0.050,-0.050,-0.050,0.000,0.000,0.000
1605183632961618944,10.0.1.125,53,place,-0.040,-0.040,-0.040,0.000,0.000,0.000
1605183633946369024,10.0.1.125,36,place,-0.030,-0.030,-0.030,0.000,0.000,0.000
1605183634942960128,10.0.1.125,31,place,-0.020,-0.020,-0.020,0.000,0.000,0.000
1605183635979266816,10.0.1.125,67,place,-0.010,-0.010,-0.010,0.000,0.000,0.000
1605183636948715008,10.0.1.125,34,place,0.000,0.000,0.000,0.000,0.000,0.000
1605183638608887040,10.0.1.125,688,move_down,-0.020,-0.020,-0.020,0.000,0.000,0.000
1605183640270435072,10.0.1.125,560,move_down,-0.040,-0.040,-0.040,0.000,0.000,0.000
1605183641986434816,10.0.1.125,552,move_down,-0.060,-0.060,-0.060,0.000,0.000,0.000
1605183643548039936,10.0.1.125,528,move_down,-0.080,-0.080,-0.080,0.000,0.000,0.000
1605183645190432000,10.0.1.125,524,move_down,-0.100,-0.100,-0.100,0.000,0.000,0.000
1605183646846631936,10.0.1.125,563,move_down,-0.120,-0.120,-0.120,0.000,0.000,0.000
1605183648470420992,10.0.1.125,577,move_down,-0.140,-0.140,-0.140,0.000,0.000,0.000
1605183650009363968,10.0.1.125,461,move_down,-0.160,-0.160,-0.160,0.000,0.000,0.000
1605183651625551872,10.0.1.125,571,move_down,-0.180,-0.180,-0.180,0.000,0.000,0.000
1605183653309176832,10.0.1.125,569,move_down,-0.200,-0.200,-0.200,0.000,0.000,0.000
1605183654891405056,10.0.1.125,509,move_down,-0.220,-0.220,-0.220,0.000,0.000,0.000
1605183656476749824,10.0.1.125,554,move_down,-0.240,-0.240,-0.240,0.000,0.000,0.000
1605183658174361088,10.0.1.125,596,move_down,-0.260,-0.260,-0.260,0.000,0.000,0.000
1605183659723555072,10.0.1.125,495,move_down,-0.280,-0.280,-0.280,0.000,0.000,0.000
1605183661267246848,10.0.1.125,488,move_down,-0.300,-0.300,-0.300,0.000,0.000,0.000
1605183662836505856,10.0.1.125,483,move_down,-0.320,-0.320,-0.320,0.000,0.000,0.000
1605183664413316864,10.0.1.125,473,move_down,-0.340,-0.340,-0.340,0.000,0.000,0.000
1605183665974354944,10.0.1.125,512,move_down,-0.360,-0.360,-0.360,0.000,0.000,0.000
1605183667448672000,10.0.1.125,420,move_down,-0.380,-0.380,-0.380,0.000,0.000,0.000
1605183669049218816,10.0.1.125,520,move_down,-0.400,-0.400,-0.400,0.000,0.000,0.000
1605183670596240896,10.0.1.125,497,move_down,-0.420,-0.420,-0.420,0.000,0.000,0.000
1605183672081469184,10.0.1.125,467,move_down,-0.440,-0.440,-0.440,0.000,0.000,0.000
1605183673595437056,10.0.1.125,439,move_down,-0.460,-0.460,-0.460,0.000,0.000,0.000
1605183675159897088,10.0.1.125,523,move_down,-0.480,-0.480,-0.480,0.000,0.000,0.000
1605183676772495104,10.0.1.125,556,move_down,-0.500,-0.500,-0.500,0.000,0.000,0.000
1605183678634398976,10.0.1.125,807,move_down,-0.520,-0.520,-0.520,0.000,0.000,0.000
1605183680246615808,10.0.1.125,540,move_down,-0.540,-0.540,-0.540,0.000,0.000,0.000
1605183681894778880,10.0.1.125,576,move_down,-0.560,-0.560,-0.560,0.000,0.000,0.000
1605183683506812160,10.0.1.125,551,move_down,-0.580,-0.580,-0.580,0.000,0.000,0.000
1605183684675111936,10.0.1.125,45,pick,-0.590,-0.590,-0.590,0.000,0.000,0.000
1605183685673446912,10.0.1.125,42,pick,-0.600,-0.600,-0.600,0.000,0.000,0.000
1605183686678149888,10.0.1.125,45,pick,-0.610,-0.610,-0.610,0.000,0.000,0.000
1605183687673260032,10.0.1.125,39,pick,-0.620,-0.620,-0.620,0.000,0.000,0.000
1605183688690629120,10.0.1.125,55,pick,-0.630,-0.630,-0.630,0.000,0.000,0.000
1605183689677175040,10.0.1.125,41,pick,-0.640,-0.640,-0.640,0.000,0.000,0.000
1605183690675131136,10.0.1.125,37,pick,-0.650,-0.650,-0.650,0.000,0.000,0.000
1605183691691545088,10.0.1.125,52,pick,-0.660,-0.660,-0.660,0.000,0.000,0.000
1605183692692656128,10.0.1.125,46,pick,-0.670,-0.670,-0.670,0.000,0.000,0.000
1605183693692369920,10.0.1.125,44,pick,-0.680,-0.680,-0.680,0.000,0.000,0.000
1605183694688550912,10.0.1.125,39,pick,-0.690,-0.690,-0.690,0.000,0.000,0.000
1605183695701180928,10.0.1.125,49,pick,-0.700,-0.700,-0.700,0.000,0.000,0.000
1605183696695319040,10.0.1.125,41,pick,-0.710,-0.710,-0.710,0.000,0.000,0.000
1605183697698139904,10.0.1.125,41,pick,-0.720,-0.720,-0.720,0.000,0.000,0.000
1605183698695520000,10.0.1.125,37,pick,-0.730,-0.730,-0.730,0.000,0.000,0.000
1605183699711348992,10.0.1.125,51,pick,-0.740,-0.740,-0.740,0.000,0.000,0.000
1605183700703731968,10.0.1.125,42,pick,-0.750,-0.750,-0.750,0.000,0.000,0.000
1605183701720168960,10.0.1.125,57,pick,-0.760,-0.760,-0.760,0.000,0.000,0.000
1605183702700651776,10.0.1.125,37,pick,-0.770,-0.770,-0.770,0.000,0.000,0.000
1605183704146984960,10.0.1.125,480,move_up,-0.750,-0.750,-0.750,0.000,0.000,0.000
1605183705795922944,10.0.1.125,524,move_up,-0.730,-0.730,-0.730,0.000,0.000,0.000
1605183707422641920,10.0.1.125,512,move_up,-0.710,-0.710,-0.710,0.000,0.000,0.000
1605183709001539072,10.0.1.125,571,move_up,-0.690,-0.690,-0.690,0.000,0.000,0.000
1605183710494656000,10.0.1.125,468,move_up,-0.670,-0.670,-0.670,0.000,0.000,0.000
1605183712096677120,10.0.1.125,523,move_up,-0.650,-0.650,-0.650,0.000,0.000,0.000
1605183713786425088,10.0.1.125,606,move_up,-0.630,-0.630,-0.630,0.000,0.000,0.000
1605183715413091840,10.0.1.125,568,move_up,-0.610,-0.610,-0.610,0.000,0.000,0.000
1605183716962803968,10.0.1.125,423,move_up,-0.590,-0.590,-0.590,0.000,0.000,0.000
1605183718587901952,10.0.1.125,527,move_up,-0.570,-0.570,-0.570,0.000,0.000,0.000
1605183720286266112,10.0.1.125,628,move_up,-0.550,-0.550,-0.550,0.000,0.000,0.000
1605183722029401088,10.0.1.125,644,move_up,-0.530,-0.530,-0.530,0.000,0.000,0.000
1605183723634754048,10.0.1.125,611,move_up,-0.510,-0.510,-0.510,0.000,0.000,0.000
1605183725290134784,10.0.1.125,534,move_up,-0.490,-0.490,-0.490,0.000,0.000,0.000
1605183727068304896,10.0.1.125,659,move_up,-0.470,-0.470,-0.470,0.000,0.000,0.000
1605183728725699072,10.0.1.125,585,move_up,-0.450,-0.450,-0.450,0.000,0.000,0.000
1605183730256175872,10.0.1.125,494,move_up,-0.430,-0.430,-0.430,0.000,0.000,0.000
1605183731796227840,10.0.1.125,486,move_up,-0.410,-0.410,-0.410,0.000,0.000,0.000
1605183733431197952,10.0.1.125,523,move_up,-0.390,-0.390,-0.390,0.000,0.000,0.000
1605183735040232960,10.0.1.125,559,move_up,-0.370,-0.370,-0.370,0.000,0.000,0.000
1605183736486772992,10.0.1.125,434,move_up,-0.350,-0.350,-0.350,0.000,0.000,0.000
1605183738005541120,10.0.1.125,494,move_up,-0.330,-0.330,-0.330,0.000,0.000,0.000
1605183739640891904,10.0.1.125,583,move_up,-0.310,-0.310,-0.310,0.000,0.000,0.000
1605183741351185920,10.0.1.125,583,move_up,-0.290,-0.290,-0.290,0.000,0.000,0.000
1605183743073944064,10.0.1.125,619,move_up,-0.270,-0.270,-0.270,0.000,0.000,0.000
1605183744782907904,10.0.1.125,579,move_up,-0.250,-0.250,-0.250,0.000,0.000,0.000
1605183746455280128,10.0.1.125,592,move_up,-0.230,-0.230,-0.230,0.000,0.000,0.000
1605183748311827968,10.0.1.125,629,move_up,-0.210,-0.210,-0.210,0.000,0.000,0.000
1605183750023042816,10.0.1.125,478,move_up,-0.190,-0.190,-0.190,0.000,0.000,0.000
1605183751305927936,10.0.1.125,45,place,-0.180,-0.180,-0.180,0.000,0.000,0.000
1605183752302834944,10.0.1.125,40,place,-0.170,-0.170,-0.170,0.000,0.000,0.000
1605183753303755008,10.0.1.125,40,place,-0.160,-0.160,-0.160,0.000,0.000,0.000
1605183754316716032,10.0.1.125,51,place,-0.150,-0.150,-0.150,0.000,0.000,0.000
1605183755318203904,10.0.1.125,50,place,-0.140,-0.140,-0.140,0.000,0.000,0.000
1605183756312047104,10.0.1.125,42,place,-0.130,-0.130,-0.130,0.000,0.000,0.000
1605183757320754944,10.0.1.125,50,place,-0.120,-0.120,-0.120,0.000,0.000,0.000
1605183758314147840,10.0.1.125,41,place,-0.110,-0.110,-0.110,0.000,0.000,0.000
1605183759330703872,10.0.1.125,57,place,-0.100,-0.100,-0.100,0.000,0.000,0.000
1605183761276036864,10.0.1.125,NaN,place,-0.080,-0.080,-0.080,0.000,0.000,0.000
1605183761321325056,10.0.1.125,45,place,-0.080,-0.080,-0.080,0.000,0.000,0.000
1605183762318244864,10.0.1.125,40,place,-0.070,-0.070,-0.070,0.000,0.000,0.000
1605183763335799040,10.0.1.125,56,place,-0.060,-0.060,-0.060,0.000,0.000,0.000
1605183764318883840,10.0.1.125,39,place,-0.050,-0.050,-0.050,0.000,0.000,0.000
1605183765326571008,10.0.1.125,46,place,-0.040,-0.040,-0.040,0.000,0.000,0.000
1605183766332593920,10.0.1.125,48,place,-0.030,-0.030,-0.030,0.000,0.000,0.000
1605183768286956032,10.0.1.125,NaN,place,-0.010,-0.010,-0.010,0.000,0.000,0.000
1605183768324645120,10.0.1.125,37,place,-0.010,-0.010,-0.010,0.000,0.000,0.000
1605183769331942912,10.0.1.125,44,place,0.000,0.000,0.000,0.000,0.000,0.000
1605183770865863168,10.0.1.125,576,move_down,-0.020,-0.020,-0.020,0.000,0.000,0.000
1605183772726270976,10.0.1.125,776,move_down,-0.040,-0.040,-0.040,0.000,0.000,0.000
1605183774292242944,10.0.1.125,493,move_down,-0.060,-0.060,-0.060,0.000,0.000,0.000
1605183775925463040,10.0.1.125,592,move_down,-0.080,-0.080,-0.080,0.000,0.000,0.000
1605183777620237056,10.0.1.125,596,move_down,-0.100,-0.100,-0.100,0.000,0.000,0.000
1605183779448946944,10.0.1.125,763,move_down,-0.120,-0.120,-0.120,0.000,0.000,0.000
1605183781060225024,10.0.1.125,576,move_down,-0.140,-0.140,-0.140,0.000,0.000,0.000
1605183782622401024,10.0.1.125,509,move_down,-0.160,-0.160,-0.160,0.000,0.000,0.000
1605183784151934976,10.0.1.125,484,move_down,-0.180,-0.180,-0.180,0.000,0.000,0.000
1605183785728609024,10.0.1.125,499,move_down,-0.200,-0.200,-0.200,0.000,0.000,0.000
1605183787215063040,10.0.1.125,448,move_down,-0.220,-0.220,-0.220,0.000,0.000,0.000
1605183788955853056,10.0.1.125,617,move_down,-0.240,-0.240,-0.240,0.000,0.000,0.000
1605183790557786112,10.0.1.125,514,move_down,-0.260,-0.260,-0.260,0.000,0.000,0.000
1605183792133428224,10.0.1.125,523,move_down,-0.280,-0.280,-0.280,0.000,0.000,0.000
1605183793770055936,10.0.1.125,583,move_down,-0.300,-0.300,-0.300,0.000,0.000,0.000
1605183795376239104,10.0.1.125,542,move_down,-0.320,-0.320,-0.320,0.000,0.000,0.000
1605183796907918848,10.0.1.125,524,move_down,-0.340,-0.340,-0.340,0.000,0.000,0.000
1605183798493236992,10.0.1.125,509,move_down,-0.360,-0.360,-0.360,0.000,0.000,0.000
1605183800065926144,10.0.1.125,512,move_down,-0.380,-0.380,-0.380,0.000,0.000,0.000
1605183801836496128,10.0.1.125,653,move_down,-0.400,-0.400,-0.400,0.000,0.000,0.000
1605183803582073856,10.0.1.125,686,move_down,-0.420,-0.420,-0.420,0.000,0.000,0.000
1605183805127557120,10.0.1.125,514,move_down,-0.440,-0.440,-0.440,0.000,0.000,0.000
1605183806902990080,10.0.1.125,677,move_down,-0.460,-0.460,-0.460,0.000,0.000,0.000
1605183808514617856,10.0.1.125,587,move_down,-0.480,-0.480,-0.480,0.000,0.000,0.000
1605183810116743168,10.0.1.125,580,move_down,-0.500,-0.500,-0.500,0.000,0.000,0.000
1605183811688350976,10.0.1.125,494,move_down,-0.520,-0.520,-0.520,0.000,0.000,0.000
1605183813460861952,10.0.1.125,618,move_down,-0.540,-0.540,-0.540,0.000,0.000,0.000
1605183815200930048,10.0.1.125,657,move_down,-0.560,-0.560,-0.560,0.000,0.000,0.000
1605183817057145088,10.0.1.125,767,move_down,-0.580,-0.580,-0.580,0.000,0.000,0.000
1605183818218529024,10.0.1.125,63,pick,-0.590,-0.590,-0.590,0.000,0.000,0.000
1605183819205539072,10.0.1.125,49,pick,-0.600,-0.600,-0.600,0.000,0.000,0.000
1605183821159145216,10.0.1.125,NaN,pick,-0.620,-0.620,-0.620,0.000,0.000,0.000
1605183822159950848,10.0.1.125,NaN,pick,-0.630,-0.630,-0.630,0.000,0.000,0.000
1605183822232072960,10.0.1.125,72,pick,-0.630,-0.630,-0.630,0.000,0.000,0.000
1605183823211636992,10.0.1.125,50,pick,-0.640,-0.640,-0.640,0.000,0.000,0.000
1605183824220519936,10.0.1.125,42,pick,-0.650,-0.650,-0.650,0.000,0.000,0.000
1605183825237325056,10.0.1.125,56,pick,-0.660,-0.660,-0.660,0.000,0.000,0.000
1605183826252051968,10.0.1.125,69,pick,-0.670,-0.670,-0.670,0.000,0.000,0.000
1605183827235838976,10.0.1.125,52,pick,-0.680,-0.680,-0.680,0.000,0.000,0.000
1605183828242252032,10.0.1.125,55,pick,-0.690,-0.690,-0.690,0.000,0.000,0.000
1605183829242123008,10.0.1.125,53,pick,-0.700,-0.700,-0.700,0.000,0.000,0.000
1605183830308417024,10.0.1.125,116,pick,-0.710,-0.710,-0.710,0.000,0.000,0.000
1605183831241015040,10.0.1.125,45,pick,-0.720,-0.720,-0.720,0.000,0.000,0.000
1605183832257190912,10.0.1.125,60,pick,-0.730,-0.730,-0.730,0.000,0.000,0.000
1605183833268591872,10.0.1.125,60,pick,-0.740,-0.740,-0.740,0.000,0.000,0.000
1605183834258375936,10.0.1.125,42,pick,-0.750,-0.750,-0.750,0.000,0.000,0.000
1605183835258827008,10.0.1.125,39,pick,-0.760,-0.760,-0.760,0.000,0.000,0.000
1605183837228521216,10.0.1.125,NaN,move_up,-0.750,-0.750,-0.750,0.000,0.000,0.000
1605183837802028800,10.0.1.125,573,move_up,-0.750,-0.750,-0.750,0.000,0.000,0.000
1605183839482498816,10.0.1.125,615,move_up,-0.730,-0.730,-0.730,0.000,0.000,0.000
1605183841184401920,10.0.1.125,618,move_up,-0.710,-0.710,-0.710,0.000,0.000,0.000
1605183842762886144,10.0.1.125,504,move_up,-0.690,-0.690,-0.690,0.000,0.000,0.000
1605183844477772032,10.0.1.125,618,move_up,-0.670,-0.670,-0.670,0.000,0.000,0.000
1605183846133843968,10.0.1.125,516,move_up,-0.650,-0.650,-0.650,0.000,0.000,0.000
1605183847828376064,10.0.1.125,603,move_up,-0.630,-0.630,-0.630,0.000,0.000,0.000
1605183849492461824,10.0.1.125,565,move_up,-0.610,-0.610,-0.610,0.000,0.000,0.000
1605183851263721984,10.0.1.125,657,move_up,-0.590,-0.590,-0.590,0.000,0.000,0.000
1605183852821163776,10.0.1.125,500,move_up,-0.570,-0.570,-0.570,0.000,0.000,0.000
1605183854529944832,10.0.1.125,521,move_up,-0.550,-0.550,-0.550,0.000,0.000,0.000
1605183856159851008,10.0.1.125,578,move_up,-0.530,-0.530,-0.530,0.000,0.000,0.000
1605183857804188928,10.0.1.125,605,move_up,-0.510,-0.510,-0.510,0.000,0.000,0.000
1605183859534470144,10.0.1.125,619,move_up,-0.490,-0.490,-0.490,0.000,0.000,0.000
1605183861356934144,10.0.1.125,677,move_up,-0.470,-0.470,-0.470,0.000,0.000,0.000
1605183863118937856,10.0.1.125,627,move_up,-0.450,-0.450,-0.450,0.000,0.000,0.000
1605183864784822016,10.0.1.125,551,move_up,-0.430,-0.430,-0.430,0.000,0.000,0.000
1605183866365348096,10.0.1.125,528,move_up,-0.410,-0.410,-0.410,0.000,0.000,0.000
1605183868042309120,10.0.1.125,592,move_up,-0.390,-0.390,-0.390,0.000,0.000,0.000
1605183869781364992,10.0.1.125,550,move_up,-0.370,-0.370,-0.370,0.000,0.000,0.000
1605183871494283008,10.0.1.125,686,move_up,-0.350,-0.350,-0.350,0.000,0.000,0.000
1605183873047105024,10.0.1.125,519,move_up,-0.330,-0.330,-0.330,0.000,0.000,0.000
1605183874759980032,10.0.1.125,581,move_up,-0.310,-0.310,-0.310,0.000,0.000,0.000
1605183876495428096,10.0.1.125,602,move_up,-0.290,-0.290,-0.290,0.000,0.000,0.000
1605183877998440960,10.0.1.125,462,move_up,-0.270,-0.270,-0.270,0.000,0.000,0.000
1605183879613221888,10.0.1.125,495,move_up,-0.250,-0.250,-0.250,0.000,0.000,0.000
1605183881500221952,10.0.1.125,802,move_up,-0.230,-0.230,-0.230,0.000,0.000,0.000
1605183883793744128,10.0.1.125,918,move_up,-0.210,-0.210,-0.210,0.000,0.000,0.000
1605183885561050880,10.0.1.125,639,move_up,-0.190,-0.190,-0.190,0.000,0.000,0.000
1605183886675607040,10.0.1.125,41,place,-0.180,-0.180,-0.180,0.000,0.000,0.000
1605183887687129856,10.0.1.125,52,place,-0.170,-0.170,-0.170,0.000,0.000,0.000
1605183888683031040,10.0.1.125,47,place,-0.160,-0.160,-0.160,0.000,0.000,0.000
1605183889696182016,10.0.1.125,59,place,-0.150,-0.150,-0.150,0.000,0.000,0.000
1605183890678272000,10.0.1.125,38,place,-0.140,-0.140,-0.140,0.000,0.000,0.000
1605183891705076992,10.0.1.125,64,place,-0.130,-0.130,-0.130,0.000,0.000,0.000
1605183892703773952,10.0.1.125,61,place,-0.120,-0.120,-0.120,0.000,0.000,0.000
1605183893686768896,10.0.1.125,43,place,-0.110,-0.110,-0.110,0.000,0.000,0.000
1605183894720132096,10.0.1.125,75,place,-0.100,-0.100,-0.100,0.000,0.000,0.000
1605183895698985984,10.0.1.125,53,place,-0.090,-0.090,-0.090,0.000,0.000,0.000
1605183896687910912,10.0.1.125,40,place,-0.080,-0.080,-0.080,0.000,0.000,0.000
1605183897707561984,10.0.1.125,48,place,-0.070,-0.070,-0.070,0.000,0.000,0.000
1605183898708769024,10.0.1.125,48,place,-0.060,-0.060,-0.060,0.000,0.000,0.000
1605183899731336960,10.0.1.125,65,place,-0.050,-0.050,-0.050,0.000,0.000,0.000
1605183900723164928,10.0.1.125,56,place,-0.040,-0.040,-0.040,0.000,0.000,0.000
1605183901734041088,10.0.1.125,66,place,-0.030,-0.030,-0.030,0.000,0.000,0.000
1605183902727950080,10.0.1.125,59,place,-0.020,-0.020,-0.020,0.000,0.000,0.000
1605183903732656896,10.0.1.125,62,place,-0.010,-0.010,-0.010,0.000,0.000,0.000
1605183904725940992,10.0.1.125,50,place,0.000,0.000,0.000,0.000,0.000,0.000
1605183906213718016,10.0.1.125,536,move_down,-0.020,-0.020,-0.020,0.000,0.000,0.000
1605183907894301952,10.0.1.125,496,move_down,-0.040,-0.040,-0.040,0.000,0.000,0.000
1605183909715982080,10.0.1.125,683,move_down,-0.060,-0.060,-0.060,0.000,0.000,0.000
1605183911496887808,10.0.1.125,571,move_down,-0.080,-0.080,-0.080,0.000,0.000,0.000
1605183913140638976,10.0.1.125,566,move_down,-0.100,-0.100,-0.100,0.000,0.000,0.000
1605183914923680000,10.0.1.125,706,move_down,-0.120,-0.120,-0.120,0.000,0.000,0.000
1605183916641555968,10.0.1.125,615,move_down,-0.140,-0.140,-0.140,0.000,0.000,0.000
1605183918390737920,10.0.1.125,697,move_down,-0.160,-0.160,-0.160,0.000,0.000,0.000
1605183920073369856,10.0.1.125,574,move_down,-0.180,-0.180,-0.180,0.000,0.000,0.000
1605183921719810048,10.0.1.125,597,move_down,-0.200,-0.200,-0.200,0.000,0.000,0.000
1605183923369626880,10.0.1.125,607,move_down,-0.220,-0.220,-0.220,0.000,0.000,0.000
1605183925276206848,10.0.1.125,627,move_down,-0.240,-0.240,-0.240,0.000,0.000,0.000
1605183927128125952,10.0.1.125,651,move_down,-0.260,-0.260,-0.260,0.000,0.000,0.000
1605183929029283072,10.0.1.125,877,move_down,-0.280,-0.280,-0.280,0.000,0.000,0.000
1605183930581876992,10.0.1.125,539,move_down,-0.300,-0.300,-0.300,0.000,0.000,0.000
1605183932274329856,10.0.1.125,598,move_down,-0.320,-0.320,-0.320,0.000,0.000,0.000
1605183934144908032,10.0.1.125,740,move_down,-0.340,-0.340,-0.340,0.000,0.000,0.000
1605183935897430784,10.0.1.125,593,move_down,-0.360,-0.360,-0.360,0.000,0.000,0.000
1605183937666717952,10.0.1.125,732,move_down,-0.380,-0.380,-0.380,0.000,0.000,0.000
1605183939360048128,10.0.1.125,571,move_down,-0.400,-0.400,-0.400,0.000,0.000,0.000
1605183940994359040,10.0.1.125,556,move_down,-0.420,-0.420,-0.420,0.000,0.000,0.000
1605183942711405056,10.0.1.125,612,move_down,-0.440,-0.440,-0.440,0.000,0.000,0.000
1605183944466301952,10.0.1.125,724,move_down,-0.460,-0.460,-0.460,0.000,0.000,0.000
1605183946155280128,10.0.1.125,682,move_down,-0.480,-0.480,-0.480,0.000,0.000,0.000
1605183948259813120,10.0.1.125,990,move_down,-0.500,-0.500,-0.500,0.000,0.000,0.000
1605183949857865984,10.0.1.125,577,move_down,-0.520,-0.520,-0.520,0.000,0.000,0.000
1605183951601263872,10.0.1.125,643,move_down,-0.540,-0.540,-0.540,0.000,0.000,0.000
1605183953139401984,10.0.1.125,527,move_down,-0.560,-0.560,-0.560,0.000,0.000,0.000
1605183954874612992,10.0.1.125,676,move_down,-0.580,-0.580,-0.580,0.000,0.000,0.000
1605183956890371072,10.0.1.125,NaN,pick,-0.600,-0.600,-0.600,0.000,0.000,0.000
1605183956947246080,10.0.1.125,56,pick,-0.600,-0.600,-0.600,0.000,0.000,0.000
1605183957985490176,10.0.1.125,93,pick,-0.610,-0.610,-0.610,0.000,0.000,0.000
1605183958948461056,10.0.1.125,52,pick,-0.620,-0.620,-0.620,0.000,0.000,0.000
1605183959946341120,10.0.1.125,43,pick,-0.630,-0.630,-0.630,0.000,0.000,0.000
1605183961911004928,10.0.1.125,NaN,pick,-0.650,-0.650,-0.650,0.000,0.000,0.000
1605183961954243072,10.0.1.125,43,pick,-0.650,-0.650,-0.650,0.000,0.000,0.000
1605183962985865216,10.0.1.125,71,pick,-0.660,-0.660,-0.660,0.000,0.000,0.000
1605183963986931200,10.0.1.125,70,pick,-0.670,-0.670,-0.670,0.000,0.000,0.000
1605183965924699904,10.0.1.125,NaN,pick,-0.690,-0.690,-0.690,0.000,0.000,0.000
1605183966003439872,10.0.1.125,78,pick,-0.690,-0.690,-0.690,0.000,0.000,0.000
1605183966990451968,10.0.1.125,62,pick,-0.700,-0.700,-0.700,0.000,0.000,0.000
1605183968929588992,10.0.1.125,NaN,pick,-0.720,-0.720,-0.720,0.000,0.000,0.000
1605183968986841856,10.0.1.125,57,pick,-0.720,-0.720,-0.720,0.000,0.000,0.000
1605183969985819136,10.0.1.125,53,pick,-0.730,-0.730,-0.730,0.000,0.000,0.000
1605183970984685824,10.0.1.125,47,pick,-0.740,-0.740,-0.740,0.000,0.000,0.000
1605183972031662080,10.0.1.125,89,pick,-0.750,-0.750,-0.750,0.000,0.000,0.000
1605183972989137920,10.0.1.125,45,pick,-0.760,-0.760,-0.760,0.000,0.000,0.000
1605183973988289024,10.0.1.125,43,pick,-0.770,-0.770,-0.770,0.000,0.000,0.000
1605183975570452992,10.0.1.125,622,move_up,-0.750,-0.750,-0.750,0.000,0.000,0.000
1605183977163040000,10.0.1.125,531,move_up,-0.730,-0.730,-0.730,0.000,0.000,0.000
1605183979102736896,10.0.1.125,714,move_up,-0.710,-0.710,-0.710,0.000,0.000,0.000
1605183980943737088,10.0.1.125,752,move_up,-0.690,-0.690,-0.690,0.000,0.000,0.000
1605183982772041984,10.0.1.125,756,move_up,-0.670,-0.670,-0.670,0.000,0.000,0.000
1605183984397325056,10.0.1.125,511,move_up,-0.650,-0.650,-0.650,0.000,0.000,0.000
1605183986201644800,10.0.1.125,666,move_up,-0.630,-0.630,-0.630,0.000,0.000,0.000
1605183987951378176,10.0.1.125,631,move_up,-0.610,-0.610,-0.610,0.000,0.000,0.000
1605183989602574080,10.0.1.125,614,move_up,-0.590,-0.590,-0.590,0.000,0.000,0.000
1605183991726259968,10.0.1.125,741,move_up,-0.570,-0.570,-0.570,0.000,0.000,0.000
1605183993561576960,10.0.1.125,712,move_up,-0.550,-0.550,-0.550,0.000,0.000,0.000
1605183995438127104,10.0.1.125,804,move_up,-0.530,-0.530,-0.530,0.000,0.000,0.000
1605183997677540096,10.0.1.125,801,move_up,-0.510,-0.510,-0.510,0.000,0.000,0.000
1605183999503756032,10.0.1.125,768,move_up,-0.490,-0.490,-0.490,0.000,0.000,0.000
1605184001234744064,10.0.1.125,675,move_up,-0.470,-0.470,-0.470,0.000,0.000,0.000
1605184003209415936,10.0.1.125,907,move_up,-0.450,-0.450,-0.450,0.000,0.000,0.000
1605184005120374016,10.0.1.125,734,move_up,-0.430,-0.430,-0.430,0.000,0.000,0.000
1605184006890629888,10.0.1.125,615,move_up,-0.410,-0.410,-0.410,0.000,0.000,0.000
1605184008495891968,10.0.1.125,572,move_up,-0.390,-0.390,-0.390,0.000,0.000,0.000
1605184010148225024,10.0.1.125,562,move_up,-0.370,-0.370,-0.370,0.000,0.000,0.000
1605184011903863808,10.0.1.125,625,move_up,-0.350,-0.350,-0.350,0.000,0.000,0.000
1605184013734702080,10.0.1.125,658,move_up,-0.330,-0.330,-0.330,0.000,0.000,0.000
1605184015424806144,10.0.1.125,632,move_up,-0.310,-0.310,-0.310,0.000,0.000,0.000
1605184017183129088,10.0.1.125,658,move_up,-0.290,-0.290,-0.290,0.000,0.000,0.000
1605184019020379904,10.0.1.125,749,move_up,-0.270,-0.270,-0.270,0.000,0.000,0.000
1605184021265513984,10.0.1.125,1019,move_up,-0.250,-0.250,-0.250,0.000,0.000,0.000
1605184023003400960,10.0.1.125,703,move_up,-0.230,-0.230,-0.230,0.000,0.000,0.000
1605184024709211136,10.0.1.125,549,move_up,-0.210,-0.210,-0.210,0.000,0.000,0.000
1605184026705772032,10.0.1.125,834,move_up,-0.190,-0.190,-0.190,0.000,0.000,0.000
1605184028931431936,10.0.1.125,NaN,place,-0.170,-0.170,-0.170,0.000,0.000,0.000
1605184028977886976,10.0.1.125,46,place,-0.170,-0.170,-0.170,0.000,0.000,0.000
1605184029980237056,10.0.1.125,47,place,-0.160,-0.160,-0.160,0.000,0.000,0.000
1605184030978980096,10.0.1.125,43,place,-0.150,-0.150,-0.150,0.000,0.000,0.000
1605184032024879872,10.0.1.125,66,place,-0.140,-0.140,-0.140,0.000,0.000,0.000
1605184033969379840,10.0.1.125,NaN,place,-0.120,-0.120,-0.120,0.000,0.000,0.000
1605184034059695104,10.0.1.125,90,place,-0.120,-0.120,-0.120,0.000,0.000,0.000
1605184035048549888,10.0.1.125,48,place,-0.110,-0.110,-0.110,0.000,0.000,0.000
1605184037005278976,10.0.1.125,NaN,place,-0.090,-0.090,-0.090,0.000,0.000,0.000
1605184037061971968,10.0.1.125,56,place,-0.090,-0.090,-0.090,0.000,0.000,0.000
1605184038065859072,10.0.1.125,57,place,-0.080,-0.080,-0.080,0.000,0.000,0.000
1605184039110546176,10.0.1.125,82,place,-0.070,-0.070,-0.070,0.000,0.000,0.000
1605184040083962880,10.0.1.125,55,place,-0.060,-0.060,-0.060,0.000,0.000,0.000
1605184042037538048,10.0.1.125,NaN,place,-0.040,-0.040,-0.040,0.000,0.000,0.000
1605184042099194112,10.0.1.125,61,place,-0.040,-0.040,-0.040,0.000,0.000,0.000
1605184043089912064,10.0.1.125,43,place,-0.030,-0.030,-0.030,0.000,0.000,0.000
1605184045059480832,10.0.1.125,NaN,place,-0.010,-0.010,-0.010,0.000,0.000,0.000
1605184045159787776,10.0.1.125,100,place,-0.010,-0.010,-0.010,0.000,0.000,0.000
1605184047086448896,10.0.1.125,NaN,move_down,-0.020,-0.020,-0.020,0.000,0.000,0.000
1605184047655086080,10.0.1.125,568,move_down,-0.020,-0.020,-0.020,0.000,0.000,0.000
1605184049465944064,10.0.1.125,731,move_down,-0.040,-0.040,-0.040,0.000,0.000,0.000
1605184051578731008,10.0.1.125,892,move_down,-0.060,-0.060,-0.060,0.000,0.000,0.000
1605184053404197888,10.0.1.125,818,move_down,-0.080,-0.080,-0.080,0.000,0.000,0.000
1605184055211718144,10.0.1.125,685,move_down,-0.100,-0.100,-0.100,0.000,0.000,0.000
1605184057056751872,10.0.1.125,682,move_down,-0.120,-0.120,-0.120,0.000,0.000,0.000
1605184059122759168,10.0.1.125,900,move_down,-0.140,-0.140,-0.140,0.000,0.000,0.000
1605184060928240128,10.0.1.125,697,move_down,-0.160,-0.160,-0.160,0.000,0.000,0.000
1605184063108350976,10.0.1.125,1128,move_down,-0.180,-0.180,-0.180,0.000,0.000,0.000
1605184065227691008,10.0.1.125,1053,move_down,-0.200,-0.200,-0.200,0.000,0.000,0.000
1605184067036376064,10.0.1.125,634,move_down,-0.220,-0.220,-0.220,0.000,0.000,0.000
1605184068873356032,10.0.1.125,757,move_down,-0.240,-0.240,-0.240,0.000,0.000,0.000
1605184070659414016,10.0.1.125,783,move_down,-0.260,-0.260,-0.260,0.000,0.000,0.000
1605184072695940096,10.0.1.125,959,move_down,-0.280,-0.280,-0.280,0.000,0.000,0.000
1605184074382162176,10.0.1.125,547,move_down,-0.300,-0.300,-0.300,0.000,0.000,0.000
1605184076104235008,10.0.1.125,675,move_down,-0.320,-0.320,-0.320,0.000,0.000,0.000
1605184077897864960,10.0.1.125,747,move_down,-0.340,-0.340,-0.340,0.000,0.000,0.000
1605184079639664896,10.0.1.125,677,move_down,-0.360,-0.360,-0.360,0.000,0.000,0.000
1605184081671268864,10.0.1.125,880,move_down,-0.380,-0.380,-0.380,0.000,0.000,0.000
1605184083669344000,10.0.1.125,889,move_down,-0.400,-0.400,-0.400,0.000,0.000,0.000
1605184085632155904,10.0.1.125,783,move_down,-0.420,-0.420,-0.420,0.000,0.000,0.000
1605184087409193984,10.0.1.125,727,move_down,-0.440,-0.440,-0.440,0.000,0.000,0.000
1605184089467024128,10.0.1.125,992,move_down,-0.460,-0.460,-0.460,0.000,0.000,0.000
1605184091329529088,10.0.1.125,741,move_down,-0.480,-0.480,-0.480,0.000,0.000,0.000
1605184093262614016,10.0.1.125,791,move_down,-0.500,-0.500,-0.500,0.000,0.000,0.000
1605184095103126016,10.0.1.125,764,move_down,-0.520,-0.520,-0.520,0.000,0.000,0.000
1605184096908723200,10.0.1.125,731,move_down,-0.540,-0.540,-0.540,0.000,0.000,0.000
1605184098784616960,10.0.1.125,795,move_down,-0.560,-0.560,-0.560,0.000,0.000,0.000
