milangroshev/digital-twin-scalability/logs/run3-60s-nan/10.0.1.140.csv
timestamp,node,latency,action,joint_1,joint_2,joint_3,joint_4,joint_5,joint_6
1605183548526411008,10.0.1.140,NaN,,0.000,0.000,0.000,0.000,0.000,0.000
1605183550533641216,10.0.1.140,2006,,0.000,0.000,0.000,0.000,0.000,0.000
1605183553424280832,10.0.1.140,892,move_down,-0.020,-0.020,-0.020,0.000,0.000,0.000
1605183554932635136,10.0.1.140,466,move_down,-0.040,-0.040,-0.040,0.000,0.000,0.000
1605183556506267904,10.0.1.140,456,move_down,-0.060,-0.060,-0.060,0.000,0.000,0.000
1605183558081032960,10.0.1.140,535,move_down,-0.080,-0.080,-0.080,0.000,0.000,0.000
1605183559613403136,10.0.1.140,453,move_down,-0.100,-0.100,-0.100,0.000,0.000,0.000
1605183561144651008,10.0.1.140,447,move_down,-0.120,-0.120,-0.120,0.000,0.000,0.000
1605183562673067008,10.0.1.140,445,move_down,-0.140,-0.140,-0.140,0.000,0.000,0.000
1605183564216226048,10.0.1.140,470,move_down,-0.160,-0.160,-0.160,0.000,0.000,0.000
1605183565790877184,10.0.1.140,468,move_down,-0.180,-0.180,-0.180,0.000,0.000,0.000
1605183567370678784,10.0.1.140,508,move_down,-0.200,-0.200,-0.200,0.000,0.000,0.000
1605183568914848000,10.0.1.140,455,move_down,-0.220,-0.220,-0.220,0.000,0.000,0.000
1605183570451328000,10.0.1.140,460,move_down,-0.240,-0.240,-0.240,0.000,0.000,0.000
1605183571937107200,10.0.1.140,442,move_down,-0.260,-0.260,-0.260,0.000,0.000,0.000
1605183573506791168,10.0.1.140,485,move_down,-0.280,-0.280,-0.280,0.000,0.000,0.000
1605183575002263040,10.0.1.140,442,move_down,-0.300,-0.300,-0.300,0.000,0.000,0.000
1605183576520845056,10.0.1.140,469,move_down,-0.320,-0.320,-0.320,0.000,0.000,0.000
1605183578111706880,10.0.1.140,508,move_down,-0.340,-0.340,-0.340,0.000,0.000,0.000
1605183579652275200,10.0.1.140,473,move_down,-0.360,-0.360,-0.360,0.000,0.000,0.000
1605183581135077888,10.0.1.140,449,move_down,-0.380,-0.380,-0.380,0.000,0.000,0.000
1605183582570857984,10.0.1.140,443,move_down,-0.400,-0.400,-0.400,0.000,0.000,0.000
1605183584040472064,10.0.1.140,390,move_down,-0.420,-0.420,-0.420,0.000,0.000,0.000
1605183585586176000,10.0.1.140,434,move_down,-0.440,-0.440,-0.440,0.000,0.000,0.000
1605183587082752000,10.0.1.140,421,move_down,-0.460,-0.460,-0.460,0.000,0.000,0.000
1605183588625403904,10.0.1.140,477,move_down,-0.480,-0.480,-0.480,0.000,0.000,0.000
1605183590129751040,10.0.1.140,502,move_down,-0.500,-0.500,-0.500,0.000,0.000,0.000
1605183591611128064,10.0.1.140,410,move_down,-0.520,-0.520,-0.520,0.000,0.000,0.000
1605183593171091968,10.0.1.140,482,move_down,-0.540,-0.540,-0.540,0.000,0.000,0.000
1605183594740411904,10.0.1.140,464,move_down,-0.560,-0.560,-0.560,0.000,0.000,0.000
1605183596271943168,10.0.1.140,463,move_down,-0.580,-0.580,-0.580,0.000,0.000,0.000
1605183597382543104,10.0.1.140,37,pick,-0.590,-0.590,-0.590,0.000,0.000,0.000
1605183598389383168,10.0.1.140,42,pick,-0.600,-0.600,-0.600,0.000,0.000,0.000
1605183599382721792,10.0.1.140,35,pick,-0.610,-0.610,-0.610,0.000,0.000,0.000
1605183600384044032,10.0.1.140,35,pick,-0.620,-0.620,-0.620,0.000,0.000,0.000
1605183601381381888,10.0.1.140,31,pick,-0.630,-0.630,-0.630,0.000,0.000,0.000
1605183602384763904,10.0.1.140,33,pick,-0.640,-0.640,-0.640,0.000,0.000,0.000
1605183603408225024,10.0.1.140,56,pick,-0.650,-0.650,-0.650,0.000,0.000,0.000
1605183604393899008,10.0.1.140,41,pick,-0.660,-0.660,-0.660,0.000,0.000,0.000
1605183605414499072,10.0.1.140,61,pick,-0.670,-0.670,-0.670,0.000,0.000,0.000
1605183606412451072,10.0.1.140,54,pick,-0.680,-0.680,-0.680,0.000,0.000,0.000
1605183607413991936,10.0.1.140,53,pick,-0.690,-0.690,-0.690,0.000,0.000,0.000
1605183608418878976,10.0.1.140,52,pick,-0.700,-0.700,-0.700,0.000,0.000,0.000
1605183609411027968,10.0.1.140,42,pick,-0.710,-0.710,-0.710,0.000,0.000,0.000
1605183610410021120,10.0.1.140,40,pick,-0.720,-0.720,-0.720,0.000,0.000,0.000
1605183611401957120,10.0.1.140,31,pick,-0.730,-0.730,-0.730,0.000,0.000,0.000
1605183613375950080,10.0.1.140,NaN,pick,-0.750,-0.750,-0.750,0.000,0.000,0.000
1605183613424397056,10.0.1.140,48,pick,-0.750,-0.750,-0.750,0.000,0.000,0.000
1605183614423908864,10.0.1.140,47,pick,-0.760,-0.760,-0.760,0.000,0.000,0.000
1605183615438990080,10.0.1.140,61,pick,-0.770,-0.770,-0.770,0.000,0.000,0.000
1605183617116014080,10.0.1.140,737,move_up,-0.750,-0.750,-0.750,0.000,0.000,0.000
1605183618615489024,10.0.1.140,448,move_up,-0.730,-0.730,-0.730,0.000,0.000,0.000
1605183620148111104,10.0.1.140,447,move_up,-0.710,-0.710,-0.710,0.000,0.000,0.000
1605183621675076096,10.0.1.140,447,move_up,-0.690,-0.690,-0.690,0.000,0.000,0.000
1605183623187184128,10.0.1.140,480,move_up,-0.670,-0.670,-0.670,0.000,0.000,0.000
1605183624652015872,10.0.1.140,443,move_up,-0.650,-0.650,-0.650,0.000,0.000,0.000
1605183626260296192,10.0.1.140,521,move_up,-0.630,-0.630,-0.630,0.000,0.000,0.000
1605183627943646976,10.0.1.140,622,move_up,-0.610,-0.610,-0.610,0.000,0.000,0.000
1605183629737840896,10.0.1.140,752,move_up,-0.590,-0.590,-0.590,0.000,0.000,0.000
1605183631537672960,10.0.1.140,711,move_up,-0.570,-0.570,-0.570,0.000,0.000,0.000
1605183633137466880,10.0.1.140,561,move_up,-0.550,-0.550,-0.550,0.000,0.000,0.000
1605183634790627840,10.0.1.140,598,move_up,-0.530,-0.530,-0.530,0.000,0.000,0.000
1605183636520900096,10.0.1.140,641,move_up,-0.510,-0.510,-0.510,0.000,0.000,0.000
1605183638143892992,10.0.1.140,546,move_up,-0.490,-0.490,-0.490,0.000,0.000,0.000
1605183639804709888,10.0.1.140,541,move_up,-0.470,-0.470,-0.470,0.000,0.000,0.000
1605183641370681088,10.0.1.140,446,move_up,-0.450,-0.450,-0.450,0.000,0.000,0.000
1605183643052761088,10.0.1.140,577,move_up,-0.430,-0.430,-0.430,0.000,0.000,0.000
1605183644643877120,10.0.1.140,516,move_up,-0.410,-0.410,-0.410,0.000,0.000,0.000
1605183646166269952,10.0.1.140,475,move_up,-0.390,-0.390,-0.390,0.000,0.000,0.000
1605183647701672960,10.0.1.140,485,move_up,-0.370,-0.370,-0.370,0.000,0.000,0.000
1605183649209559808,10.0.1.140,448,move_up,-0.350,-0.350,-0.350,0.000,0.000,0.000
1605183650822176000,10.0.1.140,498,move_up,-0.330,-0.330,-0.330,0.000,0.000,0.000
1605183652329857024,10.0.1.140,475,move_up,-0.310,-0.310,-0.310,0.000,0.000,0.000
1605183653919204864,10.0.1.140,521,move_up,-0.290,-0.290,-0.290,0.000,0.000,0.000
1605183655533402880,10.0.1.140,533,move_up,-0.270,-0.270,-0.270,0.000,0.000,0.000
1605183657047801088,10.0.1.140,469,move_up,-0.250,-0.250,-0.250,0.000,0.000,0.000
1605183658657857024,10.0.1.140,529,move_up,-0.230,-0.230,-0.230,0.000,0.000,0.000
1605183660246084864,10.0.1.140,495,move_up,-0.210,-0.210,-0.210,0.000,0.000,0.000
1605183661814398976,10.0.1.140,547,move_up,-0.190,-0.190,-0.190,0.000,0.000,0.000
1605183662959105024,10.0.1.140,61,place,-0.180,-0.180,-0.180,0.000,0.000,0.000
1605183663942425088,10.0.1.140,43,place,-0.170,-0.170,-0.170,0.000,0.000,0.000
1605183664954652160,10.0.1.140,53,place,-0.160,-0.160,-0.160,0.000,0.000,0.000
1605183665953206016,10.0.1.140,49,place,-0.150,-0.150,-0.150,0.000,0.000,0.000
1605183666955207936,10.0.1.140,50,place,-0.140,-0.140,-0.140,0.000,0.000,0.000
1605183668006944768,10.0.1.140,100,place,-0.130,-0.130,-0.130,0.000,0.000,0.000
1605183668955463936,10.0.1.140,47,place,-0.120,-0.120,-0.120,0.000,0.000,0.000
1605183669972676096,10.0.1.140,63,place,-0.110,-0.110,-0.110,0.000,0.000,0.000
1605183670964098048,10.0.1.140,53,place,-0.100,-0.100,-0.100,0.000,0.000,0.000
1605183671986699008,10.0.1.140,74,place,-0.090,-0.090,-0.090,0.000,0.000,0.000
1605183673918668032,10.0.1.140,NaN,place,-0.070,-0.070,-0.070,0.000,0.000,0.000
1605183674919794176,10.0.1.140,NaN,place,-0.060,-0.060,-0.060,0.000,0.000,0.000
1605183674994643968,10.0.1.140,74,place,-0.060,-0.060,-0.060,0.000,0.000,0.000
1605183676930171904,10.0.1.140,NaN,place,-0.040,-0.040,-0.040,0.000,0.000,0.000
1605183677008188928,10.0.1.140,77,place,-0.040,-0.040,-0.040,0.000,0.000,0.000
1605183678004982016,10.0.1.140,73,place,-0.030,-0.030,-0.030,0.000,0.000,0.000
1605183679940692992,10.0.1.140,NaN,place,-0.010,-0.010,-0.010,0.000,0.000,0.000
1605183679984211968,10.0.1.140,43,place,-0.010,-0.010,-0.010,0.000,0.000,0.000
1605183681001364992,10.0.1.140,58,place,0.000,0.000,0.000,0.000,0.000,0.000
1605183682620068096,10.0.1.140,675,move_down,-0.020,-0.020,-0.020,0.000,0.000,0.000
1605183684101722880,10.0.1.140,484,move_down,-0.040,-0.040,-0.040,0.000,0.000,0.000
1605183685714027008,10.0.1.140,550,move_down,-0.060,-0.060,-0.060,0.000,0.000,0.000
1605183687248502016,10.0.1.140,461,move_down,-0.080,-0.080,-0.080,0.000,0.000,0.000
1605183688829148160,10.0.1.140,495,move_down,-0.100,-0.100,-0.100,0.000,0.000,0.000
1605183690506889984,10.0.1.140,512,move_down,-0.120,-0.120,-0.120,0.000,0.000,0.000
1605183691990729216,10.0.1.140,458,move_down,-0.140,-0.140,-0.140,0.000,0.000,0.000
1605183693674635776,10.0.1.140,637,move_down,-0.160,-0.160,-0.160,0.000,0.000,0.000
1605183695256026112,10.0.1.140,492,move_down,-0.180,-0.180,-0.180,0.000,0.000,0.000
1605183696776588800,10.0.1.140,460,move_down,-0.200,-0.200,-0.200,0.000,0.000,0.000
1605183698376590080,10.0.1.140,542,move_down,-0.220,-0.220,-0.220,0.000,0.000,0.000
1605183700118128128,10.0.1.140,540,move_down,-0.240,-0.240,-0.240,0.000,0.000,0.000
1605183701710198016,10.0.1.140,504,move_down,-0.260,-0.260,-0.260,0.000,0.000,0.000
1605183703248956928,10.0.1.140,492,move_down,-0.280,-0.280,-0.280,0.000,0.000,0.000
1605183704899333120,10.0.1.140,579,move_down,-0.300,-0.300,-0.300,0.000,0.000,0.000
1605183706474201856,10.0.1.140,459,move_down,-0.320,-0.320,-0.320,0.000,0.000,0.000
1605183708105645824,10.0.1.140,562,move_down,-0.340,-0.340,-0.340,0.000,0.000,0.000
1605183709678301952,10.0.1.140,474,move_down,-0.360,-0.360,-0.360,0.000,0.000,0.000
1605183711278139136,10.0.1.140,517,move_down,-0.380,-0.380,-0.380,0.000,0.000,0.000
1605183712947387904,10.0.1.140,587,move_down,-0.400,-0.400,-0.400,0.000,0.000,0.000
1605183714509892096,10.0.1.140,526,move_down,-0.420,-0.420,-0.420,0.000,0.000,0.000
1605183716046907904,10.0.1.140,448,move_down,-0.440,-0.440,-0.440,0.000,0.000,0.000
1605183717608730112,10.0.1.140,483,move_down,-0.460,-0.460,-0.460,0.000,0.000,0.000
1605183719166113024,10.0.1.140,482,move_down,-0.480,-0.480,-0.480,0.000,0.000,0.000
1605183720740071168,10.0.1.140,497,move_down,-0.500,-0.500,-0.500,0.000,0.000,0.000
1605183722291230976,10.0.1.140,446,move_down,-0.520,-0.520,-0.520,0.000,0.000,0.000
1605183723955284992,10.0.1.140,640,move_down,-0.540,-0.540,-0.540,0.000,0.000,0.000
1605183725568054016,10.0.1.140,460,move_down,-0.560,-0.560,-0.560,0.000,0.000,0.000
1605183727168809984,10.0.1.140,557,move_down,-0.580,-0.580,-0.580,0.000,0.000,0.000
1605183728320854784,10.0.1.140,46,pick,-0.590,-0.590,-0.590,0.000,0.000,0.000
1605183729344589824,10.0.1.140,67,pick,-0.600,-0.600,-0.600,0.000,0.000,0.000
1605183730332200960,10.0.1.140,52,pick,-0.610,-0.610,-0.610,0.000,0.000,0.000
1605183731337346048,10.0.1.140,55,pick,-0.620,-0.620,-0.620,0.000,0.000,0.000
1605183732333526016,10.0.1.140,47,pick,-0.630,-0.630,-0.630,0.000,0.000,0.000
1605183733336438784,10.0.1.140,48,pick,-0.640,-0.640,-0.640,0.000,0.000,0.000
1605183735294625024,10.0.1.140,NaN,pick,-0.660,-0.660,-0.660,0.000,0.000,0.000
1605183735358212096,10.0.1.140,63,pick,-0.660,-0.660,-0.660,0.000,0.000,0.000
1605183736347758080,10.0.1.140,51,pick,-0.670,-0.670,-0.670,0.000,0.000,0.000
1605183737363957760,10.0.1.140,66,pick,-0.680,-0.680,-0.680,0.000,0.000,0.000
1605183738348762112,10.0.1.140,49,pick,-0.690,-0.690,-0.690,0.000,0.000,0.000
1605183739352380160,10.0.1.140,51,pick,-0.700,-0.700,-0.700,0.000,0.000,0.000
1605183740350861056,10.0.1.140,47,pick,-0.710,-0.710,-0.710,0.000,0.000,0.000
1605183741403464192,10.0.1.140,98,pick,-0.720,-0.720,-0.720,0.000,0.000,0.000
1605183743311126016,10.0.1.140,NaN,pick,-0.740,-0.740,-0.740,0.000,0.000,0.000
1605183743355842048,10.0.1.140,44,pick,-0.740,-0.740,-0.740,0.000,0.000,0.000
1605183744380808960,10.0.1.140,67,pick,-0.750,-0.750,-0.750,0.000,0.000,0.000
1605183745408217856,10.0.1.140,92,pick,-0.760,-0.760,-0.760,0.000,0.000,0.000
1605183746382322176,10.0.1.140,64,pick,-0.770,-0.770,-0.770,0.000,0.000,0.000
1605183747870749952,10.0.1.140,551,move_up,-0.750,-0.750,-0.750,0.000,0.000,0.000
1605183749478940928,10.0.1.140,543,move_up,-0.730,-0.730,-0.730,0.000,0.000,0.000
1605183751194194176,10.0.1.140,532,move_up,-0.710,-0.710,-0.710,0.000,0.000,0.000
1605183753393191936,10.0.1.140,1128,move_up,-0.690,-0.690,-0.690,0.000,0.000,0.000
1605183755117677824,10.0.1.140,565,move_up,-0.670,-0.670,-0.670,0.000,0.000,0.000
1605183756827155200,10.0.1.140,593,move_up,-0.650,-0.650,-0.650,0.000,0.000,0.000
1605183758487587840,10.0.1.140,600,move_up,-0.630,-0.630,-0.630,0.000,0.000,0.000
1605183760135111936,10.0.1.140,584,move_up,-0.610,-0.610,-0.610,0.000,0.000,0.000
1605183761672636928,10.0.1.140,481,move_up,-0.590,-0.590,-0.590,0.000,0.000,0.000
1605183763412715008,10.0.1.140,634,move_up,-0.570,-0.570,-0.570,0.000,0.000,0.000
1605183764980623872,10.0.1.140,506,move_up,-0.550,-0.550,-0.550,0.000,0.000,0.000
1605183766761390848,10.0.1.140,635,move_up,-0.530,-0.530,-0.530,0.000,0.000,0.000
1605183768638125056,10.0.1.140,708,move_up,-0.510,-0.510,-0.510,0.000,0.000,0.000
1605183770354796800,10.0.1.140,690,move_up,-0.490,-0.490,-0.490,0.000,0.000,0.000
1605183772104710144,10.0.1.140,673,move_up,-0.470,-0.470,-0.470,0.000,0.000,0.000
1605183773921049088,10.0.1.140,710,move_up,-0.450,-0.450,-0.450,0.000,0.000,0.000
1605183778657892096,10.0.1.140,552,move_up,-0.430,-0.430,-0.430,0.000,0.000,0.000
1605183780255932928,10.0.1.140,555,move_up,-0.410,-0.410,-0.410,0.000,0.000,0.000
1605183781840587008,10.0.1.140,514,move_up,-0.390,-0.390,-0.390,0.000,0.000,0.000
1605183783475624192,10.0.1.140,616,move_up,-0.370,-0.370,-0.370,0.000,0.000,0.000
1605183785085398016,10.0.1.140,504,move_up,-0.350,-0.350,-0.350,0.000,0.000,0.000
1605183786750936064,10.0.1.140,619,move_up,-0.330,-0.330,-0.330,0.000,0.000,0.000
1605183788467053824,10.0.1.140,635,move_up,-0.310,-0.310,-0.310,0.000,0.000,0.000
1605183790185473792,10.0.1.140,698,move_up,-0.290,-0.290,-0.290,0.000,0.000,0.000
1605183791762504960,10.0.1.140,484,move_up,-0.270,-0.270,-0.270,0.000,0.000,0.000
1605183793380523008,10.0.1.140,540,move_up,-0.250,-0.250,-0.250,0.000,0.000,0.000
1605183795001629952,10.0.1.140,573,move_up,-0.230,-0.230,-0.230,0.000,0.000,0.000
1605183796613200896,10.0.1.140,515,move_up,-0.210,-0.210,-0.210,0.000,0.000,0.000
1605183798195017216,10.0.1.140,531,move_up,-0.190,-0.190,-0.190,0.000,0.000,0.000
1605183799320154880,10.0.1.140,43,place,-0.180,-0.180,-0.180,0.000,0.000,0.000
1605183800319015936,10.0.1.140,40,place,-0.170,-0.170,-0.170,0.000,0.000,0.000
1605183801319885056,10.0.1.140,40,place,-0.160,-0.160,-0.160,0.000,0.000,0.000
1605183802332574976,10.0.1.140,51,place,-0.150,-0.150,-0.150,0.000,0.000,0.000
1605183803318646016,10.0.1.140,36,place,-0.140,-0.140,-0.140,0.000,0.000,0.000
1605183804349762816,10.0.1.140,62,place,-0.130,-0.130,-0.130,0.000,0.000,0.000
1605183806296317184,10.0.1.140,NaN,place,-0.110,-0.110,-0.110,0.000,0.000,0.000
1605183806340788992,10.0.1.140,44,place,-0.110,-0.110,-0.110,0.000,0.000,0.000
1605183807380086016,10.0.1.140,83,place,-0.100,-0.100,-0.100,0.000,0.000,0.000
1605183808369725952,10.0.1.140,71,place,-0.090,-0.090,-0.090,0.000,0.000,0.000
1605183810299988992,10.0.1.140,NaN,place,-0.070,-0.070,-0.070,0.000,0.000,0.000
1605183811301302784,10.0.1.140,NaN,place,-0.060,-0.060,-0.060,0.000,0.000,0.000
1605183811359554048,10.0.1.140,58,place,-0.060,-0.060,-0.060,0.000,0.000,0.000
1605183812368299008,10.0.1.140,65,place,-0.050,-0.050,-0.050,0.000,0.000,0.000
1605183813374002944,10.0.1.140,69,place,-0.040,-0.040,-0.040,0.000,0.000,0.000
1605183815307351040,10.0.1.140,NaN,place,-0.020,-0.020,-0.020,0.000,0.000,0.000
1605183815372412928,10.0.1.140,64,place,-0.020,-0.020,-0.020,0.000,0.000,0.000
1605183816450192896,10.0.1.140,141,place,-0.010,-0.010,-0.010,0.000,0.000,0.000
1605183817379777792,10.0.1.140,66,place,0.000,0.000,0.000,0.000,0.000,0.000
1605183818976779008,10.0.1.140,661,move_down,-0.020,-0.020,-0.020,0.000,0.000,0.000
1605183820667412992,10.0.1.140,639,move_down,-0.040,-0.040,-0.040,0.000,0.000,0.000
1605183822328406016,10.0.1.140,607,move_down,-0.060,-0.060,-0.060,0.000,0.000,0.000
1605183824058372096,10.0.1.140,637,move_down,-0.080,-0.080,-0.080,0.000,0.000,0.000
1605183825848412928,10.0.1.140,651,move_down,-0.100,-0.100,-0.100,0.000,0.000,0.000
1605183827549315840,10.0.1.140,517,move_down,-0.120,-0.120,-0.120,0.000,0.000,0.000
1605183829360982784,10.0.1.140,700,move_down,-0.140,-0.140,-0.140,0.000,0.000,0.000
1605183830879113984,10.0.1.140,513,move_down,-0.160,-0.160,-0.160,0.000,0.000,0.000
1605183832522245888,10.0.1.140,609,move_down,-0.180,-0.180,-0.180,0.000,0.000,0.000
1605183834278160128,10.0.1.140,663,move_down,-0.200,-0.200,-0.200,0.000,0.000,0.000
1605183835892524032,10.0.1.140,502,move_down,-0.220,-0.220,-0.220,0.000,0.000,0.000
1605183837553174016,10.0.1.140,596,move_down,-0.240,-0.240,-0.240,0.000,0.000,0.000
1605183839190609920,10.0.1.140,590,move_down,-0.260,-0.260,-0.260,0.000,0.000,0.000
1605183840962467072,10.0.1.140,645,move_down,-0.280,-0.280,-0.280,0.000,0.000,0.000
1605183842631283968,10.0.1.140,595,move_down,-0.300,-0.300,-0.300,0.000,0.000,0.000
1605183844264866048,10.0.1.140,557,move_down,-0.320,-0.320,-0.320,0.000,0.000,0.000
1605183845959169024,10.0.1.140,660,move_down,-0.340,-0.340,-0.340,0.000,0.000,0.000
1605183847589915136,10.0.1.140,557,move_down,-0.360,-0.360,-0.360,0.000,0.000,0.000
1605183849262535168,10.0.1.140,598,move_down,-0.380,-0.380,-0.380,0.000,0.000,0.000
1605183851094002944,10.0.1.140,700,move_down,-0.400,-0.400,-0.400,0.000,0.000,0.000
1605183852793992960,10.0.1.140,586,move_down,-0.420,-0.420,-0.420,0.000,0.000,0.000
1605183854575378944,10.0.1.140,607,move_down,-0.440,-0.440,-0.440,0.000,0.000,0.000
1605183856206124032,10.0.1.140,575,move_down,-0.460,-0.460,-0.460,0.000,0.000,0.000
1605183857957718016,10.0.1.140,648,move_down,-0.480,-0.480,-0.480,0.000,0.000,0.000
1605183859911119104,10.0.1.140,889,move_down,-0.500,-0.500,-0.500,0.000,0.000,0.000
1605183861473225216,10.0.1.140,533,move_down,-0.520,-0.520,-0.520,0.000,0.000,0.000
1605183863070866176,10.0.1.140,536,move_down,-0.540,-0.540,-0.540,0.000,0.000,0.000
1605183864796555008,10.0.1.140,657,move_down,-0.560,-0.560,-0.560,0.000,0.000,0.000
1605183866451208960,10.0.1.140,569,move_down,-0.580,-0.580,-0.580,0.000,0.000,0.000
1605183867569859072,10.0.1.140,40,pick,-0.590,-0.590,-0.590,0.000,0.000,0.000
1605183868571032064,10.0.1.140,40,pick,-0.600,-0.600,-0.600,0.000,0.000,0.000
1605183869571860992,10.0.1.140,38,pick,-0.610,-0.610,-0.610,0.000,0.000,0.000
1605183870581347072,10.0.1.140,46,pick,-0.620,-0.620,-0.620,0.000,0.000,0.000
1605183871598700032,10.0.1.140,56,pick,-0.630,-0.630,-0.630,0.000,0.000,0.000
1605183873547708928,10.0.1.140,NaN,pick,-0.650,-0.650,-0.650,0.000,0.000,0.000
1605183873606085888,10.0.1.140,58,pick,-0.650,-0.650,-0.650,0.000,0.000,0.000
1605183874604816896,10.0.1.140,55,pick,-0.660,-0.660,-0.660,0.000,0.000,0.000
1605183876554529792,10.0.1.140,NaN,pick,-0.680,-0.680,-0.680,0.000,0.000,0.000
1605183876608001024,10.0.1.140,53,pick,-0.680,-0.680,-0.680,0.000,0.000,0.000
1605183877596177152,10.0.1.140,40,pick,-0.690,-0.690,-0.690,0.000,0.000,0.000
1605183879558897920,10.0.1.140,NaN,pick,-0.710,-0.710,-0.710,0.000,0.000,0.000
1605183879612282112,10.0.1.140,53,pick,-0.710,-0.710,-0.710,0.000,0.000,0.000
1605183880610274048,10.0.1.140,40,pick,-0.720,-0.720,-0.720,0.000,0.000,0.000
1605183881618760960,10.0.1.140,47,pick,-0.730,-0.730,-0.730,0.000,0.000,0.000
1605183882635034112,10.0.1.140,62,pick,-0.740,-0.740,-0.740,0.000,0.000,0.000
1605183883620697856,10.0.1.140,43,pick,-0.750,-0.750,-0.750,0.000,0.000,0.000
1605183884673901056,10.0.1.140,94,pick,-0.760,-0.760,-0.760,0.000,0.000,0.000
1605183886586441984,10.0.1.140,NaN,move_up,-0.750,-0.750,-0.750,0.000,0.000,0.000
1605183887231821056,10.0.1.140,645,move_up,-0.750,-0.750,-0.750,0.000,0.000,0.000
1605183888802122240,10.0.1.140,461,move_up,-0.730,-0.730,-0.730,0.000,0.000,0.000
1605183890802511104,10.0.1.140,878,move_up,-0.710,-0.710,-0.710,0.000,0.000,0.000
1605183892470458880,10.0.1.140,650,move_up,-0.690,-0.690,-0.690,0.000,0.000,0.000
1605183894082392832,10.0.1.140,576,move_up,-0.670,-0.670,-0.670,0.000,0.000,0.000
1605183895708897024,10.0.1.140,546,move_up,-0.650,-0.650,-0.650,0.000,0.000,0.000
1605183897424168960,10.0.1.140,669,move_up,-0.630,-0.630,-0.630,0.000,0.000,0.000
1605183899055279872,10.0.1.140,614,move_up,-0.610,-0.610,-0.610,0.000,0.000,0.000
1605183900853583104,10.0.1.140,716,move_up,-0.590,-0.590,-0.590,0.000,0.000,0.000
1605183902582561024,10.0.1.140,667,move_up,-0.570,-0.570,-0.570,0.000,0.000,0.000
1605183904581250816,10.0.1.140,794,move_up,-0.550,-0.550,-0.550,0.000,0.000,0.000
1605183906495617024,10.0.1.140,840,move_up,-0.530,-0.530,-0.530,0.000,0.000,0.000
1605183908249187840,10.0.1.140,633,move_up,-0.510,-0.510,-0.510,0.000,0.000,0.000
1605183910189500160,10.0.1.140,784,move_up,-0.490,-0.490,-0.490,0.000,0.000,0.000
1605183911893559808,10.0.1.140,666,move_up,-0.470,-0.470,-0.470,0.000,0.000,0.000
1605183913641771008,10.0.1.140,662,move_up,-0.450,-0.450,-0.450,0.000,0.000,0.000
1605183915283750144,10.0.1.140,589,move_up,-0.430,-0.430,-0.430,0.000,0.000,0.000
1605183916976706048,10.0.1.140,591,move_up,-0.410,-0.410,-0.410,0.000,0.000,0.000
1605183918660068864,10.0.1.140,552,move_up,-0.390,-0.390,-0.390,0.000,0.000,0.000
1605183920796123904,10.0.1.140,1051,move_up,-0.370,-0.370,-0.370,0.000,0.000,0.000
1605183922556779008,10.0.1.140,662,move_up,-0.350,-0.350,-0.350,0.000,0.000,0.000
1605183924211532032,10.0.1.140,591,move_up,-0.330,-0.330,-0.330,0.000,0.000,0.000
1605183926096510976,10.0.1.140,761,move_up,-0.310,-0.310,-0.310,0.000,0.000,0.000
1605183927868230144,10.0.1.140,526,move_up,-0.290,-0.290,-0.290,0.000,0.000,0.000
1605183928976217088,10.0.1.140,-11,move_up,-0.270,-0.270,-0.270,0.000,0.000,0.000
1605183931192837888,10.0.1.140,500,move_up,-0.250,-0.250,-0.250,0.000,0.000,0.000
1605183932839965952,10.0.1.140,544,move_up,-0.230,-0.230,-0.230,0.000,0.000,0.000
1605183934663533056,10.0.1.140,656,move_up,-0.210,-0.210,-0.210,0.000,0.000,0.000
1605183936311639040,10.0.1.140,608,move_up,-0.190,-0.190,-0.190,0.000,0.000,0.000
1605183938406443008,10.0.1.140,NaN,place,-0.170,-0.170,-0.170,0.000,0.000,0.000
1605183938472193024,10.0.1.140,65,place,-0.170,-0.170,-0.170,0.000,0.000,0.000
1605183939493948928,10.0.1.140,71,place,-0.160,-0.160,-0.160,0.000,0.000,0.000
1605183941427031040,10.0.1.140,NaN,place,-0.140,-0.140,-0.140,0.000,0.000,0.000
1605183941475100928,10.0.1.140,47,place,-0.140,-0.140,-0.140,0.000,0.000,0.000
1605183942503456000,10.0.1.140,70,place,-0.130,-0.130,-0.130,0.000,0.000,0.000
1605183943496666880,10.0.1.140,62,place,-0.120,-0.120,-0.120,0.000,0.000,0.000
1605183944520401920,10.0.1.140,77,place,-0.110,-0.110,-0.110,0.000,0.000,0.000
1605183945503410944,10.0.1.140,51,place,-0.100,-0.100,-0.100,0.000,0.000,0.000
1605183946494370048,10.0.1.140,40,place,-0.090,-0.090,-0.090,0.000,0.000,0.000
1605183947517117952,10.0.1.140,59,place,-0.080,-0.080,-0.080,0.000,0.000,0.000
1605183948511290112,10.0.1.140,51,place,-0.070,-0.070,-0.070,0.000,0.000,0.000
1605183949535494144,10.0.1.140,73,place,-0.060,-0.060,-0.060,0.000,0.000,0.000
1605183950524781056,10.0.1.140,61,place,-0.050,-0.050,-0.050,0.000,0.000,0.000
1605183951519258112,10.0.1.140,54,place,-0.040,-0.040,-0.040,0.000,0.000,0.000
1605183952508809216,10.0.1.140,43,place,-0.030,-0.030,-0.030,0.000,0.000,0.000
1605183954480528128,10.0.1.140,NaN,place,-0.010,-0.010,-0.010,0.000,0.000,0.000
1605183954543924992,10.0.1.140,63,place,-0.010,-0.010,-0.010,0.000,0.000,0.000
1605183956490868992,10.0.1.140,NaN,move_down,-0.020,-0.020,-0.020,0.000,0.000,0.000
1605183956916338944,10.0.1.140,425,move_down,-0.020,-0.020,-0.020,0.000,0.000,0.000
1605183958485523968,10.0.1.140,500,move_down,-0.040,-0.040,-0.040,0.000,0.000,0.000
1605183960050856960,10.0.1.140,519,move_down,-0.060,-0.060,-0.060,0.000,0.000,0.000
1605183961798528000,10.0.1.140,670,move_down,-0.080,-0.080,-0.080,0.000,0.000,0.000
1605183963607072000,10.0.1.140,727,move_down,-0.100,-0.100,-0.100,0.000,0.000,0.000
1605183965475985920,10.0.1.140,653,move_down,-0.120,-0.120,-0.120,0.000,0.000,0.000
1605183967100835072,10.0.1.140,607,move_down,-0.140,-0.140,-0.140,0.000,0.000,0.000
1605183968719645952,10.0.1.140,569,move_down,-0.160,-0.160,-0.160,0.000,0.000,0.000
1605183970477157120,10.0.1.140,684,move_down,-0.180,-0.180,-0.180,0.000,0.000,0.000
1605183972383670016,10.0.1.140,852,move_down,-0.200,-0.200,-0.200,0.000,0.000,0.000
1605183974270836224,10.0.1.140,771,move_down,-0.220,-0.220,-0.220,0.000,0.000,0.000
1605183976046694912,10.0.1.140,747,move_down,-0.240,-0.240,-0.240,0.000,0.000,0.000
1605183977647380992,10.0.1.140,566,move_down,-0.260,-0.260,-0.260,0.000,0.000,0.000
1605183979282028032,10.0.1.140,542,move_down,-0.280,-0.280,-0.280,0.000,0.000,0.000
1605183981223229952,10.0.1.140,721,move_down,-0.300,-0.300,-0.300,0.000,0.000,0.000
1605183982805854976,10.0.1.140,581,move_down,-0.320,-0.320,-0.320,0.000,0.000,0.000
1605183984744016896,10.0.1.140,907,move_down,-0.340,-0.340,-0.340,0.000,0.000,0.000
1605183986617371136,10.0.1.140,762,move_down,-0.360,-0.360,-0.360,0.000,0.000,0.000
1605183988474948864,10.0.1.140,700,move_down,-0.380,-0.380,-0.380,0.000,0.000,0.000
1605183990296119808,10.0.1.140,728,move_down,-0.400,-0.400,-0.400,0.000,0.000,0.000
1605183991864103168,10.0.1.140,525,move_down,-0.420,-0.420,-0.420,0.000,0.000,0.000
1605183993659676928,10.0.1.140,670,move_down,-0.440,-0.440,-0.440,0.000,0.000,0.000
1605183996222151168,10.0.1.140,1495,move_down,-0.460,-0.460,-0.460,0.000,0.000,0.000
1605183998127366144,10.0.1.140,743,move_down,-0.480,-0.480,-0.480,0.000,0.000,0.000
1605183999719038976,10.0.1.140,577,move_down,-0.500,-0.500,-0.500,0.000,0.000,0.000
1605184001528753920,10.0.1.140,733,move_down,-0.520,-0.520,-0.520,0.000,0.000,0.000
1605184003223246080,10.0.1.140,581,move_down,-0.540,-0.540,-0.540,0.000,0.000,0.000
1605184005099198976,10.0.1.140,802,move_down,-0.560,-0.560,-0.560,0.000,0.000,0.000
1605184006932151040,10.0.1.140,744,move_down,-0.580,-0.580,-0.580,0.000,0.000,0.000
1605184008034835200,10.0.1.140,63,pick,-0.590,-0.590,-0.590,0.000,0.000,0.000
1605184009039830016,10.0.1.140,58,pick,-0.600,-0.600,-0.600,0.000,0.000,0.000
1605184010993426944,10.0.1.140,NaN,pick,-0.620,-0.620,-0.620,0.000,0.000,0.000
1605184011054127104,10.0.1.140,60,pick,-0.620,-0.620,-0.620,0.000,0.000,0.000
1605184012064188928,10.0.1.140,69,pick,-0.630,-0.630,-0.630,0.000,0.000,0.000
1605184013996834048,10.0.1.140,NaN,pick,-0.650,-0.650,-0.650,0.000,0.000,0.000
1605184014041946880,10.0.1.140,45,pick,-0.650,-0.650,-0.650,0.000,0.000,0.000
1605184015083863040,10.0.1.140,86,pick,-0.660,-0.660,-0.660,0.000,0.000,0.000
1605184016999613952,10.0.1.140,NaN,pick,-0.680,-0.680,-0.680,0.000,0.000,0.000
1605184018003788032,10.0.1.140,NaN,pick,-0.690,-0.690,-0.690,0.000,0.000,0.000
1605184018068291072,10.0.1.140,64,pick,-0.690,-0.690,-0.690,0.000,0.000,0.000
1605184019042606080,10.0.1.140,38,pick,-0.700,-0.700,-0.700,0.000,0.000,0.000
1605184020083120128,10.0.1.140,77,pick,-0.710,-0.710,-0.710,0.000,0.000,0.000
1605184021087724800,10.0.1.140,66,pick,-0.720,-0.720,-0.720,0.000,0.000,0.000
1605184022099906816,10.0.1.140,53,pick,-0.730,-0.730,-0.730,0.000,0.000,0.000
1605184023099811072,10.0.1.140,51,pick,-0.740,-0.740,-0.740,0.000,0.000,0.000
1605184024097923072,10.0.1.140,45,pick,-0.750,-0.750,-0.750,0.000,0.000,0.000
1605184026055855872,10.0.1.140,NaN,pick,-0.770,-0.770,-0.770,0.000,0.000,0.000
1605184026096440064,10.0.1.140,40,pick,-0.770,-0.770,-0.770,0.000,0.000,0.000
1605184027795944960,10.0.1.140,737,move_up,-0.750,-0.750,-0.750,0.000,0.000,0.000
1605184029607552000,10.0.1.140,710,move_up,-0.730,-0.730,-0.730,0.000,0.000,0.000
1605184031467764992,10.0.1.140,874,move_up,-0.710,-0.710,-0.710,0.000,0.000,0.000
1605184033208674816,10.0.1.140,706,move_up,-0.690,-0.690,-0.690,0.000,0.000,0.000
1605184034892738048,10.0.1.140,593,move_up,-0.670,-0.670,-0.670,0.000,0.000,0.000
1605184036626605056,10.0.1.140,730,move_up,-0.650,-0.650,-0.650,0.000,0.000,0.000
1605184038441432064,10.0.1.140,785,move_up,-0.630,-0.630,-0.630,0.000,0.000,0.000
1605184040631418112,10.0.1.140,1004,move_up,-0.610,-0.610,-0.610,0.000,0.000,0.000
1605184042495835904,10.0.1.140,685,move_up,-0.590,-0.590,-0.590,0.000,0.000,0.000
1605184044522327808,10.0.1.140,694,move_up,-0.570,-0.570,-0.570,0.000,0.000,0.000
1605184046552208896,10.0.1.140,741,move_up,-0.550,-0.550,-0.550,0.000,0.000,0.000
1605184049345844992,10.0.1.140,1719,move_up,-0.530,-0.530,-0.530,0.000,0.000,0.000
1605184051098831872,10.0.1.140,649,move_up,-0.510,-0.510,-0.510,0.000,0.000,0.000
1605184052863572992,10.0.1.140,659,move_up,-0.490,-0.490,-0.490,0.000,0.000,0.000
1605184054677892096,10.0.1.140,789,move_up,-0.470,-0.470,-0.470,0.000,0.000,0.000
1605184056457313024,10.0.1.140,713,move_up,-0.450,-0.450,-0.450,0.000,0.000,0.000
1605184058305784832,10.0.1.140,795,move_up,-0.430,-0.430,-0.430,0.000,0.000,0.000
1605184060677573888,10.0.1.140,1224,move_up,-0.410,-0.410,-0.410,0.000,0.000,0.000
1605184062783482112,10.0.1.140,966,move_up,-0.390,-0.390,-0.390,0.000,0.000,0.000
1605184064916263936,10.0.1.140,1035,move_up,-0.370,-0.370,-0.370,0.000,0.000,0.000
1605184066727368960,10.0.1.140,741,move_up,-0.350,-0.350,-0.350,0.000,0.000,0.000
1605184068420155136,10.0.1.140,652,move_up,-0.330,-0.330,-0.330,0.000,0.000,0.000
1605184070085575168,10.0.1.140,547,move_up,-0.310,-0.310,-0.310,0.000,0.000,0.000
1605184071931699968,10.0.1.140,824,move_up,-0.290,-0.290,-0.290,0.000,0.000,0.000
1605184073752844032,10.0.1.140,745,move_up,-0.270,-0.270,-0.270,0.000,0.000,0.000
1605184075414257920,10.0.1.140,597,move_up,-0.250,-0.250,-0.250,0.000,0.000,0.000
1605184077175538944,10.0.1.140,721,move_up,-0.230,-0.230,-0.230,0.000,0.000,0.000
1605184078949300992,10.0.1.140,591,move_up,-0.210,-0.210,-0.210,0.000,0.000,0.000
1605184080630727168,10.0.1.140,648,move_up,-0.190,-0.190,-0.190,0.000,0.000,0.000
1605184081909359104,10.0.1.140,67,place,-0.180,-0.180,-0.180,0.000,0.000,0.000
1605184083846492928,10.0.1.140,NaN,place,-0.160,-0.160,-0.160,0.000,0.000,0.000
1605184083891905024,10.0.1.140,45,place,-0.160,-0.160,-0.160,0.000,0.000,0.000
1605184085849030912,10.0.1.140,NaN,place,-0.140,-0.140,-0.140,0.000,0.000,0.000
1605184085888640000,10.0.1.140,39,place,-0.140,-0.140,-0.140,0.000,0.000,0.000
1605184086902558208,10.0.1.140,51,place,-0.130,-0.130,-0.130,0.000,0.000,0.000
1605184087930879232,10.0.1.140,79,place,-0.120,-0.120,-0.120,0.000,0.000,0.000
1605184088901346048,10.0.1.140,49,place,-0.110,-0.110,-0.110,0.000,0.000,0.000
1605184089919152128,10.0.1.140,58,place,-0.100,-0.100,-0.100,0.000,0.000,0.000
1605184090948784128,10.0.1.140,73,place,-0.090,-0.090,-0.090,0.000,0.000,0.000
1605184091938426112,10.0.1.140,62,place,-0.080,-0.080,-0.080,0.000,0.000,0.000
1605184092986103040,10.0.1.140,102,place,-0.070,-0.070,-0.070,0.000,0.000,0.000
1605184093938716928,10.0.1.140,52,place,-0.060,-0.060,-0.060,0.000,0.000,0.000
1605184094960988928,10.0.1.140,73,place,-0.050,-0.050,-0.050,0.000,0.000,0.000
1605184095942291968,10.0.1.140,50,place,-0.040,-0.040,-0.040,0.000,0.000,0.000
1605184096980890880,10.0.1.140,76,place,-0.030,-0.030,-0.030,0.000,0.000,0.000
1605184097954701824,10.0.1.140,42,place,-0.020,-0.020,-0.020,0.000,0.000,0.000
1605184099914011904,10.0.1.140,NaN,place,0.000,0.000,0.000,0.000,0.000,0.000
1605184100916727040,10.0.1.140,NaN,move_down,-0.020,-0.020,-0.020,0.000,0.000,0.000
1605184100923783168,10.0.1.140,6,move_down,-0.020,-0.020,-0.020,0.000,0.000,0.000
1605184103183481088,10.0.1.140,699,move_down,-0.040,-0.040,-0.040,0.000,0.000,0.000
1605184104981651968,10.0.1.140,762,move_down,-0.060,-0.060,-0.060,0.000,0.000,0.000
1605184106939305984,10.0.1.140,871,move_down,-0.080,-0.080,-0.080,0.000,0.000,0.000
1605184108831259904,10.0.1.140,781,move_down,-0.100,-0.100,-0.100,0.000,0.000,0.000
1605184110639113984,10.0.1.140,761,move_down,-0.120,-0.120,-0.120,0.000,0.000,0.000
1605184112451149824,10.0.1.140,806,move_down,-0.140,-0.140,-0.140,0.000,0.000,0.000
1605184114364430848,10.0.1.140,806,move_down,-0.160,-0.160,-0.160,0.000,0.000,0.000
1605184116196638208,10.0.1.140,754,move_down,-0.180,-0.180,-0.180,0.000,0.000,0.000
1605184118174923776,10.0.1.140,645,move_down,-0.200,-0.200,-0.200,0.000,0.000,0.000
