milangroshev/digital-twin-scalability/logs/run3-60s-nan/10.0.1.128.csv
timestamp,node,latency,action,joint_1,joint_2,joint_3,joint_4,joint_5,joint_6
1605183016635750144,10.0.1.128,NaN,,0.000,0.000,0.000,0.000,0.000,0.000
1605183018644408064,10.0.1.128,2008,,0.000,0.000,0.000,0.000,0.000,0.000
1605183021244142080,10.0.1.128,603,move_down,-0.020,-0.020,-0.020,0.000,0.000,0.000
1605183022686324992,10.0.1.128,393,move_down,-0.040,-0.040,-0.040,0.000,0.000,0.000
1605183024117274112,10.0.1.128,391,move_down,-0.060,-0.060,-0.060,0.000,0.000,0.000
1605183025545739008,10.0.1.128,386,move_down,-0.080,-0.080,-0.080,0.000,0.000,0.000
1605183026983616000,10.0.1.128,373,move_down,-0.100,-0.100,-0.100,0.000,0.000,0.000
1605183028413047040,10.0.1.128,388,move_down,-0.120,-0.120,-0.120,0.000,0.000,0.000
1605183029844263168,10.0.1.128,370,move_down,-0.140,-0.140,-0.140,0.000,0.000,0.000
1605183031283193088,10.0.1.128,392,move_down,-0.160,-0.160,-0.160,0.000,0.000,0.000
1605183032734593024,10.0.1.128,393,move_down,-0.180,-0.180,-0.180,0.000,0.000,0.000
1605183034163249920,10.0.1.128,368,move_down,-0.200,-0.200,-0.200,0.000,0.000,0.000
1605183035615035904,10.0.1.128,395,move_down,-0.220,-0.220,-0.220,0.000,0.000,0.000
1605183037064503040,10.0.1.128,399,move_down,-0.240,-0.240,-0.240,0.000,0.000,0.000
1605183038513664000,10.0.1.128,406,move_down,-0.260,-0.260,-0.260,0.000,0.000,0.000
1605183039965449984,10.0.1.128,381,move_down,-0.280,-0.280,-0.280,0.000,0.000,0.000
1605183041374447104,10.0.1.128,378,move_down,-0.300,-0.300,-0.300,0.000,0.000,0.000
1605183042833826048,10.0.1.128,394,move_down,-0.320,-0.320,-0.320,0.000,0.000,0.000
1605183044305085952,10.0.1.128,417,move_down,-0.340,-0.340,-0.340,0.000,0.000,0.000
1605183045723485952,10.0.1.128,381,move_down,-0.360,-0.360,-0.360,0.000,0.000,0.000
1605183047153747968,10.0.1.128,371,move_down,-0.380,-0.380,-0.380,0.000,0.000,0.000
1605183048643798016,10.0.1.128,410,move_down,-0.400,-0.400,-0.400,0.000,0.000,0.000
1605183050053696000,10.0.1.128,378,move_down,-0.420,-0.420,-0.420,0.000,0.000,0.000
1605183051474284800,10.0.1.128,369,move_down,-0.440,-0.440,-0.440,0.000,0.000,0.000
1605183052963021056,10.0.1.128,412,move_down,-0.460,-0.460,-0.460,0.000,0.000,0.000
1605183054424404992,10.0.1.128,396,move_down,-0.480,-0.480,-0.480,0.000,0.000,0.000
1605183055836955904,10.0.1.128,366,move_down,-0.500,-0.500,-0.500,0.000,0.000,0.000
1605183057305767936,10.0.1.128,390,move_down,-0.520,-0.520,-0.520,0.000,0.000,0.000
1605183058744635136,10.0.1.128,385,move_down,-0.540,-0.540,-0.540,0.000,0.000,0.000
1605183060195124992,10.0.1.128,390,move_down,-0.560,-0.560,-0.560,0.000,0.000,0.000
1605183061644965888,10.0.1.128,395,move_down,-0.580,-0.580,-0.580,0.000,0.000,0.000
1605183062743362048,10.0.1.128,48,pick,-0.590,-0.590,-0.590,0.000,0.000,0.000
1605183063743542016,10.0.1.128,47,pick,-0.600,-0.600,-0.600,0.000,0.000,0.000
1605183064743820032,10.0.1.128,46,pick,-0.610,-0.610,-0.610,0.000,0.000,0.000
1605183065745007872,10.0.1.128,46,pick,-0.620,-0.620,-0.620,0.000,0.000,0.000
1605183066751239168,10.0.1.128,51,pick,-0.630,-0.630,-0.630,0.000,0.000,0.000
1605183067743130880,10.0.1.128,42,pick,-0.640,-0.640,-0.640,0.000,0.000,0.000
1605183068743101952,10.0.1.128,40,pick,-0.650,-0.650,-0.650,0.000,0.000,0.000
1605183069744643072,10.0.1.128,41,pick,-0.660,-0.660,-0.660,0.000,0.000,0.000
1605183070743606016,10.0.1.128,38,pick,-0.670,-0.670,-0.670,0.000,0.000,0.000
1605183071743632128,10.0.1.128,36,pick,-0.680,-0.680,-0.680,0.000,0.000,0.000
1605183072743875072,10.0.1.128,31,pick,-0.690,-0.690,-0.690,0.000,0.000,0.000
1605183073770978816,10.0.1.128,57,pick,-0.700,-0.700,-0.700,0.000,0.000,0.000
1605183074766223872,10.0.1.128,50,pick,-0.710,-0.710,-0.710,0.000,0.000,0.000
1605183075764278016,10.0.1.128,47,pick,-0.720,-0.720,-0.720,0.000,0.000,0.000
1605183076767951872,10.0.1.128,49,pick,-0.730,-0.730,-0.730,0.000,0.000,0.000
1605183077765793024,10.0.1.128,45,pick,-0.740,-0.740,-0.740,0.000,0.000,0.000
1605183078769912832,10.0.1.128,48,pick,-0.750,-0.750,-0.750,0.000,0.000,0.000
1605183079773776128,10.0.1.128,51,pick,-0.760,-0.760,-0.760,0.000,0.000,0.000
1605183080766733056,10.0.1.128,43,pick,-0.770,-0.770,-0.770,0.000,0.000,0.000
1605183082113903872,10.0.1.128,388,move_up,-0.750,-0.750,-0.750,0.000,0.000,0.000
1605183083556688128,10.0.1.128,382,move_up,-0.730,-0.730,-0.730,0.000,0.000,0.000
1605183084955056896,10.0.1.128,367,move_up,-0.710,-0.710,-0.710,0.000,0.000,0.000
1605183086385965056,10.0.1.128,385,move_up,-0.690,-0.690,-0.690,0.000,0.000,0.000
1605183087874678016,10.0.1.128,401,move_up,-0.670,-0.670,-0.670,0.000,0.000,0.000
1605183089306226944,10.0.1.128,388,move_up,-0.650,-0.650,-0.650,0.000,0.000,0.000
1605183090725413120,10.0.1.128,362,move_up,-0.630,-0.630,-0.630,0.000,0.000,0.000
1605183092174021888,10.0.1.128,370,move_up,-0.610,-0.610,-0.610,0.000,0.000,0.000
1605183093593390848,10.0.1.128,369,move_up,-0.590,-0.590,-0.590,0.000,0.000,0.000
1605183095069257984,10.0.1.128,417,move_up,-0.570,-0.570,-0.570,0.000,0.000,0.000
1605183096506185984,10.0.1.128,403,move_up,-0.550,-0.550,-0.550,0.000,0.000,0.000
1605183098045001984,10.0.1.128,451,move_up,-0.530,-0.530,-0.530,0.000,0.000,0.000
1605183099516817920,10.0.1.128,433,move_up,-0.510,-0.510,-0.510,0.000,0.000,0.000
1605183100934437888,10.0.1.128,370,move_up,-0.490,-0.490,-0.490,0.000,0.000,0.000
1605183102423068160,10.0.1.128,409,move_up,-0.470,-0.470,-0.470,0.000,0.000,0.000
1605183103882824960,10.0.1.128,393,move_up,-0.450,-0.450,-0.450,0.000,0.000,0.000
1605183105335692032,10.0.1.128,404,move_up,-0.430,-0.430,-0.430,0.000,0.000,0.000
1605183106783324928,10.0.1.128,375,move_up,-0.410,-0.410,-0.410,0.000,0.000,0.000
1605183108203156992,10.0.1.128,369,move_up,-0.390,-0.390,-0.390,0.000,0.000,0.000
1605183109643086848,10.0.1.128,398,move_up,-0.370,-0.370,-0.370,0.000,0.000,0.000
1605183111096567040,10.0.1.128,402,move_up,-0.350,-0.350,-0.350,0.000,0.000,0.000
1605183112507675904,10.0.1.128,371,move_up,-0.330,-0.330,-0.330,0.000,0.000,0.000
1605183113963732992,10.0.1.128,394,move_up,-0.310,-0.310,-0.310,0.000,0.000,0.000
1605183115427817984,10.0.1.128,384,move_up,-0.290,-0.290,-0.290,0.000,0.000,0.000
1605183116853108992,10.0.1.128,379,move_up,-0.270,-0.270,-0.270,0.000,0.000,0.000
1605183118310728960,10.0.1.128,391,move_up,-0.250,-0.250,-0.250,0.000,0.000,0.000
1605183119773722880,10.0.1.128,376,move_up,-0.230,-0.230,-0.230,0.000,0.000,0.000
1605183121246341888,10.0.1.128,388,move_up,-0.210,-0.210,-0.210,0.000,0.000,0.000
1605183122704400896,10.0.1.128,403,move_up,-0.190,-0.190,-0.190,0.000,0.000,0.000
1605183123783629824,10.0.1.128,33,place,-0.180,-0.180,-0.180,0.000,0.000,0.000
1605183124784351232,10.0.1.128,32,place,-0.170,-0.170,-0.170,0.000,0.000,0.000
1605183125803533056,10.0.1.128,46,place,-0.160,-0.160,-0.160,0.000,0.000,0.000
1605183127759612160,10.0.1.128,NaN,place,-0.140,-0.140,-0.140,0.000,0.000,0.000
1605183127812140032,10.0.1.128,52,place,-0.140,-0.140,-0.140,0.000,0.000,0.000
1605183128805444864,10.0.1.128,44,place,-0.130,-0.130,-0.130,0.000,0.000,0.000
1605183129804699904,10.0.1.128,41,place,-0.120,-0.120,-0.120,0.000,0.000,0.000
1605183130804884992,10.0.1.128,37,place,-0.110,-0.110,-0.110,0.000,0.000,0.000
1605183131803695872,10.0.1.128,35,place,-0.100,-0.100,-0.100,0.000,0.000,0.000
1605183132806195968,10.0.1.128,36,place,-0.090,-0.090,-0.090,0.000,0.000,0.000
1605183133804261888,10.0.1.128,33,place,-0.080,-0.080,-0.080,0.000,0.000,0.000
1605183134826397952,10.0.1.128,53,place,-0.070,-0.070,-0.070,0.000,0.000,0.000
1605183135823169024,10.0.1.128,48,place,-0.060,-0.060,-0.060,0.000,0.000,0.000
1605183136823601920,10.0.1.128,47,place,-0.050,-0.050,-0.050,0.000,0.000,0.000
1605183137824037120,10.0.1.128,47,place,-0.040,-0.040,-0.040,0.000,0.000,0.000
1605183138823342080,10.0.1.128,45,place,-0.030,-0.030,-0.030,0.000,0.000,0.000
1605183139825062144,10.0.1.128,46,place,-0.020,-0.020,-0.020,0.000,0.000,0.000
1605183140824094976,10.0.1.128,44,place,-0.010,-0.010,-0.010,0.000,0.000,0.000
1605183141829228032,10.0.1.128,45,place,0.000,0.000,0.000,0.000,0.000,0.000
1605183143254068992,10.0.1.128,468,move_down,-0.020,-0.020,-0.020,0.000,0.000,0.000
1605183144696080896,10.0.1.128,410,move_down,-0.040,-0.040,-0.040,0.000,0.000,0.000
1605183146163965952,10.0.1.128,389,move_down,-0.060,-0.060,-0.060,0.000,0.000,0.000
1605183147649373952,10.0.1.128,400,move_down,-0.080,-0.080,-0.080,0.000,0.000,0.000
1605183149083350784,10.0.1.128,390,move_down,-0.100,-0.100,-0.100,0.000,0.000,0.000
1605183150558049792,10.0.1.128,388,move_down,-0.120,-0.120,-0.120,0.000,0.000,0.000
1605183152047860992,10.0.1.128,403,move_down,-0.140,-0.140,-0.140,0.000,0.000,0.000
1605183153492833024,10.0.1.128,392,move_down,-0.160,-0.160,-0.160,0.000,0.000,0.000
1605183154923284992,10.0.1.128,368,move_down,-0.180,-0.180,-0.180,0.000,0.000,0.000
1605183156382618880,10.0.1.128,414,move_down,-0.200,-0.200,-0.200,0.000,0.000,0.000
1605183157843278848,10.0.1.128,384,move_down,-0.220,-0.220,-0.220,0.000,0.000,0.000
1605183159364974848,10.0.1.128,428,move_down,-0.240,-0.240,-0.240,0.000,0.000,0.000
1605183160823585024,10.0.1.128,399,move_down,-0.260,-0.260,-0.260,0.000,0.000,0.000
1605183162294352128,10.0.1.128,383,move_down,-0.280,-0.280,-0.280,0.000,0.000,0.000
1605183163727272960,10.0.1.128,393,move_down,-0.300,-0.300,-0.300,0.000,0.000,0.000
1605183165155406080,10.0.1.128,374,move_down,-0.320,-0.320,-0.320,0.000,0.000,0.000
1605183166564413184,10.0.1.128,353,move_down,-0.340,-0.340,-0.340,0.000,0.000,0.000
1605183167962737920,10.0.1.128,376,move_down,-0.360,-0.360,-0.360,0.000,0.000,0.000
1605183169477630976,10.0.1.128,446,move_down,-0.380,-0.380,-0.380,0.000,0.000,0.000
1605183170944283904,10.0.1.128,400,move_down,-0.400,-0.400,-0.400,0.000,0.000,0.000
1605183172373632000,10.0.1.128,380,move_down,-0.420,-0.420,-0.420,0.000,0.000,0.000
1605183173843139840,10.0.1.128,408,move_down,-0.440,-0.440,-0.440,0.000,0.000,0.000
1605183175336864000,10.0.1.128,426,move_down,-0.460,-0.460,-0.460,0.000,0.000,0.000
1605183176816164864,10.0.1.128,427,move_down,-0.480,-0.480,-0.480,0.000,0.000,0.000
1605183178237780992,10.0.1.128,370,move_down,-0.500,-0.500,-0.500,0.000,0.000,0.000
1605183179684823040,10.0.1.128,369,move_down,-0.520,-0.520,-0.520,0.000,0.000,0.000
1605183181114731008,10.0.1.128,389,move_down,-0.540,-0.540,-0.540,0.000,0.000,0.000
1605183182579063040,10.0.1.128,408,move_down,-0.560,-0.560,-0.560,0.000,0.000,0.000
1605183184045622016,10.0.1.128,423,move_down,-0.580,-0.580,-0.580,0.000,0.000,0.000
1605183185143671040,10.0.1.128,43,pick,-0.590,-0.590,-0.590,0.000,0.000,0.000
1605183186143834112,10.0.1.128,42,pick,-0.600,-0.600,-0.600,0.000,0.000,0.000
1605183187146985984,10.0.1.128,43,pick,-0.610,-0.610,-0.610,0.000,0.000,0.000
1605183188144738048,10.0.1.128,39,pick,-0.620,-0.620,-0.620,0.000,0.000,0.000
1605183189145889024,10.0.1.128,39,pick,-0.630,-0.630,-0.630,0.000,0.000,0.000
1605183190143439104,10.0.1.128,35,pick,-0.640,-0.640,-0.640,0.000,0.000,0.000
1605183191144509952,10.0.1.128,35,pick,-0.650,-0.650,-0.650,0.000,0.000,0.000
1605183192166344960,10.0.1.128,56,pick,-0.660,-0.660,-0.660,0.000,0.000,0.000
1605183193144158976,10.0.1.128,31,pick,-0.670,-0.670,-0.670,0.000,0.000,0.000
1605183194163052032,10.0.1.128,49,pick,-0.680,-0.680,-0.680,0.000,0.000,0.000
1605183195171901952,10.0.1.128,57,pick,-0.690,-0.690,-0.690,0.000,0.000,0.000
1605183196166448128,10.0.1.128,50,pick,-0.700,-0.700,-0.700,0.000,0.000,0.000
1605183197163640064,10.0.1.128,45,pick,-0.710,-0.710,-0.710,0.000,0.000,0.000
1605183198163680000,10.0.1.128,44,pick,-0.720,-0.720,-0.720,0.000,0.000,0.000
1605183199164890112,10.0.1.128,44,pick,-0.730,-0.730,-0.730,0.000,0.000,0.000
1605183200164432128,10.0.1.128,42,pick,-0.740,-0.740,-0.740,0.000,0.000,0.000
1605183201165532160,10.0.1.128,42,pick,-0.750,-0.750,-0.750,0.000,0.000,0.000
1605183202171601920,10.0.1.128,47,pick,-0.760,-0.760,-0.760,0.000,0.000,0.000
1605183203166203904,10.0.1.128,40,pick,-0.770,-0.770,-0.770,0.000,0.000,0.000
1605183204536883200,10.0.1.128,410,move_up,-0.750,-0.750,-0.750,0.000,0.000,0.000
1605183206045785856,10.0.1.128,421,move_up,-0.730,-0.730,-0.730,0.000,0.000,0.000
1605183207660291840,10.0.1.128,413,move_up,-0.710,-0.710,-0.710,0.000,0.000,0.000
1605183209211361024,10.0.1.128,502,move_up,-0.690,-0.690,-0.690,0.000,0.000,0.000
1605183210690888960,10.0.1.128,450,move_up,-0.670,-0.670,-0.670,0.000,0.000,0.000
1605183212251655168,10.0.1.128,493,move_up,-0.650,-0.650,-0.650,0.000,0.000,0.000
1605183213742311936,10.0.1.128,450,move_up,-0.630,-0.630,-0.630,0.000,0.000,0.000
1605183215227766016,10.0.1.128,403,move_up,-0.610,-0.610,-0.610,0.000,0.000,0.000
1605183216738790912,10.0.1.128,455,move_up,-0.590,-0.590,-0.590,0.000,0.000,0.000
1605183218234967040,10.0.1.128,419,move_up,-0.570,-0.570,-0.570,0.000,0.000,0.000
1605183219643704832,10.0.1.128,408,move_up,-0.550,-0.550,-0.550,0.000,0.000,0.000
1605183221113570816,10.0.1.128,401,move_up,-0.530,-0.530,-0.530,0.000,0.000,0.000
1605183222574147072,10.0.1.128,386,move_up,-0.510,-0.510,-0.510,0.000,0.000,0.000
1605183224115664896,10.0.1.128,481,move_up,-0.490,-0.490,-0.490,0.000,0.000,0.000
1605183225561662976,10.0.1.128,410,move_up,-0.470,-0.470,-0.470,0.000,0.000,0.000
1605183227071901184,10.0.1.128,473,move_up,-0.450,-0.450,-0.450,0.000,0.000,0.000
1605183228624028928,10.0.1.128,491,move_up,-0.430,-0.430,-0.430,0.000,0.000,0.000
1605183230170990080,10.0.1.128,441,move_up,-0.410,-0.410,-0.410,0.000,0.000,0.000
1605183231724011008,10.0.1.128,456,move_up,-0.390,-0.390,-0.390,0.000,0.000,0.000
1605183233235408896,10.0.1.128,441,move_up,-0.370,-0.370,-0.370,0.000,0.000,0.000
1605183234725395968,10.0.1.128,438,move_up,-0.350,-0.350,-0.350,0.000,0.000,0.000
1605183236237281024,10.0.1.128,429,move_up,-0.330,-0.330,-0.330,0.000,0.000,0.000
1605183237757560064,10.0.1.128,432,move_up,-0.310,-0.310,-0.310,0.000,0.000,0.000
1605183239224090112,10.0.1.128,394,move_up,-0.290,-0.290,-0.290,0.000,0.000,0.000
1605183240726025216,10.0.1.128,402,move_up,-0.270,-0.270,-0.270,0.000,0.000,0.000
1605183242166949888,10.0.1.128,392,move_up,-0.250,-0.250,-0.250,0.000,0.000,0.000
1605183243565316864,10.0.1.128,367,move_up,-0.230,-0.230,-0.230,0.000,0.000,0.000
1605183245064776960,10.0.1.128,409,move_up,-0.210,-0.210,-0.210,0.000,0.000,0.000
1605183246523789056,10.0.1.128,392,move_up,-0.190,-0.190,-0.190,0.000,0.000,0.000
1605183247626813952,10.0.1.128,40,place,-0.180,-0.180,-0.180,0.000,0.000,0.000
1605183248627480064,10.0.1.128,39,place,-0.170,-0.170,-0.170,0.000,0.000,0.000
1605183249641076992,10.0.1.128,51,place,-0.160,-0.160,-0.160,0.000,0.000,0.000
1605183250642686976,10.0.1.128,51,place,-0.150,-0.150,-0.150,0.000,0.000,0.000
1605183251637451008,10.0.1.128,44,place,-0.140,-0.140,-0.140,0.000,0.000,0.000
1605183252672525824,10.0.1.128,78,place,-0.130,-0.130,-0.130,0.000,0.000,0.000
1605183253652285184,10.0.1.128,44,place,-0.120,-0.120,-0.120,0.000,0.000,0.000
1605183254644078080,10.0.1.128,43,place,-0.110,-0.110,-0.110,0.000,0.000,0.000
1605183255638379008,10.0.1.128,35,place,-0.100,-0.100,-0.100,0.000,0.000,0.000
1605183256641457152,10.0.1.128,36,place,-0.090,-0.090,-0.090,0.000,0.000,0.000
1605183258612478976,10.0.1.128,NaN,place,-0.070,-0.070,-0.070,0.000,0.000,0.000
1605183258657206016,10.0.1.128,44,place,-0.070,-0.070,-0.070,0.000,0.000,0.000
1605183259658263808,10.0.1.128,44,place,-0.060,-0.060,-0.060,0.000,0.000,0.000
1605183260656773120,10.0.1.128,41,place,-0.050,-0.050,-0.050,0.000,0.000,0.000
1605183261662055936,10.0.1.128,45,place,-0.040,-0.040,-0.040,0.000,0.000,0.000
1605183262662106112,10.0.1.128,43,place,-0.030,-0.030,-0.030,0.000,0.000,0.000
1605183263669933056,10.0.1.128,49,place,-0.020,-0.020,-0.020,0.000,0.000,0.000
1605183264669118976,10.0.1.128,47,place,-0.010,-0.010,-0.010,0.000,0.000,0.000
1605183265689398016,10.0.1.128,65,place,0.000,0.000,0.000,0.000,0.000,0.000
1605183267056685056,10.0.1.128,431,move_down,-0.020,-0.020,-0.020,0.000,0.000,0.000
1605183268511163904,10.0.1.128,448,move_down,-0.040,-0.040,-0.040,0.000,0.000,0.000
1605183270031447808,10.0.1.128,447,move_down,-0.060,-0.060,-0.060,0.000,0.000,0.000
1605183271501106944,10.0.1.128,406,move_down,-0.080,-0.080,-0.080,0.000,0.000,0.000
1605183272936790016,10.0.1.128,416,move_down,-0.100,-0.100,-0.100,0.000,0.000,0.000
1605183274506177024,10.0.1.128,468,move_down,-0.120,-0.120,-0.120,0.000,0.000,0.000
1605183276084541184,10.0.1.128,537,move_down,-0.140,-0.140,-0.140,0.000,0.000,0.000
1605183277554840064,10.0.1.128,421,move_down,-0.160,-0.160,-0.160,0.000,0.000,0.000
1605183278967782912,10.0.1.128,403,move_down,-0.180,-0.180,-0.180,0.000,0.000,0.000
1605183280406158080,10.0.1.128,405,move_down,-0.200,-0.200,-0.200,0.000,0.000,0.000
1605183281867753984,10.0.1.128,401,move_down,-0.220,-0.220,-0.220,0.000,0.000,0.000
1605183283325509120,10.0.1.128,410,move_down,-0.240,-0.240,-0.240,0.000,0.000,0.000
1605183284804201984,10.0.1.128,412,move_down,-0.260,-0.260,-0.260,0.000,0.000,0.000
1605183286286526976,10.0.1.128,409,move_down,-0.280,-0.280,-0.280,0.000,0.000,0.000
1605183287814743040,10.0.1.128,422,move_down,-0.300,-0.300,-0.300,0.000,0.000,0.000
1605183289275778048,10.0.1.128,399,move_down,-0.320,-0.320,-0.320,0.000,0.000,0.000
1605183290775188992,10.0.1.128,410,move_down,-0.340,-0.340,-0.340,0.000,0.000,0.000
1605183292264375808,10.0.1.128,464,move_down,-0.360,-0.360,-0.360,0.000,0.000,0.000
1605183293696252160,10.0.1.128,412,move_down,-0.380,-0.380,-0.380,0.000,0.000,0.000
1605183295226708992,10.0.1.128,455,move_down,-0.400,-0.400,-0.400,0.000,0.000,0.000
1605183296695617024,10.0.1.128,410,move_down,-0.420,-0.420,-0.420,0.000,0.000,0.000
1605183298159090944,10.0.1.128,396,move_down,-0.440,-0.440,-0.440,0.000,0.000,0.000
1605183299639169024,10.0.1.128,389,move_down,-0.460,-0.460,-0.460,0.000,0.000,0.000
1605183301143565824,10.0.1.128,412,move_down,-0.480,-0.480,-0.480,0.000,0.000,0.000
1605183302573353984,10.0.1.128,394,move_down,-0.500,-0.500,-0.500,0.000,0.000,0.000
1605183304113011968,10.0.1.128,449,move_down,-0.520,-0.520,-0.520,0.000,0.000,0.000
1605183305705229056,10.0.1.128,421,move_down,-0.540,-0.540,-0.540,0.000,0.000,0.000
1605183307196315136,10.0.1.128,448,move_down,-0.560,-0.560,-0.560,0.000,0.000,0.000
1605183308713319936,10.0.1.128,429,move_down,-0.580,-0.580,-0.580,0.000,0.000,0.000
1605183309819602944,10.0.1.128,37,pick,-0.590,-0.590,-0.590,0.000,0.000,0.000
1605183310836681984,10.0.1.128,53,pick,-0.600,-0.600,-0.600,0.000,0.000,0.000
1605183311834689024,10.0.1.128,49,pick,-0.610,-0.610,-0.610,0.000,0.000,0.000
1605183312833824000,10.0.1.128,47,pick,-0.620,-0.620,-0.620,0.000,0.000,0.000
1605183313834320896,10.0.1.128,46,pick,-0.630,-0.630,-0.630,0.000,0.000,0.000
1605183314835047936,10.0.1.128,45,pick,-0.640,-0.640,-0.640,0.000,0.000,0.000
1605183315834192128,10.0.1.128,43,pick,-0.650,-0.650,-0.650,0.000,0.000,0.000
1605183316833606912,10.0.1.128,41,pick,-0.660,-0.660,-0.660,0.000,0.000,0.000
1605183317833762816,10.0.1.128,40,pick,-0.670,-0.670,-0.670,0.000,0.000,0.000
1605183318833264128,10.0.1.128,38,pick,-0.680,-0.680,-0.680,0.000,0.000,0.000
1605183319833161216,10.0.1.128,36,pick,-0.690,-0.690,-0.690,0.000,0.000,0.000
1605183320841093120,10.0.1.128,43,pick,-0.700,-0.700,-0.700,0.000,0.000,0.000
1605183321841413888,10.0.1.128,42,pick,-0.710,-0.710,-0.710,0.000,0.000,0.000
1605183322834033920,10.0.1.128,33,pick,-0.720,-0.720,-0.720,0.000,0.000,0.000
1605183323834594048,10.0.1.128,32,pick,-0.730,-0.730,-0.730,0.000,0.000,0.000
1605183324840177920,10.0.1.128,36,pick,-0.740,-0.740,-0.740,0.000,0.000,0.000
1605183325854087168,10.0.1.128,49,pick,-0.750,-0.750,-0.750,0.000,0.000,0.000
1605183326856354048,10.0.1.128,50,pick,-0.760,-0.760,-0.760,0.000,0.000,0.000
1605183327860027136,10.0.1.128,52,pick,-0.770,-0.770,-0.770,0.000,0.000,0.000
1605183329234766080,10.0.1.128,422,move_up,-0.750,-0.750,-0.750,0.000,0.000,0.000
1605183330735568128,10.0.1.128,405,move_up,-0.730,-0.730,-0.730,0.000,0.000,0.000
1605183332142584064,10.0.1.128,397,move_up,-0.710,-0.710,-0.710,0.000,0.000,0.000
1605183333594414080,10.0.1.128,392,move_up,-0.690,-0.690,-0.690,0.000,0.000,0.000
1605183335018120960,10.0.1.128,423,move_up,-0.670,-0.670,-0.670,0.000,0.000,0.000
1605183336505047040,10.0.1.128,429,move_up,-0.650,-0.650,-0.650,0.000,0.000,0.000
1605183338039088128,10.0.1.128,444,move_up,-0.630,-0.630,-0.630,0.000,0.000,0.000
1605183339577382144,10.0.1.128,485,move_up,-0.610,-0.610,-0.610,0.000,0.000,0.000
1605183341165575936,10.0.1.128,493,move_up,-0.590,-0.590,-0.590,0.000,0.000,0.000
1605183342658385152,10.0.1.128,446,move_up,-0.570,-0.570,-0.570,0.000,0.000,0.000
1605183344192145152,10.0.1.128,447,move_up,-0.550,-0.550,-0.550,0.000,0.000,0.000
1605183345745785088,10.0.1.128,470,move_up,-0.530,-0.530,-0.530,0.000,0.000,0.000
1605183347307565056,10.0.1.128,481,move_up,-0.510,-0.510,-0.510,0.000,0.000,0.000
1605183348797925120,10.0.1.128,419,move_up,-0.490,-0.490,-0.490,0.000,0.000,0.000
1605183350264539904,10.0.1.128,397,move_up,-0.470,-0.470,-0.470,0.000,0.000,0.000
1605183351801553920,10.0.1.128,434,move_up,-0.450,-0.450,-0.450,0.000,0.000,0.000
1605183353271687936,10.0.1.128,408,move_up,-0.430,-0.430,-0.430,0.000,0.000,0.000
1605183354696645120,10.0.1.128,411,move_up,-0.410,-0.410,-0.410,0.000,0.000,0.000
1605183356177314048,10.0.1.128,414,move_up,-0.390,-0.390,-0.390,0.000,0.000,0.000
1605183357657555200,10.0.1.128,401,move_up,-0.370,-0.370,-0.370,0.000,0.000,0.000
1605183359095547904,10.0.1.128,421,move_up,-0.350,-0.350,-0.350,0.000,0.000,0.000
1605183360576613888,10.0.1.128,424,move_up,-0.330,-0.330,-0.330,0.000,0.000,0.000
1605183362152538112,10.0.1.128,507,move_up,-0.310,-0.310,-0.310,0.000,0.000,0.000
1605183363667815936,10.0.1.128,449,move_up,-0.290,-0.290,-0.290,0.000,0.000,0.000
1605183365176755968,10.0.1.128,424,move_up,-0.270,-0.270,-0.270,0.000,0.000,0.000
1605183366686522880,10.0.1.128,441,move_up,-0.250,-0.250,-0.250,0.000,0.000,0.000
1605183368324363008,10.0.1.128,550,move_up,-0.230,-0.230,-0.230,0.000,0.000,0.000
1605183369895896832,10.0.1.128,482,move_up,-0.210,-0.210,-0.210,0.000,0.000,0.000
1605183371445883904,10.0.1.128,472,move_up,-0.190,-0.190,-0.190,0.000,0.000,0.000
1605183372589869056,10.0.1.128,42,place,-0.180,-0.180,-0.180,0.000,0.000,0.000
1605183373605606144,10.0.1.128,51,place,-0.170,-0.170,-0.170,0.000,0.000,0.000
1605183374615791104,10.0.1.128,56,place,-0.160,-0.160,-0.160,0.000,0.000,0.000
1605183375607817984,10.0.1.128,47,place,-0.150,-0.150,-0.150,0.000,0.000,0.000
1605183376605057024,10.0.1.128,42,place,-0.140,-0.140,-0.140,0.000,0.000,0.000
1605183377608577024,10.0.1.128,44,place,-0.130,-0.130,-0.130,0.000,0.000,0.000
1605183378611471872,10.0.1.128,46,place,-0.120,-0.120,-0.120,0.000,0.000,0.000
1605183379605561856,10.0.1.128,39,place,-0.110,-0.110,-0.110,0.000,0.000,0.000
1605183380609553152,10.0.1.128,41,place,-0.100,-0.100,-0.100,0.000,0.000,0.000
1605183381613088000,10.0.1.128,44,place,-0.090,-0.090,-0.090,0.000,0.000,0.000
1605183382609217024,10.0.1.128,38,place,-0.080,-0.080,-0.080,0.000,0.000,0.000
1605183383628547840,10.0.1.128,53,place,-0.070,-0.070,-0.070,0.000,0.000,0.000
1605183384632262912,10.0.1.128,49,place,-0.060,-0.060,-0.060,0.000,0.000,0.000
1605183385648704000,10.0.1.128,63,place,-0.050,-0.050,-0.050,0.000,0.000,0.000
1605183386626849024,10.0.1.128,40,place,-0.040,-0.040,-0.040,0.000,0.000,0.000
1605183387649513984,10.0.1.128,61,place,-0.030,-0.030,-0.030,0.000,0.000,0.000
1605183388647659008,10.0.1.128,57,place,-0.020,-0.020,-0.020,0.000,0.000,0.000
1605183389635623936,10.0.1.128,42,place,-0.010,-0.010,-0.010,0.000,0.000,0.000
1605183391597405952,10.0.1.128,NaN,move_down,-0.020,-0.020,-0.020,0.000,0.000,0.000
1605183392013603840,10.0.1.128,416,move_down,-0.020,-0.020,-0.020,0.000,0.000,0.000
1605183393563392000,10.0.1.128,466,move_down,-0.040,-0.040,-0.040,0.000,0.000,0.000
1605183395066755072,10.0.1.128,437,move_down,-0.060,-0.060,-0.060,0.000,0.000,0.000
1605183396545310976,10.0.1.128,447,move_down,-0.080,-0.080,-0.080,0.000,0.000,0.000
1605183398072550912,10.0.1.128,443,move_down,-0.100,-0.100,-0.100,0.000,0.000,0.000
1605183399665352192,10.0.1.128,524,move_down,-0.120,-0.120,-0.120,0.000,0.000,0.000
1605183401152455936,10.0.1.128,478,move_down,-0.140,-0.140,-0.140,0.000,0.000,0.000
1605183402592741120,10.0.1.128,415,move_down,-0.160,-0.160,-0.160,0.000,0.000,0.000
1605183404062380032,10.0.1.128,397,move_down,-0.180,-0.180,-0.180,0.000,0.000,0.000
1605183405541182976,10.0.1.128,434,move_down,-0.200,-0.200,-0.200,0.000,0.000,0.000
1605183407082801152,10.0.1.128,489,move_down,-0.220,-0.220,-0.220,0.000,0.000,0.000
1605183408580649984,10.0.1.128,445,move_down,-0.240,-0.240,-0.240,0.000,0.000,0.000
1605183410231009024,10.0.1.128,581,move_down,-0.260,-0.260,-0.260,0.000,0.000,0.000
1605183411746637056,10.0.1.128,460,move_down,-0.280,-0.280,-0.280,0.000,0.000,0.000
1605183413236683008,10.0.1.128,418,move_down,-0.300,-0.300,-0.300,0.000,0.000,0.000
1605183414708813824,10.0.1.128,432,move_down,-0.320,-0.320,-0.320,0.000,0.000,0.000
1605183416259922944,10.0.1.128,450,move_down,-0.340,-0.340,-0.340,0.000,0.000,0.000
1605183417817303808,10.0.1.128,484,move_down,-0.360,-0.360,-0.360,0.000,0.000,0.000
1605183419368720896,10.0.1.128,440,move_down,-0.380,-0.380,-0.380,0.000,0.000,0.000
1605183420899215872,10.0.1.128,450,move_down,-0.400,-0.400,-0.400,0.000,0.000,0.000
1605183422402256896,10.0.1.128,438,move_down,-0.420,-0.420,-0.420,0.000,0.000,0.000
1605183423853200896,10.0.1.128,385,move_down,-0.440,-0.440,-0.440,0.000,0.000,0.000
1605183425365031936,10.0.1.128,412,move_down,-0.460,-0.460,-0.460,0.000,0.000,0.000
1605183426782233856,10.0.1.128,408,move_down,-0.480,-0.480,-0.480,0.000,0.000,0.000
1605183428282236928,10.0.1.128,416,move_down,-0.500,-0.500,-0.500,0.000,0.000,0.000
1605183429830171136,10.0.1.128,474,move_down,-0.520,-0.520,-0.520,0.000,0.000,0.000
1605183431302391040,10.0.1.128,410,move_down,-0.540,-0.540,-0.540,0.000,0.000,0.000
1605183432791536128,10.0.1.128,417,move_down,-0.560,-0.560,-0.560,0.000,0.000,0.000
1605183434327183104,10.0.1.128,463,move_down,-0.580,-0.580,-0.580,0.000,0.000,0.000
1605183435443448064,10.0.1.128,47,pick,-0.590,-0.590,-0.590,0.000,0.000,0.000
1605183436462091008,10.0.1.128,51,pick,-0.600,-0.600,-0.600,0.000,0.000,0.000
1605183437460921088,10.0.1.128,49,pick,-0.610,-0.610,-0.610,0.000,0.000,0.000
1605183438460922880,10.0.1.128,47,pick,-0.620,-0.620,-0.620,0.000,0.000,0.000
1605183439480297216,10.0.1.128,65,pick,-0.630,-0.630,-0.630,0.000,0.000,0.000
1605183440463636992,10.0.1.128,47,pick,-0.640,-0.640,-0.640,0.000,0.000,0.000
1605183441460925952,10.0.1.128,43,pick,-0.650,-0.650,-0.650,0.000,0.000,0.000
1605183442462008064,10.0.1.128,41,pick,-0.660,-0.660,-0.660,0.000,0.000,0.000
1605183443461038080,10.0.1.128,38,pick,-0.670,-0.670,-0.670,0.000,0.000,0.000
1605183444460311808,10.0.1.128,36,pick,-0.680,-0.680,-0.680,0.000,0.000,0.000
1605183446426949888,10.0.1.128,NaN,pick,-0.700,-0.700,-0.700,0.000,0.000,0.000
1605183446464022016,10.0.1.128,36,pick,-0.700,-0.700,-0.700,0.000,0.000,0.000
1605183447459734016,10.0.1.128,29,pick,-0.710,-0.710,-0.710,0.000,0.000,0.000
1605183448480983040,10.0.1.128,49,pick,-0.720,-0.720,-0.720,0.000,0.000,0.000
1605183449480237056,10.0.1.128,36,pick,-0.730,-0.730,-0.730,0.000,0.000,0.000
1605183450483969024,10.0.1.128,38,pick,-0.740,-0.740,-0.740,0.000,0.000,0.000
1605183451484054016,10.0.1.128,37,pick,-0.750,-0.750,-0.750,0.000,0.000,0.000
1605183452490465024,10.0.1.128,42,pick,-0.760,-0.760,-0.760,0.000,0.000,0.000
1605183453502036992,10.0.1.128,52,pick,-0.770,-0.770,-0.770,0.000,0.000,0.000
1605183454875279872,10.0.1.128,424,move_up,-0.750,-0.750,-0.750,0.000,0.000,0.000
1605183456389404928,10.0.1.128,455,move_up,-0.730,-0.730,-0.730,0.000,0.000,0.000
1605183457885818880,10.0.1.128,432,move_up,-0.710,-0.710,-0.710,0.000,0.000,0.000
1605183459430533888,10.0.1.128,465,move_up,-0.690,-0.690,-0.690,0.000,0.000,0.000
1605183460927630848,10.0.1.128,435,move_up,-0.670,-0.670,-0.670,0.000,0.000,0.000
1605183462436306944,10.0.1.128,400,move_up,-0.650,-0.650,-0.650,0.000,0.000,0.000
1605183463906697984,10.0.1.128,442,move_up,-0.630,-0.630,-0.630,0.000,0.000,0.000
1605183465452080896,10.0.1.128,460,move_up,-0.610,-0.610,-0.610,0.000,0.000,0.000
1605183466951351040,10.0.1.128,436,move_up,-0.590,-0.590,-0.590,0.000,0.000,0.000
1605183468383323904,10.0.1.128,422,move_up,-0.570,-0.570,-0.570,0.000,0.000,0.000
1605183469926881024,10.0.1.128,484,move_up,-0.550,-0.550,-0.550,0.000,0.000,0.000
1605183471489368832,10.0.1.128,507,move_up,-0.530,-0.530,-0.530,0.000,0.000,0.000
1605183473051245824,10.0.1.128,459,move_up,-0.510,-0.510,-0.510,0.000,0.000,0.000
1605183474611991808,10.0.1.128,468,move_up,-0.490,-0.490,-0.490,0.000,0.000,0.000
1605183476154360064,10.0.1.128,487,move_up,-0.470,-0.470,-0.470,0.000,0.000,0.000
1605183477801650944,10.0.1.128,588,move_up,-0.450,-0.450,-0.450,0.000,0.000,0.000
1605183479451764224,10.0.1.128,520,move_up,-0.430,-0.430,-0.430,0.000,0.000,0.000
1605183481084794112,10.0.1.128,562,move_up,-0.410,-0.410,-0.410,0.000,0.000,0.000
1605183482698352128,10.0.1.128,458,move_up,-0.390,-0.390,-0.390,0.000,0.000,0.000
1605183484262780928,10.0.1.128,475,move_up,-0.370,-0.370,-0.370,0.000,0.000,0.000
1605183485757730048,10.0.1.128,432,move_up,-0.350,-0.350,-0.350,0.000,0.000,0.000
1605183487269729024,10.0.1.128,455,move_up,-0.330,-0.330,-0.330,0.000,0.000,0.000
1605183488898107904,10.0.1.128,487,move_up,-0.310,-0.310,-0.310,0.000,0.000,0.000
1605183490427694080,10.0.1.128,458,move_up,-0.290,-0.290,-0.290,0.000,0.000,0.000
1605183492009252096,10.0.1.128,505,move_up,-0.270,-0.270,-0.270,0.000,0.000,0.000
1605183493590039040,10.0.1.128,513,move_up,-0.250,-0.250,-0.250,0.000,0.000,0.000
1605183495327325184,10.0.1.128,627,move_up,-0.230,-0.230,-0.230,0.000,0.000,0.000
1605183496919840000,10.0.1.128,483,move_up,-0.210,-0.210,-0.210,0.000,0.000,0.000
1605183498423928064,10.0.1.128,460,move_up,-0.190,-0.190,-0.190,0.000,0.000,0.000
1605183499560276992,10.0.1.128,47,place,-0.180,-0.180,-0.180,0.000,0.000,0.000
1605183500557497088,10.0.1.128,42,place,-0.170,-0.170,-0.170,0.000,0.000,0.000
1605183501560633856,10.0.1.128,44,place,-0.160,-0.160,-0.160,0.000,0.000,0.000
1605183502558275840,10.0.1.128,41,place,-0.150,-0.150,-0.150,0.000,0.000,0.000
1605183503557414144,10.0.1.128,39,place,-0.140,-0.140,-0.140,0.000,0.000,0.000
1605183504564857088,10.0.1.128,45,place,-0.130,-0.130,-0.130,0.000,0.000,0.000
1605183505571689984,10.0.1.128,50,place,-0.120,-0.120,-0.120,0.000,0.000,0.000
1605183506562169088,10.0.1.128,39,place,-0.110,-0.110,-0.110,0.000,0.000,0.000
1605183507560978944,10.0.1.128,37,place,-0.100,-0.100,-0.100,0.000,0.000,0.000
1605183508579814912,10.0.1.128,54,place,-0.090,-0.090,-0.090,0.000,0.000,0.000
1605183509561733120,10.0.1.128,35,place,-0.080,-0.080,-0.080,0.000,0.000,0.000
1605183510566426112,10.0.1.128,38,place,-0.070,-0.070,-0.070,0.000,0.000,0.000
1605183511584322048,10.0.1.128,55,place,-0.060,-0.060,-0.060,0.000,0.000,0.000
1605183512582946048,10.0.1.128,52,place,-0.050,-0.050,-0.050,0.000,0.000,0.000
1605183513584435968,10.0.1.128,53,place,-0.040,-0.040,-0.040,0.000,0.000,0.000
1605183514581321984,10.0.1.128,48,place,-0.030,-0.030,-0.030,0.000,0.000,0.000
1605183515576894976,10.0.1.128,42,place,-0.020,-0.020,-0.020,0.000,0.000,0.000
1605183517541084928,10.0.1.128,NaN,place,0.000,0.000,0.000,0.000,0.000,0.000
1605183517579486976,10.0.1.128,38,place,0.000,0.000,0.000,0.000,0.000,0.000
1605183519050779136,10.0.1.128,508,move_down,-0.020,-0.020,-0.020,0.000,0.000,0.000
1605183520587613952,10.0.1.128,468,move_down,-0.040,-0.040,-0.040,0.000,0.000,0.000
1605183522115303936,10.0.1.128,526,move_down,-0.060,-0.060,-0.060,0.000,0.000,0.000
1605183523678808832,10.0.1.128,484,move_down,-0.080,-0.080,-0.080,0.000,0.000,0.000
1605183525203329024,10.0.1.128,448,move_down,-0.100,-0.100,-0.100,0.000,0.000,0.000
1605183526712941824,10.0.1.128,467,move_down,-0.120,-0.120,-0.120,0.000,0.000,0.000
1605183528222817792,10.0.1.128,463,move_down,-0.140,-0.140,-0.140,0.000,0.000,0.000
1605183529776809984,10.0.1.128,495,move_down,-0.160,-0.160,-0.160,0.000,0.000,0.000
1605183531302504960,10.0.1.128,474,move_down,-0.180,-0.180,-0.180,0.000,0.000,0.000
1605183532845065216,10.0.1.128,463,move_down,-0.200,-0.200,-0.200,0.000,0.000,0.000
1605183534417527808,10.0.1.128,479,move_down,-0.220,-0.220,-0.220,0.000,0.000,0.000
1605183535984275968,10.0.1.128,518,move_down,-0.240,-0.240,-0.240,0.000,0.000,0.000
1605183537572009984,10.0.1.128,517,move_down,-0.260,-0.260,-0.260,0.000,0.000,0.000
1605183539090281984,10.0.1.128,479,move_down,-0.280,-0.280,-0.280,0.000,0.000,0.000
1605183540672844032,10.0.1.128,564,move_down,-0.300,-0.300,-0.300,0.000,0.000,0.000
1605183542379046912,10.0.1.128,499,move_down,-0.320,-0.320,-0.320,0.000,0.000,0.000
1605183543981875968,10.0.1.128,576,move_down,-0.340,-0.340,-0.340,0.000,0.000,0.000
1605183545674910976,10.0.1.128,492,move_down,-0.360,-0.360,-0.360,0.000,0.000,0.000
1605183547144731136,10.0.1.128,394,move_down,-0.380,-0.380,-0.380,0.000,0.000,0.000
1605183548715543040,10.0.1.128,484,move_down,-0.400,-0.400,-0.400,0.000,0.000,0.000
1605183550338409984,10.0.1.128,565,move_down,-0.420,-0.420,-0.420,0.000,0.000,0.000
1605183551976172032,10.0.1.128,576,move_down,-0.440,-0.440,-0.440,0.000,0.000,0.000
1605183553496459008,10.0.1.128,454,move_down,-0.460,-0.460,-0.460,0.000,0.000,0.000
1605183555042594816,10.0.1.128,467,move_down,-0.480,-0.480,-0.480,0.000,0.000,0.000
1605183556575190016,10.0.1.128,461,move_down,-0.500,-0.500,-0.500,0.000,0.000,0.000
1605183558291488768,10.0.1.128,677,move_down,-0.520,-0.520,-0.520,0.000,0.000,0.000
1605183559865283840,10.0.1.128,497,move_down,-0.540,-0.540,-0.540,0.000,0.000,0.000
1605183561387945984,10.0.1.128,468,move_down,-0.560,-0.560,-0.560,0.000,0.000,0.000
1605183562975320064,10.0.1.128,500,move_down,-0.580,-0.580,-0.580,0.000,0.000,0.000
1605183565028435968,10.0.1.128,NaN,pick,-0.600,-0.600,-0.600,0.000,0.000,0.000
1605183566032833024,10.0.1.128,NaN,pick,-0.610,-0.610,-0.610,0.000,0.000,0.000
1605183566078211072,10.0.1.128,45,pick,-0.610,-0.610,-0.610,0.000,0.000,0.000
1605183567076105216,10.0.1.128,37,pick,-0.620,-0.620,-0.620,0.000,0.000,0.000
1605183568084265984,10.0.1.128,43,pick,-0.630,-0.630,-0.630,0.000,0.000,0.000
1605183569086906880,10.0.1.128,44,pick,-0.640,-0.640,-0.640,0.000,0.000,0.000
1605183570077383936,10.0.1.128,33,pick,-0.650,-0.650,-0.650,0.000,0.000,0.000
1605183571085440000,10.0.1.128,36,pick,-0.660,-0.660,-0.660,0.000,0.000,0.000
1605183572104476928,10.0.1.128,54,pick,-0.670,-0.670,-0.670,0.000,0.000,0.000
1605183573104914944,10.0.1.128,53,pick,-0.680,-0.680,-0.680,0.000,0.000,0.000
1605183574098764032,10.0.1.128,45,pick,-0.690,-0.690,-0.690,0.000,0.000,0.000
1605183575106177024,10.0.1.128,51,pick,-0.700,-0.700,-0.700,0.000,0.000,0.000
1605183576100858880,10.0.1.128,45,pick,-0.710,-0.710,-0.710,0.000,0.000,0.000
1605183577100989952,10.0.1.128,43,pick,-0.720,-0.720,-0.720,0.000,0.000,0.000
1605183578098167808,10.0.1.128,34,pick,-0.730,-0.730,-0.730,0.000,0.000,0.000
1605183579098735104,10.0.1.128,33,pick,-0.740,-0.740,-0.740,0.000,0.000,0.000
1605183580112626176,10.0.1.128,47,pick,-0.750,-0.750,-0.750,0.000,0.000,0.000
1605183581097942016,10.0.1.128,31,pick,-0.760,-0.760,-0.760,0.000,0.000,0.000
1605183582117192960,10.0.1.128,49,pick,-0.770,-0.770,-0.770,0.000,0.000,0.000
1605183583618649088,10.0.1.128,549,move_up,-0.750,-0.750,-0.750,0.000,0.000,0.000
1605183585215617024,10.0.1.128,501,move_up,-0.730,-0.730,-0.730,0.000,0.000,0.000
1605183586804875008,10.0.1.128,509,move_up,-0.710,-0.710,-0.710,0.000,0.000,0.000
1605183588345936896,10.0.1.128,500,move_up,-0.690,-0.690,-0.690,0.000,0.000,0.000
1605183590012926976,10.0.1.128,610,move_up,-0.670,-0.670,-0.670,0.000,0.000,0.000
1605183591453600000,10.0.1.128,429,move_up,-0.650,-0.650,-0.650,0.000,0.000,0.000
1605183592982419968,10.0.1.128,477,move_up,-0.630,-0.630,-0.630,0.000,0.000,0.000
1605183594548124928,10.0.1.128,486,move_up,-0.610,-0.610,-0.610,0.000,0.000,0.000
1605183596069457920,10.0.1.128,469,move_up,-0.590,-0.590,-0.590,0.000,0.000,0.000
1605183597540738048,10.0.1.128,458,move_up,-0.570,-0.570,-0.570,0.000,0.000,0.000
1605183599023117056,10.0.1.128,414,move_up,-0.550,-0.550,-0.550,0.000,0.000,0.000
1605183600587105024,10.0.1.128,459,move_up,-0.530,-0.530,-0.530,0.000,0.000,0.000
1605183602148456960,10.0.1.128,465,move_up,-0.510,-0.510,-0.510,0.000,0.000,0.000
1605183603706893056,10.0.1.128,509,move_up,-0.490,-0.490,-0.490,0.000,0.000,0.000
1605183605261896960,10.0.1.128,467,move_up,-0.470,-0.470,-0.470,0.000,0.000,0.000
1605183606798594048,10.0.1.128,449,move_up,-0.450,-0.450,-0.450,0.000,0.000,0.000
1605183608428752896,10.0.1.128,581,move_up,-0.430,-0.430,-0.430,0.000,0.000,0.000
1605183609973912064,10.0.1.128,498,move_up,-0.410,-0.410,-0.410,0.000,0.000,0.000
1605183611518222080,10.0.1.128,475,move_up,-0.390,-0.390,-0.390,0.000,0.000,0.000
1605183613202838784,10.0.1.128,566,move_up,-0.370,-0.370,-0.370,0.000,0.000,0.000
1605183614797648896,10.0.1.128,542,move_up,-0.350,-0.350,-0.350,0.000,0.000,0.000
1605183616494071040,10.0.1.128,626,move_up,-0.330,-0.330,-0.330,0.000,0.000,0.000
1605183618082055936,10.0.1.128,484,move_up,-0.310,-0.310,-0.310,0.000,0.000,0.000
1605183619599767040,10.0.1.128,427,move_up,-0.290,-0.290,-0.290,0.000,0.000,0.000
1605183621153165056,10.0.1.128,453,move_up,-0.270,-0.270,-0.270,0.000,0.000,0.000
1605183622656449024,10.0.1.128,439,move_up,-0.250,-0.250,-0.250,0.000,0.000,0.000
1605183624213473024,10.0.1.128,475,move_up,-0.230,-0.230,-0.230,0.000,0.000,0.000
1605183625760616960,10.0.1.128,471,move_up,-0.210,-0.210,-0.210,0.000,0.000,0.000
1605183627343170816,10.0.1.128,523,move_up,-0.190,-0.190,-0.190,0.000,0.000,0.000
1605183628507569152,10.0.1.128,39,place,-0.180,-0.180,-0.180,0.000,0.000,0.000
1605183629525795072,10.0.1.128,56,place,-0.170,-0.170,-0.170,0.000,0.000,0.000
1605183630504730880,10.0.1.128,34,place,-0.160,-0.160,-0.160,0.000,0.000,0.000
1605183631507403008,10.0.1.128,35,place,-0.150,-0.150,-0.150,0.000,0.000,0.000
1605183632543879936,10.0.1.128,68,place,-0.140,-0.140,-0.140,0.000,0.000,0.000
1605183633535394816,10.0.1.128,55,place,-0.130,-0.130,-0.130,0.000,0.000,0.000
1605183634535533824,10.0.1.128,53,place,-0.120,-0.120,-0.120,0.000,0.000,0.000
1605183635530307072,10.0.1.128,46,place,-0.110,-0.110,-0.110,0.000,0.000,0.000
1605183636527295232,10.0.1.128,41,place,-0.100,-0.100,-0.100,0.000,0.000,0.000
1605183637527164928,10.0.1.128,40,place,-0.090,-0.090,-0.090,0.000,0.000,0.000
1605183638551876096,10.0.1.128,64,place,-0.080,-0.080,-0.080,0.000,0.000,0.000
1605183639544548864,10.0.1.128,54,place,-0.070,-0.070,-0.070,0.000,0.000,0.000
1605183640540818944,10.0.1.128,48,place,-0.060,-0.060,-0.060,0.000,0.000,0.000
1605183641546494976,10.0.1.128,46,place,-0.050,-0.050,-0.050,0.000,0.000,0.000
1605183642552660992,10.0.1.128,50,place,-0.040,-0.040,-0.040,0.000,0.000,0.000
1605183643544241920,10.0.1.128,41,place,-0.030,-0.030,-0.030,0.000,0.000,0.000
1605183644544014848,10.0.1.128,40,place,-0.020,-0.020,-0.020,0.000,0.000,0.000
1605183645574071808,10.0.1.128,67,place,-0.010,-0.010,-0.010,0.000,0.000,0.000
1605183646557771008,10.0.1.128,50,place,0.000,0.000,0.000,0.000,0.000,0.000
1605183648015995136,10.0.1.128,508,move_down,-0.020,-0.020,-0.020,0.000,0.000,0.000
1605183649631709952,10.0.1.128,433,move_down,-0.040,-0.040,-0.040,0.000,0.000,0.000
1605183651191639040,10.0.1.128,452,move_down,-0.060,-0.060,-0.060,0.000,0.000,0.000
1605183652814394112,10.0.1.128,530,move_down,-0.080,-0.080,-0.080,0.000,0.000,0.000
1605183654306982144,10.0.1.128,477,move_down,-0.100,-0.100,-0.100,0.000,0.000,0.000
1605183655882396928,10.0.1.128,485,move_down,-0.120,-0.120,-0.120,0.000,0.000,0.000
1605183657382464000,10.0.1.128,498,move_down,-0.140,-0.140,-0.140,0.000,0.000,0.000
1605183658858547968,10.0.1.128,423,move_down,-0.160,-0.160,-0.160,0.000,0.000,0.000
1605183660559459072,10.0.1.128,662,move_down,-0.180,-0.180,-0.180,0.000,0.000,0.000
1605183662097171968,10.0.1.128,448,move_down,-0.200,-0.200,-0.200,0.000,0.000,0.000
1605183663661120000,10.0.1.128,484,move_down,-0.220,-0.220,-0.220,0.000,0.000,0.000
1605183665267257856,10.0.1.128,579,move_down,-0.240,-0.240,-0.240,0.000,0.000,0.000
1605183666781826048,10.0.1.128,453,move_down,-0.260,-0.260,-0.260,0.000,0.000,0.000
1605183668462071808,10.0.1.128,577,move_down,-0.280,-0.280,-0.280,0.000,0.000,0.000
1605183670058688000,10.0.1.128,491,move_down,-0.300,-0.300,-0.300,0.000,0.000,0.000
1605183671772273920,10.0.1.128,582,move_down,-0.320,-0.320,-0.320,0.000,0.000,0.000
1605183673333574912,10.0.1.128,460,move_down,-0.340,-0.340,-0.340,0.000,0.000,0.000
1605183674851985920,10.0.1.128,437,move_down,-0.360,-0.360,-0.360,0.000,0.000,0.000
1605183676585846016,10.0.1.128,615,move_down,-0.380,-0.380,-0.380,0.000,0.000,0.000
1605183678243791104,10.0.1.128,624,move_down,-0.400,-0.400,-0.400,0.000,0.000,0.000
1605183679765278976,10.0.1.128,455,move_down,-0.420,-0.420,-0.420,0.000,0.000,0.000
1605183681430536960,10.0.1.128,568,move_down,-0.440,-0.440,-0.440,0.000,0.000,0.000
1605183683022285824,10.0.1.128,503,move_down,-0.460,-0.460,-0.460,0.000,0.000,0.000
1605183684628407040,10.0.1.128,540,move_down,-0.480,-0.480,-0.480,0.000,0.000,0.000
1605183686257238016,10.0.1.128,523,move_down,-0.500,-0.500,-0.500,0.000,0.000,0.000
1605183687772620032,10.0.1.128,469,move_down,-0.520,-0.520,-0.520,0.000,0.000,0.000
1605183689353275136,10.0.1.128,550,move_down,-0.540,-0.540,-0.540,0.000,0.000,0.000
1605183690974777088,10.0.1.128,539,move_down,-0.560,-0.560,-0.560,0.000,0.000,0.000
1605183692677510144,10.0.1.128,610,move_down,-0.580,-0.580,-0.580,0.000,0.000,0.000
1605183693752049920,10.0.1.128,33,pick,-0.590,-0.590,-0.590,0.000,0.000,0.000
1605183694753304064,10.0.1.128,33,pick,-0.600,-0.600,-0.600,0.000,0.000,0.000
1605183695787234048,10.0.1.128,66,pick,-0.610,-0.610,-0.610,0.000,0.000,0.000
1605183696771454208,10.0.1.128,49,pick,-0.620,-0.620,-0.620,0.000,0.000,0.000
1605183697773679872,10.0.1.128,49,pick,-0.630,-0.630,-0.630,0.000,0.000,0.000
1605183698772311040,10.0.1.128,46,pick,-0.640,-0.640,-0.640,0.000,0.000,0.000
1605183699778008064,10.0.1.128,50,pick,-0.650,-0.650,-0.650,0.000,0.000,0.000
1605183700773982976,10.0.1.128,45,pick,-0.660,-0.660,-0.660,0.000,0.000,0.000
1605183701795478016,10.0.1.128,62,pick,-0.670,-0.670,-0.670,0.000,0.000,0.000
1605183702804753920,10.0.1.128,69,pick,-0.680,-0.680,-0.680,0.000,0.000,0.000
1605183703775005184,10.0.1.128,37,pick,-0.690,-0.690,-0.690,0.000,0.000,0.000
1605183704785295872,10.0.1.128,44,pick,-0.700,-0.700,-0.700,0.000,0.000,0.000
1605183705792148224,10.0.1.128,49,pick,-0.710,-0.710,-0.710,0.000,0.000,0.000
1605183706798539008,10.0.1.128,54,pick,-0.720,-0.720,-0.720,0.000,0.000,0.000
1605183707808760832,10.0.1.128,33,pick,-0.730,-0.730,-0.730,0.000,0.000,0.000
1605183708841916160,10.0.1.128,60,pick,-0.740,-0.740,-0.740,0.000,0.000,0.000
1605183709830295040,10.0.1.128,46,pick,-0.750,-0.750,-0.750,0.000,0.000,0.000
1605183710828056064,10.0.1.128,42,pick,-0.760,-0.760,-0.760,0.000,0.000,0.000
1605183711871406080,10.0.1.128,74,pick,-0.770,-0.770,-0.770,0.000,0.000,0.000
1605183713315345152,10.0.1.128,514,move_up,-0.750,-0.750,-0.750,0.000,0.000,0.000
1605183714849095936,10.0.1.128,424,move_up,-0.730,-0.730,-0.730,0.000,0.000,0.000
1605183716417054976,10.0.1.128,467,move_up,-0.710,-0.710,-0.710,0.000,0.000,0.000
1605183718091680000,10.0.1.128,575,move_up,-0.690,-0.690,-0.690,0.000,0.000,0.000
1605183719715490048,10.0.1.128,554,move_up,-0.670,-0.670,-0.670,0.000,0.000,0.000
1605183721347641088,10.0.1.128,566,move_up,-0.650,-0.650,-0.650,0.000,0.000,0.000
1605183722892302080,10.0.1.128,524,move_up,-0.630,-0.630,-0.630,0.000,0.000,0.000
1605183724359973888,10.0.1.128,446,move_up,-0.610,-0.610,-0.610,0.000,0.000,0.000
1605183725989632000,10.0.1.128,522,move_up,-0.590,-0.590,-0.590,0.000,0.000,0.000
1605183727656342016,10.0.1.128,573,move_up,-0.570,-0.570,-0.570,0.000,0.000,0.000
1605183729193996032,10.0.1.128,493,move_up,-0.550,-0.550,-0.550,0.000,0.000,0.000
1605183730827986944,10.0.1.128,498,move_up,-0.530,-0.530,-0.530,0.000,0.000,0.000
1605183732453253888,10.0.1.128,495,move_up,-0.510,-0.510,-0.510,0.000,0.000,0.000
1605183734151783936,10.0.1.128,610,move_up,-0.490,-0.490,-0.490,0.000,0.000,0.000
1605183735699353088,10.0.1.128,494,move_up,-0.470,-0.470,-0.470,0.000,0.000,0.000
1605183737257002240,10.0.1.128,448,move_up,-0.450,-0.450,-0.450,0.000,0.000,0.000
1605183739045041920,10.0.1.128,694,move_up,-0.430,-0.430,-0.430,0.000,0.000,0.000
1605183740702836992,10.0.1.128,522,move_up,-0.410,-0.410,-0.410,0.000,0.000,0.000
1605183742465824000,10.0.1.128,659,move_up,-0.390,-0.390,-0.390,0.000,0.000,0.000
1605183744268907008,10.0.1.128,622,move_up,-0.370,-0.370,-0.370,0.000,0.000,0.000
1605183745892987904,10.0.1.128,644,move_up,-0.350,-0.350,-0.350,0.000,0.000,0.000
1605183747858342912,10.0.1.128,755,move_up,-0.330,-0.330,-0.330,0.000,0.000,0.000
1605183749493545984,10.0.1.128,585,move_up,-0.310,-0.310,-0.310,0.000,0.000,0.000
1605183751214093824,10.0.1.128,549,move_up,-0.290,-0.290,-0.290,0.000,0.000,0.000
1605183753394632192,10.0.1.128,1095,move_up,-0.270,-0.270,-0.270,0.000,0.000,0.000
1605183755091773952,10.0.1.128,588,move_up,-0.250,-0.250,-0.250,0.000,0.000,0.000
1605183756824352000,10.0.1.128,578,move_up,-0.230,-0.230,-0.230,0.000,0.000,0.000
1605183758484352000,10.0.1.128,608,move_up,-0.210,-0.210,-0.210,0.000,0.000,0.000
1605183760249795840,10.0.1.128,622,move_up,-0.190,-0.190,-0.190,0.000,0.000,0.000
1605183761379942912,10.0.1.128,39,place,-0.180,-0.180,-0.180,0.000,0.000,0.000
1605183762395560960,10.0.1.128,53,place,-0.170,-0.170,-0.170,0.000,0.000,0.000
1605183763396632064,10.0.1.128,53,place,-0.160,-0.160,-0.160,0.000,0.000,0.000
1605183764397028096,10.0.1.128,50,place,-0.150,-0.150,-0.150,0.000,0.000,0.000
1605183765401131008,10.0.1.128,51,place,-0.140,-0.140,-0.140,0.000,0.000,0.000
1605183766404359168,10.0.1.128,53,place,-0.130,-0.130,-0.130,0.000,0.000,0.000
1605183767417974016,10.0.1.128,65,place,-0.120,-0.120,-0.120,0.000,0.000,0.000
1605183768402068992,10.0.1.128,48,place,-0.110,-0.110,-0.110,0.000,0.000,0.000
1605183769436855040,10.0.1.128,80,place,-0.100,-0.100,-0.100,0.000,0.000,0.000
1605183771358535936,10.0.1.128,NaN,place,-0.080,-0.080,-0.080,0.000,0.000,0.000
1605183771396843008,10.0.1.128,38,place,-0.080,-0.080,-0.080,0.000,0.000,0.000
1605183772397484032,10.0.1.128,33,place,-0.070,-0.070,-0.070,0.000,0.000,0.000
1605183773417927936,10.0.1.128,52,place,-0.060,-0.060,-0.060,0.000,0.000,0.000
1605183774476402944,10.0.1.128,104,place,-0.050,-0.050,-0.050,0.000,0.000,0.000
1605183775437735936,10.0.1.128,64,place,-0.040,-0.040,-0.040,0.000,0.000,0.000
1605183776429976064,10.0.1.128,54,place,-0.030,-0.030,-0.030,0.000,0.000,0.000
1605183777440849152,10.0.1.128,64,place,-0.020,-0.020,-0.020,0.000,0.000,0.000
1605183778436289024,10.0.1.128,58,place,-0.010,-0.010,-0.010,0.000,0.000,0.000
1605183779422807808,10.0.1.128,43,place,0.000,0.000,0.000,0.000,0.000,0.000
1605183781139104000,10.0.1.128,758,move_down,-0.020,-0.020,-0.020,0.000,0.000,0.000
1605183782853529088,10.0.1.128,621,move_down,-0.040,-0.040,-0.040,0.000,0.000,0.000
1605183784482494208,10.0.1.128,446,move_down,-0.060,-0.060,-0.060,0.000,0.000,0.000
1605183786164141824,10.0.1.128,601,move_down,-0.080,-0.080,-0.080,0.000,0.000,0.000
1605183787986754816,10.0.1.128,740,move_down,-0.100,-0.100,-0.100,0.000,0.000,0.000
1605183789687844096,10.0.1.128,649,move_down,-0.120,-0.120,-0.120,0.000,0.000,0.000
1605183791229197056,10.0.1.128,465,move_down,-0.140,-0.140,-0.140,0.000,0.000,0.000
1605183792791424000,10.0.1.128,477,move_down,-0.160,-0.160,-0.160,0.000,0.000,0.000
1605183794426900992,10.0.1.128,537,move_down,-0.180,-0.180,-0.180,0.000,0.000,0.000
1605183796021688832,10.0.1.128,538,move_down,-0.200,-0.200,-0.200,0.000,0.000,0.000
1605183797691451904,10.0.1.128,597,move_down,-0.220,-0.220,-0.220,0.000,0.000,0.000
1605183799302278912,10.0.1.128,573,move_down,-0.240,-0.240,-0.240,0.000,0.000,0.000
1605183801134942976,10.0.1.128,731,move_down,-0.260,-0.260,-0.260,0.000,0.000,0.000
1605183802795854080,10.0.1.128,606,move_down,-0.280,-0.280,-0.280,0.000,0.000,0.000
1605183804481394944,10.0.1.128,566,move_down,-0.300,-0.300,-0.300,0.000,0.000,0.000
1605183806052284928,10.0.1.128,482,move_down,-0.320,-0.320,-0.320,0.000,0.000,0.000
1605183807644172032,10.0.1.128,534,move_down,-0.340,-0.340,-0.340,0.000,0.000,0.000
1605183809278112768,10.0.1.128,546,move_down,-0.360,-0.360,-0.360,0.000,0.000,0.000
1605183811063879936,10.0.1.128,573,move_down,-0.380,-0.380,-0.380,0.000,0.000,0.000
1605183812885483008,10.0.1.128,781,move_down,-0.400,-0.400,-0.400,0.000,0.000,0.000
1605183814501689856,10.0.1.128,578,move_down,-0.420,-0.420,-0.420,0.000,0.000,0.000
1605183816215675136,10.0.1.128,653,move_down,-0.440,-0.440,-0.440,0.000,0.000,0.000
1605183817897219840,10.0.1.128,637,move_down,-0.460,-0.460,-0.460,0.000,0.000,0.000
1605183819404783104,10.0.1.128,494,move_down,-0.480,-0.480,-0.480,0.000,0.000,0.000
1605183821133627904,10.0.1.128,643,move_down,-0.500,-0.500,-0.500,0.000,0.000,0.000
1605183822886723072,10.0.1.128,654,move_down,-0.520,-0.520,-0.520,0.000,0.000,0.000
1605183824591758848,10.0.1.128,604,move_down,-0.540,-0.540,-0.540,0.000,0.000,0.000
1605183826239876096,10.0.1.128,545,move_down,-0.560,-0.560,-0.560,0.000,0.000,0.000
1605183827866791936,10.0.1.128,570,move_down,-0.580,-0.580,-0.580,0.000,0.000,0.000
1605183829914410240,10.0.1.128,NaN,pick,-0.600,-0.600,-0.600,0.000,0.000,0.000
1605183829953155072,10.0.1.128,38,pick,-0.600,-0.600,-0.600,0.000,0.000,0.000
1605183830979304960,10.0.1.128,63,pick,-0.610,-0.610,-0.610,0.000,0.000,0.000
1605183832030547968,10.0.1.128,99,pick,-0.620,-0.620,-0.620,0.000,0.000,0.000
1605183832935065088,10.0.1.128,-6,pick,-0.630,-0.630,-0.630,0.000,0.000,0.000
1605183833986172928,10.0.1.128,49,pick,-0.640,-0.640,-0.640,0.000,0.000,0.000
1605183834987247104,10.0.1.128,48,pick,-0.650,-0.650,-0.650,0.000,0.000,0.000
1605183835983396096,10.0.1.128,42,pick,-0.660,-0.660,-0.660,0.000,0.000,0.000
1605183836982063104,10.0.1.128,40,pick,-0.670,-0.670,-0.670,0.000,0.000,0.000
1605183837988257792,10.0.1.128,45,pick,-0.680,-0.680,-0.680,0.000,0.000,0.000
1605183839948733952,10.0.1.128,NaN,pick,-0.700,-0.700,-0.700,0.000,0.000,0.000
1605183839994434048,10.0.1.128,45,pick,-0.700,-0.700,-0.700,0.000,0.000,0.000
1605183840996386048,10.0.1.128,46,pick,-0.710,-0.710,-0.710,0.000,0.000,0.000
1605183842016733952,10.0.1.128,65,pick,-0.720,-0.720,-0.720,0.000,0.000,0.000
1605183843010548992,10.0.1.128,56,pick,-0.730,-0.730,-0.730,0.000,0.000,0.000
1605183844009984000,10.0.1.128,54,pick,-0.740,-0.740,-0.740,0.000,0.000,0.000
1605183845959609088,10.0.1.128,NaN,pick,-0.760,-0.760,-0.760,0.000,0.000,0.000
1605183846003002880,10.0.1.128,43,pick,-0.760,-0.760,-0.760,0.000,0.000,0.000
1605183847018251008,10.0.1.128,56,pick,-0.770,-0.770,-0.770,0.000,0.000,0.000
1605183848534542080,10.0.1.128,570,move_up,-0.750,-0.750,-0.750,0.000,0.000,0.000
1605183850199312896,10.0.1.128,606,move_up,-0.730,-0.730,-0.730,0.000,0.000,0.000
1605183851972418048,10.0.1.128,655,move_up,-0.710,-0.710,-0.710,0.000,0.000,0.000
1605183853729105920,10.0.1.128,656,move_up,-0.690,-0.690,-0.690,0.000,0.000,0.000
1605183855356446976,10.0.1.128,582,move_up,-0.670,-0.670,-0.670,0.000,0.000,0.000
1605183857114115840,10.0.1.128,683,move_up,-0.650,-0.650,-0.650,0.000,0.000,0.000
1605183858876146944,10.0.1.128,651,move_up,-0.630,-0.630,-0.630,0.000,0.000,0.000
1605183860523672064,10.0.1.128,611,move_up,-0.610,-0.610,-0.610,0.000,0.000,0.000
1605183862383800064,10.0.1.128,782,move_up,-0.590,-0.590,-0.590,0.000,0.000,0.000
1605183864252641024,10.0.1.128,789,move_up,-0.570,-0.570,-0.570,0.000,0.000,0.000
1605183865766900992,10.0.1.128,462,move_up,-0.550,-0.550,-0.550,0.000,0.000,0.000
1605183867495410944,10.0.1.128,660,move_up,-0.530,-0.530,-0.530,0.000,0.000,0.000
1605183869093379072,10.0.1.128,603,move_up,-0.510,-0.510,-0.510,0.000,0.000,0.000
1605183870827142912,10.0.1.128,641,move_up,-0.490,-0.490,-0.490,0.000,0.000,0.000
1605183872603638784,10.0.1.128,559,move_up,-0.470,-0.470,-0.470,0.000,0.000,0.000
1605183874235897088,10.0.1.128,547,move_up,-0.450,-0.450,-0.450,0.000,0.000,0.000
1605183875756304896,10.0.1.128,465,move_up,-0.430,-0.430,-0.430,0.000,0.000,0.000
1605183877451975936,10.0.1.128,590,move_up,-0.410,-0.410,-0.410,0.000,0.000,0.000
1605183879525847040,10.0.1.128,905,move_up,-0.390,-0.390,-0.390,0.000,0.000,0.000
1605183881521449216,10.0.1.128,865,move_up,-0.370,-0.370,-0.370,0.000,0.000,0.000
1605183883787777792,10.0.1.128,854,move_up,-0.350,-0.350,-0.350,0.000,0.000,0.000
1605183886003237888,10.0.1.128,991,move_up,-0.330,-0.330,-0.330,0.000,0.000,0.000
1605183888295136000,10.0.1.128,1168,move_up,-0.310,-0.310,-0.310,0.000,0.000,0.000
1605183890501046784,10.0.1.128,911,move_up,-0.290,-0.290,-0.290,0.000,0.000,0.000
1605183892303450112,10.0.1.128,725,move_up,-0.270,-0.270,-0.270,0.000,0.000,0.000
1605183894081201920,10.0.1.128,743,move_up,-0.250,-0.250,-0.250,0.000,0.000,0.000
1605183895635962112,10.0.1.128,511,move_up,-0.230,-0.230,-0.230,0.000,0.000,0.000
1605183897415730944,10.0.1.128,627,move_up,-0.210,-0.210,-0.210,0.000,0.000,0.000
1605183899095491840,10.0.1.128,595,move_up,-0.190,-0.190,-0.190,0.000,0.000,0.000
1605183900272792064,10.0.1.128,65,place,-0.180,-0.180,-0.180,0.000,0.000,0.000
1605183902213448960,10.0.1.128,NaN,place,-0.160,-0.160,-0.160,0.000,0.000,0.000
1605183902251687168,10.0.1.128,38,place,-0.160,-0.160,-0.160,0.000,0.000,0.000
1605183904218537984,10.0.1.128,NaN,place,-0.140,-0.140,-0.140,0.000,0.000,0.000
1605183904309417984,10.0.1.128,90,place,-0.140,-0.140,-0.140,0.000,0.000,0.000
1605183905283855872,10.0.1.128,59,place,-0.130,-0.130,-0.130,0.000,0.000,0.000
1605183906263747840,10.0.1.128,38,place,-0.120,-0.120,-0.120,0.000,0.000,0.000
1605183907271964160,10.0.1.128,42,place,-0.110,-0.110,-0.110,0.000,0.000,0.000
1605183909246236160,10.0.1.128,NaN,place,-0.090,-0.090,-0.090,0.000,0.000,0.000
1605183910246876928,10.0.1.128,NaN,place,-0.080,-0.080,-0.080,0.000,0.000,0.000
1605183910291817984,10.0.1.128,44,place,-0.080,-0.080,-0.080,0.000,0.000,0.000
1605183912248553984,10.0.1.128,NaN,place,-0.060,-0.060,-0.060,0.000,0.000,0.000
1605183912330568960,10.0.1.128,81,place,-0.060,-0.060,-0.060,0.000,0.000,0.000
1605183913292892928,10.0.1.128,43,place,-0.050,-0.050,-0.050,0.000,0.000,0.000
1605183915254512128,10.0.1.128,NaN,place,-0.030,-0.030,-0.030,0.000,0.000,0.000
1605183915308915968,10.0.1.128,54,place,-0.030,-0.030,-0.030,0.000,0.000,0.000
1605183916321667072,10.0.1.128,62,place,-0.020,-0.020,-0.020,0.000,0.000,0.000
1605183917293852928,10.0.1.128,33,place,-0.010,-0.010,-0.010,0.000,0.000,0.000
1605183918334373120,10.0.1.128,71,place,0.000,0.000,0.000,0.000,0.000,0.000
1605183919776889088,10.0.1.128,512,move_down,-0.020,-0.020,-0.020,0.000,0.000,0.000
1605183921434521856,10.0.1.128,614,move_down,-0.040,-0.040,-0.040,0.000,0.000,0.000
1605183923034868992,10.0.1.128,567,move_down,-0.060,-0.060,-0.060,0.000,0.000,0.000
1605183924772299008,10.0.1.128,610,move_down,-0.080,-0.080,-0.080,0.000,0.000,0.000
1605183926911806208,10.0.1.128,1007,move_down,-0.100,-0.100,-0.100,0.000,0.000,0.000
1605183928729195008,10.0.1.128,734,move_down,-0.120,-0.120,-0.120,0.000,0.000,0.000
1605183930342035968,10.0.1.128,546,move_down,-0.140,-0.140,-0.140,0.000,0.000,0.000
1605183932056723968,10.0.1.128,558,move_down,-0.160,-0.160,-0.160,0.000,0.000,0.000
1605183933693434112,10.0.1.128,598,move_down,-0.180,-0.180,-0.180,0.000,0.000,0.000
1605183935364547840,10.0.1.128,508,move_down,-0.200,-0.200,-0.200,0.000,0.000,0.000
1605183937084126976,10.0.1.128,658,move_down,-0.220,-0.220,-0.220,0.000,0.000,0.000
1605183938832720896,10.0.1.128,676,move_down,-0.240,-0.240,-0.240,0.000,0.000,0.000
1605183940612999936,10.0.1.128,752,move_down,-0.260,-0.260,-0.260,0.000,0.000,0.000
1605183942224348928,10.0.1.128,569,move_down,-0.280,-0.280,-0.280,0.000,0.000,0.000
1605183943830439168,10.0.1.128,535,move_down,-0.300,-0.300,-0.300,0.000,0.000,0.000
1605183945504337152,10.0.1.128,608,move_down,-0.320,-0.320,-0.320,0.000,0.000,0.000
1605183947316839936,10.0.1.128,783,move_down,-0.340,-0.340,-0.340,0.000,0.000,0.000
1605183948961297920,10.0.1.128,618,move_down,-0.360,-0.360,-0.360,0.000,0.000,0.000
1605183950652955904,10.0.1.128,578,move_down,-0.380,-0.380,-0.380,0.000,0.000,0.000
1605183952350384896,10.0.1.128,572,move_down,-0.400,-0.400,-0.400,0.000,0.000,0.000
1605183954114195200,10.0.1.128,664,move_down,-0.420,-0.420,-0.420,0.000,0.000,0.000
1605183955863214080,10.0.1.128,622,move_down,-0.440,-0.440,-0.440,0.000,0.000,0.000
1605183957507036928,10.0.1.128,599,move_down,-0.460,-0.460,-0.460,0.000,0.000,0.000
1605183959080687104,10.0.1.128,558,move_down,-0.480,-0.480,-0.480,0.000,0.000,0.000
1605183960831482880,10.0.1.128,657,move_down,-0.500,-0.500,-0.500,0.000,0.000,0.000
1605183962620305152,10.0.1.128,645,move_down,-0.520,-0.520,-0.520,0.000,0.000,0.000
1605183964537362176,10.0.1.128,795,move_down,-0.540,-0.540,-0.540,0.000,0.000,0.000
1605183966337934080,10.0.1.128,747,move_down,-0.560,-0.560,-0.560,0.000,0.000,0.000
1605183968214931968,10.0.1.128,794,move_down,-0.580,-0.580,-0.580,0.000,0.000,0.000
1605183969601059072,10.0.1.128,97,pick,-0.590,-0.590,-0.590,0.000,0.000,0.000
1605183970554136064,10.0.1.128,48,pick,-0.600,-0.600,-0.600,0.000,0.000,0.000
1605183971560477952,10.0.1.128,53,pick,-0.610,-0.610,-0.610,0.000,0.000,0.000
1605183972564517888,10.0.1.128,54,pick,-0.620,-0.620,-0.620,0.000,0.000,0.000
1605183973572523008,10.0.1.128,62,pick,-0.630,-0.630,-0.630,0.000,0.000,0.000
1605183974554349056,10.0.1.128,42,pick,-0.640,-0.640,-0.640,0.000,0.000,0.000
1605183976512958976,10.0.1.128,NaN,pick,-0.660,-0.660,-0.660,0.000,0.000,0.000
1605183976576976896,10.0.1.128,63,pick,-0.660,-0.660,-0.660,0.000,0.000,0.000
1605183977580945920,10.0.1.128,66,pick,-0.670,-0.670,-0.670,0.000,0.000,0.000
1605183978564555776,10.0.1.128,48,pick,-0.680,-0.680,-0.680,0.000,0.000,0.000
1605183980519216896,10.0.1.128,NaN,pick,-0.700,-0.700,-0.700,0.000,0.000,0.000
1605183981520523008,10.0.1.128,NaN,pick,-0.710,-0.710,-0.710,0.000,0.000,0.000
1605183981589512960,10.0.1.128,68,pick,-0.710,-0.710,-0.710,0.000,0.000,0.000
1605183982589669888,10.0.1.128,60,pick,-0.720,-0.720,-0.720,0.000,0.000,0.000
1605183983570072832,10.0.1.128,39,pick,-0.730,-0.730,-0.730,0.000,0.000,0.000
1605183984572189952,10.0.1.128,40,pick,-0.740,-0.740,-0.740,0.000,0.000,0.000
1605183985580534016,10.0.1.128,47,pick,-0.750,-0.750,-0.750,0.000,0.000,0.000
1605183986573203200,10.0.1.128,38,pick,-0.760,-0.760,-0.760,0.000,0.000,0.000
1605183987572139008,10.0.1.128,36,pick,-0.770,-0.770,-0.770,0.000,0.000,0.000
1605183989157104896,10.0.1.128,619,move_up,-0.750,-0.750,-0.750,0.000,0.000,0.000
1605183991059375104,10.0.1.128,766,move_up,-0.730,-0.730,-0.730,0.000,0.000,0.000
1605183992705784064,10.0.1.128,518,move_up,-0.710,-0.710,-0.710,0.000,0.000,0.000
1605183994445366016,10.0.1.128,619,move_up,-0.690,-0.690,-0.690,0.000,0.000,0.000
1605183996361332992,10.0.1.128,723,move_up,-0.670,-0.670,-0.670,0.000,0.000,0.000
1605183997991409920,10.0.1.128,527,move_up,-0.650,-0.650,-0.650,0.000,0.000,0.000
1605183999793207040,10.0.1.128,717,move_up,-0.630,-0.630,-0.630,0.000,0.000,0.000
1605184001518595072,10.0.1.128,596,move_up,-0.610,-0.610,-0.610,0.000,0.000,0.000
1605184003458007040,10.0.1.128,848,move_up,-0.590,-0.590,-0.590,0.000,0.000,0.000
1605184005263158016,10.0.1.128,641,move_up,-0.570,-0.570,-0.570,0.000,0.000,0.000
1605184007037179904,10.0.1.128,715,move_up,-0.550,-0.550,-0.550,0.000,0.000,0.000
1605184008820262912,10.0.1.128,680,move_up,-0.530,-0.530,-0.530,0.000,0.000,0.000
1605184010657882880,10.0.1.128,639,move_up,-0.510,-0.510,-0.510,0.000,0.000,0.000
1605184012233041920,10.0.1.128,548,move_up,-0.490,-0.490,-0.490,0.000,0.000,0.000
1605184014176083968,10.0.1.128,828,move_up,-0.470,-0.470,-0.470,0.000,0.000,0.000
1605184015968064000,10.0.1.128,689,move_up,-0.450,-0.450,-0.450,0.000,0.000,0.000
1605184018066324992,10.0.1.128,817,move_up,-0.430,-0.430,-0.430,0.000,0.000,0.000
1605184019896316928,10.0.1.128,799,move_up,-0.410,-0.410,-0.410,0.000,0.000,0.000
1605184021605752064,10.0.1.128,534,move_up,-0.390,-0.390,-0.390,0.000,0.000,0.000
1605184023822524928,10.0.1.128,1082,move_up,-0.370,-0.370,-0.370,0.000,0.000,0.000
1605184025718827008,10.0.1.128,840,move_up,-0.350,-0.350,-0.350,0.000,0.000,0.000
1605184027678864896,10.0.1.128,858,move_up,-0.330,-0.330,-0.330,0.000,0.000,0.000
1605184029453000960,10.0.1.128,620,move_up,-0.310,-0.310,-0.310,0.000,0.000,0.000
1605184031426531072,10.0.1.128,838,move_up,-0.290,-0.290,-0.290,0.000,0.000,0.000
1605184033237696768,10.0.1.128,745,move_up,-0.270,-0.270,-0.270,0.000,0.000,0.000
1605184035086604032,10.0.1.128,735,move_up,-0.250,-0.250,-0.250,0.000,0.000,0.000
1605184037184236032,10.0.1.128,917,move_up,-0.230,-0.230,-0.230,0.000,0.000,0.000
1605184039122075136,10.0.1.128,821,move_up,-0.210,-0.210,-0.210,0.000,0.000,0.000
1605184041058716928,10.0.1.128,934,move_up,-0.190,-0.190,-0.190,0.000,0.000,0.000
1605184042191557888,10.0.1.128,60,place,-0.180,-0.180,-0.180,0.000,0.000,0.000
1605184043211798016,10.0.1.128,75,place,-0.170,-0.170,-0.170,0.000,0.000,0.000
1605184045143352064,10.0.1.128,NaN,place,-0.150,-0.150,-0.150,0.000,0.000,0.000
1605184045203057920,10.0.1.128,59,place,-0.150,-0.150,-0.150,0.000,0.000,0.000
1605184046198545920,10.0.1.128,54,place,-0.140,-0.140,-0.140,0.000,0.000,0.000
1605184047184623104,10.0.1.128,38,place,-0.130,-0.130,-0.130,0.000,0.000,0.000
1605184048193062144,10.0.1.128,45,place,-0.120,-0.120,-0.120,0.000,0.000,0.000
1605184049194328064,10.0.1.128,46,place,-0.110,-0.110,-0.110,0.000,0.000,0.000
1605184050206082048,10.0.1.128,56,place,-0.100,-0.100,-0.100,0.000,0.000,0.000
1605184052158707968,10.0.1.128,NaN,place,-0.080,-0.080,-0.080,0.000,0.000,0.000
1605184052218742016,10.0.1.128,59,place,-0.080,-0.080,-0.080,0.000,0.000,0.000
1605184053230483968,10.0.1.128,68,place,-0.070,-0.070,-0.070,0.000,0.000,0.000
1605184055180897024,10.0.1.128,NaN,place,-0.050,-0.050,-0.050,0.000,0.000,0.000
1605184055242907136,10.0.1.128,61,place,-0.050,-0.050,-0.050,0.000,0.000,0.000
1605184056233044992,10.0.1.128,50,place,-0.040,-0.040,-0.040,0.000,0.000,0.000
1605184058187889152,10.0.1.128,NaN,place,-0.020,-0.020,-0.020,0.000,0.000,0.000
1605184058269853952,10.0.1.128,81,place,-0.020,-0.020,-0.020,0.000,0.000,0.000
1605184059254695936,10.0.1.128,65,place,-0.010,-0.010,-0.010,0.000,0.000,0.000
1605184060241179904,10.0.1.128,50,place,0.000,0.000,0.000,0.000,0.000,0.000
1605184061901459968,10.0.1.128,701,move_down,-0.020,-0.020,-0.020,0.000,0.000,0.000
1605184063697485824,10.0.1.128,682,move_down,-0.040,-0.040,-0.040,0.000,0.000,0.000
1605184065995471872,10.0.1.128,1193,move_down,-0.060,-0.060,-0.060,0.000,0.000,0.000
1605184067818756096,10.0.1.128,631,move_down,-0.080,-0.080,-0.080,0.000,0.000,0.000
1605184069484816128,10.0.1.128,580,move_down,-0.100,-0.100,-0.100,0.000,0.000,0.000
1605184071180116992,10.0.1.128,682,move_down,-0.120,-0.120,-0.120,0.000,0.000,0.000
1605184072852368128,10.0.1.128,644,move_down,-0.140,-0.140,-0.140,0.000,0.000,0.000
1605184074659360000,10.0.1.128,637,move_down,-0.160,-0.160,-0.160,0.000,0.000,0.000
1605184076490552064,10.0.1.128,736,move_down,-0.180,-0.180,-0.180,0.000,0.000,0.000
1605184078123437824,10.0.1.128,540,move_down,-0.200,-0.200,-0.200,0.000,0.000,0.000
1605184079922700032,10.0.1.128,768,move_down,-0.220,-0.220,-0.220,0.000,0.000,0.000
1605184081787623936,10.0.1.128,863,move_down,-0.240,-0.240,-0.240,0.000,0.000,0.000
1605184083614653952,10.0.1.128,718,move_down,-0.260,-0.260,-0.260,0.000,0.000,0.000
1605184085358722816,10.0.1.128,632,move_down,-0.280,-0.280,-0.280,0.000,0.000,0.000
1605184087067707904,10.0.1.128,634,move_down,-0.300,-0.300,-0.300,0.000,0.000,0.000
1605184088901701888,10.0.1.128,715,move_down,-0.320,-0.320,-0.320,0.000,0.000,0.000
1605184090538262016,10.0.1.128,506,move_down,-0.340,-0.340,-0.340,0.000,0.000,0.000
1605184092340399104,10.0.1.128,633,move_down,-0.360,-0.360,-0.360,0.000,0.000,0.000
1605184094288100096,10.0.1.128,903,move_down,-0.380,-0.380,-0.380,0.000,0.000,0.000
1605184096230192896,10.0.1.128,789,move_down,-0.400,-0.400,-0.400,0.000,0.000,0.000
1605184098046999808,10.0.1.128,728,move_down,-0.420,-0.420,-0.420,0.000,0.000,0.000
1605184100680902912,10.0.1.128,1311,move_down,-0.440,-0.440,-0.440,0.000,0.000,0.000
1605184102319540992,10.0.1.128,612,move_down,-0.460,-0.460,-0.460,0.000,0.000,0.000
1605184104078241024,10.0.1.128,728,move_down,-0.480,-0.480,-0.480,0.000,0.000,0.000
1605184106193212160,10.0.1.128,1056,move_down,-0.500,-0.500,-0.500,0.000,0.000,0.000
