milangroshev/digital-twin-scalability/logs/run4-300s-nan/10.0.1.143.csv
timestamp,node,latency,action,joint_1,joint_2,joint_3,joint_4,joint_5,joint_6
1605186986880399104,10.0.1.143,NaN,,0.000,0.000,0.000,0.000,0.000,0.000
1605186990885082112,10.0.1.143,NaN,move_down,-0.020,-0.020,-0.020,0.000,0.000,0.000
1605186993682787840,10.0.1.143,2797,move_down,-0.020,-0.020,-0.020,0.000,0.000,0.000
1605186995251944192,10.0.1.143,522,move_down,-0.040,-0.040,-0.040,0.000,0.000,0.000
1605186996806981120,10.0.1.143,462,move_down,-0.060,-0.060,-0.060,0.000,0.000,0.000
1605186998379591936,10.0.1.143,512,move_down,-0.080,-0.080,-0.080,0.000,0.000,0.000
1605186999986376960,10.0.1.143,515,move_down,-0.100,-0.100,-0.100,0.000,0.000,0.000
1605187001513699072,10.0.1.143,423,move_down,-0.120,-0.120,-0.120,0.000,0.000,0.000
1605187002997783808,10.0.1.143,418,move_down,-0.140,-0.140,-0.140,0.000,0.000,0.000
1605187004778995968,10.0.1.143,676,move_down,-0.160,-0.160,-0.160,0.000,0.000,0.000
1605187006365742848,10.0.1.143,532,move_down,-0.180,-0.180,-0.180,0.000,0.000,0.000
1605187007950215936,10.0.1.143,487,move_down,-0.200,-0.200,-0.200,0.000,0.000,0.000
1605187009464116224,10.0.1.143,454,move_down,-0.220,-0.220,-0.220,0.000,0.000,0.000
1605187011082927872,10.0.1.143,555,move_down,-0.240,-0.240,-0.240,0.000,0.000,0.000
1605187012720009216,10.0.1.143,565,move_down,-0.260,-0.260,-0.260,0.000,0.000,0.000
1605187014393639168,10.0.1.143,612,move_down,-0.280,-0.280,-0.280,0.000,0.000,0.000
1605187016181772032,10.0.1.143,654,move_down,-0.300,-0.300,-0.300,0.000,0.000,0.000
1605187017809790976,10.0.1.143,538,move_down,-0.320,-0.320,-0.320,0.000,0.000,0.000
1605187019355288064,10.0.1.143,486,move_down,-0.340,-0.340,-0.340,0.000,0.000,0.000
1605187021061204992,10.0.1.143,651,move_down,-0.360,-0.360,-0.360,0.000,0.000,0.000
1605187022758582016,10.0.1.143,674,move_down,-0.380,-0.380,-0.380,0.000,0.000,0.000
1605187024476440832,10.0.1.143,648,move_down,-0.400,-0.400,-0.400,0.000,0.000,0.000
1605187025924460800,10.0.1.143,437,move_down,-0.420,-0.420,-0.420,0.000,0.000,0.000
1605187027605317120,10.0.1.143,602,move_down,-0.440,-0.440,-0.440,0.000,0.000,0.000
1605187029143641088,10.0.1.143,462,move_down,-0.460,-0.460,-0.460,0.000,0.000,0.000
1605187030700081152,10.0.1.143,466,move_down,-0.480,-0.480,-0.480,0.000,0.000,0.000
1605187032444840960,10.0.1.143,652,move_down,-0.500,-0.500,-0.500,0.000,0.000,0.000
1605187034262307840,10.0.1.143,656,move_down,-0.520,-0.520,-0.520,0.000,0.000,0.000
1605187035984528128,10.0.1.143,461,move_down,-0.540,-0.540,-0.540,0.000,0.000,0.000
1605187037602902784,10.0.1.143,586,move_down,-0.560,-0.560,-0.560,0.000,0.000,0.000
1605187039207469824,10.0.1.143,507,move_down,-0.580,-0.580,-0.580,0.000,0.000,0.000
1605187041307048960,10.0.1.143,NaN,pick,-0.600,-0.600,-0.600,0.000,0.000,0.000
1605187041358078976,10.0.1.143,50,pick,-0.600,-0.600,-0.600,0.000,0.000,0.000
1605187042393271808,10.0.1.143,83,pick,-0.610,-0.610,-0.610,0.000,0.000,0.000
1605187043359246080,10.0.1.143,48,pick,-0.620,-0.620,-0.620,0.000,0.000,0.000
1605187044349401856,10.0.1.143,36,pick,-0.630,-0.630,-0.630,0.000,0.000,0.000
1605187045360496896,10.0.1.143,47,pick,-0.640,-0.640,-0.640,0.000,0.000,0.000
1605187046383877120,10.0.1.143,57,pick,-0.650,-0.650,-0.650,0.000,0.000,0.000
1605187047378219008,10.0.1.143,50,pick,-0.660,-0.660,-0.660,0.000,0.000,0.000
1605187049334907904,10.0.1.143,NaN,pick,-0.680,-0.680,-0.680,0.000,0.000,0.000
1605187049400990976,10.0.1.143,66,pick,-0.680,-0.680,-0.680,0.000,0.000,0.000
1605187050377374976,10.0.1.143,39,pick,-0.690,-0.690,-0.690,0.000,0.000,0.000
1605187051399399168,10.0.1.143,60,pick,-0.700,-0.700,-0.700,0.000,0.000,0.000
1605187052400015104,10.0.1.143,60,pick,-0.710,-0.710,-0.710,0.000,0.000,0.000
1605187053402683904,10.0.1.143,54,pick,-0.720,-0.720,-0.720,0.000,0.000,0.000
1605187054392360960,10.0.1.143,37,pick,-0.730,-0.730,-0.730,0.000,0.000,0.000
1605187055418343936,10.0.1.143,58,pick,-0.740,-0.740,-0.740,0.000,0.000,0.000
1605187056398610944,10.0.1.143,37,pick,-0.750,-0.750,-0.750,0.000,0.000,0.000
1605187058367441920,10.0.1.143,NaN,pick,-0.770,-0.770,-0.770,0.000,0.000,0.000
1605187058431763968,10.0.1.143,64,pick,-0.770,-0.770,-0.770,0.000,0.000,0.000
1605187059864791040,10.0.1.143,496,move_up,-0.750,-0.750,-0.750,0.000,0.000,0.000
1605187061583104000,10.0.1.143,611,move_up,-0.730,-0.730,-0.730,0.000,0.000,0.000
1605187063160217088,10.0.1.143,535,move_up,-0.710,-0.710,-0.710,0.000,0.000,0.000
1605187064826082048,10.0.1.143,538,move_up,-0.690,-0.690,-0.690,0.000,0.000,0.000
1605187066423398912,10.0.1.143,528,move_up,-0.670,-0.670,-0.670,0.000,0.000,0.000
1605187068071901184,10.0.1.143,529,move_up,-0.650,-0.650,-0.650,0.000,0.000,0.000
1605187069691831040,10.0.1.143,514,move_up,-0.630,-0.630,-0.630,0.000,0.000,0.000
1605187071364808192,10.0.1.143,478,move_up,-0.610,-0.610,-0.610,0.000,0.000,0.000
1605187073055776000,10.0.1.143,603,move_up,-0.590,-0.590,-0.590,0.000,0.000,0.000
1605187074660638976,10.0.1.143,540,move_up,-0.570,-0.570,-0.570,0.000,0.000,0.000
1605187076262810112,10.0.1.143,523,move_up,-0.550,-0.550,-0.550,0.000,0.000,0.000
1605187077776328960,10.0.1.143,484,move_up,-0.530,-0.530,-0.530,0.000,0.000,0.000
1605187079402625024,10.0.1.143,575,move_up,-0.510,-0.510,-0.510,0.000,0.000,0.000
1605187081018605056,10.0.1.143,529,move_up,-0.490,-0.490,-0.490,0.000,0.000,0.000
1605187082716084992,10.0.1.143,586,move_up,-0.470,-0.470,-0.470,0.000,0.000,0.000
1605187084337121024,10.0.1.143,563,move_up,-0.450,-0.450,-0.450,0.000,0.000,0.000
1605187086003591936,10.0.1.143,625,move_up,-0.430,-0.430,-0.430,0.000,0.000,0.000
1605187087676534016,10.0.1.143,598,move_up,-0.410,-0.410,-0.410,0.000,0.000,0.000
1605187089508193024,10.0.1.143,673,move_up,-0.390,-0.390,-0.390,0.000,0.000,0.000
1605187091209945856,10.0.1.143,628,move_up,-0.370,-0.370,-0.370,0.000,0.000,0.000
1605187092902030080,10.0.1.143,532,move_up,-0.350,-0.350,-0.350,0.000,0.000,0.000
1605187094558598912,10.0.1.143,567,move_up,-0.330,-0.330,-0.330,0.000,0.000,0.000
1605187096281605888,10.0.1.143,653,move_up,-0.310,-0.310,-0.310,0.000,0.000,0.000
1605187097813772800,10.0.1.143,490,move_up,-0.290,-0.290,-0.290,0.000,0.000,0.000
1605187099498861056,10.0.1.143,508,move_up,-0.270,-0.270,-0.270,0.000,0.000,0.000
1605187101192261888,10.0.1.143,578,move_up,-0.250,-0.250,-0.250,0.000,0.000,0.000
1605187102722279168,10.0.1.143,505,move_up,-0.230,-0.230,-0.230,0.000,0.000,0.000
1605187104351236096,10.0.1.143,547,move_up,-0.210,-0.210,-0.210,0.000,0.000,0.000
1605187106031079168,10.0.1.143,565,move_up,-0.190,-0.190,-0.190,0.000,0.000,0.000
1605187107183625984,10.0.1.143,44,place,-0.180,-0.180,-0.180,0.000,0.000,0.000
1605187108202403072,10.0.1.143,61,place,-0.170,-0.170,-0.170,0.000,0.000,0.000
1605187110144582912,10.0.1.143,NaN,place,-0.150,-0.150,-0.150,0.000,0.000,0.000
1605187110241470976,10.0.1.143,96,place,-0.150,-0.150,-0.150,0.000,0.000,0.000
1605187111207358976,10.0.1.143,61,place,-0.140,-0.140,-0.140,0.000,0.000,0.000
1605187112204727808,10.0.1.143,57,place,-0.130,-0.130,-0.130,0.000,0.000,0.000
1605187113243756032,10.0.1.143,94,place,-0.120,-0.120,-0.120,0.000,0.000,0.000
1605187114212452864,10.0.1.143,61,place,-0.110,-0.110,-0.110,0.000,0.000,0.000
1605187115226779904,10.0.1.143,74,place,-0.100,-0.100,-0.100,0.000,0.000,0.000
1605187116204546816,10.0.1.143,49,place,-0.090,-0.090,-0.090,0.000,0.000,0.000
1605187117209012992,10.0.1.143,53,place,-0.080,-0.080,-0.080,0.000,0.000,0.000
1605187118203136000,10.0.1.143,44,place,-0.070,-0.070,-0.070,0.000,0.000,0.000
1605187119216705024,10.0.1.143,56,place,-0.060,-0.060,-0.060,0.000,0.000,0.000
1605187120201189120,10.0.1.143,37,place,-0.050,-0.050,-0.050,0.000,0.000,0.000
1605187121214016000,10.0.1.143,50,place,-0.040,-0.040,-0.040,0.000,0.000,0.000
1605187122205483008,10.0.1.143,41,place,-0.030,-0.030,-0.030,0.000,0.000,0.000
1605187123212882944,10.0.1.143,47,place,-0.020,-0.020,-0.020,0.000,0.000,0.000
1605187124231482880,10.0.1.143,58,place,-0.010,-0.010,-0.010,0.000,0.000,0.000
1605187125276401920,10.0.1.143,101,place,0.000,0.000,0.000,0.000,0.000,0.000
1605187126760338944,10.0.1.143,584,move_down,-0.020,-0.020,-0.020,0.000,0.000,0.000
1605187128428518912,10.0.1.143,570,move_down,-0.040,-0.040,-0.040,0.000,0.000,0.000
1605187130099159040,10.0.1.143,562,move_down,-0.060,-0.060,-0.060,0.000,0.000,0.000
1605187131806999808,10.0.1.143,606,move_down,-0.080,-0.080,-0.080,0.000,0.000,0.000
1605187133461096960,10.0.1.143,620,move_down,-0.100,-0.100,-0.100,0.000,0.000,0.000
1605187135081326848,10.0.1.143,568,move_down,-0.120,-0.120,-0.120,0.000,0.000,0.000
1605187136724909056,10.0.1.143,522,move_down,-0.140,-0.140,-0.140,0.000,0.000,0.000
1605187138353920000,10.0.1.143,454,move_down,-0.160,-0.160,-0.160,0.000,0.000,0.000
1605187139894785024,10.0.1.143,517,move_down,-0.180,-0.180,-0.180,0.000,0.000,0.000
1605187141450843136,10.0.1.143,468,move_down,-0.200,-0.200,-0.200,0.000,0.000,0.000
1605187143109015040,10.0.1.143,511,move_down,-0.220,-0.220,-0.220,0.000,0.000,0.000
1605187144715126016,10.0.1.143,528,move_down,-0.240,-0.240,-0.240,0.000,0.000,0.000
1605187146290288896,10.0.1.143,526,move_down,-0.260,-0.260,-0.260,0.000,0.000,0.000
1605187148072112128,10.0.1.143,572,move_down,-0.280,-0.280,-0.280,0.000,0.000,0.000
1605187149622600960,10.0.1.143,504,move_down,-0.300,-0.300,-0.300,0.000,0.000,0.000
1605187151187543040,10.0.1.143,499,move_down,-0.320,-0.320,-0.320,0.000,0.000,0.000
1605187152968615936,10.0.1.143,643,move_down,-0.340,-0.340,-0.340,0.000,0.000,0.000
1605187154732354048,10.0.1.143,652,move_down,-0.360,-0.360,-0.360,0.000,0.000,0.000
1605187156271447808,10.0.1.143,503,move_down,-0.380,-0.380,-0.380,0.000,0.000,0.000
1605187157763629056,10.0.1.143,448,move_down,-0.400,-0.400,-0.400,0.000,0.000,0.000
1605187159551971072,10.0.1.143,696,move_down,-0.420,-0.420,-0.420,0.000,0.000,0.000
1605187161250842112,10.0.1.143,645,move_down,-0.440,-0.440,-0.440,0.000,0.000,0.000
1605187162860177152,10.0.1.143,572,move_down,-0.460,-0.460,-0.460,0.000,0.000,0.000
1605187164534390016,10.0.1.143,681,move_down,-0.480,-0.480,-0.480,0.000,0.000,0.000
1605187166132611072,10.0.1.143,512,move_down,-0.500,-0.500,-0.500,0.000,0.000,0.000
1605187167732438016,10.0.1.143,546,move_down,-0.520,-0.520,-0.520,0.000,0.000,0.000
1605187169594702080,10.0.1.143,740,move_down,-0.540,-0.540,-0.540,0.000,0.000,0.000
1605187171181129984,10.0.1.143,512,move_down,-0.560,-0.560,-0.560,0.000,0.000,0.000
1605187172996385024,10.0.1.143,731,move_down,-0.580,-0.580,-0.580,0.000,0.000,0.000
1605187174123742976,10.0.1.143,50,pick,-0.590,-0.590,-0.590,0.000,0.000,0.000
1605187175122508032,10.0.1.143,47,pick,-0.600,-0.600,-0.600,0.000,0.000,0.000
1605187176164518144,10.0.1.143,87,pick,-0.610,-0.610,-0.610,0.000,0.000,0.000
1605187177145826048,10.0.1.143,67,pick,-0.620,-0.620,-0.620,0.000,0.000,0.000
1605187178119628800,10.0.1.143,40,pick,-0.630,-0.630,-0.630,0.000,0.000,0.000
1605187179127040000,10.0.1.143,46,pick,-0.640,-0.640,-0.640,0.000,0.000,0.000
1605187181090339840,10.0.1.143,NaN,pick,-0.660,-0.660,-0.660,0.000,0.000,0.000
1605187181130413056,10.0.1.143,39,pick,-0.660,-0.660,-0.660,0.000,0.000,0.000
1605187182136833024,10.0.1.143,44,pick,-0.670,-0.670,-0.670,0.000,0.000,0.000
1605187184131494144,10.0.1.143,NaN,pick,-0.690,-0.690,-0.690,0.000,0.000,0.000
1605187184189101056,10.0.1.143,57,pick,-0.690,-0.690,-0.690,0.000,0.000,0.000
1605187185188353024,10.0.1.143,54,pick,-0.700,-0.700,-0.700,0.000,0.000,0.000
1605187186185676032,10.0.1.143,49,pick,-0.710,-0.710,-0.710,0.000,0.000,0.000
1605187187189000960,10.0.1.143,47,pick,-0.720,-0.720,-0.720,0.000,0.000,0.000
1605187188203702016,10.0.1.143,61,pick,-0.730,-0.730,-0.730,0.000,0.000,0.000
1605187189188771072,10.0.1.143,41,pick,-0.740,-0.740,-0.740,0.000,0.000,0.000
1605187191168979968,10.0.1.143,NaN,pick,-0.760,-0.760,-0.760,0.000,0.000,0.000
1605187191219230976,10.0.1.143,50,pick,-0.760,-0.760,-0.760,0.000,0.000,0.000
1605187193183645952,10.0.1.143,NaN,move_up,-0.750,-0.750,-0.750,0.000,0.000,0.000
1605187193731358976,10.0.1.143,547,move_up,-0.750,-0.750,-0.750,0.000,0.000,0.000
1605187195493794816,10.0.1.143,694,move_up,-0.730,-0.730,-0.730,0.000,0.000,0.000
1605187197185491200,10.0.1.143,590,move_up,-0.710,-0.710,-0.710,0.000,0.000,0.000
1605187198779748864,10.0.1.143,553,move_up,-0.690,-0.690,-0.690,0.000,0.000,0.000
1605187200310051840,10.0.1.143,529,move_up,-0.670,-0.670,-0.670,0.000,0.000,0.000
1605187201937993984,10.0.1.143,602,move_up,-0.650,-0.650,-0.650,0.000,0.000,0.000
1605187203647748864,10.0.1.143,597,move_up,-0.630,-0.630,-0.630,0.000,0.000,0.000
1605187205282166016,10.0.1.143,575,move_up,-0.610,-0.610,-0.610,0.000,0.000,0.000
1605187206896315136,10.0.1.143,601,move_up,-0.590,-0.590,-0.590,0.000,0.000,0.000
1605187208476198912,10.0.1.143,514,move_up,-0.570,-0.570,-0.570,0.000,0.000,0.000
1605187210082565120,10.0.1.143,509,move_up,-0.550,-0.550,-0.550,0.000,0.000,0.000
1605187211697814016,10.0.1.143,521,move_up,-0.530,-0.530,-0.530,0.000,0.000,0.000
1605187213382499072,10.0.1.143,576,move_up,-0.510,-0.510,-0.510,0.000,0.000,0.000
1605187215106350848,10.0.1.143,598,move_up,-0.490,-0.490,-0.490,0.000,0.000,0.000
1605187216712513024,10.0.1.143,559,move_up,-0.470,-0.470,-0.470,0.000,0.000,0.000
1605187218377184000,10.0.1.143,519,move_up,-0.450,-0.450,-0.450,0.000,0.000,0.000
1605187220108679936,10.0.1.143,547,move_up,-0.430,-0.430,-0.430,0.000,0.000,0.000
1605187221680457984,10.0.1.143,504,move_up,-0.410,-0.410,-0.410,0.000,0.000,0.000
1605187223362883072,10.0.1.143,584,move_up,-0.390,-0.390,-0.390,0.000,0.000,0.000
1605187225140867840,10.0.1.143,689,move_up,-0.370,-0.370,-0.370,0.000,0.000,0.000
1605187226754254080,10.0.1.143,590,move_up,-0.350,-0.350,-0.350,0.000,0.000,0.000
1605187228467696896,10.0.1.143,460,move_up,-0.330,-0.330,-0.330,0.000,0.000,0.000
1605187230282952960,10.0.1.143,700,move_up,-0.310,-0.310,-0.310,0.000,0.000,0.000
1605187232165082880,10.0.1.143,697,move_up,-0.290,-0.290,-0.290,0.000,0.000,0.000
1605187233826782976,10.0.1.143,573,move_up,-0.270,-0.270,-0.270,0.000,0.000,0.000
1605187235472776960,10.0.1.143,553,move_up,-0.250,-0.250,-0.250,0.000,0.000,0.000
1605187237130834176,10.0.1.143,573,move_up,-0.230,-0.230,-0.230,0.000,0.000,0.000
1605187238813070080,10.0.1.143,629,move_up,-0.210,-0.210,-0.210,0.000,0.000,0.000
1605187240410883840,10.0.1.143,497,move_up,-0.190,-0.190,-0.190,0.000,0.000,0.000
1605187241520947968,10.0.1.143,61,place,-0.180,-0.180,-0.180,0.000,0.000,0.000
1605187242503362048,10.0.1.143,42,place,-0.170,-0.170,-0.170,0.000,0.000,0.000
1605187243526427136,10.0.1.143,62,place,-0.160,-0.160,-0.160,0.000,0.000,0.000
1605187245473705984,10.0.1.143,NaN,place,-0.140,-0.140,-0.140,0.000,0.000,0.000
1605187245523368960,10.0.1.143,49,place,-0.140,-0.140,-0.140,0.000,0.000,0.000
1605187246521123840,10.0.1.143,45,place,-0.130,-0.130,-0.130,0.000,0.000,0.000
1605187247531825920,10.0.1.143,55,place,-0.120,-0.120,-0.120,0.000,0.000,0.000
1605187248531449088,10.0.1.143,52,place,-0.110,-0.110,-0.110,0.000,0.000,0.000
1605187249543190016,10.0.1.143,62,place,-0.100,-0.100,-0.100,0.000,0.000,0.000
1605187250543750144,10.0.1.143,59,place,-0.090,-0.090,-0.090,0.000,0.000,0.000
1605187251518935808,10.0.1.143,33,place,-0.080,-0.080,-0.080,0.000,0.000,0.000
1605187252538275072,10.0.1.143,51,place,-0.070,-0.070,-0.070,0.000,0.000,0.000
1605187253540460032,10.0.1.143,52,place,-0.060,-0.060,-0.060,0.000,0.000,0.000
1605187254519732992,10.0.1.143,30,place,-0.050,-0.050,-0.050,0.000,0.000,0.000
1605187256491137024,10.0.1.143,NaN,place,-0.030,-0.030,-0.030,0.000,0.000,0.000
1605187256541853952,10.0.1.143,50,place,-0.030,-0.030,-0.030,0.000,0.000,0.000
1605187257549256192,10.0.1.143,56,place,-0.020,-0.020,-0.020,0.000,0.000,0.000
1605187258563092992,10.0.1.143,69,place,-0.010,-0.010,-0.010,0.000,0.000,0.000
1605187259570543104,10.0.1.143,59,place,0.000,0.000,0.000,0.000,0.000,0.000
1605187261048196096,10.0.1.143,535,move_down,-0.020,-0.020,-0.020,0.000,0.000,0.000
1605187262592876032,10.0.1.143,474,move_down,-0.040,-0.040,-0.040,0.000,0.000,0.000
1605187264179424000,10.0.1.143,510,move_down,-0.060,-0.060,-0.060,0.000,0.000,0.000
1605187265851200000,10.0.1.143,563,move_down,-0.080,-0.080,-0.080,0.000,0.000,0.000
1605187267696003840,10.0.1.143,626,move_down,-0.100,-0.100,-0.100,0.000,0.000,0.000
1605187269327513856,10.0.1.143,591,move_down,-0.120,-0.120,-0.120,0.000,0.000,0.000
1605187270810798848,10.0.1.143,423,move_down,-0.140,-0.140,-0.140,0.000,0.000,0.000
1605187272353995008,10.0.1.143,476,move_down,-0.160,-0.160,-0.160,0.000,0.000,0.000
1605187274013155072,10.0.1.143,573,move_down,-0.180,-0.180,-0.180,0.000,0.000,0.000
1605187275719905024,10.0.1.143,614,move_down,-0.200,-0.200,-0.200,0.000,0.000,0.000
1605187277406036992,10.0.1.143,510,move_down,-0.220,-0.220,-0.220,0.000,0.000,0.000
1605187279037028096,10.0.1.143,546,move_down,-0.240,-0.240,-0.240,0.000,0.000,0.000
1605187280855417088,10.0.1.143,657,move_down,-0.260,-0.260,-0.260,0.000,0.000,0.000
1605187282468019968,10.0.1.143,506,move_down,-0.280,-0.280,-0.280,0.000,0.000,0.000
1605187284141347840,10.0.1.143,575,move_down,-0.300,-0.300,-0.300,0.000,0.000,0.000
1605187285905022976,10.0.1.143,702,move_down,-0.320,-0.320,-0.320,0.000,0.000,0.000
1605187287928486144,10.0.1.143,943,move_down,-0.340,-0.340,-0.340,0.000,0.000,0.000
1605187289529707008,10.0.1.143,528,move_down,-0.360,-0.360,-0.360,0.000,0.000,0.000
1605187291413532928,10.0.1.143,772,move_down,-0.380,-0.380,-0.380,0.000,0.000,0.000
1605187293132627968,10.0.1.143,635,move_down,-0.400,-0.400,-0.400,0.000,0.000,0.000
1605187294927045120,10.0.1.143,710,move_down,-0.420,-0.420,-0.420,0.000,0.000,0.000
1605187296456109056,10.0.1.143,540,move_down,-0.440,-0.440,-0.440,0.000,0.000,0.000
1605187298018821120,10.0.1.143,514,move_down,-0.460,-0.460,-0.460,0.000,0.000,0.000
1605187299530902016,10.0.1.143,519,move_down,-0.480,-0.480,-0.480,0.000,0.000,0.000
1605187301321608960,10.0.1.143,707,move_down,-0.500,-0.500,-0.500,0.000,0.000,0.000
1605187302931327232,10.0.1.143,564,move_down,-0.520,-0.520,-0.520,0.000,0.000,0.000
1605187304611852800,10.0.1.143,566,move_down,-0.540,-0.540,-0.540,0.000,0.000,0.000
1605187306486531072,10.0.1.143,789,move_down,-0.560,-0.560,-0.560,0.000,0.000,0.000
1605187309434232832,10.0.1.143,1814,move_down,-0.580,-0.580,-0.580,0.000,0.000,0.000
1605187310709132800,10.0.1.143,58,pick,-0.590,-0.590,-0.590,0.000,0.000,0.000
1605187311700285952,10.0.1.143,39,pick,-0.600,-0.600,-0.600,0.000,0.000,0.000
1605187313669680128,10.0.1.143,NaN,pick,-0.620,-0.620,-0.620,0.000,0.000,0.000
1605187313715852032,10.0.1.143,46,pick,-0.620,-0.620,-0.620,0.000,0.000,0.000
1605187314730920192,10.0.1.143,60,pick,-0.630,-0.630,-0.630,0.000,0.000,0.000
1605187315722235904,10.0.1.143,49,pick,-0.640,-0.640,-0.640,0.000,0.000,0.000
1605187317687027968,10.0.1.143,NaN,pick,-0.660,-0.660,-0.660,0.000,0.000,0.000
1605187317760376832,10.0.1.143,73,pick,-0.660,-0.660,-0.660,0.000,0.000,0.000
1605187319710726144,10.0.1.143,NaN,pick,-0.680,-0.680,-0.680,0.000,0.000,0.000
1605187320713263104,10.0.1.143,NaN,pick,-0.690,-0.690,-0.690,0.000,0.000,0.000
1605187320771866112,10.0.1.143,58,pick,-0.690,-0.690,-0.690,0.000,0.000,0.000
1605187322719271936,10.0.1.143,NaN,pick,-0.710,-0.710,-0.710,0.000,0.000,0.000
1605187322764945152,10.0.1.143,45,pick,-0.710,-0.710,-0.710,0.000,0.000,0.000
1605187324731781120,10.0.1.143,NaN,pick,-0.730,-0.730,-0.730,0.000,0.000,0.000
1605187325734136064,10.0.1.143,NaN,pick,-0.740,-0.740,-0.740,0.000,0.000,0.000
1605187325786223872,10.0.1.143,52,pick,-0.740,-0.740,-0.740,0.000,0.000,0.000
1605187326795803904,10.0.1.143,60,pick,-0.750,-0.750,-0.750,0.000,0.000,0.000
1605187327791909888,10.0.1.143,54,pick,-0.760,-0.760,-0.760,0.000,0.000,0.000
1605187328781373952,10.0.1.143,42,pick,-0.770,-0.770,-0.770,0.000,0.000,0.000
1605187330344082944,10.0.1.143,604,move_up,-0.750,-0.750,-0.750,0.000,0.000,0.000
1605187332020376832,10.0.1.143,487,move_up,-0.730,-0.730,-0.730,0.000,0.000,0.000
1605187333562172928,10.0.1.143,502,move_up,-0.710,-0.710,-0.710,0.000,0.000,0.000
1605187335241046784,10.0.1.143,547,move_up,-0.690,-0.690,-0.690,0.000,0.000,0.000
1605187337169764096,10.0.1.143,813,move_up,-0.670,-0.670,-0.670,0.000,0.000,0.000
1605187338917611008,10.0.1.143,699,move_up,-0.650,-0.650,-0.650,0.000,0.000,0.000
1605187340766455040,10.0.1.143,810,move_up,-0.630,-0.630,-0.630,0.000,0.000,0.000
1605187342483686912,10.0.1.143,547,move_up,-0.610,-0.610,-0.610,0.000,0.000,0.000
1605187344300358144,10.0.1.143,714,move_up,-0.590,-0.590,-0.590,0.000,0.000,0.000
1605187345960519168,10.0.1.143,594,move_up,-0.570,-0.570,-0.570,0.000,0.000,0.000
1605187347650112000,10.0.1.143,623,move_up,-0.550,-0.550,-0.550,0.000,0.000,0.000
1605187349262775808,10.0.1.143,546,move_up,-0.530,-0.530,-0.530,0.000,0.000,0.000
1605187350925241088,10.0.1.143,593,move_up,-0.510,-0.510,-0.510,0.000,0.000,0.000
1605187352676694016,10.0.1.143,637,move_up,-0.490,-0.490,-0.490,0.000,0.000,0.000
1605187354298929920,10.0.1.143,595,move_up,-0.470,-0.470,-0.470,0.000,0.000,0.000
1605187355882371072,10.0.1.143,545,move_up,-0.450,-0.450,-0.450,0.000,0.000,0.000
1605187357576997888,10.0.1.143,608,move_up,-0.430,-0.430,-0.430,0.000,0.000,0.000
1605187359625986048,10.0.1.143,890,move_up,-0.410,-0.410,-0.410,0.000,0.000,0.000
1605187361455781888,10.0.1.143,791,move_up,-0.390,-0.390,-0.390,0.000,0.000,0.000
1605187363113058048,10.0.1.143,591,move_up,-0.370,-0.370,-0.370,0.000,0.000,0.000
1605187364978269952,10.0.1.143,800,move_up,-0.350,-0.350,-0.350,0.000,0.000,0.000
1605187366706976768,10.0.1.143,682,move_up,-0.330,-0.330,-0.330,0.000,0.000,0.000
1605187368181446144,10.0.1.143,464,move_up,-0.310,-0.310,-0.310,0.000,0.000,0.000
1605187369898423808,10.0.1.143,624,move_up,-0.290,-0.290,-0.290,0.000,0.000,0.000
1605187371736547840,10.0.1.143,743,move_up,-0.270,-0.270,-0.270,0.000,0.000,0.000
1605187373499526144,10.0.1.143,724,move_up,-0.250,-0.250,-0.250,0.000,0.000,0.000
1605187375213084928,10.0.1.143,666,move_up,-0.230,-0.230,-0.230,0.000,0.000,0.000
1605187377019897088,10.0.1.143,717,move_up,-0.210,-0.210,-0.210,0.000,0.000,0.000
1605187378608141056,10.0.1.143,585,move_up,-0.190,-0.190,-0.190,0.000,0.000,0.000
1605187379782481920,10.0.1.143,80,place,-0.180,-0.180,-0.180,0.000,0.000,0.000
1605187380769635072,10.0.1.143,67,place,-0.170,-0.170,-0.170,0.000,0.000,0.000
1605187381751538944,10.0.1.143,47,place,-0.160,-0.160,-0.160,0.000,0.000,0.000
1605187382754828032,10.0.1.143,49,place,-0.150,-0.150,-0.150,0.000,0.000,0.000
1605187384709095936,10.0.1.143,NaN,place,-0.130,-0.130,-0.130,0.000,0.000,0.000
1605187384776781056,10.0.1.143,67,place,-0.130,-0.130,-0.130,0.000,0.000,0.000
1605187385762031104,10.0.1.143,51,place,-0.120,-0.120,-0.120,0.000,0.000,0.000
1605187386784059136,10.0.1.143,72,place,-0.110,-0.110,-0.110,0.000,0.000,0.000
1605187387764497152,10.0.1.143,51,place,-0.100,-0.100,-0.100,0.000,0.000,0.000
1605187388763041024,10.0.1.143,48,place,-0.090,-0.090,-0.090,0.000,0.000,0.000
1605187390717617152,10.0.1.143,NaN,place,-0.070,-0.070,-0.070,0.000,0.000,0.000
1605187390755835136,10.0.1.143,38,place,-0.070,-0.070,-0.070,0.000,0.000,0.000
1605187391767307008,10.0.1.143,47,place,-0.060,-0.060,-0.060,0.000,0.000,0.000
1605187392778424064,10.0.1.143,51,place,-0.050,-0.050,-0.050,0.000,0.000,0.000
1605187393792377088,10.0.1.143,63,place,-0.040,-0.040,-0.040,0.000,0.000,0.000
1605187395736235008,10.0.1.143,NaN,place,-0.020,-0.020,-0.020,0.000,0.000,0.000
1605187396740901120,10.0.1.143,NaN,place,-0.010,-0.010,-0.010,0.000,0.000,0.000
1605187396824476928,10.0.1.143,83,place,-0.010,-0.010,-0.010,0.000,0.000,0.000
1605187397806253824,10.0.1.143,61,place,0.000,0.000,0.000,0.000,0.000,0.000
1605187399355410944,10.0.1.143,608,move_down,-0.020,-0.020,-0.020,0.000,0.000,0.000
1605187401090595840,10.0.1.143,645,move_down,-0.040,-0.040,-0.040,0.000,0.000,0.000
1605187402715648768,10.0.1.143,557,move_down,-0.060,-0.060,-0.060,0.000,0.000,0.000
1605187404358007040,10.0.1.143,508,move_down,-0.080,-0.080,-0.080,0.000,0.000,0.000
1605187406115782912,10.0.1.143,670,move_down,-0.100,-0.100,-0.100,0.000,0.000,0.000
1605187407770467072,10.0.1.143,546,move_down,-0.120,-0.120,-0.120,0.000,0.000,0.000
1605187409534183936,10.0.1.143,730,move_down,-0.140,-0.140,-0.140,0.000,0.000,0.000
1605187411267313920,10.0.1.143,679,move_down,-0.160,-0.160,-0.160,0.000,0.000,0.000
1605187412883469056,10.0.1.143,544,move_down,-0.180,-0.180,-0.180,0.000,0.000,0.000
1605187414740006912,10.0.1.143,788,move_down,-0.200,-0.200,-0.200,0.000,0.000,0.000
1605187416302452992,10.0.1.143,554,move_down,-0.220,-0.220,-0.220,0.000,0.000,0.000
1605187418100452864,10.0.1.143,717,move_down,-0.240,-0.240,-0.240,0.000,0.000,0.000
1605187419813039104,10.0.1.143,632,move_down,-0.260,-0.260,-0.260,0.000,0.000,0.000
1605187421455287808,10.0.1.143,616,move_down,-0.280,-0.280,-0.280,0.000,0.000,0.000
1605187423146614016,10.0.1.143,525,move_down,-0.300,-0.300,-0.300,0.000,0.000,0.000
1605187424802400000,10.0.1.143,505,move_down,-0.320,-0.320,-0.320,0.000,0.000,0.000
1605187426615294976,10.0.1.143,725,move_down,-0.340,-0.340,-0.340,0.000,0.000,0.000
1605187428279161856,10.0.1.143,604,move_down,-0.360,-0.360,-0.360,0.000,0.000,0.000
1605187429965210880,10.0.1.143,587,move_down,-0.380,-0.380,-0.380,0.000,0.000,0.000
1605187431747889152,10.0.1.143,716,move_down,-0.400,-0.400,-0.400,0.000,0.000,0.000
1605187433542278912,10.0.1.143,720,move_down,-0.420,-0.420,-0.420,0.000,0.000,0.000
1605187435430771200,10.0.1.143,869,move_down,-0.440,-0.440,-0.440,0.000,0.000,0.000
1605187437032771072,10.0.1.143,528,move_down,-0.460,-0.460,-0.460,0.000,0.000,0.000
1605187438935990016,10.0.1.143,621,move_down,-0.480,-0.480,-0.480,0.000,0.000,0.000
1605187440655662080,10.0.1.143,701,move_down,-0.500,-0.500,-0.500,0.000,0.000,0.000
1605187442376587008,10.0.1.143,583,move_down,-0.520,-0.520,-0.520,0.000,0.000,0.000
1605187444519911168,10.0.1.143,1053,move_down,-0.540,-0.540,-0.540,0.000,0.000,0.000
1605187446461012992,10.0.1.143,858,move_down,-0.560,-0.560,-0.560,0.000,0.000,0.000
1605187448100688896,10.0.1.143,563,move_down,-0.580,-0.580,-0.580,0.000,0.000,0.000
1605187449248136960,10.0.1.143,54,pick,-0.590,-0.590,-0.590,0.000,0.000,0.000
1605187450297326080,10.0.1.143,101,pick,-0.600,-0.600,-0.600,0.000,0.000,0.000
1605187451236217088,10.0.1.143,39,pick,-0.610,-0.610,-0.610,0.000,0.000,0.000
1605187452239200000,10.0.1.143,37,pick,-0.620,-0.620,-0.620,0.000,0.000,0.000
1605187453251827968,10.0.1.143,48,pick,-0.630,-0.630,-0.630,0.000,0.000,0.000
1605187454257837056,10.0.1.143,52,pick,-0.640,-0.640,-0.640,0.000,0.000,0.000
1605187455252791808,10.0.1.143,46,pick,-0.650,-0.650,-0.650,0.000,0.000,0.000
1605187457209193984,10.0.1.143,NaN,pick,-0.670,-0.670,-0.670,0.000,0.000,0.000
1605187458210689024,10.0.1.143,NaN,pick,-0.680,-0.680,-0.680,0.000,0.000,0.000
1605187458278834176,10.0.1.143,68,pick,-0.680,-0.680,-0.680,0.000,0.000,0.000
1605187459296506880,10.0.1.143,84,pick,-0.690,-0.690,-0.690,0.000,0.000,0.000
1605187461213218816,10.0.1.143,NaN,pick,-0.710,-0.710,-0.710,0.000,0.000,0.000
1605187461284918016,10.0.1.143,71,pick,-0.710,-0.710,-0.710,0.000,0.000,0.000
1605187462320169984,10.0.1.143,98,pick,-0.720,-0.720,-0.720,0.000,0.000,0.000
1605187463295698944,10.0.1.143,71,pick,-0.730,-0.730,-0.730,0.000,0.000,0.000
1605187465240463104,10.0.1.143,NaN,pick,-0.750,-0.750,-0.750,0.000,0.000,0.000
1605187465317790976,10.0.1.143,77,pick,-0.750,-0.750,-0.750,0.000,0.000,0.000
1605187466341000960,10.0.1.143,71,pick,-0.760,-0.760,-0.760,0.000,0.000,0.000
1605187467336112896,10.0.1.143,66,pick,-0.770,-0.770,-0.770,0.000,0.000,0.000
1605187468838555136,10.0.1.143,567,move_up,-0.750,-0.750,-0.750,0.000,0.000,0.000
1605187470860367104,10.0.1.143,924,move_up,-0.730,-0.730,-0.730,0.000,0.000,0.000
1605187472775689984,10.0.1.143,700,move_up,-0.710,-0.710,-0.710,0.000,0.000,0.000
1605187474935480064,10.0.1.143,1068,move_up,-0.690,-0.690,-0.690,0.000,0.000,0.000
1605187476766403072,10.0.1.143,772,move_up,-0.670,-0.670,-0.670,0.000,0.000,0.000
1605187478739915008,10.0.1.143,918,move_up,-0.650,-0.650,-0.650,0.000,0.000,0.000
1605187480863631872,10.0.1.143,967,move_up,-0.630,-0.630,-0.630,0.000,0.000,0.000
1605187482966758912,10.0.1.143,882,move_up,-0.610,-0.610,-0.610,0.000,0.000,0.000
1605187484782529024,10.0.1.143,682,move_up,-0.590,-0.590,-0.590,0.000,0.000,0.000
1605187486587835136,10.0.1.143,695,move_up,-0.570,-0.570,-0.570,0.000,0.000,0.000
1605187488284399104,10.0.1.143,636,move_up,-0.550,-0.550,-0.550,0.000,0.000,0.000
1605187489879993856,10.0.1.143,527,move_up,-0.530,-0.530,-0.530,0.000,0.000,0.000
1605187491719422976,10.0.1.143,763,move_up,-0.510,-0.510,-0.510,0.000,0.000,0.000
1605187493464534016,10.0.1.143,650,move_up,-0.490,-0.490,-0.490,0.000,0.000,0.000
1605187495325192960,10.0.1.143,768,move_up,-0.470,-0.470,-0.470,0.000,0.000,0.000
1605187496996651776,10.0.1.143,596,move_up,-0.450,-0.450,-0.450,0.000,0.000,0.000
1605187498733539072,10.0.1.143,693,move_up,-0.430,-0.430,-0.430,0.000,0.000,0.000
1605187500591877888,10.0.1.143,743,move_up,-0.410,-0.410,-0.410,0.000,0.000,0.000
1605187502168282880,10.0.1.143,558,move_up,-0.390,-0.390,-0.390,0.000,0.000,0.000
1605187503890274048,10.0.1.143,621,move_up,-0.370,-0.370,-0.370,0.000,0.000,0.000
1605187505728516096,10.0.1.143,728,move_up,-0.350,-0.350,-0.350,0.000,0.000,0.000
1605187507581850880,10.0.1.143,666,move_up,-0.330,-0.330,-0.330,0.000,0.000,0.000
1605187509313001984,10.0.1.143,637,move_up,-0.310,-0.310,-0.310,0.000,0.000,0.000
1605187511104049920,10.0.1.143,705,move_up,-0.290,-0.290,-0.290,0.000,0.000,0.000
1605187512917732096,10.0.1.143,727,move_up,-0.270,-0.270,-0.270,0.000,0.000,0.000
1605187514715988992,10.0.1.143,572,move_up,-0.250,-0.250,-0.250,0.000,0.000,0.000
1605187516361700096,10.0.1.143,568,move_up,-0.230,-0.230,-0.230,0.000,0.000,0.000
1605187518237283072,10.0.1.143,717,move_up,-0.210,-0.210,-0.210,0.000,0.000,0.000
1605187520049595136,10.0.1.143,719,move_up,-0.190,-0.190,-0.190,0.000,0.000,0.000
1605187521294393088,10.0.1.143,50,place,-0.180,-0.180,-0.180,0.000,0.000,0.000
1605187523246195968,10.0.1.143,NaN,place,-0.160,-0.160,-0.160,0.000,0.000,0.000
1605187523293833984,10.0.1.143,47,place,-0.160,-0.160,-0.160,0.000,0.000,0.000
1605187525250513920,10.0.1.143,NaN,place,-0.140,-0.140,-0.140,0.000,0.000,0.000
1605187525310125056,10.0.1.143,59,place,-0.140,-0.140,-0.140,0.000,0.000,0.000
1605187526338427904,10.0.1.143,82,place,-0.130,-0.130,-0.130,0.000,0.000,0.000
1605187527320517120,10.0.1.143,61,place,-0.120,-0.120,-0.120,0.000,0.000,0.000
1605187529266500096,10.0.1.143,NaN,place,-0.100,-0.100,-0.100,0.000,0.000,0.000
1605187529325547008,10.0.1.143,58,place,-0.100,-0.100,-0.100,0.000,0.000,0.000
1605187530333956096,10.0.1.143,53,place,-0.090,-0.090,-0.090,0.000,0.000,0.000
1605187532293904896,10.0.1.143,NaN,place,-0.070,-0.070,-0.070,0.000,0.000,0.000
1605187532365154048,10.0.1.143,71,place,-0.070,-0.070,-0.070,0.000,0.000,0.000
1605187534295717120,10.0.1.143,NaN,place,-0.050,-0.050,-0.050,0.000,0.000,0.000
1605187534358244864,10.0.1.143,62,place,-0.050,-0.050,-0.050,0.000,0.000,0.000
1605187535367635968,10.0.1.143,67,place,-0.040,-0.040,-0.040,0.000,0.000,0.000
1605187537310842880,10.0.1.143,NaN,place,-0.020,-0.020,-0.020,0.000,0.000,0.000
1605187538313608960,10.0.1.143,NaN,place,-0.010,-0.010,-0.010,0.000,0.000,0.000
1605187539321163008,10.0.1.143,NaN,place,0.000,0.000,0.000,0.000,0.000,0.000
1605187539378588928,10.0.1.143,57,place,0.000,0.000,0.000,0.000,0.000,0.000
1605187541197645056,10.0.1.143,870,move_down,-0.020,-0.020,-0.020,0.000,0.000,0.000
1605187543069731072,10.0.1.143,729,move_down,-0.040,-0.040,-0.040,0.000,0.000,0.000
1605187544827228160,10.0.1.143,671,move_down,-0.060,-0.060,-0.060,0.000,0.000,0.000
1605187546586954240,10.0.1.143,672,move_down,-0.080,-0.080,-0.080,0.000,0.000,0.000
1605187548416744960,10.0.1.143,808,move_down,-0.100,-0.100,-0.100,0.000,0.000,0.000
1605187550172823040,10.0.1.143,567,move_down,-0.120,-0.120,-0.120,0.000,0.000,0.000
1605187551922393088,10.0.1.143,533,move_down,-0.140,-0.140,-0.140,0.000,0.000,0.000
1605187553971203072,10.0.1.143,987,move_down,-0.160,-0.160,-0.160,0.000,0.000,0.000
1605187555548928000,10.0.1.143,569,move_down,-0.180,-0.180,-0.180,0.000,0.000,0.000
1605187557342029056,10.0.1.143,582,move_down,-0.200,-0.200,-0.200,0.000,0.000,0.000
1605187559253705984,10.0.1.143,833,move_down,-0.220,-0.220,-0.220,0.000,0.000,0.000
1605187561022234880,10.0.1.143,609,move_down,-0.240,-0.240,-0.240,0.000,0.000,0.000
1605187562739942144,10.0.1.143,592,move_down,-0.260,-0.260,-0.260,0.000,0.000,0.000
1605187564454347008,10.0.1.143,659,move_down,-0.280,-0.280,-0.280,0.000,0.000,0.000
1605187566093724928,10.0.1.143,552,move_down,-0.300,-0.300,-0.300,0.000,0.000,0.000
1605187567901016832,10.0.1.143,705,move_down,-0.320,-0.320,-0.320,0.000,0.000,0.000
1605187569544313856,10.0.1.143,591,move_down,-0.340,-0.340,-0.340,0.000,0.000,0.000
1605187571427476992,10.0.1.143,694,move_down,-0.360,-0.360,-0.360,0.000,0.000,0.000
1605187573080552960,10.0.1.143,578,move_down,-0.380,-0.380,-0.380,0.000,0.000,0.000
1605187574930937088,10.0.1.143,795,move_down,-0.400,-0.400,-0.400,0.000,0.000,0.000
1605187576891974912,10.0.1.143,876,move_down,-0.420,-0.420,-0.420,0.000,0.000,0.000
1605187578762036992,10.0.1.143,785,move_down,-0.440,-0.440,-0.440,0.000,0.000,0.000
1605187580842998016,10.0.1.143,1025,move_down,-0.460,-0.460,-0.460,0.000,0.000,0.000
1605187582460776192,10.0.1.143,580,move_down,-0.480,-0.480,-0.480,0.000,0.000,0.000
1605187584134071040,10.0.1.143,664,move_down,-0.500,-0.500,-0.500,0.000,0.000,0.000
1605187586059667200,10.0.1.143,833,move_down,-0.520,-0.520,-0.520,0.000,0.000,0.000
1605187587763858176,10.0.1.143,613,move_down,-0.540,-0.540,-0.540,0.000,0.000,0.000
1605187589351300864,10.0.1.143,503,move_down,-0.560,-0.560,-0.560,0.000,0.000,0.000
1605187591218404096,10.0.1.143,747,move_down,-0.580,-0.580,-0.580,0.000,0.000,0.000
1605187593245688832,10.0.1.143,NaN,pick,-0.600,-0.600,-0.600,0.000,0.000,0.000
1605187593320354816,10.0.1.143,74,pick,-0.600,-0.600,-0.600,0.000,0.000,0.000
1605187595252883968,10.0.1.143,NaN,pick,-0.620,-0.620,-0.620,0.000,0.000,0.000
1605187596254256896,10.0.1.143,NaN,pick,-0.630,-0.630,-0.630,0.000,0.000,0.000
1605187596355289088,10.0.1.143,100,pick,-0.630,-0.630,-0.630,0.000,0.000,0.000
1605187597305944064,10.0.1.143,45,pick,-0.640,-0.640,-0.640,0.000,0.000,0.000
1605187598314155008,10.0.1.143,51,pick,-0.650,-0.650,-0.650,0.000,0.000,0.000
1605187600278469120,10.0.1.143,NaN,pick,-0.670,-0.670,-0.670,0.000,0.000,0.000
1605187601280987136,10.0.1.143,NaN,pick,-0.680,-0.680,-0.680,0.000,0.000,0.000
1605187602282327808,10.0.1.143,NaN,pick,-0.690,-0.690,-0.690,0.000,0.000,0.000
1605187603283937024,10.0.1.143,NaN,pick,-0.700,-0.700,-0.700,0.000,0.000,0.000
1605187603356023040,10.0.1.143,72,pick,-0.700,-0.700,-0.700,0.000,0.000,0.000
1605187604349636096,10.0.1.143,63,pick,-0.710,-0.710,-0.710,0.000,0.000,0.000
1605187605365012992,10.0.1.143,71,pick,-0.720,-0.720,-0.720,0.000,0.000,0.000
1605187607300776960,10.0.1.143,NaN,pick,-0.740,-0.740,-0.740,0.000,0.000,0.000
1605187607417228032,10.0.1.143,116,pick,-0.740,-0.740,-0.740,0.000,0.000,0.000
1605187609319544064,10.0.1.143,NaN,pick,-0.760,-0.760,-0.760,0.000,0.000,0.000
1605187610320476928,10.0.1.143,NaN,pick,-0.770,-0.770,-0.770,0.000,0.000,0.000
1605187610383027200,10.0.1.143,62,pick,-0.770,-0.770,-0.770,0.000,0.000,0.000
1605187612116219904,10.0.1.143,759,move_up,-0.750,-0.750,-0.750,0.000,0.000,0.000
1605187613916028928,10.0.1.143,696,move_up,-0.730,-0.730,-0.730,0.000,0.000,0.000
1605187615795886080,10.0.1.143,754,move_up,-0.710,-0.710,-0.710,0.000,0.000,0.000
1605187617618326016,10.0.1.143,657,move_up,-0.690,-0.690,-0.690,0.000,0.000,0.000
1605187619378151936,10.0.1.143,674,move_up,-0.670,-0.670,-0.670,0.000,0.000,0.000
1605187621551561216,10.0.1.143,921,move_up,-0.650,-0.650,-0.650,0.000,0.000,0.000
1605187623315623936,10.0.1.143,600,move_up,-0.630,-0.630,-0.630,0.000,0.000,0.000
1605187625386961920,10.0.1.143,815,move_up,-0.610,-0.610,-0.610,0.000,0.000,0.000
1605187627114358784,10.0.1.143,712,move_up,-0.590,-0.590,-0.590,0.000,0.000,0.000
1605187628985709056,10.0.1.143,809,move_up,-0.570,-0.570,-0.570,0.000,0.000,0.000
1605187630868272896,10.0.1.143,802,move_up,-0.550,-0.550,-0.550,0.000,0.000,0.000
1605187632775147008,10.0.1.143,820,move_up,-0.530,-0.530,-0.530,0.000,0.000,0.000
1605187634324829952,10.0.1.143,535,move_up,-0.510,-0.510,-0.510,0.000,0.000,0.000
1605187635998025984,10.0.1.143,635,move_up,-0.490,-0.490,-0.490,0.000,0.000,0.000
1605187637741113856,10.0.1.143,647,move_up,-0.470,-0.470,-0.470,0.000,0.000,0.000
1605187639577814016,10.0.1.143,709,move_up,-0.450,-0.450,-0.450,0.000,0.000,0.000
1605187641250510080,10.0.1.143,627,move_up,-0.430,-0.430,-0.430,0.000,0.000,0.000
1605187643130947072,10.0.1.143,695,move_up,-0.410,-0.410,-0.410,0.000,0.000,0.000
1605187644927675136,10.0.1.143,756,move_up,-0.390,-0.390,-0.390,0.000,0.000,0.000
1605187646691424000,10.0.1.143,568,move_up,-0.370,-0.370,-0.370,0.000,0.000,0.000
1605187648486336000,10.0.1.143,678,move_up,-0.350,-0.350,-0.350,0.000,0.000,0.000
1605187650221859072,10.0.1.143,649,move_up,-0.330,-0.330,-0.330,0.000,0.000,0.000
1605187652051843840,10.0.1.143,712,move_up,-0.310,-0.310,-0.310,0.000,0.000,0.000
1605187654266577920,10.0.1.143,1063,move_up,-0.290,-0.290,-0.290,0.000,0.000,0.000
1605187656252926208,10.0.1.143,825,move_up,-0.270,-0.270,-0.270,0.000,0.000,0.000
1605187658007632896,10.0.1.143,684,move_up,-0.250,-0.250,-0.250,0.000,0.000,0.000
1605187659612385024,10.0.1.143,549,move_up,-0.230,-0.230,-0.230,0.000,0.000,0.000
1605187661303799040,10.0.1.143,663,move_up,-0.210,-0.210,-0.210,0.000,0.000,0.000
1605187663139661056,10.0.1.143,795,move_up,-0.190,-0.190,-0.190,0.000,0.000,0.000
1605187665268513024,10.0.1.143,NaN,place,-0.170,-0.170,-0.170,0.000,0.000,0.000
1605187665342416896,10.0.1.143,73,place,-0.170,-0.170,-0.170,0.000,0.000,0.000
1605187666323872000,10.0.1.143,53,place,-0.160,-0.160,-0.160,0.000,0.000,0.000
1605187667323105024,10.0.1.143,45,place,-0.150,-0.150,-0.150,0.000,0.000,0.000
1605187668328483072,10.0.1.143,49,place,-0.140,-0.140,-0.140,0.000,0.000,0.000
1605187669342686976,10.0.1.143,59,place,-0.130,-0.130,-0.130,0.000,0.000,0.000
1605187670343683072,10.0.1.143,58,place,-0.120,-0.120,-0.120,0.000,0.000,0.000
1605187672319552000,10.0.1.143,NaN,place,-0.100,-0.100,-0.100,0.000,0.000,0.000
1605187672380350976,10.0.1.143,60,place,-0.100,-0.100,-0.100,0.000,0.000,0.000
1605187673379965952,10.0.1.143,56,place,-0.090,-0.090,-0.090,0.000,0.000,0.000
1605187674432423168,10.0.1.143,106,place,-0.080,-0.080,-0.080,0.000,0.000,0.000
1605187675371916032,10.0.1.143,43,place,-0.070,-0.070,-0.070,0.000,0.000,0.000
1605187676413327872,10.0.1.143,57,place,-0.060,-0.060,-0.060,0.000,0.000,0.000
1605187677410213888,10.0.1.143,52,place,-0.050,-0.050,-0.050,0.000,0.000,0.000
1605187679363727104,10.0.1.143,NaN,place,-0.030,-0.030,-0.030,0.000,0.000,0.000
1605187680364996864,10.0.1.143,NaN,place,-0.020,-0.020,-0.020,0.000,0.000,0.000
1605187681368809984,10.0.1.143,NaN,place,-0.010,-0.010,-0.010,0.000,0.000,0.000
1605187681409266944,10.0.1.143,40,place,-0.010,-0.010,-0.010,0.000,0.000,0.000
1605187682471777792,10.0.1.143,101,place,0.000,0.000,0.000,0.000,0.000,0.000
1605187684112539136,10.0.1.143,707,move_down,-0.020,-0.020,-0.020,0.000,0.000,0.000
1605187685745796864,10.0.1.143,530,move_down,-0.040,-0.040,-0.040,0.000,0.000,0.000
1605187687800017152,10.0.1.143,973,move_down,-0.060,-0.060,-0.060,0.000,0.000,0.000
1605187689623549952,10.0.1.143,696,move_down,-0.080,-0.080,-0.080,0.000,0.000,0.000
1605187691396512000,10.0.1.143,762,move_down,-0.100,-0.100,-0.100,0.000,0.000,0.000
1605187693316232960,10.0.1.143,585,move_down,-0.120,-0.120,-0.120,0.000,0.000,0.000
1605187695023819008,10.0.1.143,616,move_down,-0.140,-0.140,-0.140,0.000,0.000,0.000
1605187697014548992,10.0.1.143,910,move_down,-0.160,-0.160,-0.160,0.000,0.000,0.000
1605187698816972032,10.0.1.143,631,move_down,-0.180,-0.180,-0.180,0.000,0.000,0.000
1605187700596218112,10.0.1.143,683,move_down,-0.200,-0.200,-0.200,0.000,0.000,0.000
1605187702218748928,10.0.1.143,553,move_down,-0.220,-0.220,-0.220,0.000,0.000,0.000
1605187704363090944,10.0.1.143,743,move_down,-0.240,-0.240,-0.240,0.000,0.000,0.000
1605187706156027136,10.0.1.143,727,move_down,-0.260,-0.260,-0.260,0.000,0.000,0.000
1605187708070988800,10.0.1.143,840,move_down,-0.280,-0.280,-0.280,0.000,0.000,0.000
1605187709996414976,10.0.1.143,874,move_down,-0.300,-0.300,-0.300,0.000,0.000,0.000
1605187712374028032,10.0.1.143,1262,move_down,-0.320,-0.320,-0.320,0.000,0.000,0.000
1605187714411320832,10.0.1.143,961,move_down,-0.340,-0.340,-0.340,0.000,0.000,0.000
1605187716186904064,10.0.1.143,731,move_down,-0.360,-0.360,-0.360,0.000,0.000,0.000
1605187717838857984,10.0.1.143,578,move_down,-0.380,-0.380,-0.380,0.000,0.000,0.000
1605187719780903168,10.0.1.143,836,move_down,-0.400,-0.400,-0.400,0.000,0.000,0.000
1605187721466106880,10.0.1.143,628,move_down,-0.420,-0.420,-0.420,0.000,0.000,0.000
1605187723211013120,10.0.1.143,613,move_down,-0.440,-0.440,-0.440,0.000,0.000,0.000
1605187724862811136,10.0.1.143,545,move_down,-0.460,-0.460,-0.460,0.000,0.000,0.000
1605187726686853888,10.0.1.143,750,move_down,-0.480,-0.480,-0.480,0.000,0.000,0.000
1605187728452297984,10.0.1.143,669,move_down,-0.500,-0.500,-0.500,0.000,0.000,0.000
1605187730181469952,10.0.1.143,667,move_down,-0.520,-0.520,-0.520,0.000,0.000,0.000
1605187732025875968,10.0.1.143,586,move_down,-0.540,-0.540,-0.540,0.000,0.000,0.000
1605187733934070016,10.0.1.143,790,move_down,-0.560,-0.560,-0.560,0.000,0.000,0.000
1605187736216059904,10.0.1.143,1100,move_down,-0.580,-0.580,-0.580,0.000,0.000,0.000
1605187737389529088,10.0.1.143,83,pick,-0.590,-0.590,-0.590,0.000,0.000,0.000
1605187738337393920,10.0.1.143,30,pick,-0.600,-0.600,-0.600,0.000,0.000,0.000
1605187739405035008,10.0.1.143,97,pick,-0.610,-0.610,-0.610,0.000,0.000,0.000
1605187740369097984,10.0.1.143,59,pick,-0.620,-0.620,-0.620,0.000,0.000,0.000
1605187741378763008,10.0.1.143,68,pick,-0.630,-0.630,-0.630,0.000,0.000,0.000
1605187743316158976,10.0.1.143,NaN,pick,-0.650,-0.650,-0.650,0.000,0.000,0.000
1605187743365044992,10.0.1.143,48,pick,-0.650,-0.650,-0.650,0.000,0.000,0.000
1605187744387854080,10.0.1.143,70,pick,-0.660,-0.660,-0.660,0.000,0.000,0.000
1605187746320512000,10.0.1.143,NaN,pick,-0.680,-0.680,-0.680,0.000,0.000,0.000
1605187746380577024,10.0.1.143,59,pick,-0.680,-0.680,-0.680,0.000,0.000,0.000
1605187747428438016,10.0.1.143,88,pick,-0.690,-0.690,-0.690,0.000,0.000,0.000
1605187748414030080,10.0.1.143,72,pick,-0.700,-0.700,-0.700,0.000,0.000,0.000
1605187749436270848,10.0.1.143,92,pick,-0.710,-0.710,-0.710,0.000,0.000,0.000
1605187751346263808,10.0.1.143,NaN,pick,-0.730,-0.730,-0.730,0.000,0.000,0.000
1605187752347932928,10.0.1.143,NaN,pick,-0.740,-0.740,-0.740,0.000,0.000,0.000
1605187752397492992,10.0.1.143,49,pick,-0.740,-0.740,-0.740,0.000,0.000,0.000
1605187753396446976,10.0.1.143,46,pick,-0.750,-0.750,-0.750,0.000,0.000,0.000
1605187754428611072,10.0.1.143,77,pick,-0.760,-0.760,-0.760,0.000,0.000,0.000
1605187755398576128,10.0.1.143,46,pick,-0.770,-0.770,-0.770,0.000,0.000,0.000
1605187757174818048,10.0.1.143,809,move_up,-0.750,-0.750,-0.750,0.000,0.000,0.000
1605187758935343872,10.0.1.143,667,move_up,-0.730,-0.730,-0.730,0.000,0.000,0.000
1605187760744555008,10.0.1.143,710,move_up,-0.710,-0.710,-0.710,0.000,0.000,0.000
1605187762626464000,10.0.1.143,789,move_up,-0.690,-0.690,-0.690,0.000,0.000,0.000
1605187764274861056,10.0.1.143,545,move_up,-0.670,-0.670,-0.670,0.000,0.000,0.000
1605187765971201792,10.0.1.143,605,move_up,-0.650,-0.650,-0.650,0.000,0.000,0.000
1605187767939035904,10.0.1.143,839,move_up,-0.630,-0.630,-0.630,0.000,0.000,0.000
1605187769780647936,10.0.1.143,726,move_up,-0.610,-0.610,-0.610,0.000,0.000,0.000
1605187771968830976,10.0.1.143,958,move_up,-0.590,-0.590,-0.590,0.000,0.000,0.000
1605187773900429056,10.0.1.143,802,move_up,-0.570,-0.570,-0.570,0.000,0.000,0.000
1605187775799192832,10.0.1.143,820,move_up,-0.550,-0.550,-0.550,0.000,0.000,0.000
1605187777643906048,10.0.1.143,716,move_up,-0.530,-0.530,-0.530,0.000,0.000,0.000
1605187779570220032,10.0.1.143,824,move_up,-0.510,-0.510,-0.510,0.000,0.000,0.000
1605187781337389824,10.0.1.143,695,move_up,-0.490,-0.490,-0.490,0.000,0.000,0.000
1605187783695464960,10.0.1.143,1166,move_up,-0.470,-0.470,-0.470,0.000,0.000,0.000
1605187785765252096,10.0.1.143,1001,move_up,-0.450,-0.450,-0.450,0.000,0.000,0.000
1605187787889213184,10.0.1.143,969,move_up,-0.430,-0.430,-0.430,0.000,0.000,0.000
1605187789752535040,10.0.1.143,819,move_up,-0.410,-0.410,-0.410,0.000,0.000,0.000
1605187791445033984,10.0.1.143,710,move_up,-0.390,-0.390,-0.390,0.000,0.000,0.000
1605187793336030976,10.0.1.143,785,move_up,-0.370,-0.370,-0.370,0.000,0.000,0.000
1605187795144144128,10.0.1.143,729,move_up,-0.350,-0.350,-0.350,0.000,0.000,0.000
1605187797374048000,10.0.1.143,1098,move_up,-0.330,-0.330,-0.330,0.000,0.000,0.000
1605187799200823040,10.0.1.143,726,move_up,-0.310,-0.310,-0.310,0.000,0.000,0.000
1605187800897989888,10.0.1.143,703,move_up,-0.290,-0.290,-0.290,0.000,0.000,0.000
1605187802674052864,10.0.1.143,704,move_up,-0.270,-0.270,-0.270,0.000,0.000,0.000
1605187804723233024,10.0.1.143,884,move_up,-0.250,-0.250,-0.250,0.000,0.000,0.000
1605187806739702016,10.0.1.143,934,move_up,-0.230,-0.230,-0.230,0.000,0.000,0.000
1605187808800064000,10.0.1.143,779,move_up,-0.210,-0.210,-0.210,0.000,0.000,0.000
1605187811005259008,10.0.1.143,1118,move_up,-0.190,-0.190,-0.190,0.000,0.000,0.000
1605187813252326912,10.0.1.143,NaN,place,-0.170,-0.170,-0.170,0.000,0.000,0.000
1605187813320070144,10.0.1.143,67,place,-0.170,-0.170,-0.170,0.000,0.000,0.000
1605187814321379072,10.0.1.143,66,place,-0.160,-0.160,-0.160,0.000,0.000,0.000
1605187816261712128,10.0.1.143,NaN,place,-0.140,-0.140,-0.140,0.000,0.000,0.000
1605187816321275904,10.0.1.143,59,place,-0.140,-0.140,-0.140,0.000,0.000,0.000
1605187818264424192,10.0.1.143,NaN,place,-0.120,-0.120,-0.120,0.000,0.000,0.000
1605187818308407040,10.0.1.143,43,place,-0.120,-0.120,-0.120,0.000,0.000,0.000
1605187820298577152,10.0.1.143,NaN,place,-0.100,-0.100,-0.100,0.000,0.000,0.000
1605187820351726080,10.0.1.143,53,place,-0.100,-0.100,-0.100,0.000,0.000,0.000
1605187821375121152,10.0.1.143,74,place,-0.090,-0.090,-0.090,0.000,0.000,0.000
1605187822372879872,10.0.1.143,68,place,-0.080,-0.080,-0.080,0.000,0.000,0.000
1605187823369641984,10.0.1.143,64,place,-0.070,-0.070,-0.070,0.000,0.000,0.000
1605187825309624832,10.0.1.143,NaN,place,-0.050,-0.050,-0.050,0.000,0.000,0.000
1605187825361926912,10.0.1.143,52,place,-0.050,-0.050,-0.050,0.000,0.000,0.000
1605187826521800960,10.0.1.143,172,place,-0.040,-0.040,-0.040,0.000,0.000,0.000
1605187827388796928,10.0.1.143,38,place,-0.030,-0.030,-0.030,0.000,0.000,0.000
1605187829352344064,10.0.1.143,NaN,place,-0.010,-0.010,-0.010,0.000,0.000,0.000
1605187829397989120,10.0.1.143,45,place,-0.010,-0.010,-0.010,0.000,0.000,0.000
1605187831364502016,10.0.1.143,NaN,move_down,-0.020,-0.020,-0.020,0.000,0.000,0.000
1605187831950254848,10.0.1.143,585,move_down,-0.020,-0.020,-0.020,0.000,0.000,0.000
1605187833725112064,10.0.1.143,703,move_down,-0.040,-0.040,-0.040,0.000,0.000,0.000
1605187835562240000,10.0.1.143,732,move_down,-0.060,-0.060,-0.060,0.000,0.000,0.000
1605187837447768064,10.0.1.143,783,move_down,-0.080,-0.080,-0.080,0.000,0.000,0.000
1605187839325169152,10.0.1.143,753,move_down,-0.100,-0.100,-0.100,0.000,0.000,0.000
1605187841278775808,10.0.1.143,955,move_down,-0.120,-0.120,-0.120,0.000,0.000,0.000
1605187843360235008,10.0.1.143,810,move_down,-0.140,-0.140,-0.140,0.000,0.000,0.000
1605187845050731776,10.0.1.143,627,move_down,-0.160,-0.160,-0.160,0.000,0.000,0.000
1605187846824856064,10.0.1.143,592,move_down,-0.180,-0.180,-0.180,0.000,0.000,0.000
1605187848507461120,10.0.1.143,616,move_down,-0.200,-0.200,-0.200,0.000,0.000,0.000
1605187850411066112,10.0.1.143,760,move_down,-0.220,-0.220,-0.220,0.000,0.000,0.000
1605187852310810112,10.0.1.143,818,move_down,-0.240,-0.240,-0.240,0.000,0.000,0.000
1605187854252830976,10.0.1.143,837,move_down,-0.260,-0.260,-0.260,0.000,0.000,0.000
1605187856057007104,10.0.1.143,731,move_down,-0.280,-0.280,-0.280,0.000,0.000,0.000
1605187857806530048,10.0.1.143,702,move_down,-0.300,-0.300,-0.300,0.000,0.000,0.000
1605187859670619136,10.0.1.143,701,move_down,-0.320,-0.320,-0.320,0.000,0.000,0.000
1605187861535401984,10.0.1.143,767,move_down,-0.340,-0.340,-0.340,0.000,0.000,0.000
1605187863569021952,10.0.1.143,987,move_down,-0.360,-0.360,-0.360,0.000,0.000,0.000
1605187865364694016,10.0.1.143,705,move_down,-0.380,-0.380,-0.380,0.000,0.000,0.000
1605187867722803200,10.0.1.143,1002,move_down,-0.400,-0.400,-0.400,0.000,0.000,0.000
1605187869646568960,10.0.1.143,774,move_down,-0.420,-0.420,-0.420,0.000,0.000,0.000
1605187871636559104,10.0.1.143,951,move_down,-0.440,-0.440,-0.440,0.000,0.000,0.000
1605187873438471936,10.0.1.143,746,move_down,-0.460,-0.460,-0.460,0.000,0.000,0.000
1605187875089309952,10.0.1.143,547,move_down,-0.480,-0.480,-0.480,0.000,0.000,0.000
1605187876636630016,10.0.1.143,515,move_down,-0.500,-0.500,-0.500,0.000,0.000,0.000
1605187878337792000,10.0.1.143,698,move_down,-0.520,-0.520,-0.520,0.000,0.000,0.000
1605187880333942784,10.0.1.143,674,move_down,-0.540,-0.540,-0.540,0.000,0.000,0.000
1605187882547558144,10.0.1.143,865,move_down,-0.560,-0.560,-0.560,0.000,0.000,0.000
1605187884444480000,10.0.1.143,749,move_down,-0.580,-0.580,-0.580,0.000,0.000,0.000
1605187885570935040,10.0.1.143,57,pick,-0.590,-0.590,-0.590,0.000,0.000,0.000
1605187886583918080,10.0.1.143,59,pick,-0.600,-0.600,-0.600,0.000,0.000,0.000
1605187887617263104,10.0.1.143,89,pick,-0.610,-0.610,-0.610,0.000,0.000,0.000
1605187889533561856,10.0.1.143,NaN,pick,-0.630,-0.630,-0.630,0.000,0.000,0.000
1605187890536822016,10.0.1.143,NaN,pick,-0.640,-0.640,-0.640,0.000,0.000,0.000
1605187891543559168,10.0.1.143,NaN,pick,-0.650,-0.650,-0.650,0.000,0.000,0.000
1605187891598326016,10.0.1.143,54,pick,-0.650,-0.650,-0.650,0.000,0.000,0.000
1605187893545459968,10.0.1.143,NaN,pick,-0.670,-0.670,-0.670,0.000,0.000,0.000
1605187894551186176,10.0.1.143,NaN,pick,-0.680,-0.680,-0.680,0.000,0.000,0.000
1605187895552763904,10.0.1.143,NaN,pick,-0.690,-0.690,-0.690,0.000,0.000,0.000
1605187895609527040,10.0.1.143,56,pick,-0.690,-0.690,-0.690,0.000,0.000,0.000
1605187896609896960,10.0.1.143,53,pick,-0.700,-0.700,-0.700,0.000,0.000,0.000
1605187897631520000,10.0.1.143,70,pick,-0.710,-0.710,-0.710,0.000,0.000,0.000
1605187899563270144,10.0.1.143,NaN,pick,-0.730,-0.730,-0.730,0.000,0.000,0.000
1605187900570758144,10.0.1.143,NaN,pick,-0.740,-0.740,-0.740,0.000,0.000,0.000
1605187900648237056,10.0.1.143,77,pick,-0.740,-0.740,-0.740,0.000,0.000,0.000
1605187901634639104,10.0.1.143,54,pick,-0.750,-0.750,-0.750,0.000,0.000,0.000
1605187902638878208,10.0.1.143,56,pick,-0.760,-0.760,-0.760,0.000,0.000,0.000
1605187904586283008,10.0.1.143,NaN,move_up,-0.750,-0.750,-0.750,0.000,0.000,0.000
1605187905186706944,10.0.1.143,600,move_up,-0.750,-0.750,-0.750,0.000,0.000,0.000
1605187907055748864,10.0.1.143,766,move_up,-0.730,-0.730,-0.730,0.000,0.000,0.000
1605187909203973888,10.0.1.143,871,move_up,-0.710,-0.710,-0.710,0.000,0.000,0.000
1605187911276357888,10.0.1.143,961,move_up,-0.690,-0.690,-0.690,0.000,0.000,0.000
1605187913435520000,10.0.1.143,1090,move_up,-0.670,-0.670,-0.670,0.000,0.000,0.000
1605187915295657984,10.0.1.143,762,move_up,-0.650,-0.650,-0.650,0.000,0.000,0.000
1605187917428105984,10.0.1.143,896,move_up,-0.630,-0.630,-0.630,0.000,0.000,0.000
1605187919291290112,10.0.1.143,861,move_up,-0.610,-0.610,-0.610,0.000,0.000,0.000
1605187921306440192,10.0.1.143,941,move_up,-0.590,-0.590,-0.590,0.000,0.000,0.000
1605187923094767104,10.0.1.143,668,move_up,-0.570,-0.570,-0.570,0.000,0.000,0.000
1605187925252237056,10.0.1.143,956,move_up,-0.550,-0.550,-0.550,0.000,0.000,0.000
1605187927028089088,10.0.1.143,656,move_up,-0.530,-0.530,-0.530,0.000,0.000,0.000
1605187929024532992,10.0.1.143,835,move_up,-0.510,-0.510,-0.510,0.000,0.000,0.000
1605187930947196928,10.0.1.143,790,move_up,-0.490,-0.490,-0.490,0.000,0.000,0.000
1605187933780768000,10.0.1.143,1411,move_up,-0.470,-0.470,-0.470,0.000,0.000,0.000
1605187935971968768,10.0.1.143,778,move_up,-0.450,-0.450,-0.450,0.000,0.000,0.000
1605187937759138048,10.0.1.143,732,move_up,-0.430,-0.430,-0.430,0.000,0.000,0.000
1605187939742320896,10.0.1.143,968,move_up,-0.410,-0.410,-0.410,0.000,0.000,0.000
1605187942176691968,10.0.1.143,814,move_up,-0.390,-0.390,-0.390,0.000,0.000,0.000
1605187944234988800,10.0.1.143,978,move_up,-0.370,-0.370,-0.370,0.000,0.000,0.000
1605187946595086080,10.0.1.143,1166,move_up,-0.350,-0.350,-0.350,0.000,0.000,0.000
1605187948531248128,10.0.1.143,725,move_up,-0.330,-0.330,-0.330,0.000,0.000,0.000
1605187950392820992,10.0.1.143,630,move_up,-0.310,-0.310,-0.310,0.000,0.000,0.000
1605187952362407936,10.0.1.143,934,move_up,-0.290,-0.290,-0.290,0.000,0.000,0.000
1605187954067696128,10.0.1.143,638,move_up,-0.270,-0.270,-0.270,0.000,0.000,0.000
1605187956375674880,10.0.1.143,1047,move_up,-0.250,-0.250,-0.250,0.000,0.000,0.000
1605187958366853888,10.0.1.143,804,move_up,-0.230,-0.230,-0.230,0.000,0.000,0.000
1605187960312136960,10.0.1.143,877,move_up,-0.210,-0.210,-0.210,0.000,0.000,0.000
1605187962344007936,10.0.1.143,864,move_up,-0.190,-0.190,-0.190,0.000,0.000,0.000
1605187964867552000,10.0.1.143,NaN,place,-0.170,-0.170,-0.170,0.000,0.000,0.000
1605187964918923008,10.0.1.143,51,place,-0.170,-0.170,-0.170,0.000,0.000,0.000
1605187965939544064,10.0.1.143,69,place,-0.160,-0.160,-0.160,0.000,0.000,0.000
1605187966917857792,10.0.1.143,44,place,-0.150,-0.150,-0.150,0.000,0.000,0.000
1605187967945942016,10.0.1.143,71,place,-0.140,-0.140,-0.140,0.000,0.000,0.000
1605187968945488896,10.0.1.143,70,place,-0.130,-0.130,-0.130,0.000,0.000,0.000
1605187969935246848,10.0.1.143,58,place,-0.120,-0.120,-0.120,0.000,0.000,0.000
1605187970971817984,10.0.1.143,80,place,-0.110,-0.110,-0.110,0.000,0.000,0.000
1605187971936551936,10.0.1.143,42,place,-0.100,-0.100,-0.100,0.000,0.000,0.000
1605187972971014144,10.0.1.143,67,place,-0.090,-0.090,-0.090,0.000,0.000,0.000
1605187974016073984,10.0.1.143,101,place,-0.080,-0.080,-0.080,0.000,0.000,0.000
1605187974999217152,10.0.1.143,53,place,-0.070,-0.070,-0.070,0.000,0.000,0.000
1605187976953325056,10.0.1.143,NaN,place,-0.050,-0.050,-0.050,0.000,0.000,0.000
1605187977954618880,10.0.1.143,NaN,place,-0.040,-0.040,-0.040,0.000,0.000,0.000
1605187978961561088,10.0.1.143,NaN,place,-0.030,-0.030,-0.030,0.000,0.000,0.000
1605187979015404032,10.0.1.143,53,place,-0.030,-0.030,-0.030,0.000,0.000,0.000
1605187980975112960,10.0.1.143,NaN,place,-0.010,-0.010,-0.010,0.000,0.000,0.000
1605187981043474944,10.0.1.143,68,place,-0.010,-0.010,-0.010,0.000,0.000,0.000
1605187982982765824,10.0.1.143,NaN,move_down,-0.020,-0.020,-0.020,0.000,0.000,0.000
1605187983627790080,10.0.1.143,644,move_down,-0.020,-0.020,-0.020,0.000,0.000,0.000
1605187985409214976,10.0.1.143,691,move_down,-0.040,-0.040,-0.040,0.000,0.000,0.000
1605187987299417856,10.0.1.143,693,move_down,-0.060,-0.060,-0.060,0.000,0.000,0.000
1605187989043740160,10.0.1.143,687,move_down,-0.080,-0.080,-0.080,0.000,0.000,0.000
1605187990713437952,10.0.1.143,621,move_down,-0.100,-0.100,-0.100,0.000,0.000,0.000
1605187992670799872,10.0.1.143,900,move_down,-0.120,-0.120,-0.120,0.000,0.000,0.000
1605187994992871168,10.0.1.143,1047,move_down,-0.140,-0.140,-0.140,0.000,0.000,0.000
1605187996988761856,10.0.1.143,877,move_down,-0.160,-0.160,-0.160,0.000,0.000,0.000
1605187999054083072,10.0.1.143,1012,move_down,-0.180,-0.180,-0.180,0.000,0.000,0.000
1605188001041822976,10.0.1.143,826,move_down,-0.200,-0.200,-0.200,0.000,0.000,0.000
1605188003091352064,10.0.1.143,869,move_down,-0.220,-0.220,-0.220,0.000,0.000,0.000
1605188005300067072,10.0.1.143,868,move_down,-0.240,-0.240,-0.240,0.000,0.000,0.000
1605188007078556928,10.0.1.143,679,move_down,-0.260,-0.260,-0.260,0.000,0.000,0.000
1605188008918042880,10.0.1.143,763,move_down,-0.280,-0.280,-0.280,0.000,0.000,0.000
1605188010762723072,10.0.1.143,625,move_down,-0.300,-0.300,-0.300,0.000,0.000,0.000
1605188012611493120,10.0.1.143,710,move_down,-0.320,-0.320,-0.320,0.000,0.000,0.000
1605188014732259072,10.0.1.143,970,move_down,-0.340,-0.340,-0.340,0.000,0.000,0.000
1605188016805596160,10.0.1.143,975,move_down,-0.360,-0.360,-0.360,0.000,0.000,0.000
1605188019020585984,10.0.1.143,1106,move_down,-0.380,-0.380,-0.380,0.000,0.000,0.000
1605188020738331136,10.0.1.143,588,move_down,-0.400,-0.400,-0.400,0.000,0.000,0.000
1605188022777310976,10.0.1.143,909,move_down,-0.420,-0.420,-0.420,0.000,0.000,0.000
1605188024919766016,10.0.1.143,1009,move_down,-0.440,-0.440,-0.440,0.000,0.000,0.000
1605188026939435008,10.0.1.143,919,move_down,-0.460,-0.460,-0.460,0.000,0.000,0.000
1605188028890161152,10.0.1.143,833,move_down,-0.480,-0.480,-0.480,0.000,0.000,0.000
1605188031017405952,10.0.1.143,981,move_down,-0.500,-0.500,-0.500,0.000,0.000,0.000
1605188033149178880,10.0.1.143,916,move_down,-0.520,-0.520,-0.520,0.000,0.000,0.000
1605188035028820992,10.0.1.143,750,move_down,-0.540,-0.540,-0.540,0.000,0.000,0.000
1605188036926932224,10.0.1.143,789,move_down,-0.560,-0.560,-0.560,0.000,0.000,0.000
1605188039100080128,10.0.1.143,1113,move_down,-0.580,-0.580,-0.580,0.000,0.000,0.000
1605188040229964032,10.0.1.143,44,pick,-0.590,-0.590,-0.590,0.000,0.000,0.000
1605188042191566848,10.0.1.143,NaN,pick,-0.610,-0.610,-0.610,0.000,0.000,0.000
1605188042276216064,10.0.1.143,84,pick,-0.610,-0.610,-0.610,0.000,0.000,0.000
1605188044193340160,10.0.1.143,NaN,pick,-0.630,-0.630,-0.630,0.000,0.000,0.000
1605188044245219840,10.0.1.143,51,pick,-0.630,-0.630,-0.630,0.000,0.000,0.000
1605188045270710016,10.0.1.143,75,pick,-0.640,-0.640,-0.640,0.000,0.000,0.000
1605188047215616000,10.0.1.143,NaN,pick,-0.660,-0.660,-0.660,0.000,0.000,0.000
1605188047297843968,10.0.1.143,82,pick,-0.660,-0.660,-0.660,0.000,0.000,0.000
1605188049217683200,10.0.1.143,NaN,pick,-0.680,-0.680,-0.680,0.000,0.000,0.000
1605188049269046016,10.0.1.143,51,pick,-0.680,-0.680,-0.680,0.000,0.000,0.000
1605188050300587008,10.0.1.143,73,pick,-0.690,-0.690,-0.690,0.000,0.000,0.000
1605188051282507776,10.0.1.143,54,pick,-0.700,-0.700,-0.700,0.000,0.000,0.000
1605188052308087040,10.0.1.143,70,pick,-0.710,-0.710,-0.710,0.000,0.000,0.000
1605188053296523008,10.0.1.143,57,pick,-0.720,-0.720,-0.720,0.000,0.000,0.000
1605188054297177088,10.0.1.143,57,pick,-0.730,-0.730,-0.730,0.000,0.000,0.000
1605188055327373056,10.0.1.143,86,pick,-0.740,-0.740,-0.740,0.000,0.000,0.000
1605188056359426048,10.0.1.143,112,pick,-0.750,-0.750,-0.750,0.000,0.000,0.000
1605188057311119104,10.0.1.143,63,pick,-0.760,-0.760,-0.760,0.000,0.000,0.000
1605188058376660992,10.0.1.143,114,pick,-0.770,-0.770,-0.770,0.000,0.000,0.000
1605188060346648832,10.0.1.143,1083,move_up,-0.750,-0.750,-0.750,0.000,0.000,0.000
1605188062256335104,10.0.1.143,747,move_up,-0.730,-0.730,-0.730,0.000,0.000,0.000
1605188064608167936,10.0.1.143,1174,move_up,-0.710,-0.710,-0.710,0.000,0.000,0.000
1605188066469947136,10.0.1.143,732,move_up,-0.690,-0.690,-0.690,0.000,0.000,0.000
1605188068668699136,10.0.1.143,1097,move_up,-0.670,-0.670,-0.670,0.000,0.000,0.000
1605188071252926976,10.0.1.143,1483,move_up,-0.650,-0.650,-0.650,0.000,0.000,0.000
1605188073388793088,10.0.1.143,825,move_up,-0.630,-0.630,-0.630,0.000,0.000,0.000
1605188075232253952,10.0.1.143,775,move_up,-0.610,-0.610,-0.610,0.000,0.000,0.000
1605188077294481920,10.0.1.143,923,move_up,-0.590,-0.590,-0.590,0.000,0.000,0.000
1605188079536813056,10.0.1.143,1127,move_up,-0.570,-0.570,-0.570,0.000,0.000,0.000
1605188081588495104,10.0.1.143,1016,move_up,-0.550,-0.550,-0.550,0.000,0.000,0.000
1605188083860295936,10.0.1.143,1025,move_up,-0.530,-0.530,-0.530,0.000,0.000,0.000
1605188085660887040,10.0.1.143,799,move_up,-0.510,-0.510,-0.510,0.000,0.000,0.000
1605188087538084864,10.0.1.143,718,move_up,-0.490,-0.490,-0.490,0.000,0.000,0.000
1605188089827968000,10.0.1.143,1153,move_up,-0.470,-0.470,-0.470,0.000,0.000,0.000
1605188092046928896,10.0.1.143,1141,move_up,-0.450,-0.450,-0.450,0.000,0.000,0.000
1605188094058199808,10.0.1.143,864,move_up,-0.430,-0.430,-0.430,0.000,0.000,0.000
1605188095954821120,10.0.1.143,729,move_up,-0.410,-0.410,-0.410,0.000,0.000,0.000
1605188097841819136,10.0.1.143,822,move_up,-0.390,-0.390,-0.390,0.000,0.000,0.000
1605188100117072128,10.0.1.143,1249,move_up,-0.370,-0.370,-0.370,0.000,0.000,0.000
1605188101902800128,10.0.1.143,769,move_up,-0.350,-0.350,-0.350,0.000,0.000,0.000
1605188103837459968,10.0.1.143,854,move_up,-0.330,-0.330,-0.330,0.000,0.000,0.000
1605188105635767040,10.0.1.143,762,move_up,-0.310,-0.310,-0.310,0.000,0.000,0.000
1605188107286681856,10.0.1.143,556,move_up,-0.290,-0.290,-0.290,0.000,0.000,0.000
1605188108992161024,10.0.1.143,607,move_up,-0.270,-0.270,-0.270,0.000,0.000,0.000
1605188111010016000,10.0.1.143,906,move_up,-0.250,-0.250,-0.250,0.000,0.000,0.000
1605188112930895104,10.0.1.143,916,move_up,-0.230,-0.230,-0.230,0.000,0.000,0.000
1605188114813705984,10.0.1.143,790,move_up,-0.210,-0.210,-0.210,0.000,0.000,0.000
1605188117021810176,10.0.1.143,950,move_up,-0.190,-0.190,-0.190,0.000,0.000,0.000
1605188119165309952,10.0.1.143,NaN,place,-0.170,-0.170,-0.170,0.000,0.000,0.000
1605188120168363008,10.0.1.143,NaN,place,-0.160,-0.160,-0.160,0.000,0.000,0.000
1605188120209969152,10.0.1.143,41,place,-0.160,-0.160,-0.160,0.000,0.000,0.000
1605188122171578880,10.0.1.143,NaN,place,-0.140,-0.140,-0.140,0.000,0.000,0.000
1605188123179411968,10.0.1.143,NaN,place,-0.130,-0.130,-0.130,0.000,0.000,0.000
1605188123229358080,10.0.1.143,49,place,-0.130,-0.130,-0.130,0.000,0.000,0.000
1605188124270766848,10.0.1.143,89,place,-0.120,-0.120,-0.120,0.000,0.000,0.000
1605188125239378944,10.0.1.143,57,place,-0.110,-0.110,-0.110,0.000,0.000,0.000
1605188127190292992,10.0.1.143,NaN,place,-0.090,-0.090,-0.090,0.000,0.000,0.000
1605188127224848128,10.0.1.143,34,place,-0.090,-0.090,-0.090,0.000,0.000,0.000
1605188128288692992,10.0.1.143,86,place,-0.080,-0.080,-0.080,0.000,0.000,0.000
1605188129306726912,10.0.1.143,103,place,-0.070,-0.070,-0.070,0.000,0.000,0.000
1605188131218321152,10.0.1.143,NaN,place,-0.050,-0.050,-0.050,0.000,0.000,0.000
1605188132222109952,10.0.1.143,NaN,place,-0.040,-0.040,-0.040,0.000,0.000,0.000
1605188132293890048,10.0.1.143,71,place,-0.040,-0.040,-0.040,0.000,0.000,0.000
1605188134238606848,10.0.1.143,NaN,place,-0.020,-0.020,-0.020,0.000,0.000,0.000
1605188134295742976,10.0.1.143,56,place,-0.020,-0.020,-0.020,0.000,0.000,0.000
1605188136243910144,10.0.1.143,NaN,place,0.000,0.000,0.000,0.000,0.000,0.000
1605188136287739136,10.0.1.143,43,place,0.000,0.000,0.000,0.000,0.000,0.000
1605188138097619968,10.0.1.143,852,move_down,-0.020,-0.020,-0.020,0.000,0.000,0.000
1605188140237832192,10.0.1.143,1050,move_down,-0.040,-0.040,-0.040,0.000,0.000,0.000
1605188141959057152,10.0.1.143,533,move_down,-0.060,-0.060,-0.060,0.000,0.000,0.000
1605188143908947968,10.0.1.143,827,move_down,-0.080,-0.080,-0.080,0.000,0.000,0.000
1605188146099172096,10.0.1.143,1045,move_down,-0.100,-0.100,-0.100,0.000,0.000,0.000
1605188147709044992,10.0.1.143,494,move_down,-0.120,-0.120,-0.120,0.000,0.000,0.000
1605188149853317120,10.0.1.143,1076,move_down,-0.140,-0.140,-0.140,0.000,0.000,0.000
1605188152221529856,10.0.1.143,1358,move_down,-0.160,-0.160,-0.160,0.000,0.000,0.000
1605188154398132992,10.0.1.143,1007,move_down,-0.180,-0.180,-0.180,0.000,0.000,0.000
1605188156558403072,10.0.1.143,1061,move_down,-0.200,-0.200,-0.200,0.000,0.000,0.000
1605188158945698048,10.0.1.143,1194,move_down,-0.220,-0.220,-0.220,0.000,0.000,0.000
1605188160942231808,10.0.1.143,608,move_down,-0.240,-0.240,-0.240,0.000,0.000,0.000
1605188162663081984,10.0.1.143,633,move_down,-0.260,-0.260,-0.260,0.000,0.000,0.000
1605188164796163072,10.0.1.143,998,move_down,-0.280,-0.280,-0.280,0.000,0.000,0.000
1605188166883835136,10.0.1.143,1078,move_down,-0.300,-0.300,-0.300,0.000,0.000,0.000
1605188169197988864,10.0.1.143,1119,move_down,-0.320,-0.320,-0.320,0.000,0.000,0.000
1605188171066087936,10.0.1.143,810,move_down,-0.340,-0.340,-0.340,0.000,0.000,0.000
1605188172986129920,10.0.1.143,804,move_down,-0.360,-0.360,-0.360,0.000,0.000,0.000
1605188175212022016,10.0.1.143,1030,move_down,-0.380,-0.380,-0.380,0.000,0.000,0.000
1605188177321145088,10.0.1.143,1150,move_down,-0.400,-0.400,-0.400,0.000,0.000,0.000
1605188179496453888,10.0.1.143,1089,move_down,-0.420,-0.420,-0.420,0.000,0.000,0.000
1605188182471205888,10.0.1.143,1879,move_down,-0.440,-0.440,-0.440,0.000,0.000,0.000
1605188184606398976,10.0.1.143,854,move_down,-0.460,-0.460,-0.460,0.000,0.000,0.000
1605188186846134016,10.0.1.143,1187,move_down,-0.480,-0.480,-0.480,0.000,0.000,0.000
1605188189208326144,10.0.1.143,1219,move_down,-0.500,-0.500,-0.500,0.000,0.000,0.000
1605188191309613056,10.0.1.143,1039,move_down,-0.520,-0.520,-0.520,0.000,0.000,0.000
1605188193451386880,10.0.1.143,1108,move_down,-0.540,-0.540,-0.540,0.000,0.000,0.000
1605188195430584832,10.0.1.143,863,move_down,-0.560,-0.560,-0.560,0.000,0.000,0.000
1605188197167437056,10.0.1.143,731,move_down,-0.580,-0.580,-0.580,0.000,0.000,0.000
1605188198444859904,10.0.1.143,132,pick,-0.590,-0.590,-0.590,0.000,0.000,0.000
1605188199381854976,10.0.1.143,69,pick,-0.600,-0.600,-0.600,0.000,0.000,0.000
1605188200413824000,10.0.1.143,98,pick,-0.610,-0.610,-0.610,0.000,0.000,0.000
1605188201411166976,10.0.1.143,93,pick,-0.620,-0.620,-0.620,0.000,0.000,0.000
1605188203319559936,10.0.1.143,NaN,pick,-0.640,-0.640,-0.640,0.000,0.000,0.000
1605188203385683968,10.0.1.143,66,pick,-0.640,-0.640,-0.640,0.000,0.000,0.000
1605188204381416192,10.0.1.143,57,pick,-0.650,-0.650,-0.650,0.000,0.000,0.000
1605188206327557120,10.0.1.143,NaN,pick,-0.670,-0.670,-0.670,0.000,0.000,0.000
1605188207328856832,10.0.1.143,NaN,pick,-0.680,-0.680,-0.680,0.000,0.000,0.000
1605188207396933120,10.0.1.143,68,pick,-0.680,-0.680,-0.680,0.000,0.000,0.000
1605188208416295168,10.0.1.143,52,pick,-0.690,-0.690,-0.690,0.000,0.000,0.000
1605188210367598080,10.0.1.143,NaN,pick,-0.710,-0.710,-0.710,0.000,0.000,0.000
1605188211373572096,10.0.1.143,NaN,pick,-0.720,-0.720,-0.720,0.000,0.000,0.000
1605188211466888960,10.0.1.143,93,pick,-0.720,-0.720,-0.720,0.000,0.000,0.000
1605188212423343872,10.0.1.143,49,pick,-0.730,-0.730,-0.730,0.000,0.000,0.000
1605188214375549184,10.0.1.143,NaN,pick,-0.750,-0.750,-0.750,0.000,0.000,0.000
1605188214429601024,10.0.1.143,53,pick,-0.750,-0.750,-0.750,0.000,0.000,0.000
1605188215454145792,10.0.1.143,77,pick,-0.760,-0.760,-0.760,0.000,0.000,0.000
1605188217379312896,10.0.1.143,NaN,move_up,-0.750,-0.750,-0.750,0.000,0.000,0.000
1605188218535746048,10.0.1.143,1156,move_up,-0.750,-0.750,-0.750,0.000,0.000,0.000
1605188220683240960,10.0.1.143,1120,move_up,-0.730,-0.730,-0.730,0.000,0.000,0.000
1605188222887809024,10.0.1.143,1116,move_up,-0.710,-0.710,-0.710,0.000,0.000,0.000
1605188225424057856,10.0.1.143,1375,move_up,-0.690,-0.690,-0.690,0.000,0.000,0.000
1605188227511385088,10.0.1.143,1086,move_up,-0.670,-0.670,-0.670,0.000,0.000,0.000
1605188229523087872,10.0.1.143,803,move_up,-0.650,-0.650,-0.650,0.000,0.000,0.000
1605188231818845952,10.0.1.143,1137,move_up,-0.630,-0.630,-0.630,0.000,0.000,0.000
1605188233784312064,10.0.1.143,859,move_up,-0.610,-0.610,-0.610,0.000,0.000,0.000
1605188235735949056,10.0.1.143,865,move_up,-0.590,-0.590,-0.590,0.000,0.000,0.000
1605188238090390016,10.0.1.143,1172,move_up,-0.570,-0.570,-0.570,0.000,0.000,0.000
1605188240664720896,10.0.1.143,1224,move_up,-0.550,-0.550,-0.550,0.000,0.000,0.000
1605188242505000192,10.0.1.143,863,move_up,-0.530,-0.530,-0.530,0.000,0.000,0.000
1605188244777824000,10.0.1.143,794,move_up,-0.510,-0.510,-0.510,0.000,0.000,0.000
1605188246767878912,10.0.1.143,807,move_up,-0.490,-0.490,-0.490,0.000,0.000,0.000
1605188249236843008,10.0.1.143,1302,move_up,-0.470,-0.470,-0.470,0.000,0.000,0.000
1605188251692972032,10.0.1.143,1232,move_up,-0.450,-0.450,-0.450,0.000,0.000,0.000
1605188253973767168,10.0.1.143,1210,move_up,-0.430,-0.430,-0.430,0.000,0.000,0.000
1605188256037217024,10.0.1.143,849,move_up,-0.410,-0.410,-0.410,0.000,0.000,0.000
1605188258028453120,10.0.1.143,771,move_up,-0.390,-0.390,-0.390,0.000,0.000,0.000
1605188260226182912,10.0.1.143,988,move_up,-0.370,-0.370,-0.370,0.000,0.000,0.000
1605188262255698944,10.0.1.143,978,move_up,-0.350,-0.350,-0.350,0.000,0.000,0.000
1605188264991492096,10.0.1.143,1504,move_up,-0.330,-0.330,-0.330,0.000,0.000,0.000
1605188267206886144,10.0.1.143,960,move_up,-0.310,-0.310,-0.310,0.000,0.000,0.000
1605188269074894848,10.0.1.143,703,move_up,-0.290,-0.290,-0.290,0.000,0.000,0.000
1605188271235368960,10.0.1.143,1067,move_up,-0.270,-0.270,-0.270,0.000,0.000,0.000
1605188274018113024,10.0.1.143,1742,move_up,-0.250,-0.250,-0.250,0.000,0.000,0.000
1605188276487486976,10.0.1.143,1297,move_up,-0.230,-0.230,-0.230,0.000,0.000,0.000
1605188279035162880,10.0.1.143,1460,move_up,-0.210,-0.210,-0.210,0.000,0.000,0.000
1605188280816392960,10.0.1.143,724,move_up,-0.190,-0.190,-0.190,0.000,0.000,0.000
1605188281970805760,10.0.1.143,45,place,-0.180,-0.180,-0.180,0.000,0.000,0.000
1605188283009893888,10.0.1.143,63,place,-0.170,-0.170,-0.170,0.000,0.000,0.000
1605188284014409984,10.0.1.143,66,place,-0.160,-0.160,-0.160,0.000,0.000,0.000
1605188285957537792,10.0.1.143,NaN,place,-0.140,-0.140,-0.140,0.000,0.000,0.000
1605188286961986048,10.0.1.143,NaN,place,-0.130,-0.130,-0.130,0.000,0.000,0.000
1605188287032654080,10.0.1.143,70,place,-0.130,-0.130,-0.130,0.000,0.000,0.000
1605188288124526080,10.0.1.143,159,place,-0.120,-0.120,-0.120,0.000,0.000,0.000
1605188289037470976,10.0.1.143,71,place,-0.110,-0.110,-0.110,0.000,0.000,0.000
1605188290068798976,10.0.1.143,101,place,-0.100,-0.100,-0.100,0.000,0.000,0.000
1605188291049256192,10.0.1.143,72,place,-0.090,-0.090,-0.090,0.000,0.000,0.000
1605188292979549952,10.0.1.143,NaN,place,-0.070,-0.070,-0.070,0.000,0.000,0.000
1605188293033879040,10.0.1.143,54,place,-0.070,-0.070,-0.070,0.000,0.000,0.000
1605188294066880000,10.0.1.143,85,place,-0.060,-0.060,-0.060,0.000,0.000,0.000
1605188295028192000,10.0.1.143,37,place,-0.050,-0.050,-0.050,0.000,0.000,0.000
1605188296095840000,10.0.1.143,94,place,-0.040,-0.040,-0.040,0.000,0.000,0.000
1605188297055205120,10.0.1.143,47,place,-0.030,-0.030,-0.030,0.000,0.000,0.000
1605188298081569792,10.0.1.143,43,place,-0.020,-0.020,-0.020,0.000,0.000,0.000
1605188299126769920,10.0.1.143,86,place,-0.010,-0.010,-0.010,0.000,0.000,0.000
1605188300099077888,10.0.1.143,57,place,0.000,0.000,0.000,0.000,0.000,0.000
1605188302377584896,10.0.1.143,1328,move_down,-0.020,-0.020,-0.020,0.000,0.000,0.000
1605188304778224896,10.0.1.143,1080,move_down,-0.040,-0.040,-0.040,0.000,0.000,0.000
1605188306816411904,10.0.1.143,1027,move_down,-0.060,-0.060,-0.060,0.000,0.000,0.000
1605188308737848064,10.0.1.143,788,move_down,-0.080,-0.080,-0.080,0.000,0.000,0.000
1605188310500036864,10.0.1.143,724,move_down,-0.100,-0.100,-0.100,0.000,0.000,0.000
1605188312607832064,10.0.1.143,1044,move_down,-0.120,-0.120,-0.120,0.000,0.000,0.000
1605188314565278976,10.0.1.143,808,move_down,-0.140,-0.140,-0.140,0.000,0.000,0.000
1605188316606021888,10.0.1.143,954,move_down,-0.160,-0.160,-0.160,0.000,0.000,0.000
1605188318337764864,10.0.1.143,677,move_down,-0.180,-0.180,-0.180,0.000,0.000,0.000
1605188320673435904,10.0.1.143,1247,move_down,-0.200,-0.200,-0.200,0.000,0.000,0.000
1605188322610776832,10.0.1.143,866,move_down,-0.220,-0.220,-0.220,0.000,0.000,0.000
1605188324880112896,10.0.1.143,964,move_down,-0.240,-0.240,-0.240,0.000,0.000,0.000
1605188326882232832,10.0.1.143,896,move_down,-0.260,-0.260,-0.260,0.000,0.000,0.000
1605188328878277120,10.0.1.143,894,move_down,-0.280,-0.280,-0.280,0.000,0.000,0.000
1605188331094011904,10.0.1.143,1137,move_down,-0.300,-0.300,-0.300,0.000,0.000,0.000
1605188333501519872,10.0.1.143,1323,move_down,-0.320,-0.320,-0.320,0.000,0.000,0.000
1605188335268000000,10.0.1.143,711,move_down,-0.340,-0.340,-0.340,0.000,0.000,0.000
1605188337221788928,10.0.1.143,944,move_down,-0.360,-0.360,-0.360,0.000,0.000,0.000
1605188339022334208,10.0.1.143,770,move_down,-0.380,-0.380,-0.380,0.000,0.000,0.000
1605188340918518016,10.0.1.143,802,move_down,-0.400,-0.400,-0.400,0.000,0.000,0.000
1605188343395757056,10.0.1.143,1360,move_down,-0.420,-0.420,-0.420,0.000,0.000,0.000
1605188346362456064,10.0.1.143,1924,move_down,-0.440,-0.440,-0.440,0.000,0.000,0.000
1605188348822918912,10.0.1.143,1298,move_down,-0.460,-0.460,-0.460,0.000,0.000,0.000
1605188350989751040,10.0.1.143,1193,move_down,-0.480,-0.480,-0.480,0.000,0.000,0.000
1605188353238404096,10.0.1.143,1110,move_down,-0.500,-0.500,-0.500,0.000,0.000,0.000
1605188355219717120,10.0.1.143,910,move_down,-0.520,-0.520,-0.520,0.000,0.000,0.000
1605188357618452992,10.0.1.143,1261,move_down,-0.540,-0.540,-0.540,0.000,0.000,0.000
1605188359839817984,10.0.1.143,1169,move_down,-0.560,-0.560,-0.560,0.000,0.000,0.000
1605188362135660032,10.0.1.143,968,move_down,-0.580,-0.580,-0.580,0.000,0.000,0.000
1605188364471382016,10.0.1.143,NaN,pick,-0.600,-0.600,-0.600,0.000,0.000,0.000
1605188365490784768,10.0.1.143,NaN,pick,-0.610,-0.610,-0.610,0.000,0.000,0.000
1605188365556494080,10.0.1.143,65,pick,-0.610,-0.610,-0.610,0.000,0.000,0.000
1605188366537245952,10.0.1.143,45,pick,-0.620,-0.620,-0.620,0.000,0.000,0.000
1605188367553335040,10.0.1.143,52,pick,-0.630,-0.630,-0.630,0.000,0.000,0.000
1605188369502427136,10.0.1.143,NaN,pick,-0.650,-0.650,-0.650,0.000,0.000,0.000
1605188369557871104,10.0.1.143,55,pick,-0.650,-0.650,-0.650,0.000,0.000,0.000
1605188370560133888,10.0.1.143,56,pick,-0.660,-0.660,-0.660,0.000,0.000,0.000
1605188372505724928,10.0.1.143,NaN,pick,-0.680,-0.680,-0.680,0.000,0.000,0.000
1605188372558953984,10.0.1.143,53,pick,-0.680,-0.680,-0.680,0.000,0.000,0.000
1605188373579389952,10.0.1.143,71,pick,-0.690,-0.690,-0.690,0.000,0.000,0.000
1605188375517564160,10.0.1.143,NaN,pick,-0.710,-0.710,-0.710,0.000,0.000,0.000
1605188376520216064,10.0.1.143,NaN,pick,-0.720,-0.720,-0.720,0.000,0.000,0.000
1605188376580862976,10.0.1.143,60,pick,-0.720,-0.720,-0.720,0.000,0.000,0.000
1605188377606333952,10.0.1.143,76,pick,-0.730,-0.730,-0.730,0.000,0.000,0.000
1605188378609554176,10.0.1.143,44,pick,-0.740,-0.740,-0.740,0.000,0.000,0.000
1605188379654923008,10.0.1.143,88,pick,-0.750,-0.750,-0.750,0.000,0.000,0.000
1605188380647433984,10.0.1.143,79,pick,-0.760,-0.760,-0.760,0.000,0.000,0.000
1605188381664609024,10.0.1.143,95,pick,-0.770,-0.770,-0.770,0.000,0.000,0.000
1605188383535636992,10.0.1.143,964,move_up,-0.750,-0.750,-0.750,0.000,0.000,0.000
1605188385819936000,10.0.1.143,1009,move_up,-0.730,-0.730,-0.730,0.000,0.000,0.000
1605188387735599872,10.0.1.143,896,move_up,-0.710,-0.710,-0.710,0.000,0.000,0.000
1605188390016377856,10.0.1.143,1084,move_up,-0.690,-0.690,-0.690,0.000,0.000,0.000
1605188392134437120,10.0.1.143,1056,move_up,-0.670,-0.670,-0.670,0.000,0.000,0.000
1605188394726558976,10.0.1.143,1097,move_up,-0.650,-0.650,-0.650,0.000,0.000,0.000
1605188397793095168,10.0.1.143,1873,move_up,-0.630,-0.630,-0.630,0.000,0.000,0.000
1605188400160325888,10.0.1.143,1316,move_up,-0.610,-0.610,-0.610,0.000,0.000,0.000
1605188402267257088,10.0.1.143,961,move_up,-0.590,-0.590,-0.590,0.000,0.000,0.000
1605188404117176064,10.0.1.143,817,move_up,-0.570,-0.570,-0.570,0.000,0.000,0.000
1605188406819693056,10.0.1.143,1383,move_up,-0.550,-0.550,-0.550,0.000,0.000,0.000
1605188408641731072,10.0.1.143,581,move_up,-0.530,-0.530,-0.530,0.000,0.000,0.000
1605188410533345024,10.0.1.143,828,move_up,-0.510,-0.510,-0.510,0.000,0.000,0.000
1605188412768132864,10.0.1.143,816,move_up,-0.490,-0.490,-0.490,0.000,0.000,0.000
1605188415179009024,10.0.1.143,1281,move_up,-0.470,-0.470,-0.470,0.000,0.000,0.000
1605188417556103936,10.0.1.143,951,move_up,-0.450,-0.450,-0.450,0.000,0.000,0.000
1605188420636625920,10.0.1.143,1859,move_up,-0.430,-0.430,-0.430,0.000,0.000,0.000
1605188422985281024,10.0.1.143,1232,move_up,-0.410,-0.410,-0.410,0.000,0.000,0.000
1605188425278167040,10.0.1.143,1203,move_up,-0.390,-0.390,-0.390,0.000,0.000,0.000
1605188427623758080,10.0.1.143,1108,move_up,-0.370,-0.370,-0.370,0.000,0.000,0.000
1605188430843628800,10.0.1.143,NaN,move_down,-0.370,-0.370,-0.370,0.000,0.000,0.000
1605188430870400000,10.0.1.143,26,move_down,-0.370,-0.370,-0.370,0.000,0.000,0.000
1605188435028647936,10.0.1.143,NaN,move_down,-0.410,-0.410,-0.410,0.000,0.000,0.000
1605188437098978048,10.0.1.143,NaN,move_down,-0.430,-0.430,-0.430,0.000,0.000,0.000
1605188439150172928,10.0.1.143,NaN,move_down,-0.450,-0.450,-0.450,0.000,0.000,0.000
1605188441209012992,10.0.1.143,NaN,move_down,-0.470,-0.470,-0.470,0.000,0.000,0.000
1605188443226502912,10.0.1.143,NaN,move_down,-0.490,-0.490,-0.490,0.000,0.000,0.000
1605188445265106944,10.0.1.143,NaN,move_down,-0.510,-0.510,-0.510,0.000,0.000,0.000
1605188447290475008,10.0.1.143,NaN,move_down,-0.530,-0.530,-0.530,0.000,0.000,0.000
1605188449327258112,10.0.1.143,NaN,move_down,-0.550,-0.550,-0.550,0.000,0.000,0.000
1605188451340993024,10.0.1.143,NaN,move_down,-0.570,-0.570,-0.570,0.000,0.000,0.000
1605188453353923072,10.0.1.143,NaN,move_down,-0.590,-0.590,-0.590,0.000,0.000,0.000
1605188455367415040,10.0.1.143,NaN,move_down,-0.610,-0.610,-0.610,0.000,0.000,0.000
1605188455398279936,10.0.1.143,NaN,move_down,-0.630,-0.630,-0.630,0.000,0.000,0.000
1605188455402280960,10.0.1.143,NaN,move_down,-0.650,-0.650,-0.650,0.000,0.000,0.000
1605188455407357952,10.0.1.143,NaN,move_down,-0.670,-0.670,-0.670,0.000,0.000,0.000
1605188455412836096,10.0.1.143,NaN,move_down,-0.690,-0.690,-0.690,0.000,0.000,0.000
1605188455416409856,10.0.1.143,NaN,move_down,-0.710,-0.710,-0.710,0.000,0.000,0.000
1605188455418956032,10.0.1.143,NaN,move_down,-0.730,-0.730,-0.730,0.000,0.000,0.000
1605188455426232064,10.0.1.143,NaN,move_down,-0.750,-0.750,-0.750,0.000,0.000,0.000
1605188455431129088,10.0.1.143,NaN,move_down,-0.770,-0.770,-0.770,0.000,0.000,0.000
1605188455433969920,10.0.1.143,NaN,move_down,-0.790,-0.790,-0.790,0.000,0.000,0.000
1605188455439676160,10.0.1.143,NaN,move_down,-0.810,-0.810,-0.810,0.000,0.000,0.000
1605188455447211008,10.0.1.143,NaN,move_down,-0.830,-0.830,-0.830,0.000,0.000,0.000
1605188455455270912,10.0.1.143,NaN,move_down,-0.850,-0.850,-0.850,0.000,0.000,0.000
1605188455464541952,10.0.1.143,NaN,move_down,-0.870,-0.870,-0.870,0.000,0.000,0.000
1605188455468805120,10.0.1.143,NaN,move_down,-0.890,-0.890,-0.890,0.000,0.000,0.000
1605188455480620032,10.0.1.143,NaN,move_down,-0.910,-0.910,-0.910,0.000,0.000,0.000
1605188455486321920,10.0.1.143,NaN,move_down,-0.930,-0.930,-0.930,0.000,0.000,0.000
1605188455495723008,10.0.1.143,NaN,move_down,-0.950,-0.950,-0.950,0.000,0.000,0.000
1605188455496643072,10.0.1.143,NaN,move_down,-0.970,-0.970,-0.970,0.000,0.000,0.000
1605188455498684928,10.0.1.143,NaN,move_down,-0.990,-0.990,-0.990,0.000,0.000,0.000
1605188455499449088,10.0.1.143,NaN,move_down,-1.010,-1.010,-1.010,0.000,0.000,0.000
1605188455507479040,10.0.1.143,NaN,move_down,-1.030,-1.030,-1.030,0.000,0.000,0.000
1605188455511441920,10.0.1.143,NaN,move_down,-1.050,-1.050,-1.050,0.000,0.000,0.000
1605188455512332032,10.0.1.143,NaN,move_down,-1.070,-1.070,-1.070,0.000,0.000,0.000
1605188455513117184,10.0.1.143,NaN,move_down,-1.090,-1.090,-1.090,0.000,0.000,0.000
1605188455514671104,10.0.1.143,NaN,move_down,-1.110,-1.110,-1.110,0.000,0.000,0.000
1605188455516231168,10.0.1.143,NaN,move_down,-1.130,-1.130,-1.130,0.000,0.000,0.000
1605188455518961920,10.0.1.143,NaN,move_down,-1.150,-1.150,-1.150,0.000,0.000,0.000
1605188455531193088,10.0.1.143,NaN,move_down,-1.170,-1.170,-1.170,0.000,0.000,0.000
1605188455534521088,10.0.1.143,NaN,move_down,-1.190,-1.190,-1.190,0.000,0.000,0.000
1605188455560230912,10.0.1.143,NaN,move_down,-1.210,-1.210,-1.210,0.000,0.000,0.000
1605188455592654080,10.0.1.143,NaN,move_down,-1.230,-1.230,-1.230,0.000,0.000,0.000
1605188455615959040,10.0.1.143,NaN,move_down,-1.250,-1.250,-1.250,0.000,0.000,0.000
1605188455619425024,10.0.1.143,NaN,move_down,-1.270,-1.270,-1.270,0.000,0.000,0.000
1605188455623374080,10.0.1.143,NaN,move_down,-1.290,-1.290,-1.290,0.000,0.000,0.000
1605188455627019008,10.0.1.143,NaN,move_down,-1.310,-1.310,-1.310,0.000,0.000,0.000
1605188455632745984,10.0.1.143,NaN,move_down,-1.330,-1.330,-1.330,0.000,0.000,0.000
1605188455634401024,10.0.1.143,NaN,move_down,-1.350,-1.350,-1.350,0.000,0.000,0.000
1605188455640357888,10.0.1.143,NaN,move_down,-1.370,-1.370,-1.370,0.000,0.000,0.000
1605188455646144000,10.0.1.143,NaN,move_down,-1.390,-1.390,-1.390,0.000,0.000,0.000
1605188455652143104,10.0.1.143,NaN,move_down,-1.410,-1.410,-1.410,0.000,0.000,0.000
1605188455655612928,10.0.1.143,NaN,move_down,-1.430,-1.430,-1.430,0.000,0.000,0.000
1605188455661673984,10.0.1.143,NaN,move_down,-1.450,-1.450,-1.450,0.000,0.000,0.000
1605188455672312064,10.0.1.143,NaN,move_down,-1.470,-1.470,-1.470,0.000,0.000,0.000
1605188455682339840,10.0.1.143,NaN,move_down,-1.490,-1.490,-1.490,0.000,0.000,0.000
1605188455687216896,10.0.1.143,NaN,move_down,-1.510,-1.510,-1.510,0.000,0.000,0.000
1605188455689156096,10.0.1.143,NaN,move_down,-1.530,-1.530,-1.530,0.000,0.000,0.000
1605188455690093056,10.0.1.143,NaN,move_down,-1.550,-1.550,-1.550,0.000,0.000,0.000
1605188455690854912,10.0.1.143,NaN,move_down,-1.570,-1.570,-1.570,0.000,0.000,0.000
1605188455691631104,10.0.1.143,NaN,move_down,-1.590,-1.590,-1.590,0.000,0.000,0.000
1605188455692370944,10.0.1.143,NaN,move_down,-1.610,-1.610,-1.610,0.000,0.000,0.000
1605188455693095936,10.0.1.143,NaN,move_down,-1.630,-1.630,-1.630,0.000,0.000,0.000
1605188455696525056,10.0.1.143,NaN,move_down,-1.650,-1.650,-1.650,0.000,0.000,0.000
1605188455697381888,10.0.1.143,NaN,move_down,-1.670,-1.670,-1.670,0.000,0.000,0.000
1605188455699144960,10.0.1.143,NaN,move_down,-1.690,-1.690,-1.690,0.000,0.000,0.000
1605188455702578176,10.0.1.143,NaN,move_down,-1.710,-1.710,-1.710,0.000,0.000,0.000
1605188455704480768,10.0.1.143,NaN,move_down,-1.730,-1.730,-1.730,0.000,0.000,0.000
1605188455706624000,10.0.1.143,NaN,move_down,-1.750,-1.750,-1.750,0.000,0.000,0.000
1605188455708350976,10.0.1.143,NaN,move_down,-1.770,-1.770,-1.770,0.000,0.000,0.000
1605188455713606144,10.0.1.143,NaN,move_down,-1.790,-1.790,-1.790,0.000,0.000,0.000
1605188455715472896,10.0.1.143,NaN,move_down,-1.810,-1.810,-1.810,0.000,0.000,0.000
1605188455717552896,10.0.1.143,NaN,move_down,-1.830,-1.830,-1.830,0.000,0.000,0.000
1605188455725053952,10.0.1.143,NaN,move_down,-1.850,-1.850,-1.850,0.000,0.000,0.000
1605188455725969920,10.0.1.143,NaN,move_down,-1.870,-1.870,-1.870,0.000,0.000,0.000
1605188455727549952,10.0.1.143,NaN,move_down,-1.890,-1.890,-1.890,0.000,0.000,0.000
1605188455734093056,10.0.1.143,NaN,move_down,-1.910,-1.910,-1.910,0.000,0.000,0.000
1605188455739220992,10.0.1.143,NaN,move_down,-1.930,-1.930,-1.930,0.000,0.000,0.000
1605188455747809792,10.0.1.143,NaN,move_down,-1.950,-1.950,-1.950,0.000,0.000,0.000
1605188455754700032,10.0.1.143,NaN,move_down,-1.970,-1.970,-1.970,0.000,0.000,0.000
1605188455763348224,10.0.1.143,NaN,move_down,-1.990,-1.990,-1.990,0.000,0.000,0.000
1605188455771246080,10.0.1.143,NaN,move_down,-2.010,-2.010,-2.010,0.000,0.000,0.000
1605188455775348992,10.0.1.143,NaN,move_down,-2.030,-2.030,-2.030,0.000,0.000,0.000
1605188455783087872,10.0.1.143,NaN,move_down,-2.050,-2.050,-2.050,0.000,0.000,0.000
1605188455793246976,10.0.1.143,NaN,move_down,-2.070,-2.070,-2.070,0.000,0.000,0.000
1605188455806270976,10.0.1.143,NaN,move_down,-2.090,-2.090,-2.090,0.000,0.000,0.000
1605188455813489920,10.0.1.143,NaN,move_down,-2.110,-2.110,-2.110,0.000,0.000,0.000
1605188455823250176,10.0.1.143,NaN,move_down,-2.130,-2.130,-2.130,0.000,0.000,0.000
1605188455830142976,10.0.1.143,NaN,move_down,-2.150,-2.150,-2.150,0.000,0.000,0.000
1605188455835201024,10.0.1.143,NaN,move_down,-2.170,-2.170,-2.170,0.000,0.000,0.000
1605188455839294976,10.0.1.143,NaN,move_down,-2.190,-2.190,-2.190,0.000,0.000,0.000
1605188455854424832,10.0.1.143,NaN,move_down,-2.210,-2.210,-2.210,0.000,0.000,0.000
1605188455858221056,10.0.1.143,NaN,move_down,-2.230,-2.230,-2.230,0.000,0.000,0.000
1605188455862187008,10.0.1.143,NaN,move_down,-2.250,-2.250,-2.250,0.000,0.000,0.000
1605188455893361152,10.0.1.143,NaN,move_down,-2.270,-2.270,-2.270,0.000,0.000,0.000
1605188455910619904,10.0.1.143,NaN,move_down,-2.290,-2.290,-2.290,0.000,0.000,0.000
1605188455914028032,10.0.1.143,NaN,move_down,-2.310,-2.310,-2.310,0.000,0.000,0.000
1605188455915746816,10.0.1.143,NaN,move_down,-2.330,-2.330,-2.330,0.000,0.000,0.000
1605188455919190784,10.0.1.143,NaN,move_down,-2.350,-2.350,-2.350,0.000,0.000,0.000
1605188455920099072,10.0.1.143,NaN,move_down,-2.370,-2.370,-2.370,0.000,0.000,0.000
1605188455920958976,10.0.1.143,NaN,move_down,-2.390,-2.390,-2.390,0.000,0.000,0.000
1605188455921811200,10.0.1.143,NaN,move_down,-2.410,-2.410,-2.410,0.000,0.000,0.000
1605188455922646016,10.0.1.143,NaN,move_down,-2.430,-2.430,-2.430,0.000,0.000,0.000
1605188455923567104,10.0.1.143,NaN,move_down,-2.450,-2.450,-2.450,0.000,0.000,0.000
1605188455924483072,10.0.1.143,NaN,move_down,-2.470,-2.470,-2.470,0.000,0.000,0.000
1605188455925466112,10.0.1.143,NaN,move_down,-2.490,-2.490,-2.490,0.000,0.000,0.000
1605188455926318848,10.0.1.143,NaN,move_down,-2.510,-2.510,-2.510,0.000,0.000,0.000
1605188455928273920,10.0.1.143,NaN,move_down,-2.530,-2.530,-2.530,0.000,0.000,0.000
1605188455929927168,10.0.1.143,NaN,move_down,-2.550,-2.550,-2.550,0.000,0.000,0.000
1605188455931245056,10.0.1.143,NaN,move_down,-2.570,-2.570,-2.570,0.000,0.000,0.000
1605188455932556032,10.0.1.143,NaN,move_down,-2.590,-2.590,-2.590,0.000,0.000,0.000
1605188455933777920,10.0.1.143,NaN,move_down,-2.610,-2.610,-2.610,0.000,0.000,0.000
1605188455941207808,10.0.1.143,NaN,move_down,-2.630,-2.630,-2.630,0.000,0.000,0.000
1605188455945196032,10.0.1.143,NaN,move_down,-2.650,-2.650,-2.650,0.000,0.000,0.000
1605188455949212928,10.0.1.143,NaN,move_down,-2.670,-2.670,-2.670,0.000,0.000,0.000
1605188455951265024,10.0.1.143,NaN,move_down,-2.690,-2.690,-2.690,0.000,0.000,0.000
1605188455952468992,10.0.1.143,NaN,move_down,-2.710,-2.710,-2.710,0.000,0.000,0.000
1605188455956077056,10.0.1.143,NaN,move_down,-2.730,-2.730,-2.730,0.000,0.000,0.000
1605188455961519872,10.0.1.143,NaN,move_down,-2.750,-2.750,-2.750,0.000,0.000,0.000
1605188455974746880,10.0.1.143,NaN,move_down,-2.770,-2.770,-2.770,0.000,0.000,0.000
1605188455982203904,10.0.1.143,NaN,move_down,-2.790,-2.790,-2.790,0.000,0.000,0.000
1605188455999984128,10.0.1.143,NaN,move_down,-2.810,-2.810,-2.810,0.000,0.000,0.000
1605188456006231040,10.0.1.143,NaN,move_down,-2.830,-2.830,-2.830,0.000,0.000,0.000
1605188456027358976,10.0.1.143,NaN,move_down,-2.850,-2.850,-2.850,0.000,0.000,0.000
1605188456048424960,10.0.1.143,NaN,move_down,-2.870,-2.870,-2.870,0.000,0.000,0.000
1605188456053406976,10.0.1.143,NaN,move_down,-2.890,-2.890,-2.890,0.000,0.000,0.000
1605188456055074048,10.0.1.143,NaN,move_down,-2.910,-2.910,-2.910,0.000,0.000,0.000
1605188456070148864,10.0.1.143,NaN,move_down,-2.930,-2.930,-2.930,0.000,0.000,0.000
1605188456074213888,10.0.1.143,NaN,move_down,-2.950,-2.950,-2.950,0.000,0.000,0.000
1605188456081448192,10.0.1.143,NaN,move_down,-2.970,-2.970,-2.970,0.000,0.000,0.000
1605188456095092992,10.0.1.143,NaN,move_down,-2.990,-2.990,-2.990,0.000,0.000,0.000
1605188456104379904,10.0.1.143,NaN,move_down,-3.010,-3.010,-3.010,0.000,0.000,0.000
1605188456111643136,10.0.1.143,NaN,move_down,-3.030,-3.030,-3.030,0.000,0.000,0.000
1605188456118427904,10.0.1.143,NaN,move_down,-3.050,-3.050,-3.050,0.000,0.000,0.000
1605188456121838080,10.0.1.143,NaN,move_down,-3.070,-3.070,-3.070,0.000,0.000,0.000
1605188456123955968,10.0.1.143,NaN,move_down,-3.090,-3.090,-3.090,0.000,0.000,0.000
1605188456144099072,10.0.1.143,NaN,move_down,-3.110,-3.110,-3.110,0.000,0.000,0.000
1605188456148696064,10.0.1.143,NaN,move_down,-3.130,-3.130,-3.130,0.000,0.000,0.000
1605188456165285120,10.0.1.143,NaN,move_down,-3.150,-3.150,-3.150,0.000,0.000,0.000
1605188456169320192,10.0.1.143,NaN,move_down,-3.170,-3.170,-3.170,0.000,0.000,0.000
1605188456189177088,10.0.1.143,NaN,move_down,-3.190,-3.190,-3.190,0.000,0.000,0.000
1605188456208477952,10.0.1.143,NaN,move_down,-3.210,-3.210,-3.210,0.000,0.000,0.000
1605188456219482880,10.0.1.143,NaN,move_down,-3.230,-3.230,-3.230,0.000,0.000,0.000
1605188456234539008,10.0.1.143,NaN,move_down,-3.250,-3.250,-3.250,0.000,0.000,0.000
1605188456238496000,10.0.1.143,NaN,move_down,-3.270,-3.270,-3.270,0.000,0.000,0.000
1605188456244065024,10.0.1.143,NaN,move_down,-3.290,-3.290,-3.290,0.000,0.000,0.000
1605188456249064960,10.0.1.143,NaN,move_down,-3.310,-3.310,-3.310,0.000,0.000,0.000
1605188456257906944,10.0.1.143,NaN,move_down,-3.330,-3.330,-3.330,0.000,0.000,0.000
1605188456263686912,10.0.1.143,NaN,move_down,-3.350,-3.350,-3.350,0.000,0.000,0.000
1605188456271892992,10.0.1.143,NaN,move_down,-3.370,-3.370,-3.370,0.000,0.000,0.000
1605188456276909056,10.0.1.143,NaN,move_down,-3.390,-3.390,-3.390,0.000,0.000,0.000
1605188456284007168,10.0.1.143,NaN,move_down,-3.410,-3.410,-3.410,0.000,0.000,0.000
1605188456295675136,10.0.1.143,NaN,move_down,-3.430,-3.430,-3.430,0.000,0.000,0.000
1605188456302364160,10.0.1.143,NaN,move_down,-3.450,-3.450,-3.450,0.000,0.000,0.000
1605188456316324096,10.0.1.143,NaN,move_down,-3.470,-3.470,-3.470,0.000,0.000,0.000
1605188456333196032,10.0.1.143,NaN,move_down,-3.490,-3.490,-3.490,0.000,0.000,0.000
1605188456344150016,10.0.1.143,NaN,move_down,-3.510,-3.510,-3.510,0.000,0.000,0.000
1605188456348623104,10.0.1.143,NaN,move_down,-3.530,-3.530,-3.530,0.000,0.000,0.000
1605188456361622016,10.0.1.143,NaN,move_down,-3.550,-3.550,-3.550,0.000,0.000,0.000
1605188456372102912,10.0.1.143,NaN,move_down,-3.570,-3.570,-3.570,0.000,0.000,0.000
1605188456376111872,10.0.1.143,NaN,move_down,-3.590,-3.590,-3.590,0.000,0.000,0.000
1605188456383910912,10.0.1.143,NaN,move_down,-3.610,-3.610,-3.610,0.000,0.000,0.000
1605188456388107008,10.0.1.143,NaN,move_down,-3.630,-3.630,-3.630,0.000,0.000,0.000
1605188456389981952,10.0.1.143,NaN,move_down,-3.650,-3.650,-3.650,0.000,0.000,0.000
1605188456392568064,10.0.1.143,NaN,move_down,-3.670,-3.670,-3.670,0.000,0.000,0.000
1605188456403290880,10.0.1.143,NaN,move_down,-3.690,-3.690,-3.690,0.000,0.000,0.000
1605188456414310912,10.0.1.143,NaN,move_down,-3.710,-3.710,-3.710,0.000,0.000,0.000
1605188456415976960,10.0.1.143,NaN,move_down,-3.730,-3.730,-3.730,0.000,0.000,0.000
1605188456423311104,10.0.1.143,NaN,move_down,-3.750,-3.750,-3.750,0.000,0.000,0.000
1605188456429213952,10.0.1.143,NaN,move_down,-3.770,-3.770,-3.770,0.000,0.000,0.000
1605188456434900992,10.0.1.143,NaN,move_down,-3.790,-3.790,-3.790,0.000,0.000,0.000
1605188456438620160,10.0.1.143,NaN,move_down,-3.810,-3.810,-3.810,0.000,0.000,0.000
1605188456443568896,10.0.1.143,NaN,move_down,-3.830,-3.830,-3.830,0.000,0.000,0.000
1605188456459328000,10.0.1.143,NaN,move_down,-3.850,-3.850,-3.850,0.000,0.000,0.000
1605188456460443136,10.0.1.143,NaN,move_down,-3.870,-3.870,-3.870,0.000,0.000,0.000
1605188456461400064,10.0.1.143,NaN,move_down,-3.890,-3.890,-3.890,0.000,0.000,0.000
1605188456466969856,10.0.1.143,NaN,move_down,-3.910,-3.910,-3.910,0.000,0.000,0.000
1605188456469155072,10.0.1.143,NaN,move_down,-3.930,-3.930,-3.930,0.000,0.000,0.000
1605188456469902080,10.0.1.143,NaN,move_down,-3.950,-3.950,-3.950,0.000,0.000,0.000
1605188456470717952,10.0.1.143,NaN,move_down,-3.970,-3.970,-3.970,0.000,0.000,0.000
1605188456471570944,10.0.1.143,NaN,move_down,-3.990,-3.990,-3.990,0.000,0.000,0.000
1605188456472356096,10.0.1.143,NaN,move_down,-4.010,-4.010,-4.010,0.000,0.000,0.000
1605188456473180928,10.0.1.143,NaN,move_down,-4.030,-4.030,-4.030,0.000,0.000,0.000
1605188456474138112,10.0.1.143,NaN,move_down,-4.050,-4.050,-4.050,0.000,0.000,0.000
1605188456474924032,10.0.1.143,NaN,move_down,-4.070,-4.070,-4.070,0.000,0.000,0.000
1605188456475766016,10.0.1.143,NaN,move_down,-4.090,-4.090,-4.090,0.000,0.000,0.000
1605188456477342976,10.0.1.143,NaN,move_down,-4.110,-4.110,-4.110,0.000,0.000,0.000
1605188456478977792,10.0.1.143,NaN,move_down,-4.130,-4.130,-4.130,0.000,0.000,0.000
1605188456479878912,10.0.1.143,NaN,move_down,-4.150,-4.150,-4.150,0.000,0.000,0.000
1605188456480724992,10.0.1.143,NaN,move_down,-4.170,-4.170,-4.170,0.000,0.000,0.000
1605188456481652992,10.0.1.143,NaN,move_down,-4.190,-4.190,-4.190,0.000,0.000,0.000
1605188456482650112,10.0.1.143,NaN,move_down,-4.210,-4.210,-4.210,0.000,0.000,0.000
1605188456483644928,10.0.1.143,NaN,move_down,-4.230,-4.230,-4.230,0.000,0.000,0.000
1605188456484512000,10.0.1.143,NaN,move_down,-4.250,-4.250,-4.250,0.000,0.000,0.000
1605188456485481984,10.0.1.143,NaN,move_down,-4.270,-4.270,-4.270,0.000,0.000,0.000
1605188456486438144,10.0.1.143,NaN,move_down,-4.290,-4.290,-4.290,0.000,0.000,0.000
1605188456487555072,10.0.1.143,NaN,move_down,-4.310,-4.310,-4.310,0.000,0.000,0.000
1605188456489208832,10.0.1.143,NaN,move_down,-4.330,-4.330,-4.330,0.000,0.000,0.000
1605188456490230016,10.0.1.143,NaN,move_down,-4.350,-4.350,-4.350,0.000,0.000,0.000
1605188456491319808,10.0.1.143,NaN,move_down,-4.370,-4.370,-4.370,0.000,0.000,0.000
