milangroshev/digital-twin-scalability/logs/run4-300s-nan/10.0.1.125.csv
timestamp,node,latency,action,joint_1,joint_2,joint_3,joint_4,joint_5,joint_6
1605184746498679040,10.0.1.125,NaN,,0.000,0.000,0.000,0.000,0.000,0.000
1605184748503406080,10.0.1.125,2004,,0.000,0.000,0.000,0.000,0.000,0.000
1605184751070130176,10.0.1.125,566,move_down,-0.020,-0.020,-0.020,0.000,0.000,0.000
1605184752500768000,10.0.1.125,377,move_down,-0.040,-0.040,-0.040,0.000,0.000,0.000
1605184753970979072,10.0.1.125,421,move_down,-0.060,-0.060,-0.060,0.000,0.000,0.000
1605184755399944960,10.0.1.125,394,move_down,-0.080,-0.080,-0.080,0.000,0.000,0.000
1605184756850985984,10.0.1.125,397,move_down,-0.100,-0.100,-0.100,0.000,0.000,0.000
1605184758259815936,10.0.1.125,354,move_down,-0.120,-0.120,-0.120,0.000,0.000,0.000
1605184759732093952,10.0.1.125,402,move_down,-0.140,-0.140,-0.140,0.000,0.000,0.000
1605184761160644096,10.0.1.125,353,move_down,-0.160,-0.160,-0.160,0.000,0.000,0.000
1605184762629534976,10.0.1.125,403,move_down,-0.180,-0.180,-0.180,0.000,0.000,0.000
1605184764051804928,10.0.1.125,397,move_down,-0.200,-0.200,-0.200,0.000,0.000,0.000
1605184765491857920,10.0.1.125,397,move_down,-0.220,-0.220,-0.220,0.000,0.000,0.000
1605184766974291968,10.0.1.125,405,move_down,-0.240,-0.240,-0.240,0.000,0.000,0.000
1605184768369467904,10.0.1.125,374,move_down,-0.260,-0.260,-0.260,0.000,0.000,0.000
1605184769843777024,10.0.1.125,407,move_down,-0.280,-0.280,-0.280,0.000,0.000,0.000
1605184771229054976,10.0.1.125,366,move_down,-0.300,-0.300,-0.300,0.000,0.000,0.000
1605184772659790080,10.0.1.125,384,move_down,-0.320,-0.320,-0.320,0.000,0.000,0.000
1605184774089457152,10.0.1.125,386,move_down,-0.340,-0.340,-0.340,0.000,0.000,0.000
1605184775519124992,10.0.1.125,373,move_down,-0.360,-0.360,-0.360,0.000,0.000,0.000
1605184776988930048,10.0.1.125,416,move_down,-0.380,-0.380,-0.380,0.000,0.000,0.000
1605184778424599040,10.0.1.125,378,move_down,-0.400,-0.400,-0.400,0.000,0.000,0.000
1605184779869334016,10.0.1.125,406,move_down,-0.420,-0.420,-0.420,0.000,0.000,0.000
1605184781320077056,10.0.1.125,377,move_down,-0.440,-0.440,-0.440,0.000,0.000,0.000
1605184782760640000,10.0.1.125,387,move_down,-0.460,-0.460,-0.460,0.000,0.000,0.000
1605184784199660032,10.0.1.125,382,move_down,-0.480,-0.480,-0.480,0.000,0.000,0.000
1605184785635147008,10.0.1.125,392,move_down,-0.500,-0.500,-0.500,0.000,0.000,0.000
1605184787040499968,10.0.1.125,383,move_down,-0.520,-0.520,-0.520,0.000,0.000,0.000
1605184788450643968,10.0.1.125,367,move_down,-0.540,-0.540,-0.540,0.000,0.000,0.000
1605184789879000832,10.0.1.125,380,move_down,-0.560,-0.560,-0.560,0.000,0.000,0.000
1605184791330134016,10.0.1.125,406,move_down,-0.580,-0.580,-0.580,0.000,0.000,0.000
1605184792409347072,10.0.1.125,44,pick,-0.590,-0.590,-0.590,0.000,0.000,0.000
1605184793411577088,10.0.1.125,45,pick,-0.600,-0.600,-0.600,0.000,0.000,0.000
1605184794413153024,10.0.1.125,45,pick,-0.610,-0.610,-0.610,0.000,0.000,0.000
1605184795409400064,10.0.1.125,40,pick,-0.620,-0.620,-0.620,0.000,0.000,0.000
1605184796411318016,10.0.1.125,41,pick,-0.630,-0.630,-0.630,0.000,0.000,0.000
1605184797410275840,10.0.1.125,39,pick,-0.640,-0.640,-0.640,0.000,0.000,0.000
1605184798413667840,10.0.1.125,41,pick,-0.650,-0.650,-0.650,0.000,0.000,0.000
1605184799410331904,10.0.1.125,37,pick,-0.660,-0.660,-0.660,0.000,0.000,0.000
1605184800409689856,10.0.1.125,36,pick,-0.670,-0.670,-0.670,0.000,0.000,0.000
1605184801409372928,10.0.1.125,34,pick,-0.680,-0.680,-0.680,0.000,0.000,0.000
1605184802409373952,10.0.1.125,33,pick,-0.690,-0.690,-0.690,0.000,0.000,0.000
1605184803412573184,10.0.1.125,36,pick,-0.700,-0.700,-0.700,0.000,0.000,0.000
1605184804408705024,10.0.1.125,31,pick,-0.710,-0.710,-0.710,0.000,0.000,0.000
1605184805409696000,10.0.1.125,31,pick,-0.720,-0.720,-0.720,0.000,0.000,0.000
1605184806429430016,10.0.1.125,50,pick,-0.730,-0.730,-0.730,0.000,0.000,0.000
1605184807429712896,10.0.1.125,49,pick,-0.740,-0.740,-0.740,0.000,0.000,0.000
1605184808430368000,10.0.1.125,48,pick,-0.750,-0.750,-0.750,0.000,0.000,0.000
1605184809431602944,10.0.1.125,48,pick,-0.760,-0.760,-0.760,0.000,0.000,0.000
1605184810429724928,10.0.1.125,45,pick,-0.770,-0.770,-0.770,0.000,0.000,0.000
1605184811775033088,10.0.1.125,389,move_up,-0.750,-0.750,-0.750,0.000,0.000,0.000
1605184813239304960,10.0.1.125,409,move_up,-0.730,-0.730,-0.730,0.000,0.000,0.000
1605184814649522944,10.0.1.125,379,move_up,-0.710,-0.710,-0.710,0.000,0.000,0.000
1605184816098819072,10.0.1.125,399,move_up,-0.690,-0.690,-0.690,0.000,0.000,0.000
1605184817570543104,10.0.1.125,395,move_up,-0.670,-0.670,-0.670,0.000,0.000,0.000
1605184818941739008,10.0.1.125,346,move_up,-0.650,-0.650,-0.650,0.000,0.000,0.000
1605184820409079040,10.0.1.125,389,move_up,-0.630,-0.630,-0.630,0.000,0.000,0.000
1605184821819335936,10.0.1.125,364,move_up,-0.610,-0.610,-0.610,0.000,0.000,0.000
1605184823219891968,10.0.1.125,352,move_up,-0.590,-0.590,-0.590,0.000,0.000,0.000
1605184824662443008,10.0.1.125,381,move_up,-0.570,-0.570,-0.570,0.000,0.000,0.000
1605184826119757824,10.0.1.125,398,move_up,-0.550,-0.550,-0.550,0.000,0.000,0.000
1605184827530430976,10.0.1.125,382,move_up,-0.530,-0.530,-0.530,0.000,0.000,0.000
1605184828959568896,10.0.1.125,371,move_up,-0.510,-0.510,-0.510,0.000,0.000,0.000
1605184830389456896,10.0.1.125,380,move_up,-0.490,-0.490,-0.490,0.000,0.000,0.000
1605184831860189952,10.0.1.125,406,move_up,-0.470,-0.470,-0.470,0.000,0.000,0.000
1605184833260352000,10.0.1.125,373,move_up,-0.450,-0.450,-0.450,0.000,0.000,0.000
1605184834709568000,10.0.1.125,374,move_up,-0.430,-0.430,-0.430,0.000,0.000,0.000
1605184836149676032,10.0.1.125,397,move_up,-0.410,-0.410,-0.410,0.000,0.000,0.000
1605184837589240064,10.0.1.125,391,move_up,-0.390,-0.390,-0.390,0.000,0.000,0.000
1605184839020152064,10.0.1.125,381,move_up,-0.370,-0.370,-0.370,0.000,0.000,0.000
1605184840389635072,10.0.1.125,378,move_up,-0.350,-0.350,-0.350,0.000,0.000,0.000
1605184841839691008,10.0.1.125,403,move_up,-0.330,-0.330,-0.330,0.000,0.000,0.000
1605184843252173824,10.0.1.125,372,move_up,-0.310,-0.310,-0.310,0.000,0.000,0.000
1605184844699220992,10.0.1.125,399,move_up,-0.290,-0.290,-0.290,0.000,0.000,0.000
1605184846149553152,10.0.1.125,377,move_up,-0.270,-0.270,-0.270,0.000,0.000,0.000
1605184847599585024,10.0.1.125,397,move_up,-0.250,-0.250,-0.250,0.000,0.000,0.000
1605184849019277056,10.0.1.125,406,move_up,-0.230,-0.230,-0.230,0.000,0.000,0.000
1605184850472354048,10.0.1.125,383,move_up,-0.210,-0.210,-0.210,0.000,0.000,0.000
1605184851899405056,10.0.1.125,379,move_up,-0.190,-0.190,-0.190,0.000,0.000,0.000
1605184852982088192,10.0.1.125,35,place,-0.180,-0.180,-0.180,0.000,0.000,0.000
1605184853979538944,10.0.1.125,31,place,-0.170,-0.170,-0.170,0.000,0.000,0.000
1605184854999057920,10.0.1.125,48,place,-0.160,-0.160,-0.160,0.000,0.000,0.000
1605184856008062976,10.0.1.125,56,place,-0.150,-0.150,-0.150,0.000,0.000,0.000
1605184857002103040,10.0.1.125,48,place,-0.140,-0.140,-0.140,0.000,0.000,0.000
1605184857999728896,10.0.1.125,45,place,-0.130,-0.130,-0.130,0.000,0.000,0.000
1605184858999588864,10.0.1.125,43,place,-0.120,-0.120,-0.120,0.000,0.000,0.000
1605184859999653120,10.0.1.125,42,place,-0.110,-0.110,-0.110,0.000,0.000,0.000
1605184861000777984,10.0.1.125,42,place,-0.100,-0.100,-0.100,0.000,0.000,0.000
1605184861999491840,10.0.1.125,39,place,-0.090,-0.090,-0.090,0.000,0.000,0.000
1605184862999083008,10.0.1.125,38,place,-0.080,-0.080,-0.080,0.000,0.000,0.000
1605184863999708928,10.0.1.125,37,place,-0.070,-0.070,-0.070,0.000,0.000,0.000
1605184864999809024,10.0.1.125,36,place,-0.060,-0.060,-0.060,0.000,0.000,0.000
1605184865999234048,10.0.1.125,34,place,-0.050,-0.050,-0.050,0.000,0.000,0.000
1605184866999314944,10.0.1.125,33,place,-0.040,-0.040,-0.040,0.000,0.000,0.000
1605184867999044864,10.0.1.125,31,place,-0.030,-0.030,-0.030,0.000,0.000,0.000
1605184869020921856,10.0.1.125,52,place,-0.020,-0.020,-0.020,0.000,0.000,0.000
1605184870019316992,10.0.1.125,49,place,-0.010,-0.010,-0.010,0.000,0.000,0.000
1605184871019278080,10.0.1.125,47,place,0.000,0.000,0.000,0.000,0.000,0.000
1605184872349217024,10.0.1.125,377,move_down,-0.020,-0.020,-0.020,0.000,0.000,0.000
1605184873789937920,10.0.1.125,387,move_down,-0.040,-0.040,-0.040,0.000,0.000,0.000
1605184875239241984,10.0.1.125,385,move_down,-0.060,-0.060,-0.060,0.000,0.000,0.000
1605184876679796992,10.0.1.125,379,move_down,-0.080,-0.080,-0.080,0.000,0.000,0.000
1605184878115341824,10.0.1.125,368,move_down,-0.100,-0.100,-0.100,0.000,0.000,0.000
1605184879570943232,10.0.1.125,379,move_down,-0.120,-0.120,-0.120,0.000,0.000,0.000
1605184880980120064,10.0.1.125,362,move_down,-0.140,-0.140,-0.140,0.000,0.000,0.000
1605184882425708032,10.0.1.125,398,move_down,-0.160,-0.160,-0.160,0.000,0.000,0.000
1605184883839785216,10.0.1.125,363,move_down,-0.180,-0.180,-0.180,0.000,0.000,0.000
1605184885250240000,10.0.1.125,364,move_down,-0.200,-0.200,-0.200,0.000,0.000,0.000
1605184886699282944,10.0.1.125,398,move_down,-0.220,-0.220,-0.220,0.000,0.000,0.000
1605184888110248960,10.0.1.125,367,move_down,-0.240,-0.240,-0.240,0.000,0.000,0.000
1605184889530266880,10.0.1.125,377,move_down,-0.260,-0.260,-0.260,0.000,0.000,0.000
1605184890969641984,10.0.1.125,392,move_down,-0.280,-0.280,-0.280,0.000,0.000,0.000
1605184892399128064,10.0.1.125,378,move_down,-0.300,-0.300,-0.300,0.000,0.000,0.000
1605184893819681792,10.0.1.125,380,move_down,-0.320,-0.320,-0.320,0.000,0.000,0.000
1605184895269715968,10.0.1.125,380,move_down,-0.340,-0.340,-0.340,0.000,0.000,0.000
1605184896689743104,10.0.1.125,392,move_down,-0.360,-0.360,-0.360,0.000,0.000,0.000
1605184898120922112,10.0.1.125,383,move_down,-0.380,-0.380,-0.380,0.000,0.000,0.000
1605184899530137088,10.0.1.125,374,move_down,-0.400,-0.400,-0.400,0.000,0.000,0.000
1605184900944596992,10.0.1.125,369,move_down,-0.420,-0.420,-0.420,0.000,0.000,0.000
1605184902388880128,10.0.1.125,405,move_down,-0.440,-0.440,-0.440,0.000,0.000,0.000
1605184903779855872,10.0.1.125,365,move_down,-0.460,-0.460,-0.460,0.000,0.000,0.000
1605184905230174976,10.0.1.125,393,move_down,-0.480,-0.480,-0.480,0.000,0.000,0.000
1605184906668928000,10.0.1.125,389,move_down,-0.500,-0.500,-0.500,0.000,0.000,0.000
1605184908089165056,10.0.1.125,366,move_down,-0.520,-0.520,-0.520,0.000,0.000,0.000
1605184909579981056,10.0.1.125,377,move_down,-0.540,-0.540,-0.540,0.000,0.000,0.000
1605184911010214144,10.0.1.125,375,move_down,-0.560,-0.560,-0.560,0.000,0.000,0.000
1605184912439322112,10.0.1.125,378,move_down,-0.580,-0.580,-0.580,0.000,0.000,0.000
1605184913540839936,10.0.1.125,49,pick,-0.590,-0.590,-0.590,0.000,0.000,0.000
1605184914549427968,10.0.1.125,56,pick,-0.600,-0.600,-0.600,0.000,0.000,0.000
1605184915539410944,10.0.1.125,45,pick,-0.610,-0.610,-0.610,0.000,0.000,0.000
1605184916543662080,10.0.1.125,47,pick,-0.620,-0.620,-0.620,0.000,0.000,0.000
1605184917540035840,10.0.1.125,42,pick,-0.630,-0.630,-0.630,0.000,0.000,0.000
1605184918539300864,10.0.1.125,40,pick,-0.640,-0.640,-0.640,0.000,0.000,0.000
1605184919539993088,10.0.1.125,40,pick,-0.650,-0.650,-0.650,0.000,0.000,0.000
1605184920541812992,10.0.1.125,40,pick,-0.660,-0.660,-0.660,0.000,0.000,0.000
1605184921539304960,10.0.1.125,37,pick,-0.670,-0.670,-0.670,0.000,0.000,0.000
1605184922541385984,10.0.1.125,37,pick,-0.680,-0.680,-0.680,0.000,0.000,0.000
1605184923562150912,10.0.1.125,52,pick,-0.690,-0.690,-0.690,0.000,0.000,0.000
1605184924562498048,10.0.1.125,51,pick,-0.700,-0.700,-0.700,0.000,0.000,0.000
1605184925563375104,10.0.1.125,51,pick,-0.710,-0.710,-0.710,0.000,0.000,0.000
1605184926560456960,10.0.1.125,47,pick,-0.720,-0.720,-0.720,0.000,0.000,0.000
1605184927560231936,10.0.1.125,45,pick,-0.730,-0.730,-0.730,0.000,0.000,0.000
1605184928558967040,10.0.1.125,43,pick,-0.740,-0.740,-0.740,0.000,0.000,0.000
1605184929561465856,10.0.1.125,44,pick,-0.750,-0.750,-0.750,0.000,0.000,0.000
1605184930559911936,10.0.1.125,41,pick,-0.760,-0.760,-0.760,0.000,0.000,0.000
1605184931559622144,10.0.1.125,39,pick,-0.770,-0.770,-0.770,0.000,0.000,0.000
1605184932870421760,10.0.1.125,349,move_up,-0.750,-0.750,-0.750,0.000,0.000,0.000
1605184934289139968,10.0.1.125,393,move_up,-0.730,-0.730,-0.730,0.000,0.000,0.000
1605184935739414016,10.0.1.125,402,move_up,-0.710,-0.710,-0.710,0.000,0.000,0.000
1605184937160353024,10.0.1.125,378,move_up,-0.690,-0.690,-0.690,0.000,0.000,0.000
1605184938590454016,10.0.1.125,383,move_up,-0.670,-0.670,-0.670,0.000,0.000,0.000
1605184940054827008,10.0.1.125,405,move_up,-0.650,-0.650,-0.650,0.000,0.000,0.000
1605184941459355136,10.0.1.125,381,move_up,-0.630,-0.630,-0.630,0.000,0.000,0.000
1605184942879104000,10.0.1.125,393,move_up,-0.610,-0.610,-0.610,0.000,0.000,0.000
1605184944310364928,10.0.1.125,375,move_up,-0.590,-0.590,-0.590,0.000,0.000,0.000
1605184945744344064,10.0.1.125,377,move_up,-0.570,-0.570,-0.570,0.000,0.000,0.000
1605184947179745024,10.0.1.125,384,move_up,-0.550,-0.550,-0.550,0.000,0.000,0.000
1605184948631051008,10.0.1.125,406,move_up,-0.530,-0.530,-0.530,0.000,0.000,0.000
1605184950062333184,10.0.1.125,391,move_up,-0.510,-0.510,-0.510,0.000,0.000,0.000
1605184951489611008,10.0.1.125,372,move_up,-0.490,-0.490,-0.490,0.000,0.000,0.000
1605184952929596928,10.0.1.125,387,move_up,-0.470,-0.470,-0.470,0.000,0.000,0.000
1605184954349625088,10.0.1.125,380,move_up,-0.450,-0.450,-0.450,0.000,0.000,0.000
1605184955800734976,10.0.1.125,402,move_up,-0.430,-0.430,-0.430,0.000,0.000,0.000
1605184957200062976,10.0.1.125,361,move_up,-0.410,-0.410,-0.410,0.000,0.000,0.000
1605184958658840064,10.0.1.125,391,move_up,-0.390,-0.390,-0.390,0.000,0.000,0.000
1605184960091582976,10.0.1.125,385,move_up,-0.370,-0.370,-0.370,0.000,0.000,0.000
1605184961520091904,10.0.1.125,384,move_up,-0.350,-0.350,-0.350,0.000,0.000,0.000
1605184962952442880,10.0.1.125,372,move_up,-0.330,-0.330,-0.330,0.000,0.000,0.000
1605184964378895872,10.0.1.125,384,move_up,-0.310,-0.310,-0.310,0.000,0.000,0.000
1605184965829172992,10.0.1.125,391,move_up,-0.290,-0.290,-0.290,0.000,0.000,0.000
1605184967259605760,10.0.1.125,385,move_up,-0.270,-0.270,-0.270,0.000,0.000,0.000
1605184968689178112,10.0.1.125,374,move_up,-0.250,-0.250,-0.250,0.000,0.000,0.000
1605184970119673856,10.0.1.125,380,move_up,-0.230,-0.230,-0.230,0.000,0.000,0.000
1605184971549356032,10.0.1.125,384,move_up,-0.210,-0.210,-0.210,0.000,0.000,0.000
1605184973000088064,10.0.1.125,394,move_up,-0.190,-0.190,-0.190,0.000,0.000,0.000
1605184974079299840,10.0.1.125,50,place,-0.180,-0.180,-0.180,0.000,0.000,0.000
1605184975079948032,10.0.1.125,50,place,-0.170,-0.170,-0.170,0.000,0.000,0.000
1605184976079703040,10.0.1.125,48,place,-0.160,-0.160,-0.160,0.000,0.000,0.000
1605184977079229952,10.0.1.125,46,place,-0.150,-0.150,-0.150,0.000,0.000,0.000
1605184978079755008,10.0.1.125,45,place,-0.140,-0.140,-0.140,0.000,0.000,0.000
1605184979080326144,10.0.1.125,44,place,-0.130,-0.130,-0.130,0.000,0.000,0.000
1605184980080131072,10.0.1.125,43,place,-0.120,-0.120,-0.120,0.000,0.000,0.000
1605184981079392000,10.0.1.125,41,place,-0.110,-0.110,-0.110,0.000,0.000,0.000
1605184982081106944,10.0.1.125,41,place,-0.100,-0.100,-0.100,0.000,0.000,0.000
1605184983078763008,10.0.1.125,37,place,-0.090,-0.090,-0.090,0.000,0.000,0.000
1605184984079473920,10.0.1.125,37,place,-0.080,-0.080,-0.080,0.000,0.000,0.000
1605184985081327872,10.0.1.125,38,place,-0.070,-0.070,-0.070,0.000,0.000,0.000
1605184986079051008,10.0.1.125,34,place,-0.060,-0.060,-0.060,0.000,0.000,0.000
1605184987079040000,10.0.1.125,33,place,-0.050,-0.050,-0.050,0.000,0.000,0.000
1605184988078679040,10.0.1.125,30,place,-0.040,-0.040,-0.040,0.000,0.000,0.000
1605184989099155968,10.0.1.125,50,place,-0.030,-0.030,-0.030,0.000,0.000,0.000
1605184990099433984,10.0.1.125,49,place,-0.020,-0.020,-0.020,0.000,0.000,0.000
1605184991099772928,10.0.1.125,48,place,-0.010,-0.010,-0.010,0.000,0.000,0.000
1605184992101052928,10.0.1.125,48,place,0.000,0.000,0.000,0.000,0.000,0.000
1605184993430082048,10.0.1.125,374,move_down,-0.020,-0.020,-0.020,0.000,0.000,0.000
1605184994861520896,10.0.1.125,381,move_down,-0.040,-0.040,-0.040,0.000,0.000,0.000
1605184996280272128,10.0.1.125,371,move_down,-0.060,-0.060,-0.060,0.000,0.000,0.000
1605184997749336832,10.0.1.125,393,move_down,-0.080,-0.080,-0.080,0.000,0.000,0.000
1605184999184011008,10.0.1.125,382,move_down,-0.100,-0.100,-0.100,0.000,0.000,0.000
1605185000639273984,10.0.1.125,393,move_down,-0.120,-0.120,-0.120,0.000,0.000,0.000
1605185002069624064,10.0.1.125,383,move_down,-0.140,-0.140,-0.140,0.000,0.000,0.000
1605185003486682880,10.0.1.125,391,move_down,-0.160,-0.160,-0.160,0.000,0.000,0.000
1605185004919877888,10.0.1.125,385,move_down,-0.180,-0.180,-0.180,0.000,0.000,0.000
1605185006329932032,10.0.1.125,367,move_down,-0.200,-0.200,-0.200,0.000,0.000,0.000
1605185007760819968,10.0.1.125,356,move_down,-0.220,-0.220,-0.220,0.000,0.000,0.000
1605185009153968128,10.0.1.125,374,move_down,-0.240,-0.240,-0.240,0.000,0.000,0.000
1605185010579703040,10.0.1.125,375,move_down,-0.260,-0.260,-0.260,0.000,0.000,0.000
1605185012001033984,10.0.1.125,370,move_down,-0.280,-0.280,-0.280,0.000,0.000,0.000
1605185013419241984,10.0.1.125,366,move_down,-0.300,-0.300,-0.300,0.000,0.000,0.000
1605185014839922944,10.0.1.125,362,move_down,-0.320,-0.320,-0.320,0.000,0.000,0.000
1605185016313522944,10.0.1.125,411,move_down,-0.340,-0.340,-0.340,0.000,0.000,0.000
1605185017720072960,10.0.1.125,369,move_down,-0.360,-0.360,-0.360,0.000,0.000,0.000
1605185019149959168,10.0.1.125,382,move_down,-0.380,-0.380,-0.380,0.000,0.000,0.000
1605185020621881856,10.0.1.125,381,move_down,-0.400,-0.400,-0.400,0.000,0.000,0.000
1605185022051358976,10.0.1.125,374,move_down,-0.420,-0.420,-0.420,0.000,0.000,0.000
1605185023419097856,10.0.1.125,368,move_down,-0.440,-0.440,-0.440,0.000,0.000,0.000
1605185024849658880,10.0.1.125,379,move_down,-0.460,-0.460,-0.460,0.000,0.000,0.000
1605185026271724032,10.0.1.125,368,move_down,-0.480,-0.480,-0.480,0.000,0.000,0.000
1605185027709049856,10.0.1.125,385,move_down,-0.500,-0.500,-0.500,0.000,0.000,0.000
1605185029123955968,10.0.1.125,388,move_down,-0.520,-0.520,-0.520,0.000,0.000,0.000
1605185030548985856,10.0.1.125,381,move_down,-0.540,-0.540,-0.540,0.000,0.000,0.000
1605185031979686912,10.0.1.125,371,move_down,-0.560,-0.560,-0.560,0.000,0.000,0.000
1605185033429398016,10.0.1.125,404,move_down,-0.580,-0.580,-0.580,0.000,0.000,0.000
1605185034509841920,10.0.1.125,41,pick,-0.590,-0.590,-0.590,0.000,0.000,0.000
1605185035509402112,10.0.1.125,39,pick,-0.600,-0.600,-0.600,0.000,0.000,0.000
1605185036509114112,10.0.1.125,37,pick,-0.610,-0.610,-0.610,0.000,0.000,0.000
1605185037509560064,10.0.1.125,37,pick,-0.620,-0.620,-0.620,0.000,0.000,0.000
1605185038508882944,10.0.1.125,35,pick,-0.630,-0.630,-0.630,0.000,0.000,0.000
1605185039509358848,10.0.1.125,35,pick,-0.640,-0.640,-0.640,0.000,0.000,0.000
1605185040509947904,10.0.1.125,34,pick,-0.650,-0.650,-0.650,0.000,0.000,0.000
1605185041510721024,10.0.1.125,34,pick,-0.660,-0.660,-0.660,0.000,0.000,0.000
1605185042529197056,10.0.1.125,48,pick,-0.670,-0.670,-0.670,0.000,0.000,0.000
1605185043531127040,10.0.1.125,49,pick,-0.680,-0.680,-0.680,0.000,0.000,0.000
1605185044533586944,10.0.1.125,49,pick,-0.690,-0.690,-0.690,0.000,0.000,0.000
1605185045529206016,10.0.1.125,42,pick,-0.700,-0.700,-0.700,0.000,0.000,0.000
1605185046529773824,10.0.1.125,41,pick,-0.710,-0.710,-0.710,0.000,0.000,0.000
1605185047533586944,10.0.1.125,44,pick,-0.720,-0.720,-0.720,0.000,0.000,0.000
1605185048533867008,10.0.1.125,43,pick,-0.730,-0.730,-0.730,0.000,0.000,0.000
1605185049533435136,10.0.1.125,41,pick,-0.740,-0.740,-0.740,0.000,0.000,0.000
1605185050529752064,10.0.1.125,36,pick,-0.750,-0.750,-0.750,0.000,0.000,0.000
1605185051530200832,10.0.1.125,35,pick,-0.760,-0.760,-0.760,0.000,0.000,0.000
1605185052530046976,10.0.1.125,34,pick,-0.770,-0.770,-0.770,0.000,0.000,0.000
1605185053890347008,10.0.1.125,393,move_up,-0.750,-0.750,-0.750,0.000,0.000,0.000
1605185055321569024,10.0.1.125,385,move_up,-0.730,-0.730,-0.730,0.000,0.000,0.000
1605185056749416960,10.0.1.125,377,move_up,-0.710,-0.710,-0.710,0.000,0.000,0.000
1605185058199984128,10.0.1.125,384,move_up,-0.690,-0.690,-0.690,0.000,0.000,0.000
1605185059649965056,10.0.1.125,393,move_up,-0.670,-0.670,-0.670,0.000,0.000,0.000
1605185061059710976,10.0.1.125,383,move_up,-0.650,-0.650,-0.650,0.000,0.000,0.000
1605185062490215936,10.0.1.125,384,move_up,-0.630,-0.630,-0.630,0.000,0.000,0.000
1605185063920368896,10.0.1.125,372,move_up,-0.610,-0.610,-0.610,0.000,0.000,0.000
1605185065361768960,10.0.1.125,386,move_up,-0.590,-0.590,-0.590,0.000,0.000,0.000
1605185066829957120,10.0.1.125,366,move_up,-0.570,-0.570,-0.570,0.000,0.000,0.000
1605185068330234880,10.0.1.125,423,move_up,-0.550,-0.550,-0.550,0.000,0.000,0.000
1605185069733211136,10.0.1.125,372,move_up,-0.530,-0.530,-0.530,0.000,0.000,0.000
1605185071179558912,10.0.1.125,392,move_up,-0.510,-0.510,-0.510,0.000,0.000,0.000
1605185072618982912,10.0.1.125,389,move_up,-0.490,-0.490,-0.490,0.000,0.000,0.000
1605185074069787904,10.0.1.125,391,move_up,-0.470,-0.470,-0.470,0.000,0.000,0.000
1605185075499456000,10.0.1.125,400,move_up,-0.450,-0.450,-0.450,0.000,0.000,0.000
1605185076929495040,10.0.1.125,399,move_up,-0.430,-0.430,-0.430,0.000,0.000,0.000
1605185078350478848,10.0.1.125,392,move_up,-0.410,-0.410,-0.410,0.000,0.000,0.000
1605185079799895040,10.0.1.125,401,move_up,-0.390,-0.390,-0.390,0.000,0.000,0.000
1605185081209431040,10.0.1.125,370,move_up,-0.370,-0.370,-0.370,0.000,0.000,0.000
1605185082640151040,10.0.1.125,383,move_up,-0.350,-0.350,-0.350,0.000,0.000,0.000
1605185084089351936,10.0.1.125,392,move_up,-0.330,-0.330,-0.330,0.000,0.000,0.000
1605185085542923008,10.0.1.125,399,move_up,-0.310,-0.310,-0.310,0.000,0.000,0.000
1605185086955464960,10.0.1.125,385,move_up,-0.290,-0.290,-0.290,0.000,0.000,0.000
1605185088439176192,10.0.1.125,387,move_up,-0.270,-0.270,-0.270,0.000,0.000,0.000
1605185089924390912,10.0.1.125,440,move_up,-0.250,-0.250,-0.250,0.000,0.000,0.000
1605185091386689024,10.0.1.125,412,move_up,-0.230,-0.230,-0.230,0.000,0.000,0.000
1605185092829519104,10.0.1.125,402,move_up,-0.210,-0.210,-0.210,0.000,0.000,0.000
1605185094293113856,10.0.1.125,417,move_up,-0.190,-0.190,-0.190,0.000,0.000,0.000
1605185095431068928,10.0.1.125,34,place,-0.180,-0.180,-0.180,0.000,0.000,0.000
1605185096430322944,10.0.1.125,32,place,-0.170,-0.170,-0.170,0.000,0.000,0.000
1605185097449254144,10.0.1.125,49,place,-0.160,-0.160,-0.160,0.000,0.000,0.000
1605185098449460992,10.0.1.125,48,place,-0.150,-0.150,-0.150,0.000,0.000,0.000
1605185099451313920,10.0.1.125,49,place,-0.140,-0.140,-0.140,0.000,0.000,0.000
1605185100450267136,10.0.1.125,46,place,-0.130,-0.130,-0.130,0.000,0.000,0.000
1605185101450532864,10.0.1.125,45,place,-0.120,-0.120,-0.120,0.000,0.000,0.000
1605185102450041088,10.0.1.125,43,place,-0.110,-0.110,-0.110,0.000,0.000,0.000
1605185103450302976,10.0.1.125,43,place,-0.100,-0.100,-0.100,0.000,0.000,0.000
1605185104450180096,10.0.1.125,42,place,-0.090,-0.090,-0.090,0.000,0.000,0.000
1605185105450503168,10.0.1.125,41,place,-0.080,-0.080,-0.080,0.000,0.000,0.000
1605185106449712128,10.0.1.125,40,place,-0.070,-0.070,-0.070,0.000,0.000,0.000
1605185107450097152,10.0.1.125,39,place,-0.060,-0.060,-0.060,0.000,0.000,0.000
1605185108449691136,10.0.1.125,37,place,-0.050,-0.050,-0.050,0.000,0.000,0.000
1605185109454945024,10.0.1.125,41,place,-0.040,-0.040,-0.040,0.000,0.000,0.000
1605185110449016064,10.0.1.125,33,place,-0.030,-0.030,-0.030,0.000,0.000,0.000
1605185111451057920,10.0.1.125,35,place,-0.020,-0.020,-0.020,0.000,0.000,0.000
1605185112451344128,10.0.1.125,34,place,-0.010,-0.010,-0.010,0.000,0.000,0.000
1605185113471190016,10.0.1.125,52,place,0.000,0.000,0.000,0.000,0.000,0.000
1605185114800407040,10.0.1.125,380,move_down,-0.020,-0.020,-0.020,0.000,0.000,0.000
1605185116271361024,10.0.1.125,424,move_down,-0.040,-0.040,-0.040,0.000,0.000,0.000
1605185117730411008,10.0.1.125,401,move_down,-0.060,-0.060,-0.060,0.000,0.000,0.000
1605185119142627840,10.0.1.125,365,move_down,-0.080,-0.080,-0.080,0.000,0.000,0.000
1605185120600955136,10.0.1.125,381,move_down,-0.100,-0.100,-0.100,0.000,0.000,0.000
1605185122024795136,10.0.1.125,390,move_down,-0.120,-0.120,-0.120,0.000,0.000,0.000
1605185123451698944,10.0.1.125,381,move_down,-0.140,-0.140,-0.140,0.000,0.000,0.000
1605185124900765952,10.0.1.125,384,move_down,-0.160,-0.160,-0.160,0.000,0.000,0.000
1605185126359993088,10.0.1.125,402,move_down,-0.180,-0.180,-0.180,0.000,0.000,0.000
1605185127840890880,10.0.1.125,404,move_down,-0.200,-0.200,-0.200,0.000,0.000,0.000
1605185129289501952,10.0.1.125,400,move_down,-0.220,-0.220,-0.220,0.000,0.000,0.000
1605185130730304000,10.0.1.125,411,move_down,-0.240,-0.240,-0.240,0.000,0.000,0.000
1605185132149964032,10.0.1.125,381,move_down,-0.260,-0.260,-0.260,0.000,0.000,0.000
1605185133593727232,10.0.1.125,406,move_down,-0.280,-0.280,-0.280,0.000,0.000,0.000
1605185135028555008,10.0.1.125,389,move_down,-0.300,-0.300,-0.300,0.000,0.000,0.000
1605185136452148992,10.0.1.125,382,move_down,-0.320,-0.320,-0.320,0.000,0.000,0.000
1605185137892674816,10.0.1.125,378,move_down,-0.340,-0.340,-0.340,0.000,0.000,0.000
1605185139332920064,10.0.1.125,390,move_down,-0.360,-0.360,-0.360,0.000,0.000,0.000
1605185140772752128,10.0.1.125,385,move_down,-0.380,-0.380,-0.380,0.000,0.000,0.000
1605185142233620992,10.0.1.125,400,move_down,-0.400,-0.400,-0.400,0.000,0.000,0.000
1605185143674097152,10.0.1.125,394,move_down,-0.420,-0.420,-0.420,0.000,0.000,0.000
1605185145111356928,10.0.1.125,380,move_down,-0.440,-0.440,-0.440,0.000,0.000,0.000
1605185146573335808,10.0.1.125,421,move_down,-0.460,-0.460,-0.460,0.000,0.000,0.000
1605185148043354112,10.0.1.125,402,move_down,-0.480,-0.480,-0.480,0.000,0.000,0.000
1605185149482779904,10.0.1.125,395,move_down,-0.500,-0.500,-0.500,0.000,0.000,0.000
1605185150922609152,10.0.1.125,394,move_down,-0.520,-0.520,-0.520,0.000,0.000,0.000
1605185152353859840,10.0.1.125,378,move_down,-0.540,-0.540,-0.540,0.000,0.000,0.000
1605185153843064064,10.0.1.125,384,move_down,-0.560,-0.560,-0.560,0.000,0.000,0.000
1605185155313700864,10.0.1.125,408,move_down,-0.580,-0.580,-0.580,0.000,0.000,0.000
1605185156392669952,10.0.1.125,33,pick,-0.590,-0.590,-0.590,0.000,0.000,0.000
1605185157392656128,10.0.1.125,32,pick,-0.600,-0.600,-0.600,0.000,0.000,0.000
1605185158412486144,10.0.1.125,50,pick,-0.610,-0.610,-0.610,0.000,0.000,0.000
1605185159412715008,10.0.1.125,48,pick,-0.620,-0.620,-0.620,0.000,0.000,0.000
1605185160412339968,10.0.1.125,46,pick,-0.630,-0.630,-0.630,0.000,0.000,0.000
1605185161416349952,10.0.1.125,46,pick,-0.640,-0.640,-0.640,0.000,0.000,0.000
1605185162417143040,10.0.1.125,47,pick,-0.650,-0.650,-0.650,0.000,0.000,0.000
1605185163412226048,10.0.1.125,41,pick,-0.660,-0.660,-0.660,0.000,0.000,0.000
1605185164412188160,10.0.1.125,40,pick,-0.670,-0.670,-0.670,0.000,0.000,0.000
1605185165413965056,10.0.1.125,40,pick,-0.680,-0.680,-0.680,0.000,0.000,0.000
1605185166412102912,10.0.1.125,37,pick,-0.690,-0.690,-0.690,0.000,0.000,0.000
1605185167412046848,10.0.1.125,36,pick,-0.700,-0.700,-0.700,0.000,0.000,0.000
1605185168412780032,10.0.1.125,34,pick,-0.710,-0.710,-0.710,0.000,0.000,0.000
1605185169412262912,10.0.1.125,32,pick,-0.720,-0.720,-0.720,0.000,0.000,0.000
1605185170413464064,10.0.1.125,32,pick,-0.730,-0.730,-0.730,0.000,0.000,0.000
1605185171434665984,10.0.1.125,52,pick,-0.740,-0.740,-0.740,0.000,0.000,0.000
1605185172434029056,10.0.1.125,50,pick,-0.750,-0.750,-0.750,0.000,0.000,0.000
1605185173434843136,10.0.1.125,49,pick,-0.760,-0.760,-0.760,0.000,0.000,0.000
1605185174435384064,10.0.1.125,48,pick,-0.770,-0.770,-0.770,0.000,0.000,0.000
1605185175812457984,10.0.1.125,424,move_up,-0.750,-0.750,-0.750,0.000,0.000,0.000
1605185177271863040,10.0.1.125,389,move_up,-0.730,-0.730,-0.730,0.000,0.000,0.000
1605185178722934016,10.0.1.125,366,move_up,-0.710,-0.710,-0.710,0.000,0.000,0.000
1605185180266257920,10.0.1.125,482,move_up,-0.690,-0.690,-0.690,0.000,0.000,0.000
1605185181693496832,10.0.1.125,382,move_up,-0.670,-0.670,-0.670,0.000,0.000,0.000
1605185183102905088,10.0.1.125,361,move_up,-0.650,-0.650,-0.650,0.000,0.000,0.000
1605185184559875072,10.0.1.125,392,move_up,-0.630,-0.630,-0.630,0.000,0.000,0.000
1605185185990931968,10.0.1.125,371,move_up,-0.610,-0.610,-0.610,0.000,0.000,0.000
1605185187510541824,10.0.1.125,382,move_up,-0.590,-0.590,-0.590,0.000,0.000,0.000
1605185188952752128,10.0.1.125,399,move_up,-0.570,-0.570,-0.570,0.000,0.000,0.000
1605185190369615104,10.0.1.125,370,move_up,-0.550,-0.550,-0.550,0.000,0.000,0.000
1605185191848568832,10.0.1.125,403,move_up,-0.530,-0.530,-0.530,0.000,0.000,0.000
1605185193339441920,10.0.1.125,430,move_up,-0.510,-0.510,-0.510,0.000,0.000,0.000
1605185194748317952,10.0.1.125,388,move_up,-0.490,-0.490,-0.490,0.000,0.000,0.000
1605185196178992896,10.0.1.125,375,move_up,-0.470,-0.470,-0.470,0.000,0.000,0.000
1605185197609363968,10.0.1.125,384,move_up,-0.450,-0.450,-0.450,0.000,0.000,0.000
1605185199041309952,10.0.1.125,373,move_up,-0.430,-0.430,-0.430,0.000,0.000,0.000
1605185200511955968,10.0.1.125,402,move_up,-0.410,-0.410,-0.410,0.000,0.000,0.000
1605185201939909888,10.0.1.125,386,move_up,-0.390,-0.390,-0.390,0.000,0.000,0.000
1605185203398906112,10.0.1.125,399,move_up,-0.370,-0.370,-0.370,0.000,0.000,0.000
1605185204849911808,10.0.1.125,402,move_up,-0.350,-0.350,-0.350,0.000,0.000,0.000
1605185206258737152,10.0.1.125,373,move_up,-0.330,-0.330,-0.330,0.000,0.000,0.000
1605185207729056000,10.0.1.125,415,move_up,-0.310,-0.310,-0.310,0.000,0.000,0.000
1605185209169312000,10.0.1.125,371,move_up,-0.290,-0.290,-0.290,0.000,0.000,0.000
1605185210618670080,10.0.1.125,389,move_up,-0.270,-0.270,-0.270,0.000,0.000,0.000
1605185212031235840,10.0.1.125,388,move_up,-0.250,-0.250,-0.250,0.000,0.000,0.000
1605185213508333824,10.0.1.125,420,move_up,-0.230,-0.230,-0.230,0.000,0.000,0.000
1605185214918867200,10.0.1.125,349,move_up,-0.210,-0.210,-0.210,0.000,0.000,0.000
1605185216370277888,10.0.1.125,383,move_up,-0.190,-0.190,-0.190,0.000,0.000,0.000
1605185217470132992,10.0.1.125,38,place,-0.180,-0.180,-0.180,0.000,0.000,0.000
1605185218472457984,10.0.1.125,35,place,-0.170,-0.170,-0.170,0.000,0.000,0.000
1605185219489136896,10.0.1.125,50,place,-0.160,-0.160,-0.160,0.000,0.000,0.000
1605185220488185856,10.0.1.125,48,place,-0.150,-0.150,-0.150,0.000,0.000,0.000
1605185221488149760,10.0.1.125,47,place,-0.140,-0.140,-0.140,0.000,0.000,0.000
1605185222489131008,10.0.1.125,46,place,-0.130,-0.130,-0.130,0.000,0.000,0.000
1605185223488472832,10.0.1.125,44,place,-0.120,-0.120,-0.120,0.000,0.000,0.000
1605185224487806208,10.0.1.125,42,place,-0.110,-0.110,-0.110,0.000,0.000,0.000
1605185225488466944,10.0.1.125,41,place,-0.100,-0.100,-0.100,0.000,0.000,0.000
1605185226489716992,10.0.1.125,41,place,-0.090,-0.090,-0.090,0.000,0.000,0.000
1605185227488913920,10.0.1.125,39,place,-0.080,-0.080,-0.080,0.000,0.000,0.000
1605185228487705088,10.0.1.125,36,place,-0.070,-0.070,-0.070,0.000,0.000,0.000
1605185229488169984,10.0.1.125,36,place,-0.060,-0.060,-0.060,0.000,0.000,0.000
1605185230488459008,10.0.1.125,35,place,-0.050,-0.050,-0.050,0.000,0.000,0.000
1605185231487610112,10.0.1.125,33,place,-0.040,-0.040,-0.040,0.000,0.000,0.000
1605185232489448192,10.0.1.125,33,place,-0.030,-0.030,-0.030,0.000,0.000,0.000
1605185233488800000,10.0.1.125,31,place,-0.020,-0.020,-0.020,0.000,0.000,0.000
1605185234510672128,10.0.1.125,52,place,-0.010,-0.010,-0.010,0.000,0.000,0.000
1605185235508217088,10.0.1.125,48,place,0.000,0.000,0.000,0.000,0.000,0.000
1605185236858758912,10.0.1.125,397,move_down,-0.020,-0.020,-0.020,0.000,0.000,0.000
1605185238278641920,10.0.1.125,387,move_down,-0.040,-0.040,-0.040,0.000,0.000,0.000
1605185239738654976,10.0.1.125,406,move_down,-0.060,-0.060,-0.060,0.000,0.000,0.000
1605185241198422016,10.0.1.125,384,move_down,-0.080,-0.080,-0.080,0.000,0.000,0.000
1605185242638292992,10.0.1.125,378,move_down,-0.100,-0.100,-0.100,0.000,0.000,0.000
1605185244068016896,10.0.1.125,382,move_down,-0.120,-0.120,-0.120,0.000,0.000,0.000
1605185245548285952,10.0.1.125,415,move_down,-0.140,-0.140,-0.140,0.000,0.000,0.000
1605185246988054016,10.0.1.125,370,move_down,-0.160,-0.160,-0.160,0.000,0.000,0.000
1605185248418721024,10.0.1.125,376,move_down,-0.180,-0.180,-0.180,0.000,0.000,0.000
1605185249878321920,10.0.1.125,401,move_down,-0.200,-0.200,-0.200,0.000,0.000,0.000
1605185251315848192,10.0.1.125,398,move_down,-0.220,-0.220,-0.220,0.000,0.000,0.000
1605185252767815168,10.0.1.125,404,move_down,-0.240,-0.240,-0.240,0.000,0.000,0.000
1605185254158401024,10.0.1.125,352,move_down,-0.260,-0.260,-0.260,0.000,0.000,0.000
1605185255640928000,10.0.1.125,406,move_down,-0.280,-0.280,-0.280,0.000,0.000,0.000
1605185257048849152,10.0.1.125,366,move_down,-0.300,-0.300,-0.300,0.000,0.000,0.000
1605185258504342016,10.0.1.125,401,move_down,-0.320,-0.320,-0.320,0.000,0.000,0.000
1605185259971350784,10.0.1.125,389,move_down,-0.340,-0.340,-0.340,0.000,0.000,0.000
1605185261420871936,10.0.1.125,401,move_down,-0.360,-0.360,-0.360,0.000,0.000,0.000
1605185262881499136,10.0.1.125,412,move_down,-0.380,-0.380,-0.380,0.000,0.000,0.000
1605185264321042176,10.0.1.125,406,move_down,-0.400,-0.400,-0.400,0.000,0.000,0.000
1605185265771832064,10.0.1.125,376,move_down,-0.420,-0.420,-0.420,0.000,0.000,0.000
1605185267191792128,10.0.1.125,374,move_down,-0.440,-0.440,-0.440,0.000,0.000,0.000
1605185268641828096,10.0.1.125,399,move_down,-0.460,-0.460,-0.460,0.000,0.000,0.000
1605185270092313088,10.0.1.125,401,move_down,-0.480,-0.480,-0.480,0.000,0.000,0.000
1605185271492731136,10.0.1.125,389,move_down,-0.500,-0.500,-0.500,0.000,0.000,0.000
1605185272951337984,10.0.1.125,398,move_down,-0.520,-0.520,-0.520,0.000,0.000,0.000
1605185274400824064,10.0.1.125,375,move_down,-0.540,-0.540,-0.540,0.000,0.000,0.000
1605185275841703936,10.0.1.125,364,move_down,-0.560,-0.560,-0.560,0.000,0.000,0.000
1605185277310816000,10.0.1.125,392,move_down,-0.580,-0.580,-0.580,0.000,0.000,0.000
1605185278411904000,10.0.1.125,44,pick,-0.590,-0.590,-0.590,0.000,0.000,0.000
1605185279410876160,10.0.1.125,43,pick,-0.600,-0.600,-0.600,0.000,0.000,0.000
1605185280411981056,10.0.1.125,43,pick,-0.610,-0.610,-0.610,0.000,0.000,0.000
1605185281415345920,10.0.1.125,45,pick,-0.620,-0.620,-0.620,0.000,0.000,0.000
1605185282412205056,10.0.1.125,40,pick,-0.630,-0.630,-0.630,0.000,0.000,0.000
1605185283411628032,10.0.1.125,38,pick,-0.640,-0.640,-0.640,0.000,0.000,0.000
1605185284413074944,10.0.1.125,38,pick,-0.650,-0.650,-0.650,0.000,0.000,0.000
1605185285413465088,10.0.1.125,38,pick,-0.660,-0.660,-0.660,0.000,0.000,0.000
1605185286415868928,10.0.1.125,39,pick,-0.670,-0.670,-0.670,0.000,0.000,0.000
1605185287411752960,10.0.1.125,33,pick,-0.680,-0.680,-0.680,0.000,0.000,0.000
1605185288412514816,10.0.1.125,33,pick,-0.690,-0.690,-0.690,0.000,0.000,0.000
1605185289431227904,10.0.1.125,50,pick,-0.700,-0.700,-0.700,0.000,0.000,0.000
1605185290436248064,10.0.1.125,54,pick,-0.710,-0.710,-0.710,0.000,0.000,0.000
1605185291431585024,10.0.1.125,48,pick,-0.720,-0.720,-0.720,0.000,0.000,0.000
1605185292431113984,10.0.1.125,47,pick,-0.730,-0.730,-0.730,0.000,0.000,0.000
1605185293431538176,10.0.1.125,46,pick,-0.740,-0.740,-0.740,0.000,0.000,0.000
1605185294432765952,10.0.1.125,46,pick,-0.750,-0.750,-0.750,0.000,0.000,0.000
1605185295432717056,10.0.1.125,44,pick,-0.760,-0.760,-0.760,0.000,0.000,0.000
1605185296431754240,10.0.1.125,42,pick,-0.770,-0.770,-0.770,0.000,0.000,0.000
1605185297772861952,10.0.1.125,382,move_up,-0.750,-0.750,-0.750,0.000,0.000,0.000
1605185299251187200,10.0.1.125,407,move_up,-0.730,-0.730,-0.730,0.000,0.000,0.000
1605185300701174016,10.0.1.125,393,move_up,-0.710,-0.710,-0.710,0.000,0.000,0.000
1605185302151184128,10.0.1.125,393,move_up,-0.690,-0.690,-0.690,0.000,0.000,0.000
1605185303601459968,10.0.1.125,391,move_up,-0.670,-0.670,-0.670,0.000,0.000,0.000
1605185305024918016,10.0.1.125,369,move_up,-0.650,-0.650,-0.650,0.000,0.000,0.000
1605185306461529856,10.0.1.125,392,move_up,-0.630,-0.630,-0.630,0.000,0.000,0.000
1605185307920324096,10.0.1.125,403,move_up,-0.610,-0.610,-0.610,0.000,0.000,0.000
1605185309381932032,10.0.1.125,402,move_up,-0.590,-0.590,-0.590,0.000,0.000,0.000
1605185310881926912,10.0.1.125,418,move_up,-0.570,-0.570,-0.570,0.000,0.000,0.000
1605185312293484800,10.0.1.125,377,move_up,-0.550,-0.550,-0.550,0.000,0.000,0.000
1605185313733679104,10.0.1.125,398,move_up,-0.530,-0.530,-0.530,0.000,0.000,0.000
1605185315171580928,10.0.1.125,398,move_up,-0.510,-0.510,-0.510,0.000,0.000,0.000
1605185316621086976,10.0.1.125,366,move_up,-0.490,-0.490,-0.490,0.000,0.000,0.000
1605185318074505984,10.0.1.125,395,move_up,-0.470,-0.470,-0.470,0.000,0.000,0.000
1605185319542697984,10.0.1.125,383,move_up,-0.450,-0.450,-0.450,0.000,0.000,0.000
1605185321001641984,10.0.1.125,368,move_up,-0.430,-0.430,-0.430,0.000,0.000,0.000
1605185322423688960,10.0.1.125,401,move_up,-0.410,-0.410,-0.410,0.000,0.000,0.000
1605185323851382016,10.0.1.125,380,move_up,-0.390,-0.390,-0.390,0.000,0.000,0.000
1605185325291290112,10.0.1.125,388,move_up,-0.370,-0.370,-0.370,0.000,0.000,0.000
1605185326742413056,10.0.1.125,392,move_up,-0.350,-0.350,-0.350,0.000,0.000,0.000
1605185328216736000,10.0.1.125,386,move_up,-0.330,-0.330,-0.330,0.000,0.000,0.000
1605185329621329920,10.0.1.125,380,move_up,-0.310,-0.310,-0.310,0.000,0.000,0.000
1605185331071752192,10.0.1.125,403,move_up,-0.290,-0.290,-0.290,0.000,0.000,0.000
1605185332544145152,10.0.1.125,400,move_up,-0.270,-0.270,-0.270,0.000,0.000,0.000
1605185333993190912,10.0.1.125,399,move_up,-0.250,-0.250,-0.250,0.000,0.000,0.000
1605185335450711040,10.0.1.125,398,move_up,-0.230,-0.230,-0.230,0.000,0.000,0.000
1605185336891799808,10.0.1.125,389,move_up,-0.210,-0.210,-0.210,0.000,0.000,0.000
1605185338321254912,10.0.1.125,368,move_up,-0.190,-0.190,-0.190,0.000,0.000,0.000
1605185339441379072,10.0.1.125,45,place,-0.180,-0.180,-0.180,0.000,0.000,0.000
1605185340441911040,10.0.1.125,45,place,-0.170,-0.170,-0.170,0.000,0.000,0.000
1605185341441138944,10.0.1.125,43,place,-0.160,-0.160,-0.160,0.000,0.000,0.000
1605185342442526208,10.0.1.125,43,place,-0.150,-0.150,-0.150,0.000,0.000,0.000
1605185343443127040,10.0.1.125,42,place,-0.140,-0.140,-0.140,0.000,0.000,0.000
1605185344443981056,10.0.1.125,41,place,-0.130,-0.130,-0.130,0.000,0.000,0.000
1605185345443033856,10.0.1.125,39,place,-0.120,-0.120,-0.120,0.000,0.000,0.000
1605185346449715968,10.0.1.125,46,place,-0.110,-0.110,-0.110,0.000,0.000,0.000
1605185347441291008,10.0.1.125,36,place,-0.100,-0.100,-0.100,0.000,0.000,0.000
1605185348444003072,10.0.1.125,36,place,-0.090,-0.090,-0.090,0.000,0.000,0.000
1605185349442561024,10.0.1.125,33,place,-0.080,-0.080,-0.080,0.000,0.000,0.000
1605185350441636096,10.0.1.125,31,place,-0.070,-0.070,-0.070,0.000,0.000,0.000
1605185351441176832,10.0.1.125,29,place,-0.060,-0.060,-0.060,0.000,0.000,0.000
1605185352460859904,10.0.1.125,47,place,-0.050,-0.050,-0.050,0.000,0.000,0.000
1605185353460619008,10.0.1.125,46,place,-0.040,-0.040,-0.040,0.000,0.000,0.000
1605185354461345024,10.0.1.125,45,place,-0.030,-0.030,-0.030,0.000,0.000,0.000
1605185355463427072,10.0.1.125,45,place,-0.020,-0.020,-0.020,0.000,0.000,0.000
1605185356461248000,10.0.1.125,41,place,-0.010,-0.010,-0.010,0.000,0.000,0.000
1605185357461043968,10.0.1.125,40,place,0.000,0.000,0.000,0.000,0.000,0.000
1605185358831473152,10.0.1.125,409,move_down,-0.020,-0.020,-0.020,0.000,0.000,0.000
1605185360261481984,10.0.1.125,404,move_down,-0.040,-0.040,-0.040,0.000,0.000,0.000
1605185361722571008,10.0.1.125,420,move_down,-0.060,-0.060,-0.060,0.000,0.000,0.000
1605185363165282048,10.0.1.125,387,move_down,-0.080,-0.080,-0.080,0.000,0.000,0.000
1605185364630788096,10.0.1.125,430,move_down,-0.100,-0.100,-0.100,0.000,0.000,0.000
1605185366071271936,10.0.1.125,395,move_down,-0.120,-0.120,-0.120,0.000,0.000,0.000
1605185367561373952,10.0.1.125,411,move_down,-0.140,-0.140,-0.140,0.000,0.000,0.000
1605185369002220032,10.0.1.125,378,move_down,-0.160,-0.160,-0.160,0.000,0.000,0.000
1605185370417239040,10.0.1.125,374,move_down,-0.180,-0.180,-0.180,0.000,0.000,0.000
1605185371842780160,10.0.1.125,375,move_down,-0.200,-0.200,-0.200,0.000,0.000,0.000
1605185373260550144,10.0.1.125,364,move_down,-0.220,-0.220,-0.220,0.000,0.000,0.000
1605185374731350784,10.0.1.125,395,move_down,-0.240,-0.240,-0.240,0.000,0.000,0.000
1605185376151220992,10.0.1.125,392,move_down,-0.260,-0.260,-0.260,0.000,0.000,0.000
1605185377592762880,10.0.1.125,390,move_down,-0.280,-0.280,-0.280,0.000,0.000,0.000
1605185379020801024,10.0.1.125,373,move_down,-0.300,-0.300,-0.300,0.000,0.000,0.000
1605185380480608000,10.0.1.125,403,move_down,-0.320,-0.320,-0.320,0.000,0.000,0.000
1605185381941323008,10.0.1.125,388,move_down,-0.340,-0.340,-0.340,0.000,0.000,0.000
1605185383412247040,10.0.1.125,405,move_down,-0.360,-0.360,-0.360,0.000,0.000,0.000
1605185384870959104,10.0.1.125,412,move_down,-0.380,-0.380,-0.380,0.000,0.000,0.000
1605185386313031936,10.0.1.125,401,move_down,-0.400,-0.400,-0.400,0.000,0.000,0.000
1605185387775115008,10.0.1.125,387,move_down,-0.420,-0.420,-0.420,0.000,0.000,0.000
1605185389181065984,10.0.1.125,374,move_down,-0.440,-0.440,-0.440,0.000,0.000,0.000
1605185390621387008,10.0.1.125,390,move_down,-0.460,-0.460,-0.460,0.000,0.000,0.000
1605185392062340864,10.0.1.125,397,move_down,-0.480,-0.480,-0.480,0.000,0.000,0.000
1605185393545007104,10.0.1.125,400,move_down,-0.500,-0.500,-0.500,0.000,0.000,0.000
1605185394960998912,10.0.1.125,372,move_down,-0.520,-0.520,-0.520,0.000,0.000,0.000
1605185396411366912,10.0.1.125,381,move_down,-0.540,-0.540,-0.540,0.000,0.000,0.000
1605185397870918144,10.0.1.125,389,move_down,-0.560,-0.560,-0.560,0.000,0.000,0.000
1605185399331361024,10.0.1.125,402,move_down,-0.580,-0.580,-0.580,0.000,0.000,0.000
1605185400411798016,10.0.1.125,35,pick,-0.590,-0.590,-0.590,0.000,0.000,0.000
1605185401411028992,10.0.1.125,34,pick,-0.600,-0.600,-0.600,0.000,0.000,0.000
1605185402411853056,10.0.1.125,34,pick,-0.610,-0.610,-0.610,0.000,0.000,0.000
1605185403414315008,10.0.1.125,36,pick,-0.620,-0.620,-0.620,0.000,0.000,0.000
1605185404410974976,10.0.1.125,32,pick,-0.630,-0.630,-0.630,0.000,0.000,0.000
1605185405412983808,10.0.1.125,33,pick,-0.640,-0.640,-0.640,0.000,0.000,0.000
1605185406430955776,10.0.1.125,50,pick,-0.650,-0.650,-0.650,0.000,0.000,0.000
1605185407432796928,10.0.1.125,51,pick,-0.660,-0.660,-0.660,0.000,0.000,0.000
1605185408430934784,10.0.1.125,49,pick,-0.670,-0.670,-0.670,0.000,0.000,0.000
1605185409435392000,10.0.1.125,53,pick,-0.680,-0.680,-0.680,0.000,0.000,0.000
1605185410442842112,10.0.1.125,59,pick,-0.690,-0.690,-0.690,0.000,0.000,0.000
1605185411430985984,10.0.1.125,46,pick,-0.700,-0.700,-0.700,0.000,0.000,0.000
1605185412443842816,10.0.1.125,58,pick,-0.710,-0.710,-0.710,0.000,0.000,0.000
1605185413435612928,10.0.1.125,49,pick,-0.720,-0.720,-0.720,0.000,0.000,0.000
1605185414431699968,10.0.1.125,45,pick,-0.730,-0.730,-0.730,0.000,0.000,0.000
1605185415449928960,10.0.1.125,62,pick,-0.740,-0.740,-0.740,0.000,0.000,0.000
1605185416438348032,10.0.1.125,47,pick,-0.750,-0.750,-0.750,0.000,0.000,0.000
1605185418397821952,10.0.1.125,NaN,pick,-0.770,-0.770,-0.770,0.000,0.000,0.000
1605185418442380800,10.0.1.125,44,pick,-0.770,-0.770,-0.770,0.000,0.000,0.000
1605185419781709056,10.0.1.125,382,move_up,-0.750,-0.750,-0.750,0.000,0.000,0.000
1605185421260773888,10.0.1.125,389,move_up,-0.730,-0.730,-0.730,0.000,0.000,0.000
1605185422731862016,10.0.1.125,400,move_up,-0.710,-0.710,-0.710,0.000,0.000,0.000
1605185424171128064,10.0.1.125,390,move_up,-0.690,-0.690,-0.690,0.000,0.000,0.000
1605185425590888960,10.0.1.125,379,move_up,-0.670,-0.670,-0.670,0.000,0.000,0.000
1605185427041389056,10.0.1.125,380,move_up,-0.650,-0.650,-0.650,0.000,0.000,0.000
1605185428494088960,10.0.1.125,402,move_up,-0.630,-0.630,-0.630,0.000,0.000,0.000
1605185429948412928,10.0.1.125,411,move_up,-0.610,-0.610,-0.610,0.000,0.000,0.000
1605185431401495040,10.0.1.125,414,move_up,-0.590,-0.590,-0.590,0.000,0.000,0.000
1605185432751997952,10.0.1.125,352,move_up,-0.570,-0.570,-0.570,0.000,0.000,0.000
1605185434161175040,10.0.1.125,385,move_up,-0.550,-0.550,-0.550,0.000,0.000,0.000
1605185435651472128,10.0.1.125,431,move_up,-0.530,-0.530,-0.530,0.000,0.000,0.000
1605185437112402944,10.0.1.125,411,move_up,-0.510,-0.510,-0.510,0.000,0.000,0.000
1605185438584214016,10.0.1.125,389,move_up,-0.490,-0.490,-0.490,0.000,0.000,0.000
1605185440061974016,10.0.1.125,411,move_up,-0.470,-0.470,-0.470,0.000,0.000,0.000
1605185441522265856,10.0.1.125,391,move_up,-0.450,-0.450,-0.450,0.000,0.000,0.000
1605185443031537920,10.0.1.125,413,move_up,-0.430,-0.430,-0.430,0.000,0.000,0.000
1605185444461456128,10.0.1.125,391,move_up,-0.410,-0.410,-0.410,0.000,0.000,0.000
1605185445966068992,10.0.1.125,419,move_up,-0.390,-0.390,-0.390,0.000,0.000,0.000
1605185447402898944,10.0.1.125,383,move_up,-0.370,-0.370,-0.370,0.000,0.000,0.000
1605185448904068864,10.0.1.125,394,move_up,-0.350,-0.350,-0.350,0.000,0.000,0.000
1605185450345755136,10.0.1.125,406,move_up,-0.330,-0.330,-0.330,0.000,0.000,0.000
1605185451782258944,10.0.1.125,388,move_up,-0.310,-0.310,-0.310,0.000,0.000,0.000
1605185453301574912,10.0.1.125,417,move_up,-0.290,-0.290,-0.290,0.000,0.000,0.000
1605185454791305984,10.0.1.125,427,move_up,-0.270,-0.270,-0.270,0.000,0.000,0.000
1605185456242782208,10.0.1.125,387,move_up,-0.250,-0.250,-0.250,0.000,0.000,0.000
1605185457712180992,10.0.1.125,401,move_up,-0.230,-0.230,-0.230,0.000,0.000,0.000
1605185459170373888,10.0.1.125,422,move_up,-0.210,-0.210,-0.210,0.000,0.000,0.000
1605185460643129088,10.0.1.125,402,move_up,-0.190,-0.190,-0.190,0.000,0.000,0.000
1605185461747479040,10.0.1.125,51,place,-0.180,-0.180,-0.180,0.000,0.000,0.000
1605185462744889088,10.0.1.125,47,place,-0.170,-0.170,-0.170,0.000,0.000,0.000
1605185463779008000,10.0.1.125,80,place,-0.160,-0.160,-0.160,0.000,0.000,0.000
1605185464762501120,10.0.1.125,54,place,-0.150,-0.150,-0.150,0.000,0.000,0.000
1605185465757798912,10.0.1.125,48,place,-0.140,-0.140,-0.140,0.000,0.000,0.000
1605185466761008128,10.0.1.125,50,place,-0.130,-0.130,-0.130,0.000,0.000,0.000
1605185467759124992,10.0.1.125,46,place,-0.120,-0.120,-0.120,0.000,0.000,0.000
1605185468762278912,10.0.1.125,48,place,-0.110,-0.110,-0.110,0.000,0.000,0.000
1605185469759977216,10.0.1.125,45,place,-0.100,-0.100,-0.100,0.000,0.000,0.000
1605185470758765824,10.0.1.125,43,place,-0.090,-0.090,-0.090,0.000,0.000,0.000
1605185471759521024,10.0.1.125,41,place,-0.080,-0.080,-0.080,0.000,0.000,0.000
1605185472760508928,10.0.1.125,40,place,-0.070,-0.070,-0.070,0.000,0.000,0.000
1605185473761837056,10.0.1.125,40,place,-0.060,-0.060,-0.060,0.000,0.000,0.000
1605185474757785088,10.0.1.125,35,place,-0.050,-0.050,-0.050,0.000,0.000,0.000
1605185475757373952,10.0.1.125,33,place,-0.040,-0.040,-0.040,0.000,0.000,0.000
1605185476756800000,10.0.1.125,31,place,-0.030,-0.030,-0.030,0.000,0.000,0.000
1605185477790270976,10.0.1.125,64,place,-0.020,-0.020,-0.020,0.000,0.000,0.000
1605185478776896000,10.0.1.125,49,place,-0.010,-0.010,-0.010,0.000,0.000,0.000
1605185479780553216,10.0.1.125,52,place,0.000,0.000,0.000,0.000,0.000,0.000
1605185481148523008,10.0.1.125,420,move_down,-0.020,-0.020,-0.020,0.000,0.000,0.000
1605185482679191040,10.0.1.125,415,move_down,-0.040,-0.040,-0.040,0.000,0.000,0.000
1605185484256486912,10.0.1.125,468,move_down,-0.060,-0.060,-0.060,0.000,0.000,0.000
1605185485730065152,10.0.1.125,405,move_down,-0.080,-0.080,-0.080,0.000,0.000,0.000
1605185487187858176,10.0.1.125,398,move_down,-0.100,-0.100,-0.100,0.000,0.000,0.000
1605185488616925952,10.0.1.125,381,move_down,-0.120,-0.120,-0.120,0.000,0.000,0.000
1605185490106269952,10.0.1.125,419,move_down,-0.140,-0.140,-0.140,0.000,0.000,0.000
1605185491577120000,10.0.1.125,399,move_down,-0.160,-0.160,-0.160,0.000,0.000,0.000
1605185493027694848,10.0.1.125,371,move_down,-0.180,-0.180,-0.180,0.000,0.000,0.000
1605185494492952064,10.0.1.125,410,move_down,-0.200,-0.200,-0.200,0.000,0.000,0.000
1605185495964030976,10.0.1.125,381,move_down,-0.220,-0.220,-0.220,0.000,0.000,0.000
1605185497430712832,10.0.1.125,406,move_down,-0.240,-0.240,-0.240,0.000,0.000,0.000
1605185498873956864,10.0.1.125,423,move_down,-0.260,-0.260,-0.260,0.000,0.000,0.000
1605185500429217024,10.0.1.125,468,move_down,-0.280,-0.280,-0.280,0.000,0.000,0.000
1605185501883054080,10.0.1.125,407,move_down,-0.300,-0.300,-0.300,0.000,0.000,0.000
1605185503383124224,10.0.1.125,423,move_down,-0.320,-0.320,-0.320,0.000,0.000,0.000
1605185504875273984,10.0.1.125,431,move_down,-0.340,-0.340,-0.340,0.000,0.000,0.000
1605185506329370112,10.0.1.125,401,move_down,-0.360,-0.360,-0.360,0.000,0.000,0.000
1605185507844922112,10.0.1.125,434,move_down,-0.380,-0.380,-0.380,0.000,0.000,0.000
1605185509261423104,10.0.1.125,376,move_down,-0.400,-0.400,-0.400,0.000,0.000,0.000
1605185510692954112,10.0.1.125,386,move_down,-0.420,-0.420,-0.420,0.000,0.000,0.000
1605185512172147968,10.0.1.125,389,move_down,-0.440,-0.440,-0.440,0.000,0.000,0.000
1605185513677475840,10.0.1.125,449,move_down,-0.460,-0.460,-0.460,0.000,0.000,0.000
1605185515054400000,10.0.1.125,383,move_down,-0.480,-0.480,-0.480,0.000,0.000,0.000
1605185516532974080,10.0.1.125,387,move_down,-0.500,-0.500,-0.500,0.000,0.000,0.000
1605185518021505024,10.0.1.125,428,move_down,-0.520,-0.520,-0.520,0.000,0.000,0.000
1605185519441415936,10.0.1.125,426,move_down,-0.540,-0.540,-0.540,0.000,0.000,0.000
1605185520906920960,10.0.1.125,403,move_down,-0.560,-0.560,-0.560,0.000,0.000,0.000
1605185522362183936,10.0.1.125,408,move_down,-0.580,-0.580,-0.580,0.000,0.000,0.000
1605185523485867008,10.0.1.125,46,pick,-0.590,-0.590,-0.590,0.000,0.000,0.000
1605185524486649088,10.0.1.125,46,pick,-0.600,-0.600,-0.600,0.000,0.000,0.000
1605185525481961984,10.0.1.125,39,pick,-0.610,-0.610,-0.610,0.000,0.000,0.000
1605185526501861120,10.0.1.125,57,pick,-0.620,-0.620,-0.620,0.000,0.000,0.000
1605185527482845952,10.0.1.125,37,pick,-0.630,-0.630,-0.630,0.000,0.000,0.000
1605185528481745920,10.0.1.125,35,pick,-0.640,-0.640,-0.640,0.000,0.000,0.000
1605185529483165952,10.0.1.125,34,pick,-0.650,-0.650,-0.650,0.000,0.000,0.000
1605185530504668928,10.0.1.125,54,pick,-0.660,-0.660,-0.660,0.000,0.000,0.000
1605185531502241024,10.0.1.125,48,pick,-0.670,-0.670,-0.670,0.000,0.000,0.000
1605185532501389056,10.0.1.125,46,pick,-0.680,-0.680,-0.680,0.000,0.000,0.000
1605185533502863872,10.0.1.125,46,pick,-0.690,-0.690,-0.690,0.000,0.000,0.000
1605185534501595136,10.0.1.125,43,pick,-0.700,-0.700,-0.700,0.000,0.000,0.000
1605185535502784000,10.0.1.125,43,pick,-0.710,-0.710,-0.710,0.000,0.000,0.000
1605185536501556992,10.0.1.125,41,pick,-0.720,-0.720,-0.720,0.000,0.000,0.000
1605185537501199872,10.0.1.125,39,pick,-0.730,-0.730,-0.730,0.000,0.000,0.000
1605185538511898880,10.0.1.125,48,pick,-0.740,-0.740,-0.740,0.000,0.000,0.000
1605185539501081856,10.0.1.125,37,pick,-0.750,-0.750,-0.750,0.000,0.000,0.000
1605185540500513024,10.0.1.125,35,pick,-0.760,-0.760,-0.760,0.000,0.000,0.000
1605185541502392064,10.0.1.125,36,pick,-0.770,-0.770,-0.770,0.000,0.000,0.000
1605185542871051008,10.0.1.125,403,move_up,-0.750,-0.750,-0.750,0.000,0.000,0.000
1605185544372879872,10.0.1.125,429,move_up,-0.730,-0.730,-0.730,0.000,0.000,0.000
1605185545841626880,10.0.1.125,445,move_up,-0.710,-0.710,-0.710,0.000,0.000,0.000
1605185547312838912,10.0.1.125,404,move_up,-0.690,-0.690,-0.690,0.000,0.000,0.000
1605185548771624960,10.0.1.125,401,move_up,-0.670,-0.670,-0.670,0.000,0.000,0.000
1605185550233856000,10.0.1.125,380,move_up,-0.650,-0.650,-0.650,0.000,0.000,0.000
1605185551621347840,10.0.1.125,357,move_up,-0.630,-0.630,-0.630,0.000,0.000,0.000
1605185553101433088,10.0.1.125,396,move_up,-0.610,-0.610,-0.610,0.000,0.000,0.000
1605185554561512960,10.0.1.125,378,move_up,-0.590,-0.590,-0.590,0.000,0.000,0.000
1605185556030599168,10.0.1.125,404,move_up,-0.570,-0.570,-0.570,0.000,0.000,0.000
1605185557461632000,10.0.1.125,376,move_up,-0.550,-0.550,-0.550,0.000,0.000,0.000
1605185558911638016,10.0.1.125,375,move_up,-0.530,-0.530,-0.530,0.000,0.000,0.000
1605185560370630912,10.0.1.125,406,move_up,-0.510,-0.510,-0.510,0.000,0.000,0.000
1605185561912563968,10.0.1.125,448,move_up,-0.490,-0.490,-0.490,0.000,0.000,0.000
1605185563390876928,10.0.1.125,396,move_up,-0.470,-0.470,-0.470,0.000,0.000,0.000
1605185564941761024,10.0.1.125,474,move_up,-0.450,-0.450,-0.450,0.000,0.000,0.000
1605185566389935104,10.0.1.125,398,move_up,-0.430,-0.430,-0.430,0.000,0.000,0.000
1605185567890552064,10.0.1.125,419,move_up,-0.410,-0.410,-0.410,0.000,0.000,0.000
1605185569390456064,10.0.1.125,393,move_up,-0.390,-0.390,-0.390,0.000,0.000,0.000
1605185570897600768,10.0.1.125,423,move_up,-0.370,-0.370,-0.370,0.000,0.000,0.000
1605185572346371840,10.0.1.125,390,move_up,-0.350,-0.350,-0.350,0.000,0.000,0.000
1605185573851581952,10.0.1.125,437,move_up,-0.330,-0.330,-0.330,0.000,0.000,0.000
1605185575316582912,10.0.1.125,403,move_up,-0.310,-0.310,-0.310,0.000,0.000,0.000
1605185576823045120,10.0.1.125,423,move_up,-0.290,-0.290,-0.290,0.000,0.000,0.000
1605185578281632000,10.0.1.125,393,move_up,-0.270,-0.270,-0.270,0.000,0.000,0.000
1605185579751702016,10.0.1.125,381,move_up,-0.250,-0.250,-0.250,0.000,0.000,0.000
1605185581210882816,10.0.1.125,406,move_up,-0.230,-0.230,-0.230,0.000,0.000,0.000
1605185582681230080,10.0.1.125,393,move_up,-0.210,-0.210,-0.210,0.000,0.000,0.000
1605185584152067840,10.0.1.125,385,move_up,-0.190,-0.190,-0.190,0.000,0.000,0.000
1605185585272193024,10.0.1.125,58,place,-0.180,-0.180,-0.180,0.000,0.000,0.000
1605185586256059904,10.0.1.125,41,place,-0.170,-0.170,-0.170,0.000,0.000,0.000
1605185587253555968,10.0.1.125,37,place,-0.160,-0.160,-0.160,0.000,0.000,0.000
1605185588252856064,10.0.1.125,35,place,-0.150,-0.150,-0.150,0.000,0.000,0.000
1605185589251578112,10.0.1.125,33,place,-0.140,-0.140,-0.140,0.000,0.000,0.000
1605185590256599808,10.0.1.125,36,place,-0.130,-0.130,-0.130,0.000,0.000,0.000
1605185591256898048,10.0.1.125,35,place,-0.120,-0.120,-0.120,0.000,0.000,0.000
1605185592270823936,10.0.1.125,48,place,-0.110,-0.110,-0.110,0.000,0.000,0.000
1605185593272207104,10.0.1.125,48,place,-0.100,-0.100,-0.100,0.000,0.000,0.000
1605185594271735808,10.0.1.125,45,place,-0.090,-0.090,-0.090,0.000,0.000,0.000
1605185595270829824,10.0.1.125,42,place,-0.080,-0.080,-0.080,0.000,0.000,0.000
1605185596270801152,10.0.1.125,39,place,-0.070,-0.070,-0.070,0.000,0.000,0.000
1605185597270728960,10.0.1.125,37,place,-0.060,-0.060,-0.060,0.000,0.000,0.000
1605185598271225088,10.0.1.125,37,place,-0.050,-0.050,-0.050,0.000,0.000,0.000
1605185599277363968,10.0.1.125,42,place,-0.040,-0.040,-0.040,0.000,0.000,0.000
1605185600271060992,10.0.1.125,35,place,-0.030,-0.030,-0.030,0.000,0.000,0.000
1605185601271845120,10.0.1.125,34,place,-0.020,-0.020,-0.020,0.000,0.000,0.000
1605185602294689024,10.0.1.125,53,place,-0.010,-0.010,-0.010,0.000,0.000,0.000
1605185603295336960,10.0.1.125,53,place,0.000,0.000,0.000,0.000,0.000,0.000
1605185604672684032,10.0.1.125,429,move_down,-0.020,-0.020,-0.020,0.000,0.000,0.000
1605185606142252032,10.0.1.125,382,move_down,-0.040,-0.040,-0.040,0.000,0.000,0.000
1605185607610900992,10.0.1.125,409,move_down,-0.060,-0.060,-0.060,0.000,0.000,0.000
1605185609080588032,10.0.1.125,399,move_down,-0.080,-0.080,-0.080,0.000,0.000,0.000
1605185610530353152,10.0.1.125,403,move_down,-0.100,-0.100,-0.100,0.000,0.000,0.000
1605185612002220032,10.0.1.125,426,move_down,-0.120,-0.120,-0.120,0.000,0.000,0.000
1605185613432486912,10.0.1.125,368,move_down,-0.140,-0.140,-0.140,0.000,0.000,0.000
1605185614951159040,10.0.1.125,413,move_down,-0.160,-0.160,-0.160,0.000,0.000,0.000
1605185616426508032,10.0.1.125,398,move_down,-0.180,-0.180,-0.180,0.000,0.000,0.000
1605185617870910976,10.0.1.125,407,move_down,-0.200,-0.200,-0.200,0.000,0.000,0.000
1605185619354768896,10.0.1.125,388,move_down,-0.220,-0.220,-0.220,0.000,0.000,0.000
1605185620872390144,10.0.1.125,449,move_down,-0.240,-0.240,-0.240,0.000,0.000,0.000
1605185622273093888,10.0.1.125,400,move_down,-0.260,-0.260,-0.260,0.000,0.000,0.000
1605185623801785856,10.0.1.125,447,move_down,-0.280,-0.280,-0.280,0.000,0.000,0.000
1605185625261555968,10.0.1.125,407,move_down,-0.300,-0.300,-0.300,0.000,0.000,0.000
1605185626829998080,10.0.1.125,466,move_down,-0.320,-0.320,-0.320,0.000,0.000,0.000
1605185628352904960,10.0.1.125,467,move_down,-0.340,-0.340,-0.340,0.000,0.000,0.000
1605185629821934848,10.0.1.125,418,move_down,-0.360,-0.360,-0.360,0.000,0.000,0.000
1605185631361490944,10.0.1.125,447,move_down,-0.380,-0.380,-0.380,0.000,0.000,0.000
1605185632822951168,10.0.1.125,422,move_down,-0.400,-0.400,-0.400,0.000,0.000,0.000
1605185634333956864,10.0.1.125,443,move_down,-0.420,-0.420,-0.420,0.000,0.000,0.000
1605185635821070848,10.0.1.125,409,move_down,-0.440,-0.440,-0.440,0.000,0.000,0.000
1605185637361602048,10.0.1.125,430,move_down,-0.460,-0.460,-0.460,0.000,0.000,0.000
1605185638856276992,10.0.1.125,396,move_down,-0.480,-0.480,-0.480,0.000,0.000,0.000
1605185640380091904,10.0.1.125,430,move_down,-0.500,-0.500,-0.500,0.000,0.000,0.000
1605185641841996800,10.0.1.125,410,move_down,-0.520,-0.520,-0.520,0.000,0.000,0.000
1605185643331083008,10.0.1.125,417,move_down,-0.540,-0.540,-0.540,0.000,0.000,0.000
1605185644832515840,10.0.1.125,457,move_down,-0.560,-0.560,-0.560,0.000,0.000,0.000
1605185646308345088,10.0.1.125,424,move_down,-0.580,-0.580,-0.580,0.000,0.000,0.000
1605185647421577984,10.0.1.125,54,pick,-0.590,-0.590,-0.590,0.000,0.000,0.000
1605185648401464832,10.0.1.125,31,pick,-0.600,-0.600,-0.600,0.000,0.000,0.000
1605185649421044224,10.0.1.125,50,pick,-0.610,-0.610,-0.610,0.000,0.000,0.000
1605185650421837056,10.0.1.125,50,pick,-0.620,-0.620,-0.620,0.000,0.000,0.000
1605185651422060032,10.0.1.125,48,pick,-0.630,-0.630,-0.630,0.000,0.000,0.000
1605185652421235968,10.0.1.125,46,pick,-0.640,-0.640,-0.640,0.000,0.000,0.000
1605185653421318912,10.0.1.125,45,pick,-0.650,-0.650,-0.650,0.000,0.000,0.000
1605185654422339072,10.0.1.125,45,pick,-0.660,-0.660,-0.660,0.000,0.000,0.000
1605185655432631040,10.0.1.125,54,pick,-0.670,-0.670,-0.670,0.000,0.000,0.000
1605185656411334144,10.0.1.125,31,pick,-0.680,-0.680,-0.680,0.000,0.000,0.000
1605185657420627200,10.0.1.125,39,pick,-0.690,-0.690,-0.690,0.000,0.000,0.000
1605185658421080064,10.0.1.125,38,pick,-0.700,-0.700,-0.700,0.000,0.000,0.000
1605185659434104064,10.0.1.125,50,pick,-0.710,-0.710,-0.710,0.000,0.000,0.000
1605185660421321984,10.0.1.125,35,pick,-0.720,-0.720,-0.720,0.000,0.000,0.000
1605185661420648192,10.0.1.125,33,pick,-0.730,-0.730,-0.730,0.000,0.000,0.000
1605185662422207232,10.0.1.125,33,pick,-0.740,-0.740,-0.740,0.000,0.000,0.000
1605185663442300160,10.0.1.125,52,pick,-0.750,-0.750,-0.750,0.000,0.000,0.000
1605185664443938048,10.0.1.125,53,pick,-0.760,-0.760,-0.760,0.000,0.000,0.000
1605185665441436160,10.0.1.125,49,pick,-0.770,-0.770,-0.770,0.000,0.000,0.000
1605185666800715008,10.0.1.125,407,move_up,-0.750,-0.750,-0.750,0.000,0.000,0.000
1605185668341841920,10.0.1.125,429,move_up,-0.730,-0.730,-0.730,0.000,0.000,0.000
1605185669785594112,10.0.1.125,391,move_up,-0.710,-0.710,-0.710,0.000,0.000,0.000
1605185671233110016,10.0.1.125,393,move_up,-0.690,-0.690,-0.690,0.000,0.000,0.000
1605185672716816896,10.0.1.125,414,move_up,-0.670,-0.670,-0.670,0.000,0.000,0.000
1605185674183408128,10.0.1.125,400,move_up,-0.650,-0.650,-0.650,0.000,0.000,0.000
1605185675611803904,10.0.1.125,383,move_up,-0.630,-0.630,-0.630,0.000,0.000,0.000
1605185677061847808,10.0.1.125,399,move_up,-0.610,-0.610,-0.610,0.000,0.000,0.000
1605185678601443072,10.0.1.125,427,move_up,-0.590,-0.590,-0.590,0.000,0.000,0.000
1605185680122695936,10.0.1.125,424,move_up,-0.570,-0.570,-0.570,0.000,0.000,0.000
1605185681662094080,10.0.1.125,430,move_up,-0.550,-0.550,-0.550,0.000,0.000,0.000
1605185683104238080,10.0.1.125,405,move_up,-0.530,-0.530,-0.530,0.000,0.000,0.000
1605185684616342016,10.0.1.125,431,move_up,-0.510,-0.510,-0.510,0.000,0.000,0.000
1605185686061918976,10.0.1.125,388,move_up,-0.490,-0.490,-0.490,0.000,0.000,0.000
1605185687553539072,10.0.1.125,415,move_up,-0.470,-0.470,-0.470,0.000,0.000,0.000
1605185689071974912,10.0.1.125,440,move_up,-0.450,-0.450,-0.450,0.000,0.000,0.000
1605185690544153088,10.0.1.125,394,move_up,-0.430,-0.430,-0.430,0.000,0.000,0.000
1605185692044822016,10.0.1.125,416,move_up,-0.410,-0.410,-0.410,0.000,0.000,0.000
1605185693511953152,10.0.1.125,425,move_up,-0.390,-0.390,-0.390,0.000,0.000,0.000
1605185694993809920,10.0.1.125,394,move_up,-0.370,-0.370,-0.370,0.000,0.000,0.000
1605185696561844992,10.0.1.125,503,move_up,-0.350,-0.350,-0.350,0.000,0.000,0.000
1605185698050526976,10.0.1.125,432,move_up,-0.330,-0.330,-0.330,0.000,0.000,0.000
1605185699505422080,10.0.1.125,397,move_up,-0.310,-0.310,-0.310,0.000,0.000,0.000
1605185700960759040,10.0.1.125,400,move_up,-0.290,-0.290,-0.290,0.000,0.000,0.000
1605185702411454976,10.0.1.125,400,move_up,-0.270,-0.270,-0.270,0.000,0.000,0.000
1605185703871741184,10.0.1.125,404,move_up,-0.250,-0.250,-0.250,0.000,0.000,0.000
1605185705321594880,10.0.1.125,401,move_up,-0.230,-0.230,-0.230,0.000,0.000,0.000
1605185706792100864,10.0.1.125,418,move_up,-0.210,-0.210,-0.210,0.000,0.000,0.000
1605185708221296128,10.0.1.125,372,move_up,-0.190,-0.190,-0.190,0.000,0.000,0.000
1605185709310919168,10.0.1.125,42,place,-0.180,-0.180,-0.180,0.000,0.000,0.000
1605185710301323776,10.0.1.125,31,place,-0.170,-0.170,-0.170,0.000,0.000,0.000
1605185711320934144,10.0.1.125,50,place,-0.160,-0.160,-0.160,0.000,0.000,0.000
1605185712326809856,10.0.1.125,55,place,-0.150,-0.150,-0.150,0.000,0.000,0.000
1605185713320754176,10.0.1.125,47,place,-0.140,-0.140,-0.140,0.000,0.000,0.000
1605185714321656064,10.0.1.125,47,place,-0.130,-0.130,-0.130,0.000,0.000,0.000
1605185715320761856,10.0.1.125,40,place,-0.120,-0.120,-0.120,0.000,0.000,0.000
1605185716321809920,10.0.1.125,40,place,-0.110,-0.110,-0.110,0.000,0.000,0.000
1605185717320599040,10.0.1.125,36,place,-0.100,-0.100,-0.100,0.000,0.000,0.000
1605185718322350080,10.0.1.125,37,place,-0.090,-0.090,-0.090,0.000,0.000,0.000
1605185719324491008,10.0.1.125,37,place,-0.080,-0.080,-0.080,0.000,0.000,0.000
1605185720320887040,10.0.1.125,33,place,-0.070,-0.070,-0.070,0.000,0.000,0.000
1605185721321367040,10.0.1.125,32,place,-0.060,-0.060,-0.060,0.000,0.000,0.000
1605185722327709952,10.0.1.125,37,place,-0.050,-0.050,-0.050,0.000,0.000,0.000
1605185723346206976,10.0.1.125,55,place,-0.040,-0.040,-0.040,0.000,0.000,0.000
1605185724345679872,10.0.1.125,53,place,-0.030,-0.030,-0.030,0.000,0.000,0.000
1605185725352365056,10.0.1.125,59,place,-0.020,-0.020,-0.020,0.000,0.000,0.000
1605185726353505024,10.0.1.125,58,place,-0.010,-0.010,-0.010,0.000,0.000,0.000
1605185727342874112,10.0.1.125,46,place,0.000,0.000,0.000,0.000,0.000,0.000
1605185728701970944,10.0.1.125,404,move_down,-0.020,-0.020,-0.020,0.000,0.000,0.000
1605185730124772096,10.0.1.125,401,move_down,-0.040,-0.040,-0.040,0.000,0.000,0.000
1605185731581350144,10.0.1.125,376,move_down,-0.060,-0.060,-0.060,0.000,0.000,0.000
1605185733123382016,10.0.1.125,440,move_down,-0.080,-0.080,-0.080,0.000,0.000,0.000
1605185734615250176,10.0.1.125,419,move_down,-0.100,-0.100,-0.100,0.000,0.000,0.000
1605185736031464192,10.0.1.125,387,move_down,-0.120,-0.120,-0.120,0.000,0.000,0.000
1605185737524795904,10.0.1.125,401,move_down,-0.140,-0.140,-0.140,0.000,0.000,0.000
1605185739014580992,10.0.1.125,422,move_down,-0.160,-0.160,-0.160,0.000,0.000,0.000
1605185740482387968,10.0.1.125,377,move_down,-0.180,-0.180,-0.180,0.000,0.000,0.000
1605185741914494976,10.0.1.125,367,move_down,-0.200,-0.200,-0.200,0.000,0.000,0.000
1605185743383825920,10.0.1.125,410,move_down,-0.220,-0.220,-0.220,0.000,0.000,0.000
1605185744834279936,10.0.1.125,399,move_down,-0.240,-0.240,-0.240,0.000,0.000,0.000
1605185746275384832,10.0.1.125,391,move_down,-0.260,-0.260,-0.260,0.000,0.000,0.000
1605185747760248064,10.0.1.125,402,move_down,-0.280,-0.280,-0.280,0.000,0.000,0.000
1605185749252626944,10.0.1.125,412,move_down,-0.300,-0.300,-0.300,0.000,0.000,0.000
1605185750751346944,10.0.1.125,421,move_down,-0.320,-0.320,-0.320,0.000,0.000,0.000
1605185752207837184,10.0.1.125,392,move_down,-0.340,-0.340,-0.340,0.000,0.000,0.000
1605185753657347072,10.0.1.125,379,move_down,-0.360,-0.360,-0.360,0.000,0.000,0.000
1605185755150320896,10.0.1.125,423,move_down,-0.380,-0.380,-0.380,0.000,0.000,0.000
1605185756626265088,10.0.1.125,405,move_down,-0.400,-0.400,-0.400,0.000,0.000,0.000
1605185758047874048,10.0.1.125,382,move_down,-0.420,-0.420,-0.420,0.000,0.000,0.000
1605185759556421120,10.0.1.125,416,move_down,-0.440,-0.440,-0.440,0.000,0.000,0.000
1605185761017970176,10.0.1.125,396,move_down,-0.460,-0.460,-0.460,0.000,0.000,0.000
1605185762486882816,10.0.1.125,384,move_down,-0.480,-0.480,-0.480,0.000,0.000,0.000
1605185764016915200,10.0.1.125,405,move_down,-0.500,-0.500,-0.500,0.000,0.000,0.000
1605185765506497024,10.0.1.125,409,move_down,-0.520,-0.520,-0.520,0.000,0.000,0.000
1605185766956521984,10.0.1.125,407,move_down,-0.540,-0.540,-0.540,0.000,0.000,0.000
1605185768441659904,10.0.1.125,409,move_down,-0.560,-0.560,-0.560,0.000,0.000,0.000
1605185769917934848,10.0.1.125,394,move_down,-0.580,-0.580,-0.580,0.000,0.000,0.000
1605185771021356032,10.0.1.125,42,pick,-0.590,-0.590,-0.590,0.000,0.000,0.000
1605185772017874944,10.0.1.125,38,pick,-0.600,-0.600,-0.600,0.000,0.000,0.000
1605185773022684160,10.0.1.125,41,pick,-0.610,-0.610,-0.610,0.000,0.000,0.000
1605185774016702976,10.0.1.125,34,pick,-0.620,-0.620,-0.620,0.000,0.000,0.000
1605185775024087040,10.0.1.125,40,pick,-0.630,-0.630,-0.630,0.000,0.000,0.000
1605185776016199168,10.0.1.125,31,pick,-0.640,-0.640,-0.640,0.000,0.000,0.000
1605185777042906880,10.0.1.125,56,pick,-0.650,-0.650,-0.650,0.000,0.000,0.000
1605185778044177920,10.0.1.125,56,pick,-0.660,-0.660,-0.660,0.000,0.000,0.000
1605185779036160000,10.0.1.125,47,pick,-0.670,-0.670,-0.670,0.000,0.000,0.000
1605185780036923904,10.0.1.125,44,pick,-0.680,-0.680,-0.680,0.000,0.000,0.000
1605185781040244224,10.0.1.125,46,pick,-0.690,-0.690,-0.690,0.000,0.000,0.000
1605185782044962816,10.0.1.125,50,pick,-0.700,-0.700,-0.700,0.000,0.000,0.000
1605185783065340160,10.0.1.125,69,pick,-0.710,-0.710,-0.710,0.000,0.000,0.000
1605185784041629184,10.0.1.125,44,pick,-0.720,-0.720,-0.720,0.000,0.000,0.000
1605185785999165952,10.0.1.125,NaN,pick,-0.740,-0.740,-0.740,0.000,0.000,0.000
1605185786039823104,10.0.1.125,40,pick,-0.740,-0.740,-0.740,0.000,0.000,0.000
1605185787038934016,10.0.1.125,39,pick,-0.750,-0.750,-0.750,0.000,0.000,0.000
1605185788038734848,10.0.1.125,37,pick,-0.760,-0.760,-0.760,0.000,0.000,0.000
1605185789036112896,10.0.1.125,33,pick,-0.770,-0.770,-0.770,0.000,0.000,0.000
1605185790418951936,10.0.1.125,415,move_up,-0.750,-0.750,-0.750,0.000,0.000,0.000
1605185791979200000,10.0.1.125,457,move_up,-0.730,-0.730,-0.730,0.000,0.000,0.000
1605185793466542848,10.0.1.125,407,move_up,-0.710,-0.710,-0.710,0.000,0.000,0.000
1605185794923695104,10.0.1.125,413,move_up,-0.690,-0.690,-0.690,0.000,0.000,0.000
1605185796386310144,10.0.1.125,389,move_up,-0.670,-0.670,-0.670,0.000,0.000,0.000
1605185797928738048,10.0.1.125,445,move_up,-0.650,-0.650,-0.650,0.000,0.000,0.000
1605185799428069120,10.0.1.125,411,move_up,-0.630,-0.630,-0.630,0.000,0.000,0.000
1605185800937468160,10.0.1.125,400,move_up,-0.610,-0.610,-0.610,0.000,0.000,0.000
1605185802405129984,10.0.1.125,416,move_up,-0.590,-0.590,-0.590,0.000,0.000,0.000
1605185803881824000,10.0.1.125,405,move_up,-0.570,-0.570,-0.570,0.000,0.000,0.000
1605185805380376064,10.0.1.125,448,move_up,-0.550,-0.550,-0.550,0.000,0.000,0.000
1605185806886425088,10.0.1.125,474,move_up,-0.530,-0.530,-0.530,0.000,0.000,0.000
1605185808380026112,10.0.1.125,413,move_up,-0.510,-0.510,-0.510,0.000,0.000,0.000
1605185809878784768,10.0.1.125,451,move_up,-0.490,-0.490,-0.490,0.000,0.000,0.000
1605185811381274112,10.0.1.125,435,move_up,-0.470,-0.470,-0.470,0.000,0.000,0.000
1605185812952989184,10.0.1.125,474,move_up,-0.450,-0.450,-0.450,0.000,0.000,0.000
1605185814521327872,10.0.1.125,488,move_up,-0.430,-0.430,-0.430,0.000,0.000,0.000
1605185816022542848,10.0.1.125,442,move_up,-0.410,-0.410,-0.410,0.000,0.000,0.000
1605185817476257024,10.0.1.125,411,move_up,-0.390,-0.390,-0.390,0.000,0.000,0.000
1605185818914977024,10.0.1.125,391,move_up,-0.370,-0.370,-0.370,0.000,0.000,0.000
1605185820352292096,10.0.1.125,390,move_up,-0.350,-0.350,-0.350,0.000,0.000,0.000
1605185821854137856,10.0.1.125,416,move_up,-0.330,-0.330,-0.330,0.000,0.000,0.000
1605185823312500992,10.0.1.125,405,move_up,-0.310,-0.310,-0.310,0.000,0.000,0.000
1605185824814248192,10.0.1.125,398,move_up,-0.290,-0.290,-0.290,0.000,0.000,0.000
1605185826282051072,10.0.1.125,413,move_up,-0.270,-0.270,-0.270,0.000,0.000,0.000
1605185827763643136,10.0.1.125,405,move_up,-0.250,-0.250,-0.250,0.000,0.000,0.000
1605185829226695936,10.0.1.125,412,move_up,-0.230,-0.230,-0.230,0.000,0.000,0.000
1605185830746760960,10.0.1.125,439,move_up,-0.210,-0.210,-0.210,0.000,0.000,0.000
1605185832205152000,10.0.1.125,398,move_up,-0.190,-0.190,-0.190,0.000,0.000,0.000
1605185833303796992,10.0.1.125,46,place,-0.180,-0.180,-0.180,0.000,0.000,0.000
1605185834304728064,10.0.1.125,45,place,-0.170,-0.170,-0.170,0.000,0.000,0.000
1605185835306010880,10.0.1.125,46,place,-0.160,-0.160,-0.160,0.000,0.000,0.000
1605185836317740032,10.0.1.125,56,place,-0.150,-0.150,-0.150,0.000,0.000,0.000
1605185837311065856,10.0.1.125,48,place,-0.140,-0.140,-0.140,0.000,0.000,0.000
1605185839265294080,10.0.1.125,NaN,place,-0.120,-0.120,-0.120,0.000,0.000,0.000
1605185839309662976,10.0.1.125,44,place,-0.120,-0.120,-0.120,0.000,0.000,0.000
1605185840306562048,10.0.1.125,39,place,-0.110,-0.110,-0.110,0.000,0.000,0.000
1605185841307537920,10.0.1.125,38,place,-0.100,-0.100,-0.100,0.000,0.000,0.000
1605185842306051072,10.0.1.125,35,place,-0.090,-0.090,-0.090,0.000,0.000,0.000
1605185843306801920,10.0.1.125,34,place,-0.080,-0.080,-0.080,0.000,0.000,0.000
1605185844329478912,10.0.1.125,54,place,-0.070,-0.070,-0.070,0.000,0.000,0.000
1605185845329856000,10.0.1.125,53,place,-0.060,-0.060,-0.060,0.000,0.000,0.000
1605185846327648000,10.0.1.125,49,place,-0.050,-0.050,-0.050,0.000,0.000,0.000
1605185847326457856,10.0.1.125,47,place,-0.040,-0.040,-0.040,0.000,0.000,0.000
1605185848327837952,10.0.1.125,47,place,-0.030,-0.030,-0.030,0.000,0.000,0.000
1605185849335588864,10.0.1.125,53,place,-0.020,-0.020,-0.020,0.000,0.000,0.000
1605185850326145024,10.0.1.125,42,place,-0.010,-0.010,-0.010,0.000,0.000,0.000
1605185851327802880,10.0.1.125,42,place,0.000,0.000,0.000,0.000,0.000,0.000
1605185852698277120,10.0.1.125,411,move_down,-0.020,-0.020,-0.020,0.000,0.000,0.000
1605185854248871936,10.0.1.125,439,move_down,-0.040,-0.040,-0.040,0.000,0.000,0.000
1605185855782198784,10.0.1.125,448,move_down,-0.060,-0.060,-0.060,0.000,0.000,0.000
1605185857252507904,10.0.1.125,380,move_down,-0.080,-0.080,-0.080,0.000,0.000,0.000
1605185858789565184,10.0.1.125,422,move_down,-0.100,-0.100,-0.100,0.000,0.000,0.000
1605185860268045056,10.0.1.125,385,move_down,-0.120,-0.120,-0.120,0.000,0.000,0.000
1605185861697453056,10.0.1.125,376,move_down,-0.140,-0.140,-0.140,0.000,0.000,0.000
1605185863277203968,10.0.1.125,443,move_down,-0.160,-0.160,-0.160,0.000,0.000,0.000
1605185864744816896,10.0.1.125,426,move_down,-0.180,-0.180,-0.180,0.000,0.000,0.000
1605185866321048064,10.0.1.125,478,move_down,-0.200,-0.200,-0.200,0.000,0.000,0.000
1605185867803930880,10.0.1.125,425,move_down,-0.220,-0.220,-0.220,0.000,0.000,0.000
1605185869248904960,10.0.1.125,416,move_down,-0.240,-0.240,-0.240,0.000,0.000,0.000
1605185870765517056,10.0.1.125,410,move_down,-0.260,-0.260,-0.260,0.000,0.000,0.000
1605185872288006144,10.0.1.125,453,move_down,-0.280,-0.280,-0.280,0.000,0.000,0.000
1605185873738633984,10.0.1.125,399,move_down,-0.300,-0.300,-0.300,0.000,0.000,0.000
1605185875266665984,10.0.1.125,430,move_down,-0.320,-0.320,-0.320,0.000,0.000,0.000
1605185876754195968,10.0.1.125,391,move_down,-0.340,-0.340,-0.340,0.000,0.000,0.000
1605185878308604928,10.0.1.125,460,move_down,-0.360,-0.360,-0.360,0.000,0.000,0.000
1605185879811481088,10.0.1.125,429,move_down,-0.380,-0.380,-0.380,0.000,0.000,0.000
1605185881273667072,10.0.1.125,398,move_down,-0.400,-0.400,-0.400,0.000,0.000,0.000
1605185882737006848,10.0.1.125,378,move_down,-0.420,-0.420,-0.420,0.000,0.000,0.000
1605185884250221056,10.0.1.125,442,move_down,-0.440,-0.440,-0.440,0.000,0.000,0.000
1605185885758696192,10.0.1.125,439,move_down,-0.460,-0.460,-0.460,0.000,0.000,0.000
1605185887257639936,10.0.1.125,444,move_down,-0.480,-0.480,-0.480,0.000,0.000,0.000
1605185888769381888,10.0.1.125,439,move_down,-0.500,-0.500,-0.500,0.000,0.000,0.000
1605185890292102144,10.0.1.125,469,move_down,-0.520,-0.520,-0.520,0.000,0.000,0.000
1605185891813189120,10.0.1.125,445,move_down,-0.540,-0.540,-0.540,0.000,0.000,0.000
1605185893340343040,10.0.1.125,455,move_down,-0.560,-0.560,-0.560,0.000,0.000,0.000
1605185894798405888,10.0.1.125,415,move_down,-0.580,-0.580,-0.580,0.000,0.000,0.000
1605185895919164928,10.0.1.125,49,pick,-0.590,-0.590,-0.590,0.000,0.000,0.000
1605185896925220864,10.0.1.125,54,pick,-0.600,-0.600,-0.600,0.000,0.000,0.000
1605185897912626944,10.0.1.125,41,pick,-0.610,-0.610,-0.610,0.000,0.000,0.000
1605185898920023040,10.0.1.125,46,pick,-0.620,-0.620,-0.620,0.000,0.000,0.000
1605185899920669184,10.0.1.125,47,pick,-0.630,-0.630,-0.630,0.000,0.000,0.000
1605185900918590976,10.0.1.125,43,pick,-0.640,-0.640,-0.640,0.000,0.000,0.000
1605185901917465856,10.0.1.125,40,pick,-0.650,-0.650,-0.650,0.000,0.000,0.000
1605185902920463104,10.0.1.125,40,pick,-0.660,-0.660,-0.660,0.000,0.000,0.000
1605185903923654912,10.0.1.125,42,pick,-0.670,-0.670,-0.670,0.000,0.000,0.000
1605185904917366016,10.0.1.125,35,pick,-0.680,-0.680,-0.680,0.000,0.000,0.000
1605185905937046016,10.0.1.125,53,pick,-0.690,-0.690,-0.690,0.000,0.000,0.000
1605185906917027072,10.0.1.125,32,pick,-0.700,-0.700,-0.700,0.000,0.000,0.000
1605185907940809984,10.0.1.125,54,pick,-0.710,-0.710,-0.710,0.000,0.000,0.000
1605185908937478144,10.0.1.125,49,pick,-0.720,-0.720,-0.720,0.000,0.000,0.000
1605185910889969152,10.0.1.125,NaN,pick,-0.740,-0.740,-0.740,0.000,0.000,0.000
1605185910936744960,10.0.1.125,46,pick,-0.740,-0.740,-0.740,0.000,0.000,0.000
1605185911937508096,10.0.1.125,46,pick,-0.750,-0.750,-0.750,0.000,0.000,0.000
1605185912939158016,10.0.1.125,47,pick,-0.760,-0.760,-0.760,0.000,0.000,0.000
1605185914895533056,10.0.1.125,NaN,move_up,-0.750,-0.750,-0.750,0.000,0.000,0.000
1605185915246094080,10.0.1.125,350,move_up,-0.750,-0.750,-0.750,0.000,0.000,0.000
1605185916737190912,10.0.1.125,435,move_up,-0.730,-0.730,-0.730,0.000,0.000,0.000
1605185918219917056,10.0.1.125,408,move_up,-0.710,-0.710,-0.710,0.000,0.000,0.000
1605185919724016896,10.0.1.125,405,move_up,-0.690,-0.690,-0.690,0.000,0.000,0.000
1605185921171649024,10.0.1.125,382,move_up,-0.670,-0.670,-0.670,0.000,0.000,0.000
1605185922607533056,10.0.1.125,394,move_up,-0.650,-0.650,-0.650,0.000,0.000,0.000
1605185924153043968,10.0.1.125,452,move_up,-0.630,-0.630,-0.630,0.000,0.000,0.000
1605185925635441920,10.0.1.125,420,move_up,-0.610,-0.610,-0.610,0.000,0.000,0.000
1605185927137253120,10.0.1.125,418,move_up,-0.590,-0.590,-0.590,0.000,0.000,0.000
1605185928608306944,10.0.1.125,385,move_up,-0.570,-0.570,-0.570,0.000,0.000,0.000
1605185930148727808,10.0.1.125,437,move_up,-0.550,-0.550,-0.550,0.000,0.000,0.000
1605185931617278208,10.0.1.125,423,move_up,-0.530,-0.530,-0.530,0.000,0.000,0.000
1605185933090928128,10.0.1.125,384,move_up,-0.510,-0.510,-0.510,0.000,0.000,0.000
1605185934538609920,10.0.1.125,407,move_up,-0.490,-0.490,-0.490,0.000,0.000,0.000
1605185936041416960,10.0.1.125,429,move_up,-0.470,-0.470,-0.470,0.000,0.000,0.000
1605185937496953856,10.0.1.125,397,move_up,-0.450,-0.450,-0.450,0.000,0.000,0.000
1605185939007070976,10.0.1.125,420,move_up,-0.430,-0.430,-0.430,0.000,0.000,0.000
1605185940442193920,10.0.1.125,377,move_up,-0.410,-0.410,-0.410,0.000,0.000,0.000
1605185941935206912,10.0.1.125,385,move_up,-0.390,-0.390,-0.390,0.000,0.000,0.000
1605185943472641024,10.0.1.125,457,move_up,-0.370,-0.370,-0.370,0.000,0.000,0.000
1605185944909734912,10.0.1.125,399,move_up,-0.350,-0.350,-0.350,0.000,0.000,0.000
1605185946371642112,10.0.1.125,413,move_up,-0.330,-0.330,-0.330,0.000,0.000,0.000
1605185947817193984,10.0.1.125,407,move_up,-0.310,-0.310,-0.310,0.000,0.000,0.000
1605185949283747072,10.0.1.125,398,move_up,-0.290,-0.290,-0.290,0.000,0.000,0.000
1605185950836709120,10.0.1.125,465,move_up,-0.270,-0.270,-0.270,0.000,0.000,0.000
1605185952327918080,10.0.1.125,434,move_up,-0.250,-0.250,-0.250,0.000,0.000,0.000
1605185953896985088,10.0.1.125,493,move_up,-0.230,-0.230,-0.230,0.000,0.000,0.000
1605185955451982848,10.0.1.125,457,move_up,-0.210,-0.210,-0.210,0.000,0.000,0.000
1605185956958936832,10.0.1.125,427,move_up,-0.190,-0.190,-0.190,0.000,0.000,0.000
1605185958096443904,10.0.1.125,44,place,-0.180,-0.180,-0.180,0.000,0.000,0.000
1605185959092143104,10.0.1.125,39,place,-0.170,-0.170,-0.170,0.000,0.000,0.000
1605185960099479808,10.0.1.125,40,place,-0.160,-0.160,-0.160,0.000,0.000,0.000
1605185961097016064,10.0.1.125,36,place,-0.150,-0.150,-0.150,0.000,0.000,0.000
1605185962097820160,10.0.1.125,35,place,-0.140,-0.140,-0.140,0.000,0.000,0.000
1605185963099262976,10.0.1.125,35,place,-0.130,-0.130,-0.130,0.000,0.000,0.000
1605185964098024960,10.0.1.125,33,place,-0.120,-0.120,-0.120,0.000,0.000,0.000
1605185965096793856,10.0.1.125,31,place,-0.110,-0.110,-0.110,0.000,0.000,0.000
1605185966117850112,10.0.1.125,50,place,-0.100,-0.100,-0.100,0.000,0.000,0.000
1605185967116854784,10.0.1.125,47,place,-0.090,-0.090,-0.090,0.000,0.000,0.000
1605185968117934080,10.0.1.125,44,place,-0.080,-0.080,-0.080,0.000,0.000,0.000
1605185969117700096,10.0.1.125,42,place,-0.070,-0.070,-0.070,0.000,0.000,0.000
1605185970117389824,10.0.1.125,41,place,-0.060,-0.060,-0.060,0.000,0.000,0.000
1605185971119972864,10.0.1.125,43,place,-0.050,-0.050,-0.050,0.000,0.000,0.000
1605185972118498048,10.0.1.125,38,place,-0.040,-0.040,-0.040,0.000,0.000,0.000
1605185973146220032,10.0.1.125,65,place,-0.030,-0.030,-0.030,0.000,0.000,0.000
1605185974120263936,10.0.1.125,37,place,-0.020,-0.020,-0.020,0.000,0.000,0.000
1605185975126041856,10.0.1.125,42,place,-0.010,-0.010,-0.010,0.000,0.000,0.000
1605185976131854080,10.0.1.125,45,place,0.000,0.000,0.000,0.000,0.000,0.000
1605185977535258112,10.0.1.125,447,move_down,-0.020,-0.020,-0.020,0.000,0.000,0.000
1605185979007461120,10.0.1.125,395,move_down,-0.040,-0.040,-0.040,0.000,0.000,0.000
1605185980496683008,10.0.1.125,401,move_down,-0.060,-0.060,-0.060,0.000,0.000,0.000
1605185981957400064,10.0.1.125,394,move_down,-0.080,-0.080,-0.080,0.000,0.000,0.000
1605185983448268800,10.0.1.125,408,move_down,-0.100,-0.100,-0.100,0.000,0.000,0.000
1605185984949473024,10.0.1.125,430,move_down,-0.120,-0.120,-0.120,0.000,0.000,0.000
1605185986379333888,10.0.1.125,395,move_down,-0.140,-0.140,-0.140,0.000,0.000,0.000
1605185987888703232,10.0.1.125,422,move_down,-0.160,-0.160,-0.160,0.000,0.000,0.000
1605185989386744064,10.0.1.125,432,move_down,-0.180,-0.180,-0.180,0.000,0.000,0.000
1605185990930167040,10.0.1.125,437,move_down,-0.200,-0.200,-0.200,0.000,0.000,0.000
1605185992466466048,10.0.1.125,446,move_down,-0.220,-0.220,-0.220,0.000,0.000,0.000
1605185993952781056,10.0.1.125,400,move_down,-0.240,-0.240,-0.240,0.000,0.000,0.000
1605185995492670976,10.0.1.125,446,move_down,-0.260,-0.260,-0.260,0.000,0.000,0.000
1605185997048065024,10.0.1.125,497,move_down,-0.280,-0.280,-0.280,0.000,0.000,0.000
1605185998493730048,10.0.1.125,412,move_down,-0.300,-0.300,-0.300,0.000,0.000,0.000
1605186000010138880,10.0.1.125,404,move_down,-0.320,-0.320,-0.320,0.000,0.000,0.000
1605186001511337984,10.0.1.125,387,move_down,-0.340,-0.340,-0.340,0.000,0.000,0.000
1605186003052578048,10.0.1.125,441,move_down,-0.360,-0.360,-0.360,0.000,0.000,0.000
1605186004550242048,10.0.1.125,419,move_down,-0.380,-0.380,-0.380,0.000,0.000,0.000
1605186006073235968,10.0.1.125,428,move_down,-0.400,-0.400,-0.400,0.000,0.000,0.000
1605186007542368768,10.0.1.125,415,move_down,-0.420,-0.420,-0.420,0.000,0.000,0.000
1605186008988401920,10.0.1.125,434,move_down,-0.440,-0.440,-0.440,0.000,0.000,0.000
1605186010570113792,10.0.1.125,465,move_down,-0.460,-0.460,-0.460,0.000,0.000,0.000
1605186012127651072,10.0.1.125,489,move_down,-0.480,-0.480,-0.480,0.000,0.000,0.000
1605186013678010880,10.0.1.125,465,move_down,-0.500,-0.500,-0.500,0.000,0.000,0.000
1605186015167872000,10.0.1.125,416,move_down,-0.520,-0.520,-0.520,0.000,0.000,0.000
1605186016687372800,10.0.1.125,404,move_down,-0.540,-0.540,-0.540,0.000,0.000,0.000
1605186018162565120,10.0.1.125,399,move_down,-0.560,-0.560,-0.560,0.000,0.000,0.000
1605186019609838080,10.0.1.125,400,move_down,-0.580,-0.580,-0.580,0.000,0.000,0.000
1605186020731086848,10.0.1.125,36,pick,-0.590,-0.590,-0.590,0.000,0.000,0.000
1605186021736365056,10.0.1.125,40,pick,-0.600,-0.600,-0.600,0.000,0.000,0.000
1605186022734337024,10.0.1.125,37,pick,-0.610,-0.610,-0.610,0.000,0.000,0.000
1605186023738822912,10.0.1.125,40,pick,-0.620,-0.620,-0.620,0.000,0.000,0.000
1605186024755013888,10.0.1.125,55,pick,-0.630,-0.630,-0.630,0.000,0.000,0.000
1605186025735901184,10.0.1.125,34,pick,-0.640,-0.640,-0.640,0.000,0.000,0.000
1605186026748986112,10.0.1.125,46,pick,-0.650,-0.650,-0.650,0.000,0.000,0.000
1605186027749999104,10.0.1.125,46,pick,-0.660,-0.660,-0.660,0.000,0.000,0.000
1605186028753426944,10.0.1.125,48,pick,-0.670,-0.670,-0.670,0.000,0.000,0.000
1605186029754483968,10.0.1.125,48,pick,-0.680,-0.680,-0.680,0.000,0.000,0.000
1605186030753849088,10.0.1.125,46,pick,-0.690,-0.690,-0.690,0.000,0.000,0.000
1605186031756762880,10.0.1.125,47,pick,-0.700,-0.700,-0.700,0.000,0.000,0.000
1605186032755358976,10.0.1.125,45,pick,-0.710,-0.710,-0.710,0.000,0.000,0.000
1605186033753779968,10.0.1.125,42,pick,-0.720,-0.720,-0.720,0.000,0.000,0.000
1605186034774077952,10.0.1.125,61,pick,-0.730,-0.730,-0.730,0.000,0.000,0.000
1605186035758255872,10.0.1.125,43,pick,-0.740,-0.740,-0.740,0.000,0.000,0.000
1605186036761624064,10.0.1.125,46,pick,-0.750,-0.750,-0.750,0.000,0.000,0.000
1605186037756228096,10.0.1.125,39,pick,-0.760,-0.760,-0.760,0.000,0.000,0.000
1605186038773601024,10.0.1.125,55,pick,-0.770,-0.770,-0.770,0.000,0.000,0.000
1605186040115592960,10.0.1.125,396,move_up,-0.750,-0.750,-0.750,0.000,0.000,0.000
1605186041626228992,10.0.1.125,411,move_up,-0.730,-0.730,-0.730,0.000,0.000,0.000
1605186043135618816,10.0.1.125,415,move_up,-0.710,-0.710,-0.710,0.000,0.000,0.000
1605186044692060928,10.0.1.125,433,move_up,-0.690,-0.690,-0.690,0.000,0.000,0.000
1605186046217630976,10.0.1.125,425,move_up,-0.670,-0.670,-0.670,0.000,0.000,0.000
1605186047665394176,10.0.1.125,421,move_up,-0.650,-0.650,-0.650,0.000,0.000,0.000
1605186049266057984,10.0.1.125,500,move_up,-0.630,-0.630,-0.630,0.000,0.000,0.000
1605186050743553024,10.0.1.125,413,move_up,-0.610,-0.610,-0.610,0.000,0.000,0.000
1605186052262861056,10.0.1.125,433,move_up,-0.590,-0.590,-0.590,0.000,0.000,0.000
1605186053801990144,10.0.1.125,476,move_up,-0.570,-0.570,-0.570,0.000,0.000,0.000
1605186055321156096,10.0.1.125,442,move_up,-0.550,-0.550,-0.550,0.000,0.000,0.000
1605186056816375040,10.0.1.125,450,move_up,-0.530,-0.530,-0.530,0.000,0.000,0.000
1605186058351697920,10.0.1.125,458,move_up,-0.510,-0.510,-0.510,0.000,0.000,0.000
1605186059898859008,10.0.1.125,455,move_up,-0.490,-0.490,-0.490,0.000,0.000,0.000
1605186061351789056,10.0.1.125,389,move_up,-0.470,-0.470,-0.470,0.000,0.000,0.000
1605186062804773120,10.0.1.125,407,move_up,-0.450,-0.450,-0.450,0.000,0.000,0.000
1605186064312418816,10.0.1.125,434,move_up,-0.430,-0.430,-0.430,0.000,0.000,0.000
1605186065802119936,10.0.1.125,406,move_up,-0.410,-0.410,-0.410,0.000,0.000,0.000
1605186067304420864,10.0.1.125,408,move_up,-0.390,-0.390,-0.390,0.000,0.000,0.000
1605186068890487808,10.0.1.125,495,move_up,-0.370,-0.370,-0.370,0.000,0.000,0.000
1605186070404546048,10.0.1.125,427,move_up,-0.350,-0.350,-0.350,0.000,0.000,0.000
1605186071912893952,10.0.1.125,419,move_up,-0.330,-0.330,-0.330,0.000,0.000,0.000
1605186073442917120,10.0.1.125,470,move_up,-0.310,-0.310,-0.310,0.000,0.000,0.000
1605186074987168000,10.0.1.125,505,move_up,-0.290,-0.290,-0.290,0.000,0.000,0.000
1605186076446929920,10.0.1.125,439,move_up,-0.270,-0.270,-0.270,0.000,0.000,0.000
1605186077933449984,10.0.1.125,404,move_up,-0.250,-0.250,-0.250,0.000,0.000,0.000
1605186079505197056,10.0.1.125,458,move_up,-0.230,-0.230,-0.230,0.000,0.000,0.000
1605186081012317952,10.0.1.125,404,move_up,-0.210,-0.210,-0.210,0.000,0.000,0.000
1605186082493371904,10.0.1.125,423,move_up,-0.190,-0.190,-0.190,0.000,0.000,0.000
1605186083632133120,10.0.1.125,44,place,-0.180,-0.180,-0.180,0.000,0.000,0.000
1605186084647564032,10.0.1.125,58,place,-0.170,-0.170,-0.170,0.000,0.000,0.000
1605186085635348992,10.0.1.125,44,place,-0.160,-0.160,-0.160,0.000,0.000,0.000
1605186086664923904,10.0.1.125,72,place,-0.150,-0.150,-0.150,0.000,0.000,0.000
1605186087648859904,10.0.1.125,55,place,-0.140,-0.140,-0.140,0.000,0.000,0.000
1605186088644818176,10.0.1.125,48,place,-0.130,-0.130,-0.130,0.000,0.000,0.000
1605186089646013952,10.0.1.125,48,place,-0.120,-0.120,-0.120,0.000,0.000,0.000
1605186090648887040,10.0.1.125,50,place,-0.110,-0.110,-0.110,0.000,0.000,0.000
1605186091639975936,10.0.1.125,40,place,-0.100,-0.100,-0.100,0.000,0.000,0.000
1605186092640913920,10.0.1.125,39,place,-0.090,-0.090,-0.090,0.000,0.000,0.000
1605186093661725952,10.0.1.125,58,place,-0.080,-0.080,-0.080,0.000,0.000,0.000
1605186094660267008,10.0.1.125,55,place,-0.070,-0.070,-0.070,0.000,0.000,0.000
1605186095656728064,10.0.1.125,50,place,-0.060,-0.060,-0.060,0.000,0.000,0.000
1605186096666578176,10.0.1.125,59,place,-0.050,-0.050,-0.050,0.000,0.000,0.000
1605186097656652032,10.0.1.125,47,place,-0.040,-0.040,-0.040,0.000,0.000,0.000
1605186098664529152,10.0.1.125,54,place,-0.030,-0.030,-0.030,0.000,0.000,0.000
1605186099662422016,10.0.1.125,50,place,-0.020,-0.020,-0.020,0.000,0.000,0.000
1605186100657739008,10.0.1.125,44,place,-0.010,-0.010,-0.010,0.000,0.000,0.000
1605186101662324992,10.0.1.125,47,place,0.000,0.000,0.000,0.000,0.000,0.000
1605186103054755072,10.0.1.125,439,move_down,-0.020,-0.020,-0.020,0.000,0.000,0.000
1605186104551024896,10.0.1.125,415,move_down,-0.040,-0.040,-0.040,0.000,0.000,0.000
1605186106096429056,10.0.1.125,444,move_down,-0.060,-0.060,-0.060,0.000,0.000,0.000
1605186107533457920,10.0.1.125,412,move_down,-0.080,-0.080,-0.080,0.000,0.000,0.000
1605186109063011840,10.0.1.125,405,move_down,-0.100,-0.100,-0.100,0.000,0.000,0.000
1605186110559314944,10.0.1.125,465,move_down,-0.120,-0.120,-0.120,0.000,0.000,0.000
1605186112066306048,10.0.1.125,416,move_down,-0.140,-0.140,-0.140,0.000,0.000,0.000
1605186113574219008,10.0.1.125,445,move_down,-0.160,-0.160,-0.160,0.000,0.000,0.000
1605186115055322880,10.0.1.125,405,move_down,-0.180,-0.180,-0.180,0.000,0.000,0.000
1605186116643220992,10.0.1.125,504,move_down,-0.200,-0.200,-0.200,0.000,0.000,0.000
1605186118211750144,10.0.1.125,438,move_down,-0.220,-0.220,-0.220,0.000,0.000,0.000
1605186119660823040,10.0.1.125,444,move_down,-0.240,-0.240,-0.240,0.000,0.000,0.000
1605186121177069824,10.0.1.125,453,move_down,-0.260,-0.260,-0.260,0.000,0.000,0.000
1605186122668088064,10.0.1.125,406,move_down,-0.280,-0.280,-0.280,0.000,0.000,0.000
1605186124186373120,10.0.1.125,432,move_down,-0.300,-0.300,-0.300,0.000,0.000,0.000
1605186125678715904,10.0.1.125,428,move_down,-0.320,-0.320,-0.320,0.000,0.000,0.000
1605186127229176064,10.0.1.125,456,move_down,-0.340,-0.340,-0.340,0.000,0.000,0.000
1605186128708240128,10.0.1.125,407,move_down,-0.360,-0.360,-0.360,0.000,0.000,0.000
1605186130187153152,10.0.1.125,403,move_down,-0.380,-0.380,-0.380,0.000,0.000,0.000
1605186131706203904,10.0.1.125,440,move_down,-0.400,-0.400,-0.400,0.000,0.000,0.000
1605186133149108992,10.0.1.125,386,move_down,-0.420,-0.420,-0.420,0.000,0.000,0.000
1605186134626418944,10.0.1.125,449,move_down,-0.440,-0.440,-0.440,0.000,0.000,0.000
1605186136128339968,10.0.1.125,421,move_down,-0.460,-0.460,-0.460,0.000,0.000,0.000
1605186137666397952,10.0.1.125,444,move_down,-0.480,-0.480,-0.480,0.000,0.000,0.000
1605186139176794880,10.0.1.125,409,move_down,-0.500,-0.500,-0.500,0.000,0.000,0.000
1605186140657104896,10.0.1.125,394,move_down,-0.520,-0.520,-0.520,0.000,0.000,0.000
1605186142149542144,10.0.1.125,408,move_down,-0.540,-0.540,-0.540,0.000,0.000,0.000
1605186143636069120,10.0.1.125,443,move_down,-0.560,-0.560,-0.560,0.000,0.000,0.000
1605186145108023808,10.0.1.125,402,move_down,-0.580,-0.580,-0.580,0.000,0.000,0.000
1605186146170120960,10.0.1.125,45,pick,-0.590,-0.590,-0.590,0.000,0.000,0.000
1605186147166888960,10.0.1.125,40,pick,-0.600,-0.600,-0.600,0.000,0.000,0.000
1605186148166856960,10.0.1.125,39,pick,-0.610,-0.610,-0.610,0.000,0.000,0.000
1605186149165370880,10.0.1.125,36,pick,-0.620,-0.620,-0.620,0.000,0.000,0.000
1605186150174475008,10.0.1.125,44,pick,-0.630,-0.630,-0.630,0.000,0.000,0.000
1605186151165553152,10.0.1.125,34,pick,-0.640,-0.640,-0.640,0.000,0.000,0.000
1605186152169244160,10.0.1.125,36,pick,-0.650,-0.650,-0.650,0.000,0.000,0.000
1605186153190238976,10.0.1.125,56,pick,-0.660,-0.660,-0.660,0.000,0.000,0.000
1605186154188173056,10.0.1.125,52,pick,-0.670,-0.670,-0.670,0.000,0.000,0.000
1605186155186456064,10.0.1.125,49,pick,-0.680,-0.680,-0.680,0.000,0.000,0.000
1605186156186160128,10.0.1.125,48,pick,-0.690,-0.690,-0.690,0.000,0.000,0.000
1605186157186754048,10.0.1.125,47,pick,-0.700,-0.700,-0.700,0.000,0.000,0.000
1605186158189693952,10.0.1.125,49,pick,-0.710,-0.710,-0.710,0.000,0.000,0.000
1605186159185734144,10.0.1.125,43,pick,-0.720,-0.720,-0.720,0.000,0.000,0.000
1605186160184706816,10.0.1.125,41,pick,-0.730,-0.730,-0.730,0.000,0.000,0.000
1605186162146049024,10.0.1.125,NaN,pick,-0.750,-0.750,-0.750,0.000,0.000,0.000
1605186162180610048,10.0.1.125,34,pick,-0.750,-0.750,-0.750,0.000,0.000,0.000
1605186163191319040,10.0.1.125,43,pick,-0.760,-0.760,-0.760,0.000,0.000,0.000
1605186164200925184,10.0.1.125,52,pick,-0.770,-0.770,-0.770,0.000,0.000,0.000
1605186165657233920,10.0.1.125,495,move_up,-0.750,-0.750,-0.750,0.000,0.000,0.000
1605186167250555904,10.0.1.125,530,move_up,-0.730,-0.730,-0.730,0.000,0.000,0.000
1605186168732749824,10.0.1.125,394,move_up,-0.710,-0.710,-0.710,0.000,0.000,0.000
1605186170248462848,10.0.1.125,451,move_up,-0.690,-0.690,-0.690,0.000,0.000,0.000
1605186171713519104,10.0.1.125,394,move_up,-0.670,-0.670,-0.670,0.000,0.000,0.000
1605186173213830912,10.0.1.125,402,move_up,-0.650,-0.650,-0.650,0.000,0.000,0.000
1605186174693864192,10.0.1.125,398,move_up,-0.630,-0.630,-0.630,0.000,0.000,0.000
1605186176192092928,10.0.1.125,416,move_up,-0.610,-0.610,-0.610,0.000,0.000,0.000
1605186177700082176,10.0.1.125,413,move_up,-0.590,-0.590,-0.590,0.000,0.000,0.000
1605186179162002944,10.0.1.125,395,move_up,-0.570,-0.570,-0.570,0.000,0.000,0.000
1605186180623616000,10.0.1.125,406,move_up,-0.550,-0.550,-0.550,0.000,0.000,0.000
1605186182152740864,10.0.1.125,446,move_up,-0.530,-0.530,-0.530,0.000,0.000,0.000
1605186183706751232,10.0.1.125,464,move_up,-0.510,-0.510,-0.510,0.000,0.000,0.000
1605186185202137856,10.0.1.125,402,move_up,-0.490,-0.490,-0.490,0.000,0.000,0.000
1605186186802146048,10.0.1.125,482,move_up,-0.470,-0.470,-0.470,0.000,0.000,0.000
1605186188349037056,10.0.1.125,472,move_up,-0.450,-0.450,-0.450,0.000,0.000,0.000
1605186189753211136,10.0.1.125,390,move_up,-0.430,-0.430,-0.430,0.000,0.000,0.000
1605186191335556096,10.0.1.125,485,move_up,-0.410,-0.410,-0.410,0.000,0.000,0.000
1605186192905327104,10.0.1.125,480,move_up,-0.390,-0.390,-0.390,0.000,0.000,0.000
1605186194422182912,10.0.1.125,434,move_up,-0.370,-0.370,-0.370,0.000,0.000,0.000
1605186195937291008,10.0.1.125,448,move_up,-0.350,-0.350,-0.350,0.000,0.000,0.000
1605186197493747968,10.0.1.125,470,move_up,-0.330,-0.330,-0.330,0.000,0.000,0.000
1605186198969997056,10.0.1.125,441,move_up,-0.310,-0.310,-0.310,0.000,0.000,0.000
1605186200503032064,10.0.1.125,423,move_up,-0.290,-0.290,-0.290,0.000,0.000,0.000
1605186202008647936,10.0.1.125,419,move_up,-0.270,-0.270,-0.270,0.000,0.000,0.000
1605186203499339008,10.0.1.125,458,move_up,-0.250,-0.250,-0.250,0.000,0.000,0.000
1605186205087899904,10.0.1.125,512,move_up,-0.230,-0.230,-0.230,0.000,0.000,0.000
1605186206611463168,10.0.1.125,407,move_up,-0.210,-0.210,-0.210,0.000,0.000,0.000
1605186208197411072,10.0.1.125,458,move_up,-0.190,-0.190,-0.190,0.000,0.000,0.000
1605186209287589120,10.0.1.125,49,place,-0.180,-0.180,-0.180,0.000,0.000,0.000
1605186210282187008,10.0.1.125,42,place,-0.170,-0.170,-0.170,0.000,0.000,0.000
1605186211283081984,10.0.1.125,41,place,-0.160,-0.160,-0.160,0.000,0.000,0.000
1605186212280684032,10.0.1.125,37,place,-0.150,-0.150,-0.150,0.000,0.000,0.000
1605186213281836032,10.0.1.125,36,place,-0.140,-0.140,-0.140,0.000,0.000,0.000
1605186214298483968,10.0.1.125,49,place,-0.130,-0.130,-0.130,0.000,0.000,0.000
1605186215303760128,10.0.1.125,53,place,-0.120,-0.120,-0.120,0.000,0.000,0.000
1605186216298427136,10.0.1.125,33,place,-0.110,-0.110,-0.110,0.000,0.000,0.000
1605186217301625088,10.0.1.125,35,place,-0.100,-0.100,-0.100,0.000,0.000,0.000
1605186218317949184,10.0.1.125,50,place,-0.090,-0.090,-0.090,0.000,0.000,0.000
1605186219320472064,10.0.1.125,50,place,-0.080,-0.080,-0.080,0.000,0.000,0.000
1605186220320653056,10.0.1.125,50,place,-0.070,-0.070,-0.070,0.000,0.000,0.000
1605186221317286912,10.0.1.125,45,place,-0.060,-0.060,-0.060,0.000,0.000,0.000
1605186222316862208,10.0.1.125,43,place,-0.050,-0.050,-0.050,0.000,0.000,0.000
1605186223319603968,10.0.1.125,45,place,-0.040,-0.040,-0.040,0.000,0.000,0.000
1605186224323133952,10.0.1.125,44,place,-0.030,-0.030,-0.030,0.000,0.000,0.000
1605186225324465152,10.0.1.125,40,place,-0.020,-0.020,-0.020,0.000,0.000,0.000
1605186226317105920,10.0.1.125,32,place,-0.010,-0.010,-0.010,0.000,0.000,0.000
1605186227341186048,10.0.1.125,54,place,0.000,0.000,0.000,0.000,0.000,0.000
1605186228748089088,10.0.1.125,460,move_down,-0.020,-0.020,-0.020,0.000,0.000,0.000
1605186230518704896,10.0.1.125,607,move_down,-0.040,-0.040,-0.040,0.000,0.000,0.000
1605186232113131008,10.0.1.125,501,move_down,-0.060,-0.060,-0.060,0.000,0.000,0.000
1605186233684425984,10.0.1.125,452,move_down,-0.080,-0.080,-0.080,0.000,0.000,0.000
1605186235328505088,10.0.1.125,516,move_down,-0.100,-0.100,-0.100,0.000,0.000,0.000
1605186236967377920,10.0.1.125,556,move_down,-0.120,-0.120,-0.120,0.000,0.000,0.000
1605186238466862080,10.0.1.125,431,move_down,-0.140,-0.140,-0.140,0.000,0.000,0.000
1605186240132088064,10.0.1.125,508,move_down,-0.160,-0.160,-0.160,0.000,0.000,0.000
1605186241625967104,10.0.1.125,457,move_down,-0.180,-0.180,-0.180,0.000,0.000,0.000
1605186243091179008,10.0.1.125,392,move_down,-0.200,-0.200,-0.200,0.000,0.000,0.000
1605186244611087104,10.0.1.125,488,move_down,-0.220,-0.220,-0.220,0.000,0.000,0.000
1605186246085197056,10.0.1.125,438,move_down,-0.240,-0.240,-0.240,0.000,0.000,0.000
1605186247598722048,10.0.1.125,430,move_down,-0.260,-0.260,-0.260,0.000,0.000,0.000
1605186249127337984,10.0.1.125,440,move_down,-0.280,-0.280,-0.280,0.000,0.000,0.000
1605186250665353984,10.0.1.125,457,move_down,-0.300,-0.300,-0.300,0.000,0.000,0.000
1605186252149018880,10.0.1.125,414,move_down,-0.320,-0.320,-0.320,0.000,0.000,0.000
1605186253701011968,10.0.1.125,481,move_down,-0.340,-0.340,-0.340,0.000,0.000,0.000
1605186255200155904,10.0.1.125,434,move_down,-0.360,-0.360,-0.360,0.000,0.000,0.000
1605186256816699904,10.0.1.125,437,move_down,-0.380,-0.380,-0.380,0.000,0.000,0.000
1605186258333070080,10.0.1.125,418,move_down,-0.400,-0.400,-0.400,0.000,0.000,0.000
1605186259823838976,10.0.1.125,430,move_down,-0.420,-0.420,-0.420,0.000,0.000,0.000
1605186261319940096,10.0.1.125,475,move_down,-0.440,-0.440,-0.440,0.000,0.000,0.000
1605186262914556928,10.0.1.125,454,move_down,-0.460,-0.460,-0.460,0.000,0.000,0.000
1605186264422905856,10.0.1.125,429,move_down,-0.480,-0.480,-0.480,0.000,0.000,0.000
1605186265900207104,10.0.1.125,394,move_down,-0.500,-0.500,-0.500,0.000,0.000,0.000
1605186267369697024,10.0.1.125,437,move_down,-0.520,-0.520,-0.520,0.000,0.000,0.000
1605186268930123008,10.0.1.125,436,move_down,-0.540,-0.540,-0.540,0.000,0.000,0.000
1605186270519849984,10.0.1.125,449,move_down,-0.560,-0.560,-0.560,0.000,0.000,0.000
1605186271976856064,10.0.1.125,409,move_down,-0.580,-0.580,-0.580,0.000,0.000,0.000
1605186273053078016,10.0.1.125,62,pick,-0.590,-0.590,-0.590,0.000,0.000,0.000
1605186274047961856,10.0.1.125,52,pick,-0.600,-0.600,-0.600,0.000,0.000,0.000
1605186275044007936,10.0.1.125,47,pick,-0.610,-0.610,-0.610,0.000,0.000,0.000
1605186276062312960,10.0.1.125,55,pick,-0.620,-0.620,-0.620,0.000,0.000,0.000
1605186277058990848,10.0.1.125,50,pick,-0.630,-0.630,-0.630,0.000,0.000,0.000
1605186278060538112,10.0.1.125,51,pick,-0.640,-0.640,-0.640,0.000,0.000,0.000
1605186279068263168,10.0.1.125,56,pick,-0.650,-0.650,-0.650,0.000,0.000,0.000
1605186280058942976,10.0.1.125,45,pick,-0.660,-0.660,-0.660,0.000,0.000,0.000
1605186281063062016,10.0.1.125,48,pick,-0.670,-0.670,-0.670,0.000,0.000,0.000
1605186282065538816,10.0.1.125,47,pick,-0.680,-0.680,-0.680,0.000,0.000,0.000
1605186283066520064,10.0.1.125,47,pick,-0.690,-0.690,-0.690,0.000,0.000,0.000
1605186284063618816,10.0.1.125,42,pick,-0.700,-0.700,-0.700,0.000,0.000,0.000
1605186285069816064,10.0.1.125,47,pick,-0.710,-0.710,-0.710,0.000,0.000,0.000
1605186286065076224,10.0.1.125,41,pick,-0.720,-0.720,-0.720,0.000,0.000,0.000
1605186287081516032,10.0.1.125,45,pick,-0.730,-0.730,-0.730,0.000,0.000,0.000
1605186288084794880,10.0.1.125,39,pick,-0.740,-0.740,-0.740,0.000,0.000,0.000
1605186289085827072,10.0.1.125,35,pick,-0.750,-0.750,-0.750,0.000,0.000,0.000
1605186290084211968,10.0.1.125,32,pick,-0.760,-0.760,-0.760,0.000,0.000,0.000
1605186291103128064,10.0.1.125,50,pick,-0.770,-0.770,-0.770,0.000,0.000,0.000
1605186292464077824,10.0.1.125,409,move_up,-0.750,-0.750,-0.750,0.000,0.000,0.000
1605186294034835200,10.0.1.125,460,move_up,-0.730,-0.730,-0.730,0.000,0.000,0.000
1605186295586422016,10.0.1.125,475,move_up,-0.710,-0.710,-0.710,0.000,0.000,0.000
1605186297109549056,10.0.1.125,428,move_up,-0.690,-0.690,-0.690,0.000,0.000,0.000
1605186298642221056,10.0.1.125,470,move_up,-0.670,-0.670,-0.670,0.000,0.000,0.000
1605186300166384896,10.0.1.125,466,move_up,-0.650,-0.650,-0.650,0.000,0.000,0.000
1605186301764097024,10.0.1.125,519,move_up,-0.630,-0.630,-0.630,0.000,0.000,0.000
1605186303315236096,10.0.1.125,443,move_up,-0.610,-0.610,-0.610,0.000,0.000,0.000
1605186304880787968,10.0.1.125,463,move_up,-0.590,-0.590,-0.590,0.000,0.000,0.000
1605186306438472960,10.0.1.125,454,move_up,-0.570,-0.570,-0.570,0.000,0.000,0.000
1605186308045011968,10.0.1.125,419,move_up,-0.550,-0.550,-0.550,0.000,0.000,0.000
1605186309580750848,10.0.1.125,462,move_up,-0.530,-0.530,-0.530,0.000,0.000,0.000
1605186311088646912,10.0.1.125,452,move_up,-0.510,-0.510,-0.510,0.000,0.000,0.000
