milangroshev/digital-twin-scalability/logs/run4-300s-nan/10.0.1.134.csv
timestamp,node,latency,action,joint_1,joint_2,joint_3,joint_4,joint_5,joint_6
1605185860263032064,10.0.1.134,NaN,,0.000,0.000,0.000,0.000,0.000,0.000
1605185862277255936,10.0.1.134,2014,,0.000,0.000,0.000,0.000,0.000,0.000
1605185864934639872,10.0.1.134,664,move_down,-0.020,-0.020,-0.020,0.000,0.000,0.000
1605185866456329984,10.0.1.134,466,move_down,-0.040,-0.040,-0.040,0.000,0.000,0.000
1605185867927054848,10.0.1.134,417,move_down,-0.060,-0.060,-0.060,0.000,0.000,0.000
1605185869458644992,10.0.1.134,432,move_down,-0.080,-0.080,-0.080,0.000,0.000,0.000
1605185870893924864,10.0.1.134,388,move_down,-0.100,-0.100,-0.100,0.000,0.000,0.000
1605185872383564032,10.0.1.134,435,move_down,-0.120,-0.120,-0.120,0.000,0.000,0.000
1605185873881714944,10.0.1.134,444,move_down,-0.140,-0.140,-0.140,0.000,0.000,0.000
1605185875347703808,10.0.1.134,411,move_down,-0.160,-0.160,-0.160,0.000,0.000,0.000
1605185876855775232,10.0.1.134,419,move_down,-0.180,-0.180,-0.180,0.000,0.000,0.000
1605185878368802048,10.0.1.134,434,move_down,-0.200,-0.200,-0.200,0.000,0.000,0.000
1605185879900439040,10.0.1.134,447,move_down,-0.220,-0.220,-0.220,0.000,0.000,0.000
1605185881350923008,10.0.1.134,397,move_down,-0.240,-0.240,-0.240,0.000,0.000,0.000
1605185882776220928,10.0.1.134,386,move_down,-0.260,-0.260,-0.260,0.000,0.000,0.000
1605185884284193024,10.0.1.134,416,move_down,-0.280,-0.280,-0.280,0.000,0.000,0.000
1605185885768176128,10.0.1.134,399,move_down,-0.300,-0.300,-0.300,0.000,0.000,0.000
1605185887250110976,10.0.1.134,412,move_down,-0.320,-0.320,-0.320,0.000,0.000,0.000
1605185888806544896,10.0.1.134,489,move_down,-0.340,-0.340,-0.340,0.000,0.000,0.000
1605185890296442880,10.0.1.134,424,move_down,-0.360,-0.360,-0.360,0.000,0.000,0.000
1605185891794540032,10.0.1.134,414,move_down,-0.380,-0.380,-0.380,0.000,0.000,0.000
1605185893240197888,10.0.1.134,380,move_down,-0.400,-0.400,-0.400,0.000,0.000,0.000
1605185894724268032,10.0.1.134,440,move_down,-0.420,-0.420,-0.420,0.000,0.000,0.000
1605185896234055936,10.0.1.134,433,move_down,-0.440,-0.440,-0.440,0.000,0.000,0.000
1605185897725549056,10.0.1.134,416,move_down,-0.460,-0.460,-0.460,0.000,0.000,0.000
1605185899151478016,10.0.1.134,390,move_down,-0.480,-0.480,-0.480,0.000,0.000,0.000
1605185900570099968,10.0.1.134,396,move_down,-0.500,-0.500,-0.500,0.000,0.000,0.000
1605185902067373056,10.0.1.134,412,move_down,-0.520,-0.520,-0.520,0.000,0.000,0.000
1605185903587240960,10.0.1.134,448,move_down,-0.540,-0.540,-0.540,0.000,0.000,0.000
1605185905083427072,10.0.1.134,455,move_down,-0.560,-0.560,-0.560,0.000,0.000,0.000
1605185906503364096,10.0.1.134,377,move_down,-0.580,-0.580,-0.580,0.000,0.000,0.000
1605185907627222016,10.0.1.134,53,pick,-0.590,-0.590,-0.590,0.000,0.000,0.000
1605185908623447040,10.0.1.134,47,pick,-0.600,-0.600,-0.600,0.000,0.000,0.000
1605185909626603008,10.0.1.134,50,pick,-0.610,-0.610,-0.610,0.000,0.000,0.000
1605185910623759872,10.0.1.134,44,pick,-0.620,-0.620,-0.620,0.000,0.000,0.000
1605185911625294848,10.0.1.134,45,pick,-0.630,-0.630,-0.630,0.000,0.000,0.000
1605185912626457088,10.0.1.134,44,pick,-0.640,-0.640,-0.640,0.000,0.000,0.000
1605185913624056064,10.0.1.134,41,pick,-0.650,-0.650,-0.650,0.000,0.000,0.000
1605185914640512000,10.0.1.134,56,pick,-0.660,-0.660,-0.660,0.000,0.000,0.000
1605185915624926976,10.0.1.134,39,pick,-0.670,-0.670,-0.670,0.000,0.000,0.000
1605185916624238848,10.0.1.134,38,pick,-0.680,-0.680,-0.680,0.000,0.000,0.000
1605185917623817984,10.0.1.134,36,pick,-0.690,-0.690,-0.690,0.000,0.000,0.000
1605185918632414208,10.0.1.134,43,pick,-0.700,-0.700,-0.700,0.000,0.000,0.000
1605185919628973056,10.0.1.134,38,pick,-0.710,-0.710,-0.710,0.000,0.000,0.000
1605185920629914880,10.0.1.134,38,pick,-0.720,-0.720,-0.720,0.000,0.000,0.000
1605185921650002944,10.0.1.134,55,pick,-0.730,-0.730,-0.730,0.000,0.000,0.000
1605185922646353920,10.0.1.134,51,pick,-0.740,-0.740,-0.740,0.000,0.000,0.000
1605185923647408896,10.0.1.134,51,pick,-0.750,-0.750,-0.750,0.000,0.000,0.000
1605185924643769088,10.0.1.134,46,pick,-0.760,-0.760,-0.760,0.000,0.000,0.000
1605185925653626880,10.0.1.134,55,pick,-0.770,-0.770,-0.770,0.000,0.000,0.000
1605185927063739136,10.0.1.134,463,move_up,-0.750,-0.750,-0.750,0.000,0.000,0.000
1605185928524628992,10.0.1.134,389,move_up,-0.730,-0.730,-0.730,0.000,0.000,0.000
1605185929985264896,10.0.1.134,392,move_up,-0.710,-0.710,-0.710,0.000,0.000,0.000
1605185931445691136,10.0.1.134,379,move_up,-0.690,-0.690,-0.690,0.000,0.000,0.000
1605185932894238976,10.0.1.134,401,move_up,-0.670,-0.670,-0.670,0.000,0.000,0.000
1605185934348740096,10.0.1.134,375,move_up,-0.650,-0.650,-0.650,0.000,0.000,0.000
1605185935823980032,10.0.1.134,402,move_up,-0.630,-0.630,-0.630,0.000,0.000,0.000
1605185937350946048,10.0.1.134,437,move_up,-0.610,-0.610,-0.610,0.000,0.000,0.000
1605185938828416000,10.0.1.134,410,move_up,-0.590,-0.590,-0.590,0.000,0.000,0.000
1605185940325964800,10.0.1.134,403,move_up,-0.570,-0.570,-0.570,0.000,0.000,0.000
1605185941864247040,10.0.1.134,439,move_up,-0.550,-0.550,-0.550,0.000,0.000,0.000
1605185943383922944,10.0.1.134,395,move_up,-0.530,-0.530,-0.530,0.000,0.000,0.000
1605185944885886976,10.0.1.134,410,move_up,-0.510,-0.510,-0.510,0.000,0.000,0.000
1605185946445057024,10.0.1.134,471,move_up,-0.490,-0.490,-0.490,0.000,0.000,0.000
1605185947925147904,10.0.1.134,391,move_up,-0.470,-0.470,-0.470,0.000,0.000,0.000
1605185949481550848,10.0.1.134,460,move_up,-0.450,-0.450,-0.450,0.000,0.000,0.000
1605185950955073024,10.0.1.134,395,move_up,-0.430,-0.430,-0.430,0.000,0.000,0.000
1605185952455684864,10.0.1.134,419,move_up,-0.410,-0.410,-0.410,0.000,0.000,0.000
1605185953953298944,10.0.1.134,479,move_up,-0.390,-0.390,-0.390,0.000,0.000,0.000
1605185955471672064,10.0.1.134,428,move_up,-0.370,-0.370,-0.370,0.000,0.000,0.000
1605185956904623104,10.0.1.134,396,move_up,-0.350,-0.350,-0.350,0.000,0.000,0.000
1605185958388577024,10.0.1.134,404,move_up,-0.330,-0.330,-0.330,0.000,0.000,0.000
1605185960004900096,10.0.1.134,532,move_up,-0.310,-0.310,-0.310,0.000,0.000,0.000
1605185961497699072,10.0.1.134,429,move_up,-0.290,-0.290,-0.290,0.000,0.000,0.000
1605185963008878080,10.0.1.134,429,move_up,-0.270,-0.270,-0.270,0.000,0.000,0.000
1605185964483849984,10.0.1.134,425,move_up,-0.250,-0.250,-0.250,0.000,0.000,0.000
1605185965876318976,10.0.1.134,401,move_up,-0.230,-0.230,-0.230,0.000,0.000,0.000
1605185967384879104,10.0.1.134,425,move_up,-0.210,-0.210,-0.210,0.000,0.000,0.000
1605185968853126912,10.0.1.134,416,move_up,-0.190,-0.190,-0.190,0.000,0.000,0.000
1605185969976484096,10.0.1.134,56,place,-0.180,-0.180,-0.180,0.000,0.000,0.000
1605185970958957824,10.0.1.134,37,place,-0.170,-0.170,-0.170,0.000,0.000,0.000
1605185971965101056,10.0.1.134,42,place,-0.160,-0.160,-0.160,0.000,0.000,0.000
1605185972970267904,10.0.1.134,46,place,-0.150,-0.150,-0.150,0.000,0.000,0.000
1605185973954541056,10.0.1.134,29,place,-0.140,-0.140,-0.140,0.000,0.000,0.000
1605185974975217152,10.0.1.134,47,place,-0.130,-0.130,-0.130,0.000,0.000,0.000
1605185975977423872,10.0.1.134,48,place,-0.120,-0.120,-0.120,0.000,0.000,0.000
1605185976974638848,10.0.1.134,44,place,-0.110,-0.110,-0.110,0.000,0.000,0.000
1605185977978262784,10.0.1.134,46,place,-0.100,-0.100,-0.100,0.000,0.000,0.000
1605185978974765056,10.0.1.134,41,place,-0.090,-0.090,-0.090,0.000,0.000,0.000
1605185979975545856,10.0.1.134,41,place,-0.080,-0.080,-0.080,0.000,0.000,0.000
1605185980976401152,10.0.1.134,40,place,-0.070,-0.070,-0.070,0.000,0.000,0.000
1605185981974427904,10.0.1.134,37,place,-0.060,-0.060,-0.060,0.000,0.000,0.000
1605185982975116032,10.0.1.134,36,place,-0.050,-0.050,-0.050,0.000,0.000,0.000
1605185983975712000,10.0.1.134,36,place,-0.040,-0.040,-0.040,0.000,0.000,0.000
1605185984981134848,10.0.1.134,40,place,-0.030,-0.030,-0.030,0.000,0.000,0.000
1605185985974458880,10.0.1.134,32,place,-0.020,-0.020,-0.020,0.000,0.000,0.000
1605185987001733120,10.0.1.134,56,place,-0.010,-0.010,-0.010,0.000,0.000,0.000
1605185987999416064,10.0.1.134,51,place,0.000,0.000,0.000,0.000,0.000,0.000
1605185989364825856,10.0.1.134,415,move_down,-0.020,-0.020,-0.020,0.000,0.000,0.000
1605185990904701952,10.0.1.134,431,move_down,-0.040,-0.040,-0.040,0.000,0.000,0.000
1605185992385071104,10.0.1.134,386,move_down,-0.060,-0.060,-0.060,0.000,0.000,0.000
1605185993927081216,10.0.1.134,473,move_down,-0.080,-0.080,-0.080,0.000,0.000,0.000
1605185995415383040,10.0.1.134,420,move_down,-0.100,-0.100,-0.100,0.000,0.000,0.000
1605185996905915904,10.0.1.134,396,move_down,-0.120,-0.120,-0.120,0.000,0.000,0.000
1605185998407597056,10.0.1.134,424,move_down,-0.140,-0.140,-0.140,0.000,0.000,0.000
1605185999915809024,10.0.1.134,428,move_down,-0.160,-0.160,-0.160,0.000,0.000,0.000
1605186001417468928,10.0.1.134,416,move_down,-0.180,-0.180,-0.180,0.000,0.000,0.000
1605186002885314816,10.0.1.134,404,move_down,-0.200,-0.200,-0.200,0.000,0.000,0.000
1605186004415000064,10.0.1.134,415,move_down,-0.220,-0.220,-0.220,0.000,0.000,0.000
1605186005986094848,10.0.1.134,500,move_down,-0.240,-0.240,-0.240,0.000,0.000,0.000
1605186007476730112,10.0.1.134,448,move_down,-0.260,-0.260,-0.260,0.000,0.000,0.000
1605186009040087040,10.0.1.134,490,move_down,-0.280,-0.280,-0.280,0.000,0.000,0.000
1605186010564424960,10.0.1.134,459,move_down,-0.300,-0.300,-0.300,0.000,0.000,0.000
1605186012098381056,10.0.1.134,460,move_down,-0.320,-0.320,-0.320,0.000,0.000,0.000
1605186013550113792,10.0.1.134,418,move_down,-0.340,-0.340,-0.340,0.000,0.000,0.000
1605186015039654144,10.0.1.134,420,move_down,-0.360,-0.360,-0.360,0.000,0.000,0.000
1605186016575159040,10.0.1.134,477,move_down,-0.380,-0.380,-0.380,0.000,0.000,0.000
1605186018014550016,10.0.1.134,390,move_down,-0.400,-0.400,-0.400,0.000,0.000,0.000
1605186019465702912,10.0.1.134,382,move_down,-0.420,-0.420,-0.420,0.000,0.000,0.000
1605186020986216960,10.0.1.134,424,move_down,-0.440,-0.440,-0.440,0.000,0.000,0.000
1605186022450560000,10.0.1.134,405,move_down,-0.460,-0.460,-0.460,0.000,0.000,0.000
1605186023894763008,10.0.1.134,368,move_down,-0.480,-0.480,-0.480,0.000,0.000,0.000
1605186025384720128,10.0.1.134,426,move_down,-0.500,-0.500,-0.500,0.000,0.000,0.000
1605186026914545920,10.0.1.134,441,move_down,-0.520,-0.520,-0.520,0.000,0.000,0.000
1605186028396478976,10.0.1.134,405,move_down,-0.540,-0.540,-0.540,0.000,0.000,0.000
1605186029876823808,10.0.1.134,398,move_down,-0.560,-0.560,-0.560,0.000,0.000,0.000
1605186031379718144,10.0.1.134,423,move_down,-0.580,-0.580,-0.580,0.000,0.000,0.000
1605186032483633920,10.0.1.134,42,pick,-0.590,-0.590,-0.590,0.000,0.000,0.000
1605186033476290048,10.0.1.134,33,pick,-0.600,-0.600,-0.600,0.000,0.000,0.000
1605186034480238848,10.0.1.134,36,pick,-0.610,-0.610,-0.610,0.000,0.000,0.000
1605186035496913920,10.0.1.134,51,pick,-0.620,-0.620,-0.620,0.000,0.000,0.000
1605186036496370944,10.0.1.134,49,pick,-0.630,-0.630,-0.630,0.000,0.000,0.000
1605186037496056064,10.0.1.134,48,pick,-0.640,-0.640,-0.640,0.000,0.000,0.000
1605186038500057088,10.0.1.134,51,pick,-0.650,-0.650,-0.650,0.000,0.000,0.000
1605186039497502208,10.0.1.134,47,pick,-0.660,-0.660,-0.660,0.000,0.000,0.000
1605186040496425984,10.0.1.134,43,pick,-0.670,-0.670,-0.670,0.000,0.000,0.000
1605186041496483072,10.0.1.134,41,pick,-0.680,-0.680,-0.680,0.000,0.000,0.000
1605186042496157952,10.0.1.134,40,pick,-0.690,-0.690,-0.690,0.000,0.000,0.000
1605186043497121024,10.0.1.134,39,pick,-0.700,-0.700,-0.700,0.000,0.000,0.000
1605186044496975872,10.0.1.134,37,pick,-0.710,-0.710,-0.710,0.000,0.000,0.000
1605186045515852032,10.0.1.134,54,pick,-0.720,-0.720,-0.720,0.000,0.000,0.000
1605186046519293952,10.0.1.134,56,pick,-0.730,-0.730,-0.730,0.000,0.000,0.000
1605186047496457984,10.0.1.134,32,pick,-0.740,-0.740,-0.740,0.000,0.000,0.000
1605186048518958080,10.0.1.134,53,pick,-0.750,-0.750,-0.750,0.000,0.000,0.000
1605186049511955968,10.0.1.134,44,pick,-0.760,-0.760,-0.760,0.000,0.000,0.000
1605186050512620032,10.0.1.134,44,pick,-0.770,-0.770,-0.770,0.000,0.000,0.000
1605186051912509952,10.0.1.134,442,move_up,-0.750,-0.750,-0.750,0.000,0.000,0.000
1605186053384382976,10.0.1.134,426,move_up,-0.730,-0.730,-0.730,0.000,0.000,0.000
1605186054849606912,10.0.1.134,422,move_up,-0.710,-0.710,-0.710,0.000,0.000,0.000
1605186056373129984,10.0.1.134,434,move_up,-0.690,-0.690,-0.690,0.000,0.000,0.000
1605186057866724096,10.0.1.134,428,move_up,-0.670,-0.670,-0.670,0.000,0.000,0.000
1605186059352785152,10.0.1.134,426,move_up,-0.650,-0.650,-0.650,0.000,0.000,0.000
1605186060811855104,10.0.1.134,410,move_up,-0.630,-0.630,-0.630,0.000,0.000,0.000
1605186062333019904,10.0.1.134,414,move_up,-0.610,-0.610,-0.610,0.000,0.000,0.000
1605186063784131072,10.0.1.134,384,move_up,-0.590,-0.590,-0.590,0.000,0.000,0.000
1605186065274172928,10.0.1.134,399,move_up,-0.570,-0.570,-0.570,0.000,0.000,0.000
1605186066773746944,10.0.1.134,417,move_up,-0.550,-0.550,-0.550,0.000,0.000,0.000
1605186068187702784,10.0.1.134,384,move_up,-0.530,-0.530,-0.530,0.000,0.000,0.000
1605186069773047808,10.0.1.134,492,move_up,-0.510,-0.510,-0.510,0.000,0.000,0.000
1605186071242050816,10.0.1.134,424,move_up,-0.490,-0.490,-0.490,0.000,0.000,0.000
1605186072681248000,10.0.1.134,390,move_up,-0.470,-0.470,-0.470,0.000,0.000,0.000
1605186074152034048,10.0.1.134,385,move_up,-0.450,-0.450,-0.450,0.000,0.000,0.000
1605186075703917056,10.0.1.134,457,move_up,-0.430,-0.430,-0.430,0.000,0.000,0.000
1605186077251482880,10.0.1.134,485,move_up,-0.410,-0.410,-0.410,0.000,0.000,0.000
1605186078695135232,10.0.1.134,395,move_up,-0.390,-0.390,-0.390,0.000,0.000,0.000
1605186080173100032,10.0.1.134,390,move_up,-0.370,-0.370,-0.370,0.000,0.000,0.000
1605186081754040064,10.0.1.134,454,move_up,-0.350,-0.350,-0.350,0.000,0.000,0.000
1605186083232024832,10.0.1.134,405,move_up,-0.330,-0.330,-0.330,0.000,0.000,0.000
1605186084774290944,10.0.1.134,452,move_up,-0.310,-0.310,-0.310,0.000,0.000,0.000
1605186086172337152,10.0.1.134,401,move_up,-0.290,-0.290,-0.290,0.000,0.000,0.000
1605186087657871872,10.0.1.134,434,move_up,-0.270,-0.270,-0.270,0.000,0.000,0.000
1605186089114856960,10.0.1.134,414,move_up,-0.250,-0.250,-0.250,0.000,0.000,0.000
1605186090582304000,10.0.1.134,403,move_up,-0.230,-0.230,-0.230,0.000,0.000,0.000
1605186092086384128,10.0.1.134,421,move_up,-0.210,-0.210,-0.210,0.000,0.000,0.000
1605186093547798016,10.0.1.134,398,move_up,-0.190,-0.190,-0.190,0.000,0.000,0.000
1605186094682948096,10.0.1.134,45,place,-0.180,-0.180,-0.180,0.000,0.000,0.000
1605186095682476032,10.0.1.134,43,place,-0.170,-0.170,-0.170,0.000,0.000,0.000
1605186097641253888,10.0.1.134,NaN,place,-0.150,-0.150,-0.150,0.000,0.000,0.000
1605186097684446208,10.0.1.134,43,place,-0.150,-0.150,-0.150,0.000,0.000,0.000
1605186098687338240,10.0.1.134,43,place,-0.140,-0.140,-0.140,0.000,0.000,0.000
1605186099682070016,10.0.1.134,35,place,-0.130,-0.130,-0.130,0.000,0.000,0.000
1605186100706078976,10.0.1.134,49,place,-0.120,-0.120,-0.120,0.000,0.000,0.000
1605186101703232000,10.0.1.134,43,place,-0.110,-0.110,-0.110,0.000,0.000,0.000
1605186102702622976,10.0.1.134,40,place,-0.100,-0.100,-0.100,0.000,0.000,0.000
1605186103702743040,10.0.1.134,39,place,-0.090,-0.090,-0.090,0.000,0.000,0.000
1605186104711328000,10.0.1.134,46,place,-0.080,-0.080,-0.080,0.000,0.000,0.000
1605186105704400128,10.0.1.134,36,place,-0.070,-0.070,-0.070,0.000,0.000,0.000
1605186106711425024,10.0.1.134,42,place,-0.060,-0.060,-0.060,0.000,0.000,0.000
1605186107703102208,10.0.1.134,32,place,-0.050,-0.050,-0.050,0.000,0.000,0.000
1605186108726946048,10.0.1.134,53,place,-0.040,-0.040,-0.040,0.000,0.000,0.000
1605186109723826944,10.0.1.134,49,place,-0.030,-0.030,-0.030,0.000,0.000,0.000
1605186110723606016,10.0.1.134,47,place,-0.020,-0.020,-0.020,0.000,0.000,0.000
1605186111725014016,10.0.1.134,45,place,-0.010,-0.010,-0.010,0.000,0.000,0.000
1605186112725824000,10.0.1.134,44,place,0.000,0.000,0.000,0.000,0.000,0.000
1605186114127386112,10.0.1.134,444,move_down,-0.020,-0.020,-0.020,0.000,0.000,0.000
1605186115663692032,10.0.1.134,440,move_down,-0.040,-0.040,-0.040,0.000,0.000,0.000
1605186117104924928,10.0.1.134,399,move_down,-0.060,-0.060,-0.060,0.000,0.000,0.000
1605186118655313920,10.0.1.134,462,move_down,-0.080,-0.080,-0.080,0.000,0.000,0.000
1605186120166344960,10.0.1.134,450,move_down,-0.100,-0.100,-0.100,0.000,0.000,0.000
1605186121694489856,10.0.1.134,474,move_down,-0.120,-0.120,-0.120,0.000,0.000,0.000
1605186123224612096,10.0.1.134,448,move_down,-0.140,-0.140,-0.140,0.000,0.000,0.000
1605186124737596160,10.0.1.134,457,move_down,-0.160,-0.160,-0.160,0.000,0.000,0.000
1605186126231486976,10.0.1.134,448,move_down,-0.180,-0.180,-0.180,0.000,0.000,0.000
1605186127779158016,10.0.1.134,495,move_down,-0.200,-0.200,-0.200,0.000,0.000,0.000
1605186129295912960,10.0.1.134,431,move_down,-0.220,-0.220,-0.220,0.000,0.000,0.000
1605186130815273984,10.0.1.134,426,move_down,-0.240,-0.240,-0.240,0.000,0.000,0.000
1605186132265585920,10.0.1.134,389,move_down,-0.260,-0.260,-0.260,0.000,0.000,0.000
1605186133725133056,10.0.1.134,431,move_down,-0.280,-0.280,-0.280,0.000,0.000,0.000
1605186135280730880,10.0.1.134,471,move_down,-0.300,-0.300,-0.300,0.000,0.000,0.000
1605186136775259136,10.0.1.134,401,move_down,-0.320,-0.320,-0.320,0.000,0.000,0.000
1605186138296883968,10.0.1.134,405,move_down,-0.340,-0.340,-0.340,0.000,0.000,0.000
1605186139823396864,10.0.1.134,441,move_down,-0.360,-0.360,-0.360,0.000,0.000,0.000
1605186141377823232,10.0.1.134,474,move_down,-0.380,-0.380,-0.380,0.000,0.000,0.000
1605186142855278080,10.0.1.134,392,move_down,-0.400,-0.400,-0.400,0.000,0.000,0.000
1605186144395303936,10.0.1.134,415,move_down,-0.420,-0.420,-0.420,0.000,0.000,0.000
1605186145908539904,10.0.1.134,427,move_down,-0.440,-0.440,-0.440,0.000,0.000,0.000
1605186147393443072,10.0.1.134,433,move_down,-0.460,-0.460,-0.460,0.000,0.000,0.000
1605186148899810048,10.0.1.134,433,move_down,-0.480,-0.480,-0.480,0.000,0.000,0.000
1605186150467674112,10.0.1.134,469,move_down,-0.500,-0.500,-0.500,0.000,0.000,0.000
1605186151936348928,10.0.1.134,439,move_down,-0.520,-0.520,-0.520,0.000,0.000,0.000
1605186153424313088,10.0.1.134,435,move_down,-0.540,-0.540,-0.540,0.000,0.000,0.000
1605186154918839040,10.0.1.134,451,move_down,-0.560,-0.560,-0.560,0.000,0.000,0.000
1605186156406781952,10.0.1.134,404,move_down,-0.580,-0.580,-0.580,0.000,0.000,0.000
1605186157529964032,10.0.1.134,38,pick,-0.590,-0.590,-0.590,0.000,0.000,0.000
1605186158550297088,10.0.1.134,57,pick,-0.600,-0.600,-0.600,0.000,0.000,0.000
1605186160496988160,10.0.1.134,NaN,pick,-0.620,-0.620,-0.620,0.000,0.000,0.000
1605186160559348992,10.0.1.134,62,pick,-0.620,-0.620,-0.620,0.000,0.000,0.000
1605186161555057152,10.0.1.134,56,pick,-0.630,-0.630,-0.630,0.000,0.000,0.000
1605186162558254080,10.0.1.134,58,pick,-0.640,-0.640,-0.640,0.000,0.000,0.000
1605186163544464128,10.0.1.134,43,pick,-0.650,-0.650,-0.650,0.000,0.000,0.000
1605186164541636096,10.0.1.134,37,pick,-0.660,-0.660,-0.660,0.000,0.000,0.000
1605186165545135104,10.0.1.134,40,pick,-0.670,-0.670,-0.670,0.000,0.000,0.000
1605186166559240192,10.0.1.134,49,pick,-0.680,-0.680,-0.680,0.000,0.000,0.000
1605186168512514048,10.0.1.134,NaN,pick,-0.700,-0.700,-0.700,0.000,0.000,0.000
1605186168557737216,10.0.1.134,45,pick,-0.700,-0.700,-0.700,0.000,0.000,0.000
1605186169566117120,10.0.1.134,53,pick,-0.710,-0.710,-0.710,0.000,0.000,0.000
1605186170563774208,10.0.1.134,46,pick,-0.720,-0.720,-0.720,0.000,0.000,0.000
1605186171565572096,10.0.1.134,47,pick,-0.730,-0.730,-0.730,0.000,0.000,0.000
1605186172564029952,10.0.1.134,44,pick,-0.740,-0.740,-0.740,0.000,0.000,0.000
1605186173569710080,10.0.1.134,49,pick,-0.750,-0.750,-0.750,0.000,0.000,0.000
1605186174561765888,10.0.1.134,39,pick,-0.760,-0.760,-0.760,0.000,0.000,0.000
1605186175567394048,10.0.1.134,44,pick,-0.770,-0.770,-0.770,0.000,0.000,0.000
1605186176954055936,10.0.1.134,425,move_up,-0.750,-0.750,-0.750,0.000,0.000,0.000
1605186178454158080,10.0.1.134,437,move_up,-0.730,-0.730,-0.730,0.000,0.000,0.000
1605186180005879040,10.0.1.134,474,move_up,-0.710,-0.710,-0.710,0.000,0.000,0.000
1605186181516962048,10.0.1.134,452,move_up,-0.690,-0.690,-0.690,0.000,0.000,0.000
1605186183007344896,10.0.1.134,445,move_up,-0.670,-0.670,-0.670,0.000,0.000,0.000
1605186184630284032,10.0.1.134,556,move_up,-0.650,-0.650,-0.650,0.000,0.000,0.000
1605186186260192000,10.0.1.134,555,move_up,-0.630,-0.630,-0.630,0.000,0.000,0.000
1605186187885797888,10.0.1.134,547,move_up,-0.610,-0.610,-0.610,0.000,0.000,0.000
1605186189374759936,10.0.1.134,438,move_up,-0.590,-0.590,-0.590,0.000,0.000,0.000
1605186190956183040,10.0.1.134,508,move_up,-0.570,-0.570,-0.570,0.000,0.000,0.000
1605186192480536064,10.0.1.134,456,move_up,-0.550,-0.550,-0.550,0.000,0.000,0.000
1605186193951784960,10.0.1.134,396,move_up,-0.530,-0.530,-0.530,0.000,0.000,0.000
1605186195427866880,10.0.1.134,428,move_up,-0.510,-0.510,-0.510,0.000,0.000,0.000
1605186196933515008,10.0.1.134,452,move_up,-0.490,-0.490,-0.490,0.000,0.000,0.000
1605186198463768064,10.0.1.134,450,move_up,-0.470,-0.470,-0.470,0.000,0.000,0.000
1605186200004637952,10.0.1.134,470,move_up,-0.450,-0.450,-0.450,0.000,0.000,0.000
1605186201514059008,10.0.1.134,420,move_up,-0.430,-0.430,-0.430,0.000,0.000,0.000
1605186203066544128,10.0.1.134,458,move_up,-0.410,-0.410,-0.410,0.000,0.000,0.000
1605186204623845120,10.0.1.134,498,move_up,-0.390,-0.390,-0.390,0.000,0.000,0.000
1605186206168602880,10.0.1.134,422,move_up,-0.370,-0.370,-0.370,0.000,0.000,0.000
1605186207676491008,10.0.1.134,434,move_up,-0.350,-0.350,-0.350,0.000,0.000,0.000
1605186209140625920,10.0.1.134,421,move_up,-0.330,-0.330,-0.330,0.000,0.000,0.000
1605186210698385920,10.0.1.134,461,move_up,-0.310,-0.310,-0.310,0.000,0.000,0.000
1605186212216752128,10.0.1.134,426,move_up,-0.290,-0.290,-0.290,0.000,0.000,0.000
1605186213801240064,10.0.1.134,477,move_up,-0.270,-0.270,-0.270,0.000,0.000,0.000
1605186215275748096,10.0.1.134,406,move_up,-0.250,-0.250,-0.250,0.000,0.000,0.000
1605186216714658048,10.0.1.134,395,move_up,-0.230,-0.230,-0.230,0.000,0.000,0.000
1605186218279212032,10.0.1.134,465,move_up,-0.210,-0.210,-0.210,0.000,0.000,0.000
1605186219773950976,10.0.1.134,399,move_up,-0.190,-0.190,-0.190,0.000,0.000,0.000
1605186220899074048,10.0.1.134,43,place,-0.180,-0.180,-0.180,0.000,0.000,0.000
1605186221903825920,10.0.1.134,46,place,-0.170,-0.170,-0.170,0.000,0.000,0.000
1605186222894274048,10.0.1.134,35,place,-0.160,-0.160,-0.160,0.000,0.000,0.000
1605186223894237952,10.0.1.134,34,place,-0.150,-0.150,-0.150,0.000,0.000,0.000
1605186224901267968,10.0.1.134,40,place,-0.140,-0.140,-0.140,0.000,0.000,0.000
1605186225896816128,10.0.1.134,34,place,-0.130,-0.130,-0.130,0.000,0.000,0.000
1605186226921242112,10.0.1.134,57,place,-0.120,-0.120,-0.120,0.000,0.000,0.000
1605186227921420032,10.0.1.134,56,place,-0.110,-0.110,-0.110,0.000,0.000,0.000
1605186228920546048,10.0.1.134,54,place,-0.100,-0.100,-0.100,0.000,0.000,0.000
1605186229919240960,10.0.1.134,51,place,-0.090,-0.090,-0.090,0.000,0.000,0.000
1605186230913824000,10.0.1.134,44,place,-0.080,-0.080,-0.080,0.000,0.000,0.000
1605186231922215936,10.0.1.134,51,place,-0.070,-0.070,-0.070,0.000,0.000,0.000
1605186232915805952,10.0.1.134,44,place,-0.060,-0.060,-0.060,0.000,0.000,0.000
1605186233922400000,10.0.1.134,49,place,-0.050,-0.050,-0.050,0.000,0.000,0.000
1605186234916294144,10.0.1.134,41,place,-0.040,-0.040,-0.040,0.000,0.000,0.000
1605186235918661120,10.0.1.134,41,place,-0.030,-0.030,-0.030,0.000,0.000,0.000
1605186236925821952,10.0.1.134,46,place,-0.020,-0.020,-0.020,0.000,0.000,0.000
1605186237928327168,10.0.1.134,48,place,-0.010,-0.010,-0.010,0.000,0.000,0.000
1605186238920353792,10.0.1.134,38,place,0.000,0.000,0.000,0.000,0.000,0.000
1605186240390703872,10.0.1.134,507,move_down,-0.020,-0.020,-0.020,0.000,0.000,0.000
1605186241863461888,10.0.1.134,434,move_down,-0.040,-0.040,-0.040,0.000,0.000,0.000
1605186243521989120,10.0.1.134,552,move_down,-0.060,-0.060,-0.060,0.000,0.000,0.000
1605186245073406976,10.0.1.134,480,move_down,-0.080,-0.080,-0.080,0.000,0.000,0.000
1605186246598103040,10.0.1.134,453,move_down,-0.100,-0.100,-0.100,0.000,0.000,0.000
1605186248146119168,10.0.1.134,479,move_down,-0.120,-0.120,-0.120,0.000,0.000,0.000
1605186249785198848,10.0.1.134,481,move_down,-0.140,-0.140,-0.140,0.000,0.000,0.000
1605186251327374848,10.0.1.134,489,move_down,-0.160,-0.160,-0.160,0.000,0.000,0.000
1605186252941991936,10.0.1.134,551,move_down,-0.180,-0.180,-0.180,0.000,0.000,0.000
1605186254440573952,10.0.1.134,447,move_down,-0.200,-0.200,-0.200,0.000,0.000,0.000
1605186256006038016,10.0.1.134,483,move_down,-0.220,-0.220,-0.220,0.000,0.000,0.000
1605186257565664000,10.0.1.134,450,move_down,-0.240,-0.240,-0.240,0.000,0.000,0.000
1605186259098563072,10.0.1.134,458,move_down,-0.260,-0.260,-0.260,0.000,0.000,0.000
1605186260626385920,10.0.1.134,459,move_down,-0.280,-0.280,-0.280,0.000,0.000,0.000
1605186262155843072,10.0.1.134,462,move_down,-0.300,-0.300,-0.300,0.000,0.000,0.000
1605186263694238976,10.0.1.134,485,move_down,-0.320,-0.320,-0.320,0.000,0.000,0.000
1605186265186418944,10.0.1.134,463,move_down,-0.340,-0.340,-0.340,0.000,0.000,0.000
1605186266763855104,10.0.1.134,511,move_down,-0.360,-0.360,-0.360,0.000,0.000,0.000
1605186268238564864,10.0.1.134,429,move_down,-0.380,-0.380,-0.380,0.000,0.000,0.000
1605186269763462144,10.0.1.134,439,move_down,-0.400,-0.400,-0.400,0.000,0.000,0.000
1605186271285276928,10.0.1.134,434,move_down,-0.420,-0.420,-0.420,0.000,0.000,0.000
1605186272865735168,10.0.1.134,492,move_down,-0.440,-0.440,-0.440,0.000,0.000,0.000
1605186274359574016,10.0.1.134,444,move_down,-0.460,-0.460,-0.460,0.000,0.000,0.000
1605186275932168960,10.0.1.134,512,move_down,-0.480,-0.480,-0.480,0.000,0.000,0.000
1605186277422035968,10.0.1.134,418,move_down,-0.500,-0.500,-0.500,0.000,0.000,0.000
1605186278944904192,10.0.1.134,454,move_down,-0.520,-0.520,-0.520,0.000,0.000,0.000
1605186280464111104,10.0.1.134,452,move_down,-0.540,-0.540,-0.540,0.000,0.000,0.000
1605186281980139008,10.0.1.134,444,move_down,-0.560,-0.560,-0.560,0.000,0.000,0.000
1605186283473860864,10.0.1.134,428,move_down,-0.580,-0.580,-0.580,0.000,0.000,0.000
1605186284618446080,10.0.1.134,48,pick,-0.590,-0.590,-0.590,0.000,0.000,0.000
1605186285615817984,10.0.1.134,44,pick,-0.600,-0.600,-0.600,0.000,0.000,0.000
1605186286612772864,10.0.1.134,40,pick,-0.610,-0.610,-0.610,0.000,0.000,0.000
1605186287611168000,10.0.1.134,37,pick,-0.620,-0.620,-0.620,0.000,0.000,0.000
1605186288628873216,10.0.1.134,53,pick,-0.630,-0.630,-0.630,0.000,0.000,0.000
1605186289618830848,10.0.1.134,42,pick,-0.640,-0.640,-0.640,0.000,0.000,0.000
1605186290611704064,10.0.1.134,33,pick,-0.650,-0.650,-0.650,0.000,0.000,0.000
1605186291612772096,10.0.1.134,33,pick,-0.660,-0.660,-0.660,0.000,0.000,0.000
1605186292611131904,10.0.1.134,30,pick,-0.670,-0.670,-0.670,0.000,0.000,0.000
1605186293623778048,10.0.1.134,41,pick,-0.680,-0.680,-0.680,0.000,0.000,0.000
1605186294661931008,10.0.1.134,78,pick,-0.690,-0.690,-0.690,0.000,0.000,0.000
1605186295624550144,10.0.1.134,39,pick,-0.700,-0.700,-0.700,0.000,0.000,0.000
1605186296648931072,10.0.1.134,62,pick,-0.710,-0.710,-0.710,0.000,0.000,0.000
1605186297635309056,10.0.1.134,47,pick,-0.720,-0.720,-0.720,0.000,0.000,0.000
1605186298633841152,10.0.1.134,45,pick,-0.730,-0.730,-0.730,0.000,0.000,0.000
1605186299645088000,10.0.1.134,55,pick,-0.740,-0.740,-0.740,0.000,0.000,0.000
1605186300656482048,10.0.1.134,65,pick,-0.750,-0.750,-0.750,0.000,0.000,0.000
1605186301638462976,10.0.1.134,45,pick,-0.760,-0.760,-0.760,0.000,0.000,0.000
1605186302661533184,10.0.1.134,66,pick,-0.770,-0.770,-0.770,0.000,0.000,0.000
1605186303995585792,10.0.1.134,399,move_up,-0.750,-0.750,-0.750,0.000,0.000,0.000
1605186305493519104,10.0.1.134,414,move_up,-0.730,-0.730,-0.730,0.000,0.000,0.000
1605186307007309824,10.0.1.134,434,move_up,-0.710,-0.710,-0.710,0.000,0.000,0.000
1605186308543660032,10.0.1.134,443,move_up,-0.690,-0.690,-0.690,0.000,0.000,0.000
1605186310152070144,10.0.1.134,516,move_up,-0.670,-0.670,-0.670,0.000,0.000,0.000
1605186311657597952,10.0.1.134,412,move_up,-0.650,-0.650,-0.650,0.000,0.000,0.000
1605186313163557120,10.0.1.134,435,move_up,-0.630,-0.630,-0.630,0.000,0.000,0.000
1605186314667588096,10.0.1.134,430,move_up,-0.610,-0.610,-0.610,0.000,0.000,0.000
1605186316204045056,10.0.1.134,441,move_up,-0.590,-0.590,-0.590,0.000,0.000,0.000
1605186317683883008,10.0.1.134,395,move_up,-0.570,-0.570,-0.570,0.000,0.000,0.000
1605186319227623936,10.0.1.134,418,move_up,-0.550,-0.550,-0.550,0.000,0.000,0.000
1605186320673743104,10.0.1.134,445,move_up,-0.530,-0.530,-0.530,0.000,0.000,0.000
1605186322185571072,10.0.1.134,458,move_up,-0.510,-0.510,-0.510,0.000,0.000,0.000
1605186323766788864,10.0.1.134,433,move_up,-0.490,-0.490,-0.490,0.000,0.000,0.000
1605186325301600000,10.0.1.134,426,move_up,-0.470,-0.470,-0.470,0.000,0.000,0.000
1605186326768105984,10.0.1.134,404,move_up,-0.450,-0.450,-0.450,0.000,0.000,0.000
1605186328304706048,10.0.1.134,449,move_up,-0.430,-0.430,-0.430,0.000,0.000,0.000
1605186329841069824,10.0.1.134,450,move_up,-0.410,-0.410,-0.410,0.000,0.000,0.000
1605186331336342016,10.0.1.134,439,move_up,-0.390,-0.390,-0.390,0.000,0.000,0.000
1605186332897128192,10.0.1.134,469,move_up,-0.370,-0.370,-0.370,0.000,0.000,0.000
1605186334389880064,10.0.1.134,422,move_up,-0.350,-0.350,-0.350,0.000,0.000,0.000
1605186335925652992,10.0.1.134,540,move_up,-0.330,-0.330,-0.330,0.000,0.000,0.000
1605186337453337856,10.0.1.134,445,move_up,-0.310,-0.310,-0.310,0.000,0.000,0.000
1605186338956072192,10.0.1.134,426,move_up,-0.290,-0.290,-0.290,0.000,0.000,0.000
1605186340444668160,10.0.1.134,427,move_up,-0.270,-0.270,-0.270,0.000,0.000,0.000
1605186341965948160,10.0.1.134,437,move_up,-0.250,-0.250,-0.250,0.000,0.000,0.000
1605186343508413184,10.0.1.134,460,move_up,-0.230,-0.230,-0.230,0.000,0.000,0.000
1605186345084680960,10.0.1.134,446,move_up,-0.210,-0.210,-0.210,0.000,0.000,0.000
1605186346664276992,10.0.1.134,489,move_up,-0.190,-0.190,-0.190,0.000,0.000,0.000
1605186347749195008,10.0.1.134,50,place,-0.180,-0.180,-0.180,0.000,0.000,0.000
1605186348752633088,10.0.1.134,53,place,-0.170,-0.170,-0.170,0.000,0.000,0.000
1605186349759880192,10.0.1.134,58,place,-0.160,-0.160,-0.160,0.000,0.000,0.000
1605186350753741056,10.0.1.134,51,place,-0.150,-0.150,-0.150,0.000,0.000,0.000
1605186351758616832,10.0.1.134,54,place,-0.140,-0.140,-0.140,0.000,0.000,0.000
1605186352750437888,10.0.1.134,45,place,-0.130,-0.130,-0.130,0.000,0.000,0.000
1605186353747540992,10.0.1.134,40,place,-0.120,-0.120,-0.120,0.000,0.000,0.000
1605186354751808000,10.0.1.134,43,place,-0.110,-0.110,-0.110,0.000,0.000,0.000
1605186355784250880,10.0.1.134,74,place,-0.100,-0.100,-0.100,0.000,0.000,0.000
1605186356760709120,10.0.1.134,49,place,-0.090,-0.090,-0.090,0.000,0.000,0.000
1605186357761926912,10.0.1.134,49,place,-0.080,-0.080,-0.080,0.000,0.000,0.000
1605186358765953024,10.0.1.134,51,place,-0.070,-0.070,-0.070,0.000,0.000,0.000
1605186359745481984,10.0.1.134,29,place,-0.060,-0.060,-0.060,0.000,0.000,0.000
1605186360765582080,10.0.1.134,48,place,-0.050,-0.050,-0.050,0.000,0.000,0.000
1605186361765275904,10.0.1.134,43,place,-0.040,-0.040,-0.040,0.000,0.000,0.000
1605186362768384000,10.0.1.134,45,place,-0.030,-0.030,-0.030,0.000,0.000,0.000
1605186363770806016,10.0.1.134,45,place,-0.020,-0.020,-0.020,0.000,0.000,0.000
1605186365731593984,10.0.1.134,NaN,place,0.000,0.000,0.000,0.000,0.000,0.000
1605186365768435968,10.0.1.134,36,place,0.000,0.000,0.000,0.000,0.000,0.000
1605186367208983808,10.0.1.134,466,move_down,-0.020,-0.020,-0.020,0.000,0.000,0.000
1605186368747842048,10.0.1.134,429,move_down,-0.040,-0.040,-0.040,0.000,0.000,0.000
1605186370261709824,10.0.1.134,418,move_down,-0.060,-0.060,-0.060,0.000,0.000,0.000
1605186371817004032,10.0.1.134,484,move_down,-0.080,-0.080,-0.080,0.000,0.000,0.000
1605186373296050176,10.0.1.134,436,move_down,-0.100,-0.100,-0.100,0.000,0.000,0.000
1605186374832580096,10.0.1.134,472,move_down,-0.120,-0.120,-0.120,0.000,0.000,0.000
1605186376417283072,10.0.1.134,491,move_down,-0.140,-0.140,-0.140,0.000,0.000,0.000
1605186377956832000,10.0.1.134,470,move_down,-0.160,-0.160,-0.160,0.000,0.000,0.000
1605186379463077120,10.0.1.134,450,move_down,-0.180,-0.180,-0.180,0.000,0.000,0.000
1605186380979438080,10.0.1.134,443,move_down,-0.200,-0.200,-0.200,0.000,0.000,0.000
1605186382506860032,10.0.1.134,481,move_down,-0.220,-0.220,-0.220,0.000,0.000,0.000
1605186384063368960,10.0.1.134,509,move_down,-0.240,-0.240,-0.240,0.000,0.000,0.000
1605186385534099968,10.0.1.134,463,move_down,-0.260,-0.260,-0.260,0.000,0.000,0.000
1605186387099354880,10.0.1.134,496,move_down,-0.280,-0.280,-0.280,0.000,0.000,0.000
1605186388657026048,10.0.1.134,518,move_down,-0.300,-0.300,-0.300,0.000,0.000,0.000
1605186390260688128,10.0.1.134,496,move_down,-0.320,-0.320,-0.320,0.000,0.000,0.000
1605186391791284992,10.0.1.134,442,move_down,-0.340,-0.340,-0.340,0.000,0.000,0.000
1605186393341466880,10.0.1.134,456,move_down,-0.360,-0.360,-0.360,0.000,0.000,0.000
1605186394910074880,10.0.1.134,512,move_down,-0.380,-0.380,-0.380,0.000,0.000,0.000
1605186396402153984,10.0.1.134,447,move_down,-0.400,-0.400,-0.400,0.000,0.000,0.000
1605186397891313152,10.0.1.134,408,move_down,-0.420,-0.420,-0.420,0.000,0.000,0.000
1605186399402332928,10.0.1.134,434,move_down,-0.440,-0.440,-0.440,0.000,0.000,0.000
1605186400906802944,10.0.1.134,442,move_down,-0.460,-0.460,-0.460,0.000,0.000,0.000
1605186402482672896,10.0.1.134,480,move_down,-0.480,-0.480,-0.480,0.000,0.000,0.000
1605186403992116992,10.0.1.134,464,move_down,-0.500,-0.500,-0.500,0.000,0.000,0.000
1605186405529142016,10.0.1.134,465,move_down,-0.520,-0.520,-0.520,0.000,0.000,0.000
1605186407084059904,10.0.1.134,503,move_down,-0.540,-0.540,-0.540,0.000,0.000,0.000
1605186408539406080,10.0.1.134,411,move_down,-0.560,-0.560,-0.560,0.000,0.000,0.000
1605186410020366080,10.0.1.134,415,move_down,-0.580,-0.580,-0.580,0.000,0.000,0.000
1605186411119611904,10.0.1.134,38,pick,-0.590,-0.590,-0.590,0.000,0.000,0.000
1605186412120322048,10.0.1.134,37,pick,-0.600,-0.600,-0.600,0.000,0.000,0.000
1605186413123652096,10.0.1.134,39,pick,-0.610,-0.610,-0.610,0.000,0.000,0.000
1605186414118995968,10.0.1.134,34,pick,-0.620,-0.620,-0.620,0.000,0.000,0.000
1605186415123827968,10.0.1.134,37,pick,-0.630,-0.630,-0.630,0.000,0.000,0.000
1605186417089852160,10.0.1.134,NaN,pick,-0.650,-0.650,-0.650,0.000,0.000,0.000
1605186417139247872,10.0.1.134,49,pick,-0.650,-0.650,-0.650,0.000,0.000,0.000
1605186418146590976,10.0.1.134,55,pick,-0.660,-0.660,-0.660,0.000,0.000,0.000
1605186419150569984,10.0.1.134,58,pick,-0.670,-0.670,-0.670,0.000,0.000,0.000
1605186420151938048,10.0.1.134,58,pick,-0.680,-0.680,-0.680,0.000,0.000,0.000
1605186421149085952,10.0.1.134,54,pick,-0.690,-0.690,-0.690,0.000,0.000,0.000
1605186422144651776,10.0.1.134,48,pick,-0.700,-0.700,-0.700,0.000,0.000,0.000
1605186424098671872,10.0.1.134,NaN,pick,-0.720,-0.720,-0.720,0.000,0.000,0.000
1605186424147300096,10.0.1.134,48,pick,-0.720,-0.720,-0.720,0.000,0.000,0.000
1605186425155753984,10.0.1.134,54,pick,-0.730,-0.730,-0.730,0.000,0.000,0.000
1605186426153242112,10.0.1.134,50,pick,-0.740,-0.740,-0.740,0.000,0.000,0.000
1605186427139326208,10.0.1.134,35,pick,-0.750,-0.750,-0.750,0.000,0.000,0.000
1605186428144825856,10.0.1.134,39,pick,-0.760,-0.760,-0.760,0.000,0.000,0.000
1605186429164398848,10.0.1.134,49,pick,-0.770,-0.770,-0.770,0.000,0.000,0.000
1605186430548818944,10.0.1.134,433,move_up,-0.750,-0.750,-0.750,0.000,0.000,0.000
1605186432009634048,10.0.1.134,406,move_up,-0.730,-0.730,-0.730,0.000,0.000,0.000
1605186433583810048,10.0.1.134,490,move_up,-0.710,-0.710,-0.710,0.000,0.000,0.000
1605186435185946880,10.0.1.134,530,move_up,-0.690,-0.690,-0.690,0.000,0.000,0.000
1605186436687938048,10.0.1.134,419,move_up,-0.670,-0.670,-0.670,0.000,0.000,0.000
1605186438195566848,10.0.1.134,425,move_up,-0.650,-0.650,-0.650,0.000,0.000,0.000
1605186439699814912,10.0.1.134,422,move_up,-0.630,-0.630,-0.630,0.000,0.000,0.000
1605186441245459200,10.0.1.134,446,move_up,-0.610,-0.610,-0.610,0.000,0.000,0.000
1605186442783791104,10.0.1.134,468,move_up,-0.590,-0.590,-0.590,0.000,0.000,0.000
1605186444350217216,10.0.1.134,466,move_up,-0.570,-0.570,-0.570,0.000,0.000,0.000
1605186445940747008,10.0.1.134,491,move_up,-0.550,-0.550,-0.550,0.000,0.000,0.000
1605186447463932928,10.0.1.134,448,move_up,-0.530,-0.530,-0.530,0.000,0.000,0.000
1605186448970721024,10.0.1.134,441,move_up,-0.510,-0.510,-0.510,0.000,0.000,0.000
1605186450591372032,10.0.1.134,548,move_up,-0.490,-0.490,-0.490,0.000,0.000,0.000
1605186452138380032,10.0.1.134,449,move_up,-0.470,-0.470,-0.470,0.000,0.000,0.000
1605186453707076096,10.0.1.134,482,move_up,-0.450,-0.450,-0.450,0.000,0.000,0.000
1605186455283610112,10.0.1.134,479,move_up,-0.430,-0.430,-0.430,0.000,0.000,0.000
1605186456870641920,10.0.1.134,480,move_up,-0.410,-0.410,-0.410,0.000,0.000,0.000
1605186458371592960,10.0.1.134,444,move_up,-0.390,-0.390,-0.390,0.000,0.000,0.000
1605186459926656000,10.0.1.134,479,move_up,-0.370,-0.370,-0.370,0.000,0.000,0.000
1605186461493416960,10.0.1.134,461,move_up,-0.350,-0.350,-0.350,0.000,0.000,0.000
1605186463023629056,10.0.1.134,462,move_up,-0.330,-0.330,-0.330,0.000,0.000,0.000
1605186464620587008,10.0.1.134,503,move_up,-0.310,-0.310,-0.310,0.000,0.000,0.000
1605186466157639936,10.0.1.134,456,move_up,-0.290,-0.290,-0.290,0.000,0.000,0.000
1605186467705687040,10.0.1.134,486,move_up,-0.270,-0.270,-0.270,0.000,0.000,0.000
1605186469259023872,10.0.1.134,484,move_up,-0.250,-0.250,-0.250,0.000,0.000,0.000
1605186470748976896,10.0.1.134,437,move_up,-0.230,-0.230,-0.230,0.000,0.000,0.000
1605186472288328960,10.0.1.134,458,move_up,-0.210,-0.210,-0.210,0.000,0.000,0.000
1605186473773936128,10.0.1.134,434,move_up,-0.190,-0.190,-0.190,0.000,0.000,0.000
1605186474914989824,10.0.1.134,45,place,-0.180,-0.180,-0.180,0.000,0.000,0.000
1605186475925289984,10.0.1.134,54,place,-0.170,-0.170,-0.170,0.000,0.000,0.000
1605186476912969216,10.0.1.134,41,place,-0.160,-0.160,-0.160,0.000,0.000,0.000
1605186477916934912,10.0.1.134,43,place,-0.150,-0.150,-0.150,0.000,0.000,0.000
1605186478914208768,10.0.1.134,39,place,-0.140,-0.140,-0.140,0.000,0.000,0.000
1605186479915106048,10.0.1.134,35,place,-0.130,-0.130,-0.130,0.000,0.000,0.000
1605186480914889216,10.0.1.134,32,place,-0.120,-0.120,-0.120,0.000,0.000,0.000
1605186481934513920,10.0.1.134,47,place,-0.110,-0.110,-0.110,0.000,0.000,0.000
1605186482936129024,10.0.1.134,48,place,-0.100,-0.100,-0.100,0.000,0.000,0.000
1605186483936715008,10.0.1.134,47,place,-0.090,-0.090,-0.090,0.000,0.000,0.000
1605186484935774208,10.0.1.134,40,place,-0.080,-0.080,-0.080,0.000,0.000,0.000
1605186485935834880,10.0.1.134,40,place,-0.070,-0.070,-0.070,0.000,0.000,0.000
1605186486938718208,10.0.1.134,41,place,-0.060,-0.060,-0.060,0.000,0.000,0.000
1605186487955193088,10.0.1.134,55,place,-0.050,-0.050,-0.050,0.000,0.000,0.000
1605186488937562880,10.0.1.134,36,place,-0.040,-0.040,-0.040,0.000,0.000,0.000
1605186489951586048,10.0.1.134,48,place,-0.030,-0.030,-0.030,0.000,0.000,0.000
1605186491905865984,10.0.1.134,NaN,place,-0.010,-0.010,-0.010,0.000,0.000,0.000
1605186491950779904,10.0.1.134,44,place,-0.010,-0.010,-0.010,0.000,0.000,0.000
1605186492959769088,10.0.1.134,52,place,0.000,0.000,0.000,0.000,0.000,0.000
1605186494363930112,10.0.1.134,456,move_down,-0.020,-0.020,-0.020,0.000,0.000,0.000
1605186495840910848,10.0.1.134,416,move_down,-0.040,-0.040,-0.040,0.000,0.000,0.000
1605186497361334016,10.0.1.134,437,move_down,-0.060,-0.060,-0.060,0.000,0.000,0.000
1605186498905625088,10.0.1.134,452,move_down,-0.080,-0.080,-0.080,0.000,0.000,0.000
1605186500425400064,10.0.1.134,464,move_down,-0.100,-0.100,-0.100,0.000,0.000,0.000
1605186501970576896,10.0.1.134,431,move_down,-0.120,-0.120,-0.120,0.000,0.000,0.000
1605186503561516032,10.0.1.134,470,move_down,-0.140,-0.140,-0.140,0.000,0.000,0.000
1605186505022612992,10.0.1.134,397,move_down,-0.160,-0.160,-0.160,0.000,0.000,0.000
1605186506608038912,10.0.1.134,460,move_down,-0.180,-0.180,-0.180,0.000,0.000,0.000
1605186508171426048,10.0.1.134,491,move_down,-0.200,-0.200,-0.200,0.000,0.000,0.000
1605186509680258048,10.0.1.134,442,move_down,-0.220,-0.220,-0.220,0.000,0.000,0.000
1605186511340477952,10.0.1.134,534,move_down,-0.240,-0.240,-0.240,0.000,0.000,0.000
1605186512861790976,10.0.1.134,431,move_down,-0.260,-0.260,-0.260,0.000,0.000,0.000
1605186514374337024,10.0.1.134,442,move_down,-0.280,-0.280,-0.280,0.000,0.000,0.000
1605186515862217984,10.0.1.134,466,move_down,-0.300,-0.300,-0.300,0.000,0.000,0.000
1605186517448389120,10.0.1.134,510,move_down,-0.320,-0.320,-0.320,0.000,0.000,0.000
1605186518996370944,10.0.1.134,484,move_down,-0.340,-0.340,-0.340,0.000,0.000,0.000
1605186520558660096,10.0.1.134,479,move_down,-0.360,-0.360,-0.360,0.000,0.000,0.000
1605186522064220928,10.0.1.134,456,move_down,-0.380,-0.380,-0.380,0.000,0.000,0.000
1605186523544652032,10.0.1.134,441,move_down,-0.400,-0.400,-0.400,0.000,0.000,0.000
1605186525047974144,10.0.1.134,447,move_down,-0.420,-0.420,-0.420,0.000,0.000,0.000
1605186526572658944,10.0.1.134,449,move_down,-0.440,-0.440,-0.440,0.000,0.000,0.000
1605186528128542976,10.0.1.134,455,move_down,-0.460,-0.460,-0.460,0.000,0.000,0.000
1605186529701910016,10.0.1.134,532,move_down,-0.480,-0.480,-0.480,0.000,0.000,0.000
1605186531241712128,10.0.1.134,541,move_down,-0.500,-0.500,-0.500,0.000,0.000,0.000
1605186532821476096,10.0.1.134,463,move_down,-0.520,-0.520,-0.520,0.000,0.000,0.000
1605186534459851008,10.0.1.134,590,move_down,-0.540,-0.540,-0.540,0.000,0.000,0.000
1605186536063800064,10.0.1.134,544,move_down,-0.560,-0.560,-0.560,0.000,0.000,0.000
1605186537589547008,10.0.1.134,482,move_down,-0.580,-0.580,-0.580,0.000,0.000,0.000
1605186538720884992,10.0.1.134,44,pick,-0.590,-0.590,-0.590,0.000,0.000,0.000
1605186539740060160,10.0.1.134,61,pick,-0.600,-0.600,-0.600,0.000,0.000,0.000
1605186540708452864,10.0.1.134,27,pick,-0.610,-0.610,-0.610,0.000,0.000,0.000
1605186541732208896,10.0.1.134,49,pick,-0.620,-0.620,-0.620,0.000,0.000,0.000
1605186542727465984,10.0.1.134,43,pick,-0.630,-0.630,-0.630,0.000,0.000,0.000
1605186543735220992,10.0.1.134,49,pick,-0.640,-0.640,-0.640,0.000,0.000,0.000
1605186544727407872,10.0.1.134,38,pick,-0.650,-0.650,-0.650,0.000,0.000,0.000
1605186545732078080,10.0.1.134,41,pick,-0.660,-0.660,-0.660,0.000,0.000,0.000
1605186546728754944,10.0.1.134,37,pick,-0.670,-0.670,-0.670,0.000,0.000,0.000
1605186547727014144,10.0.1.134,34,pick,-0.680,-0.680,-0.680,0.000,0.000,0.000
1605186548729223936,10.0.1.134,35,pick,-0.690,-0.690,-0.690,0.000,0.000,0.000
1605186549726448128,10.0.1.134,31,pick,-0.700,-0.700,-0.700,0.000,0.000,0.000
1605186550731673088,10.0.1.134,36,pick,-0.710,-0.710,-0.710,0.000,0.000,0.000
1605186551748510976,10.0.1.134,49,pick,-0.720,-0.720,-0.720,0.000,0.000,0.000
1605186552760123904,10.0.1.134,60,pick,-0.730,-0.730,-0.730,0.000,0.000,0.000
1605186553751910912,10.0.1.134,44,pick,-0.740,-0.740,-0.740,0.000,0.000,0.000
1605186554753377792,10.0.1.134,44,pick,-0.750,-0.750,-0.750,0.000,0.000,0.000
1605186555763336960,10.0.1.134,41,pick,-0.760,-0.760,-0.760,0.000,0.000,0.000
1605186556763211008,10.0.1.134,40,pick,-0.770,-0.770,-0.770,0.000,0.000,0.000
1605186558217289984,10.0.1.134,493,move_up,-0.750,-0.750,-0.750,0.000,0.000,0.000
1605186559862435072,10.0.1.134,588,move_up,-0.730,-0.730,-0.730,0.000,0.000,0.000
1605186561339972864,10.0.1.134,469,move_up,-0.710,-0.710,-0.710,0.000,0.000,0.000
1605186562961792000,10.0.1.134,509,move_up,-0.690,-0.690,-0.690,0.000,0.000,0.000
1605186564486660864,10.0.1.134,424,move_up,-0.670,-0.670,-0.670,0.000,0.000,0.000
1605186566071398912,10.0.1.134,494,move_up,-0.650,-0.650,-0.650,0.000,0.000,0.000
1605186567583479808,10.0.1.134,456,move_up,-0.630,-0.630,-0.630,0.000,0.000,0.000
1605186569204950016,10.0.1.134,534,move_up,-0.610,-0.610,-0.610,0.000,0.000,0.000
1605186570691442944,10.0.1.134,434,move_up,-0.590,-0.590,-0.590,0.000,0.000,0.000
1605186572175008000,10.0.1.134,443,move_up,-0.570,-0.570,-0.570,0.000,0.000,0.000
1605186573759385088,10.0.1.134,513,move_up,-0.550,-0.550,-0.550,0.000,0.000,0.000
1605186575327117824,10.0.1.134,491,move_up,-0.530,-0.530,-0.530,0.000,0.000,0.000
1605186576859427840,10.0.1.134,459,move_up,-0.510,-0.510,-0.510,0.000,0.000,0.000
1605186578497144832,10.0.1.134,507,move_up,-0.490,-0.490,-0.490,0.000,0.000,0.000
1605186580039688192,10.0.1.134,469,move_up,-0.470,-0.470,-0.470,0.000,0.000,0.000
1605186581565402112,10.0.1.134,447,move_up,-0.450,-0.450,-0.450,0.000,0.000,0.000
1605186583255913984,10.0.1.134,572,move_up,-0.430,-0.430,-0.430,0.000,0.000,0.000
1605186584864676096,10.0.1.134,498,move_up,-0.410,-0.410,-0.410,0.000,0.000,0.000
1605186586408122112,10.0.1.134,478,move_up,-0.390,-0.390,-0.390,0.000,0.000,0.000
1605186588072465920,10.0.1.134,566,move_up,-0.370,-0.370,-0.370,0.000,0.000,0.000
1605186589681341952,10.0.1.134,523,move_up,-0.350,-0.350,-0.350,0.000,0.000,0.000
1605186591208414976,10.0.1.134,498,move_up,-0.330,-0.330,-0.330,0.000,0.000,0.000
1605186592789212928,10.0.1.134,473,move_up,-0.310,-0.310,-0.310,0.000,0.000,0.000
1605186594381401088,10.0.1.134,514,move_up,-0.290,-0.290,-0.290,0.000,0.000,0.000
1605186595880974080,10.0.1.134,478,move_up,-0.270,-0.270,-0.270,0.000,0.000,0.000
1605186597478550784,10.0.1.134,542,move_up,-0.250,-0.250,-0.250,0.000,0.000,0.000
1605186599081597952,10.0.1.134,511,move_up,-0.230,-0.230,-0.230,0.000,0.000,0.000
1605186600570081024,10.0.1.134,440,move_up,-0.210,-0.210,-0.210,0.000,0.000,0.000
1605186602331150080,10.0.1.134,597,move_up,-0.190,-0.190,-0.190,0.000,0.000,0.000
1605186603451256064,10.0.1.134,59,place,-0.180,-0.180,-0.180,0.000,0.000,0.000
1605186604451858944,10.0.1.134,45,place,-0.170,-0.170,-0.170,0.000,0.000,0.000
1605186605470622976,10.0.1.134,63,place,-0.160,-0.160,-0.160,0.000,0.000,0.000
1605186606455051776,10.0.1.134,45,place,-0.150,-0.150,-0.150,0.000,0.000,0.000
1605186607460417024,10.0.1.134,46,place,-0.140,-0.140,-0.140,0.000,0.000,0.000
1605186608471788800,10.0.1.134,55,place,-0.130,-0.130,-0.130,0.000,0.000,0.000
1605186609470854144,10.0.1.134,51,place,-0.120,-0.120,-0.120,0.000,0.000,0.000
1605186610494424064,10.0.1.134,73,place,-0.110,-0.110,-0.110,0.000,0.000,0.000
1605186611483390976,10.0.1.134,61,place,-0.100,-0.100,-0.100,0.000,0.000,0.000
1605186612467011072,10.0.1.134,43,place,-0.090,-0.090,-0.090,0.000,0.000,0.000
1605186613470774784,10.0.1.134,44,place,-0.080,-0.080,-0.080,0.000,0.000,0.000
1605186614478077952,10.0.1.134,50,place,-0.070,-0.070,-0.070,0.000,0.000,0.000
1605186615495913984,10.0.1.134,66,place,-0.060,-0.060,-0.060,0.000,0.000,0.000
1605186616496237056,10.0.1.134,59,place,-0.050,-0.050,-0.050,0.000,0.000,0.000
1605186617473390080,10.0.1.134,35,place,-0.040,-0.040,-0.040,0.000,0.000,0.000
1605186618489514240,10.0.1.134,46,place,-0.030,-0.030,-0.030,0.000,0.000,0.000
1605186620446088960,10.0.1.134,NaN,place,-0.010,-0.010,-0.010,0.000,0.000,0.000
1605186620493518080,10.0.1.134,47,place,-0.010,-0.010,-0.010,0.000,0.000,0.000
1605186621500674048,10.0.1.134,47,place,0.000,0.000,0.000,0.000,0.000,0.000
1605186623005264128,10.0.1.134,545,move_down,-0.020,-0.020,-0.020,0.000,0.000,0.000
1605186624591332864,10.0.1.134,463,move_down,-0.040,-0.040,-0.040,0.000,0.000,0.000
1605186626191939072,10.0.1.134,480,move_down,-0.060,-0.060,-0.060,0.000,0.000,0.000
1605186627780456192,10.0.1.134,472,move_down,-0.080,-0.080,-0.080,0.000,0.000,0.000
1605186629312057856,10.0.1.134,460,move_down,-0.100,-0.100,-0.100,0.000,0.000,0.000
1605186630897152000,10.0.1.134,505,move_down,-0.120,-0.120,-0.120,0.000,0.000,0.000
1605186632430014976,10.0.1.134,412,move_down,-0.140,-0.140,-0.140,0.000,0.000,0.000
1605186634106479872,10.0.1.134,499,move_down,-0.160,-0.160,-0.160,0.000,0.000,0.000
1605186635685998080,10.0.1.134,474,move_down,-0.180,-0.180,-0.180,0.000,0.000,0.000
1605186637163952128,10.0.1.134,426,move_down,-0.200,-0.200,-0.200,0.000,0.000,0.000
1605186638704642048,10.0.1.134,432,move_down,-0.220,-0.220,-0.220,0.000,0.000,0.000
1605186640309776128,10.0.1.134,505,move_down,-0.240,-0.240,-0.240,0.000,0.000,0.000
1605186641856730880,10.0.1.134,509,move_down,-0.260,-0.260,-0.260,0.000,0.000,0.000
1605186643448582912,10.0.1.134,543,move_down,-0.280,-0.280,-0.280,0.000,0.000,0.000
1605186645061906944,10.0.1.134,541,move_down,-0.300,-0.300,-0.300,0.000,0.000,0.000
1605186646615380992,10.0.1.134,452,move_down,-0.320,-0.320,-0.320,0.000,0.000,0.000
1605186648280570112,10.0.1.134,484,move_down,-0.340,-0.340,-0.340,0.000,0.000,0.000
1605186649832470016,10.0.1.134,501,move_down,-0.360,-0.360,-0.360,0.000,0.000,0.000
1605186651434786048,10.0.1.134,472,move_down,-0.380,-0.380,-0.380,0.000,0.000,0.000
1605186652994281984,10.0.1.134,497,move_down,-0.400,-0.400,-0.400,0.000,0.000,0.000
1605186654492697856,10.0.1.134,413,move_down,-0.420,-0.420,-0.420,0.000,0.000,0.000
1605186656073679872,10.0.1.134,558,move_down,-0.440,-0.440,-0.440,0.000,0.000,0.000
1605186657610166016,10.0.1.134,488,move_down,-0.460,-0.460,-0.460,0.000,0.000,0.000
1605186659241790976,10.0.1.134,512,move_down,-0.480,-0.480,-0.480,0.000,0.000,0.000
1605186660850979072,10.0.1.134,549,move_down,-0.500,-0.500,-0.500,0.000,0.000,0.000
1605186662370883840,10.0.1.134,451,move_down,-0.520,-0.520,-0.520,0.000,0.000,0.000
1605186663872486144,10.0.1.134,423,move_down,-0.540,-0.540,-0.540,0.000,0.000,0.000
1605186665439794944,10.0.1.134,480,move_down,-0.560,-0.560,-0.560,0.000,0.000,0.000
1605186666987591936,10.0.1.134,465,move_down,-0.580,-0.580,-0.580,0.000,0.000,0.000
1605186668107649024,10.0.1.134,31,pick,-0.590,-0.590,-0.590,0.000,0.000,0.000
1605186669128890112,10.0.1.134,50,pick,-0.600,-0.600,-0.600,0.000,0.000,0.000
1605186670128251136,10.0.1.134,47,pick,-0.610,-0.610,-0.610,0.000,0.000,0.000
1605186671127755008,10.0.1.134,45,pick,-0.620,-0.620,-0.620,0.000,0.000,0.000
1605186672128609024,10.0.1.134,44,pick,-0.630,-0.630,-0.630,0.000,0.000,0.000
1605186673133431040,10.0.1.134,46,pick,-0.640,-0.640,-0.640,0.000,0.000,0.000
1605186674127011072,10.0.1.134,35,pick,-0.650,-0.650,-0.650,0.000,0.000,0.000
1605186676103332096,10.0.1.134,NaN,pick,-0.670,-0.670,-0.670,0.000,0.000,0.000
1605186676166501120,10.0.1.134,63,pick,-0.670,-0.670,-0.670,0.000,0.000,0.000
1605186677157360128,10.0.1.134,52,pick,-0.680,-0.680,-0.680,0.000,0.000,0.000
1605186678139803904,10.0.1.134,33,pick,-0.690,-0.690,-0.690,0.000,0.000,0.000
1605186679153486080,10.0.1.134,45,pick,-0.700,-0.700,-0.700,0.000,0.000,0.000
1605186680170035968,10.0.1.134,61,pick,-0.710,-0.710,-0.710,0.000,0.000,0.000
1605186681154031872,10.0.1.134,43,pick,-0.720,-0.720,-0.720,0.000,0.000,0.000
1605186682141850112,10.0.1.134,30,pick,-0.730,-0.730,-0.730,0.000,0.000,0.000
1605186683150854144,10.0.1.134,37,pick,-0.740,-0.740,-0.740,0.000,0.000,0.000
1605186684159264000,10.0.1.134,41,pick,-0.750,-0.750,-0.750,0.000,0.000,0.000
1605186685168715008,10.0.1.134,49,pick,-0.760,-0.760,-0.760,0.000,0.000,0.000
1605186686162505984,10.0.1.134,37,pick,-0.770,-0.770,-0.770,0.000,0.000,0.000
1605186687592303104,10.0.1.134,466,move_up,-0.750,-0.750,-0.750,0.000,0.000,0.000
1605186689161693952,10.0.1.134,490,move_up,-0.730,-0.730,-0.730,0.000,0.000,0.000
1605186690748577024,10.0.1.134,530,move_up,-0.710,-0.710,-0.710,0.000,0.000,0.000
1605186692353192192,10.0.1.134,530,move_up,-0.690,-0.690,-0.690,0.000,0.000,0.000
1605186693935336192,10.0.1.134,514,move_up,-0.670,-0.670,-0.670,0.000,0.000,0.000
1605186695548030976,10.0.1.134,517,move_up,-0.650,-0.650,-0.650,0.000,0.000,0.000
1605186697192318976,10.0.1.134,530,move_up,-0.630,-0.630,-0.630,0.000,0.000,0.000
1605186698785476096,10.0.1.134,511,move_up,-0.610,-0.610,-0.610,0.000,0.000,0.000
1605186700282521088,10.0.1.134,400,move_up,-0.590,-0.590,-0.590,0.000,0.000,0.000
1605186701860368128,10.0.1.134,505,move_up,-0.570,-0.570,-0.570,0.000,0.000,0.000
1605186703396200960,10.0.1.134,463,move_up,-0.550,-0.550,-0.550,0.000,0.000,0.000
1605186705022140928,10.0.1.134,515,move_up,-0.530,-0.530,-0.530,0.000,0.000,0.000
1605186706616174080,10.0.1.134,481,move_up,-0.510,-0.510,-0.510,0.000,0.000,0.000
1605186708129683968,10.0.1.134,439,move_up,-0.490,-0.490,-0.490,0.000,0.000,0.000
1605186709803793920,10.0.1.134,614,move_up,-0.470,-0.470,-0.470,0.000,0.000,0.000
1605186711332348160,10.0.1.134,476,move_up,-0.450,-0.450,-0.450,0.000,0.000,0.000
1605186712904463104,10.0.1.134,528,move_up,-0.430,-0.430,-0.430,0.000,0.000,0.000
1605186714476474880,10.0.1.134,570,move_up,-0.410,-0.410,-0.410,0.000,0.000,0.000
1605186716089253888,10.0.1.134,524,move_up,-0.390,-0.390,-0.390,0.000,0.000,0.000
1605186717638360064,10.0.1.134,507,move_up,-0.370,-0.370,-0.370,0.000,0.000,0.000
1605186719181916928,10.0.1.134,496,move_up,-0.350,-0.350,-0.350,0.000,0.000,0.000
1605186720794505984,10.0.1.134,499,move_up,-0.330,-0.330,-0.330,0.000,0.000,0.000
1605186722319154944,10.0.1.134,452,move_up,-0.310,-0.310,-0.310,0.000,0.000,0.000
1605186723856640000,10.0.1.134,458,move_up,-0.290,-0.290,-0.290,0.000,0.000,0.000
1605186725386120192,10.0.1.134,477,move_up,-0.270,-0.270,-0.270,0.000,0.000,0.000
1605186726850466048,10.0.1.134,427,move_up,-0.250,-0.250,-0.250,0.000,0.000,0.000
1605186728400242176,10.0.1.134,465,move_up,-0.230,-0.230,-0.230,0.000,0.000,0.000
1605186730011988992,10.0.1.134,515,move_up,-0.210,-0.210,-0.210,0.000,0.000,0.000
1605186731571357952,10.0.1.134,451,move_up,-0.190,-0.190,-0.190,0.000,0.000,0.000
1605186732680097024,10.0.1.134,40,place,-0.180,-0.180,-0.180,0.000,0.000,0.000
1605186733686689024,10.0.1.134,45,place,-0.170,-0.170,-0.170,0.000,0.000,0.000
1605186734714190848,10.0.1.134,47,place,-0.160,-0.160,-0.160,0.000,0.000,0.000
1605186735764174080,10.0.1.134,95,place,-0.150,-0.150,-0.150,0.000,0.000,0.000
1605186737671237888,10.0.1.134,NaN,place,-0.130,-0.130,-0.130,0.000,0.000,0.000
1605186737709676032,10.0.1.134,38,place,-0.130,-0.130,-0.130,0.000,0.000,0.000
1605186738707225088,10.0.1.134,34,place,-0.120,-0.120,-0.120,0.000,0.000,0.000
1605186739705670144,10.0.1.134,32,place,-0.110,-0.110,-0.110,0.000,0.000,0.000
1605186740707896832,10.0.1.134,33,place,-0.100,-0.100,-0.100,0.000,0.000,0.000
1605186741727195904,10.0.1.134,51,place,-0.090,-0.090,-0.090,0.000,0.000,0.000
1605186742727881984,10.0.1.134,50,place,-0.080,-0.080,-0.080,0.000,0.000,0.000
1605186743719769856,10.0.1.134,40,place,-0.070,-0.070,-0.070,0.000,0.000,0.000
1605186744721736960,10.0.1.134,39,place,-0.060,-0.060,-0.060,0.000,0.000,0.000
1605186745757412864,10.0.1.134,72,place,-0.050,-0.050,-0.050,0.000,0.000,0.000
1605186746757664000,10.0.1.134,53,place,-0.040,-0.040,-0.040,0.000,0.000,0.000
1605186747742764032,10.0.1.134,36,place,-0.030,-0.030,-0.030,0.000,0.000,0.000
1605186748760157184,10.0.1.134,50,place,-0.020,-0.020,-0.020,0.000,0.000,0.000
1605186749761347072,10.0.1.134,50,place,-0.010,-0.010,-0.010,0.000,0.000,0.000
1605186750747106048,10.0.1.134,34,place,0.000,0.000,0.000,0.000,0.000,0.000
1605186752186294016,10.0.1.134,470,move_down,-0.020,-0.020,-0.020,0.000,0.000,0.000
1605186753773976064,10.0.1.134,533,move_down,-0.040,-0.040,-0.040,0.000,0.000,0.000
1605186755389925888,10.0.1.134,491,move_down,-0.060,-0.060,-0.060,0.000,0.000,0.000
1605186756962714880,10.0.1.134,514,move_down,-0.080,-0.080,-0.080,0.000,0.000,0.000
1605186758547151104,10.0.1.134,488,move_down,-0.100,-0.100,-0.100,0.000,0.000,0.000
1605186760107019776,10.0.1.134,456,move_down,-0.120,-0.120,-0.120,0.000,0.000,0.000
1605186761667796992,10.0.1.134,502,move_down,-0.140,-0.140,-0.140,0.000,0.000,0.000
1605186763300976128,10.0.1.134,548,move_down,-0.160,-0.160,-0.160,0.000,0.000,0.000
1605186765075907072,10.0.1.134,675,move_down,-0.180,-0.180,-0.180,0.000,0.000,0.000
1605186766701942016,10.0.1.134,587,move_down,-0.200,-0.200,-0.200,0.000,0.000,0.000
1605186768309683968,10.0.1.134,539,move_down,-0.220,-0.220,-0.220,0.000,0.000,0.000
1605186770006316800,10.0.1.134,587,move_down,-0.240,-0.240,-0.240,0.000,0.000,0.000
1605186771497601024,10.0.1.134,469,move_down,-0.260,-0.260,-0.260,0.000,0.000,0.000
1605186773038593024,10.0.1.134,453,move_down,-0.280,-0.280,-0.280,0.000,0.000,0.000
1605186774662426112,10.0.1.134,505,move_down,-0.300,-0.300,-0.300,0.000,0.000,0.000
1605186776385356032,10.0.1.134,520,move_down,-0.320,-0.320,-0.320,0.000,0.000,0.000
1605186777989108992,10.0.1.134,562,move_down,-0.340,-0.340,-0.340,0.000,0.000,0.000
1605186779659297024,10.0.1.134,582,move_down,-0.360,-0.360,-0.360,0.000,0.000,0.000
1605186781160957952,10.0.1.134,459,move_down,-0.380,-0.380,-0.380,0.000,0.000,0.000
1605186782724463872,10.0.1.134,490,move_down,-0.400,-0.400,-0.400,0.000,0.000,0.000
1605186784325308928,10.0.1.134,539,move_down,-0.420,-0.420,-0.420,0.000,0.000,0.000
1605186785916460032,10.0.1.134,512,move_down,-0.440,-0.440,-0.440,0.000,0.000,0.000
1605186787493709056,10.0.1.134,478,move_down,-0.460,-0.460,-0.460,0.000,0.000,0.000
1605186789066239232,10.0.1.134,540,move_down,-0.480,-0.480,-0.480,0.000,0.000,0.000
1605186790661792000,10.0.1.134,484,move_down,-0.500,-0.500,-0.500,0.000,0.000,0.000
1605186792199575808,10.0.1.134,472,move_down,-0.520,-0.520,-0.520,0.000,0.000,0.000
1605186793691623936,10.0.1.134,491,move_down,-0.540,-0.540,-0.540,0.000,0.000,0.000
1605186795212094976,10.0.1.134,504,move_down,-0.560,-0.560,-0.560,0.000,0.000,0.000
1605186796817336064,10.0.1.134,545,move_down,-0.580,-0.580,-0.580,0.000,0.000,0.000
1605186797935086848,10.0.1.134,33,pick,-0.590,-0.590,-0.590,0.000,0.000,0.000
1605186798936329984,10.0.1.134,33,pick,-0.600,-0.600,-0.600,0.000,0.000,0.000
1605186799936696064,10.0.1.134,32,pick,-0.610,-0.610,-0.610,0.000,0.000,0.000
1605186800959760896,10.0.1.134,55,pick,-0.620,-0.620,-0.620,0.000,0.000,0.000
1605186801936267008,10.0.1.134,30,pick,-0.630,-0.630,-0.630,0.000,0.000,0.000
1605186802960267008,10.0.1.134,53,pick,-0.640,-0.640,-0.640,0.000,0.000,0.000
1605186803962941952,10.0.1.134,53,pick,-0.650,-0.650,-0.650,0.000,0.000,0.000
1605186805927119872,10.0.1.134,NaN,pick,-0.670,-0.670,-0.670,0.000,0.000,0.000
1605186805978203136,10.0.1.134,51,pick,-0.670,-0.670,-0.670,0.000,0.000,0.000
1605186806973527808,10.0.1.134,39,pick,-0.680,-0.680,-0.680,0.000,0.000,0.000
1605186807987174912,10.0.1.134,52,pick,-0.690,-0.690,-0.690,0.000,0.000,0.000
1605186808975884032,10.0.1.134,40,pick,-0.700,-0.700,-0.700,0.000,0.000,0.000
1605186809979451904,10.0.1.134,42,pick,-0.710,-0.710,-0.710,0.000,0.000,0.000
1605186810976912128,10.0.1.134,39,pick,-0.720,-0.720,-0.720,0.000,0.000,0.000
1605186811976138240,10.0.1.134,37,pick,-0.730,-0.730,-0.730,0.000,0.000,0.000
1605186812978012928,10.0.1.134,37,pick,-0.740,-0.740,-0.740,0.000,0.000,0.000
1605186814943552000,10.0.1.134,NaN,pick,-0.760,-0.760,-0.760,0.000,0.000,0.000
1605186815003011840,10.0.1.134,59,pick,-0.760,-0.760,-0.760,0.000,0.000,0.000
1605186816006583808,10.0.1.134,61,pick,-0.770,-0.770,-0.770,0.000,0.000,0.000
1605186817471363072,10.0.1.134,521,move_up,-0.750,-0.750,-0.750,0.000,0.000,0.000
1605186819157043968,10.0.1.134,549,move_up,-0.730,-0.730,-0.730,0.000,0.000,0.000
1605186820699749120,10.0.1.134,539,move_up,-0.710,-0.710,-0.710,0.000,0.000,0.000
1605186822320872192,10.0.1.134,589,move_up,-0.690,-0.690,-0.690,0.000,0.000,0.000
1605186823855115776,10.0.1.134,477,move_up,-0.670,-0.670,-0.670,0.000,0.000,0.000
1605186825407203840,10.0.1.134,517,move_up,-0.650,-0.650,-0.650,0.000,0.000,0.000
1605186827212337920,10.0.1.134,624,move_up,-0.630,-0.630,-0.630,0.000,0.000,0.000
1605186828862571008,10.0.1.134,541,move_up,-0.610,-0.610,-0.610,0.000,0.000,0.000
1605186830482983168,10.0.1.134,523,move_up,-0.590,-0.590,-0.590,0.000,0.000,0.000
1605186832073358080,10.0.1.134,550,move_up,-0.570,-0.570,-0.570,0.000,0.000,0.000
1605186833723827968,10.0.1.134,551,move_up,-0.550,-0.550,-0.550,0.000,0.000,0.000
1605186835407044864,10.0.1.134,600,move_up,-0.530,-0.530,-0.530,0.000,0.000,0.000
1605186836950306816,10.0.1.134,466,move_up,-0.510,-0.510,-0.510,0.000,0.000,0.000
1605186838541219072,10.0.1.134,511,move_up,-0.490,-0.490,-0.490,0.000,0.000,0.000
1605186840049856000,10.0.1.134,464,move_up,-0.470,-0.470,-0.470,0.000,0.000,0.000
1605186841769643008,10.0.1.134,580,move_up,-0.450,-0.450,-0.450,0.000,0.000,0.000
1605186843412438016,10.0.1.134,559,move_up,-0.430,-0.430,-0.430,0.000,0.000,0.000
1605186844999265024,10.0.1.134,507,move_up,-0.410,-0.410,-0.410,0.000,0.000,0.000
1605186846677881856,10.0.1.134,587,move_up,-0.390,-0.390,-0.390,0.000,0.000,0.000
1605186848216177920,10.0.1.134,496,move_up,-0.370,-0.370,-0.370,0.000,0.000,0.000
1605186849762355200,10.0.1.134,478,move_up,-0.350,-0.350,-0.350,0.000,0.000,0.000
1605186851418493952,10.0.1.134,577,move_up,-0.330,-0.330,-0.330,0.000,0.000,0.000
1605186853019324928,10.0.1.134,545,move_up,-0.310,-0.310,-0.310,0.000,0.000,0.000
1605186854668087040,10.0.1.134,539,move_up,-0.290,-0.290,-0.290,0.000,0.000,0.000
1605186856251008000,10.0.1.134,490,move_up,-0.270,-0.270,-0.270,0.000,0.000,0.000
1605186857827493888,10.0.1.134,529,move_up,-0.250,-0.250,-0.250,0.000,0.000,0.000
1605186859317001984,10.0.1.134,427,move_up,-0.230,-0.230,-0.230,0.000,0.000,0.000
1605186860922616064,10.0.1.134,516,move_up,-0.210,-0.210,-0.210,0.000,0.000,0.000
1605186862427261184,10.0.1.134,432,move_up,-0.190,-0.190,-0.190,0.000,0.000,0.000
1605186863566228992,10.0.1.134,43,place,-0.180,-0.180,-0.180,0.000,0.000,0.000
1605186864574599936,10.0.1.134,50,place,-0.170,-0.170,-0.170,0.000,0.000,0.000
1605186866534575872,10.0.1.134,NaN,place,-0.150,-0.150,-0.150,0.000,0.000,0.000
1605186866569176832,10.0.1.134,34,place,-0.150,-0.150,-0.150,0.000,0.000,0.000
1605186867595518976,10.0.1.134,59,place,-0.140,-0.140,-0.140,0.000,0.000,0.000
1605186868578947072,10.0.1.134,41,place,-0.130,-0.130,-0.130,0.000,0.000,0.000
1605186869590502144,10.0.1.134,42,place,-0.120,-0.120,-0.120,0.000,0.000,0.000
1605186870591074816,10.0.1.134,41,place,-0.110,-0.110,-0.110,0.000,0.000,0.000
1605186871591817984,10.0.1.134,40,place,-0.100,-0.100,-0.100,0.000,0.000,0.000
1605186872596931072,10.0.1.134,40,place,-0.090,-0.090,-0.090,0.000,0.000,0.000
1605186873589565952,10.0.1.134,32,place,-0.080,-0.080,-0.080,0.000,0.000,0.000
1605186874625426176,10.0.1.134,64,place,-0.070,-0.070,-0.070,0.000,0.000,0.000
1605186875615011072,10.0.1.134,52,place,-0.060,-0.060,-0.060,0.000,0.000,0.000
1605186876611362048,10.0.1.134,46,place,-0.050,-0.050,-0.050,0.000,0.000,0.000
1605186877615124992,10.0.1.134,49,place,-0.040,-0.040,-0.040,0.000,0.000,0.000
1605186878615998976,10.0.1.134,49,place,-0.030,-0.030,-0.030,0.000,0.000,0.000
1605186879615580160,10.0.1.134,47,place,-0.020,-0.020,-0.020,0.000,0.000,0.000
1605186880612454912,10.0.1.134,42,place,-0.010,-0.010,-0.010,0.000,0.000,0.000
1605186882571559936,10.0.1.134,NaN,move_down,-0.020,-0.020,-0.020,0.000,0.000,0.000
1605186883079188992,10.0.1.134,507,move_down,-0.020,-0.020,-0.020,0.000,0.000,0.000
1605186884754447104,10.0.1.134,534,move_down,-0.040,-0.040,-0.040,0.000,0.000,0.000
1605186886334593024,10.0.1.134,453,move_down,-0.060,-0.060,-0.060,0.000,0.000,0.000
1605186887890237184,10.0.1.134,465,move_down,-0.080,-0.080,-0.080,0.000,0.000,0.000
1605186889568185088,10.0.1.134,568,move_down,-0.100,-0.100,-0.100,0.000,0.000,0.000
1605186891290479872,10.0.1.134,583,move_down,-0.120,-0.120,-0.120,0.000,0.000,0.000
1605186893104044032,10.0.1.134,548,move_down,-0.140,-0.140,-0.140,0.000,0.000,0.000
1605186894638511872,10.0.1.134,477,move_down,-0.160,-0.160,-0.160,0.000,0.000,0.000
1605186896217231872,10.0.1.134,452,move_down,-0.180,-0.180,-0.180,0.000,0.000,0.000
1605186897654002944,10.0.1.134,429,move_down,-0.200,-0.200,-0.200,0.000,0.000,0.000
1605186899337394944,10.0.1.134,588,move_down,-0.220,-0.220,-0.220,0.000,0.000,0.000
1605186900874280960,10.0.1.134,490,move_down,-0.240,-0.240,-0.240,0.000,0.000,0.000
1605186902512204800,10.0.1.134,525,move_down,-0.260,-0.260,-0.260,0.000,0.000,0.000
1605186904067312896,10.0.1.134,510,move_down,-0.280,-0.280,-0.280,0.000,0.000,0.000
1605186905665616896,10.0.1.134,558,move_down,-0.300,-0.300,-0.300,0.000,0.000,0.000
1605186907315918848,10.0.1.134,555,move_down,-0.320,-0.320,-0.320,0.000,0.000,0.000
1605186909135364096,10.0.1.134,741,move_down,-0.340,-0.340,-0.340,0.000,0.000,0.000
1605186911066784000,10.0.1.134,641,move_down,-0.360,-0.360,-0.360,0.000,0.000,0.000
1605186912672439040,10.0.1.134,540,move_down,-0.380,-0.380,-0.380,0.000,0.000,0.000
1605186914316525056,10.0.1.134,562,move_down,-0.400,-0.400,-0.400,0.000,0.000,0.000
1605186916007383040,10.0.1.134,569,move_down,-0.420,-0.420,-0.420,0.000,0.000,0.000
1605186917960903936,10.0.1.134,613,move_down,-0.440,-0.440,-0.440,0.000,0.000,0.000
1605186919600523008,10.0.1.134,518,move_down,-0.460,-0.460,-0.460,0.000,0.000,0.000
1605186921148286976,10.0.1.134,478,move_down,-0.480,-0.480,-0.480,0.000,0.000,0.000
1605186922676605952,10.0.1.134,425,move_down,-0.500,-0.500,-0.500,0.000,0.000,0.000
1605186924302788864,10.0.1.134,583,move_down,-0.520,-0.520,-0.520,0.000,0.000,0.000
1605186925886109184,10.0.1.134,508,move_down,-0.540,-0.540,-0.540,0.000,0.000,0.000
1605186927455787776,10.0.1.134,514,move_down,-0.560,-0.560,-0.560,0.000,0.000,0.000
1605186929077459200,10.0.1.134,587,move_down,-0.580,-0.580,-0.580,0.000,0.000,0.000
1605186930221240064,10.0.1.134,48,pick,-0.590,-0.590,-0.590,0.000,0.000,0.000
1605186931218381056,10.0.1.134,40,pick,-0.600,-0.600,-0.600,0.000,0.000,0.000
1605186932220143104,10.0.1.134,38,pick,-0.610,-0.610,-0.610,0.000,0.000,0.000
1605186933255287040,10.0.1.134,70,pick,-0.620,-0.620,-0.620,0.000,0.000,0.000
1605186934216049920,10.0.1.134,29,pick,-0.630,-0.630,-0.630,0.000,0.000,0.000
1605186935252141056,10.0.1.134,63,pick,-0.640,-0.640,-0.640,0.000,0.000,0.000
1605186936273221120,10.0.1.134,81,pick,-0.650,-0.650,-0.650,0.000,0.000,0.000
1605186937271214848,10.0.1.134,75,pick,-0.660,-0.660,-0.660,0.000,0.000,0.000
1605186939199296000,10.0.1.134,NaN,pick,-0.680,-0.680,-0.680,0.000,0.000,0.000
1605186939250617088,10.0.1.134,51,pick,-0.680,-0.680,-0.680,0.000,0.000,0.000
1605186940260406016,10.0.1.134,59,pick,-0.690,-0.690,-0.690,0.000,0.000,0.000
1605186941264998912,10.0.1.134,62,pick,-0.700,-0.700,-0.700,0.000,0.000,0.000
1605186943207608064,10.0.1.134,NaN,pick,-0.720,-0.720,-0.720,0.000,0.000,0.000
1605186943289414912,10.0.1.134,81,pick,-0.720,-0.720,-0.720,0.000,0.000,0.000
1605186944269244928,10.0.1.134,59,pick,-0.730,-0.730,-0.730,0.000,0.000,0.000
1605186945255110912,10.0.1.134,43,pick,-0.740,-0.740,-0.740,0.000,0.000,0.000
1605186946260652032,10.0.1.134,47,pick,-0.750,-0.750,-0.750,0.000,0.000,0.000
1605186947258498048,10.0.1.134,44,pick,-0.760,-0.760,-0.760,0.000,0.000,0.000
1605186948270138880,10.0.1.134,54,pick,-0.770,-0.770,-0.770,0.000,0.000,0.000
1605186949788862976,10.0.1.134,571,move_up,-0.750,-0.750,-0.750,0.000,0.000,0.000
1605186951369640960,10.0.1.134,487,move_up,-0.730,-0.730,-0.730,0.000,0.000,0.000
1605186952973568000,10.0.1.134,528,move_up,-0.710,-0.710,-0.710,0.000,0.000,0.000
1605186954835174144,10.0.1.134,685,move_up,-0.690,-0.690,-0.690,0.000,0.000,0.000
1605186956640996864,10.0.1.134,661,move_up,-0.670,-0.670,-0.670,0.000,0.000,0.000
1605186958418082048,10.0.1.134,650,move_up,-0.650,-0.650,-0.650,0.000,0.000,0.000
1605186959946238976,10.0.1.134,489,move_up,-0.630,-0.630,-0.630,0.000,0.000,0.000
1605186961536845824,10.0.1.134,511,move_up,-0.610,-0.610,-0.610,0.000,0.000,0.000
1605186963171745024,10.0.1.134,477,move_up,-0.590,-0.590,-0.590,0.000,0.000,0.000
1605186964927602176,10.0.1.134,673,move_up,-0.570,-0.570,-0.570,0.000,0.000,0.000
1605186966525485056,10.0.1.134,506,move_up,-0.550,-0.550,-0.550,0.000,0.000,0.000
1605186968267983872,10.0.1.134,686,move_up,-0.530,-0.530,-0.530,0.000,0.000,0.000
1605186969779046144,10.0.1.134,501,move_up,-0.510,-0.510,-0.510,0.000,0.000,0.000
1605186971400944896,10.0.1.134,509,move_up,-0.490,-0.490,-0.490,0.000,0.000,0.000
1605186973320608000,10.0.1.134,775,move_up,-0.470,-0.470,-0.470,0.000,0.000,0.000
1605186975139378176,10.0.1.134,709,move_up,-0.450,-0.450,-0.450,0.000,0.000,0.000
1605186976889741824,10.0.1.134,533,move_up,-0.430,-0.430,-0.430,0.000,0.000,0.000
1605186978535299072,10.0.1.134,542,move_up,-0.410,-0.410,-0.410,0.000,0.000,0.000
1605186980272172800,10.0.1.134,637,move_up,-0.390,-0.390,-0.390,0.000,0.000,0.000
1605186982232009984,10.0.1.134,834,move_up,-0.370,-0.370,-0.370,0.000,0.000,0.000
1605186983963011072,10.0.1.134,635,move_up,-0.350,-0.350,-0.350,0.000,0.000,0.000
1605186985715995136,10.0.1.134,624,move_up,-0.330,-0.330,-0.330,0.000,0.000,0.000
1605186987286436096,10.0.1.134,514,move_up,-0.310,-0.310,-0.310,0.000,0.000,0.000
1605186989046407936,10.0.1.134,637,move_up,-0.290,-0.290,-0.290,0.000,0.000,0.000
1605186990616647936,10.0.1.134,497,move_up,-0.270,-0.270,-0.270,0.000,0.000,0.000
1605186992391126016,10.0.1.134,652,move_up,-0.250,-0.250,-0.250,0.000,0.000,0.000
1605186994035932928,10.0.1.134,514,move_up,-0.230,-0.230,-0.230,0.000,0.000,0.000
1605186995645773824,10.0.1.134,537,move_up,-0.210,-0.210,-0.210,0.000,0.000,0.000
1605186997221988864,10.0.1.134,501,move_up,-0.190,-0.190,-0.190,0.000,0.000,0.000
1605186998332321024,10.0.1.134,33,place,-0.180,-0.180,-0.180,0.000,0.000,0.000
1605186999342343936,10.0.1.134,42,place,-0.170,-0.170,-0.170,0.000,0.000,0.000
1605187000333998080,10.0.1.134,32,place,-0.160,-0.160,-0.160,0.000,0.000,0.000
1605187002307347968,10.0.1.134,NaN,place,-0.140,-0.140,-0.140,0.000,0.000,0.000
1605187002349502976,10.0.1.134,42,place,-0.140,-0.140,-0.140,0.000,0.000,0.000
1605187003359086080,10.0.1.134,50,place,-0.130,-0.130,-0.130,0.000,0.000,0.000
1605187005311525120,10.0.1.134,NaN,place,-0.110,-0.110,-0.110,0.000,0.000,0.000
1605187005363002112,10.0.1.134,51,place,-0.110,-0.110,-0.110,0.000,0.000,0.000
1605187006353456896,10.0.1.134,41,place,-0.100,-0.100,-0.100,0.000,0.000,0.000
1605187007374577152,10.0.1.134,60,place,-0.090,-0.090,-0.090,0.000,0.000,0.000
1605187008353918976,10.0.1.134,38,place,-0.080,-0.080,-0.080,0.000,0.000,0.000
1605187009349047808,10.0.1.134,30,place,-0.070,-0.070,-0.070,0.000,0.000,0.000
1605187010376733184,10.0.1.134,56,place,-0.060,-0.060,-0.060,0.000,0.000,0.000
1605187011372854016,10.0.1.134,51,place,-0.050,-0.050,-0.050,0.000,0.000,0.000
1605187012376941056,10.0.1.134,54,place,-0.040,-0.040,-0.040,0.000,0.000,0.000
1605187013377506048,10.0.1.134,53,place,-0.030,-0.030,-0.030,0.000,0.000,0.000
1605187014363645952,10.0.1.134,38,place,-0.020,-0.020,-0.020,0.000,0.000,0.000
1605187015377566208,10.0.1.134,50,place,-0.010,-0.010,-0.010,0.000,0.000,0.000
1605187016378562048,10.0.1.134,50,place,0.000,0.000,0.000,0.000,0.000,0.000
1605187017900957952,10.0.1.134,571,move_down,-0.020,-0.020,-0.020,0.000,0.000,0.000
1605187019480192000,10.0.1.134,494,move_down,-0.040,-0.040,-0.040,0.000,0.000,0.000
1605187021199908864,10.0.1.134,568,move_down,-0.060,-0.060,-0.060,0.000,0.000,0.000
1605187022763629824,10.0.1.134,511,move_down,-0.080,-0.080,-0.080,0.000,0.000,0.000
1605187024595549952,10.0.1.134,685,move_down,-0.100,-0.100,-0.100,0.000,0.000,0.000
1605187026259661824,10.0.1.134,577,move_down,-0.120,-0.120,-0.120,0.000,0.000,0.000
1605187027789683200,10.0.1.134,494,move_down,-0.140,-0.140,-0.140,0.000,0.000,0.000
1605187029290440192,10.0.1.134,450,move_down,-0.160,-0.160,-0.160,0.000,0.000,0.000
1605187030857883904,10.0.1.134,478,move_down,-0.180,-0.180,-0.180,0.000,0.000,0.000
1605187032519657984,10.0.1.134,504,move_down,-0.200,-0.200,-0.200,0.000,0.000,0.000
1605187034197325824,10.0.1.134,519,move_down,-0.220,-0.220,-0.220,0.000,0.000,0.000
1605187035774241024,10.0.1.134,538,move_down,-0.240,-0.240,-0.240,0.000,0.000,0.000
1605187037383923968,10.0.1.134,474,move_down,-0.260,-0.260,-0.260,0.000,0.000,0.000
1605187039105433088,10.0.1.134,587,move_down,-0.280,-0.280,-0.280,0.000,0.000,0.000
1605187040669521152,10.0.1.134,481,move_down,-0.300,-0.300,-0.300,0.000,0.000,0.000
1605187042278408960,10.0.1.134,524,move_down,-0.320,-0.320,-0.320,0.000,0.000,0.000
1605187043968195072,10.0.1.134,581,move_down,-0.340,-0.340,-0.340,0.000,0.000,0.000
1605187045727361024,10.0.1.134,608,move_down,-0.360,-0.360,-0.360,0.000,0.000,0.000
1605187047510982144,10.0.1.134,700,move_down,-0.380,-0.380,-0.380,0.000,0.000,0.000
1605187049122515968,10.0.1.134,531,move_down,-0.400,-0.400,-0.400,0.000,0.000,0.000
1605187050872365056,10.0.1.134,660,move_down,-0.420,-0.420,-0.420,0.000,0.000,0.000
1605187052540633088,10.0.1.134,557,move_down,-0.440,-0.440,-0.440,0.000,0.000,0.000
1605187054174412032,10.0.1.134,556,move_down,-0.460,-0.460,-0.460,0.000,0.000,0.000
1605187056167802112,10.0.1.134,856,move_down,-0.480,-0.480,-0.480,0.000,0.000,0.000
1605187057989876992,10.0.1.134,683,move_down,-0.500,-0.500,-0.500,0.000,0.000,0.000
1605187059580809984,10.0.1.134,518,move_down,-0.520,-0.520,-0.520,0.000,0.000,0.000
1605187061396417024,10.0.1.134,681,move_down,-0.540,-0.540,-0.540,0.000,0.000,0.000
1605187063061515008,10.0.1.134,515,move_down,-0.560,-0.560,-0.560,0.000,0.000,0.000
1605187064788254976,10.0.1.134,578,move_down,-0.580,-0.580,-0.580,0.000,0.000,0.000
1605187065971932928,10.0.1.134,42,pick,-0.590,-0.590,-0.590,0.000,0.000,0.000
1605187066967662080,10.0.1.134,36,pick,-0.600,-0.600,-0.600,0.000,0.000,0.000
1605187067973020160,10.0.1.134,41,pick,-0.610,-0.610,-0.610,0.000,0.000,0.000
1605187068970452992,10.0.1.134,36,pick,-0.620,-0.620,-0.620,0.000,0.000,0.000
1605187069990550016,10.0.1.134,54,pick,-0.630,-0.630,-0.630,0.000,0.000,0.000
1605187070988823040,10.0.1.134,51,pick,-0.640,-0.640,-0.640,0.000,0.000,0.000
1605187071993704960,10.0.1.134,54,pick,-0.650,-0.650,-0.650,0.000,0.000,0.000
1605187073941783808,10.0.1.134,NaN,pick,-0.670,-0.670,-0.670,0.000,0.000,0.000
1605187074946091776,10.0.1.134,NaN,pick,-0.680,-0.680,-0.680,0.000,0.000,0.000
1605187075001655040,10.0.1.134,55,pick,-0.680,-0.680,-0.680,0.000,0.000,0.000
1605187076011714048,10.0.1.134,64,pick,-0.690,-0.690,-0.690,0.000,0.000,0.000
1605187076999420928,10.0.1.134,50,pick,-0.700,-0.700,-0.700,0.000,0.000,0.000
1605187078005692928,10.0.1.134,55,pick,-0.710,-0.710,-0.710,0.000,0.000,0.000
1605187078984718080,10.0.1.134,33,pick,-0.720,-0.720,-0.720,0.000,0.000,0.000
1605187079996627968,10.0.1.134,43,pick,-0.730,-0.730,-0.730,0.000,0.000,0.000
1605187080991159040,10.0.1.134,36,pick,-0.740,-0.740,-0.740,0.000,0.000,0.000
1605187082009830912,10.0.1.134,53,pick,-0.750,-0.750,-0.750,0.000,0.000,0.000
1605187083024421888,10.0.1.134,67,pick,-0.760,-0.760,-0.760,0.000,0.000,0.000
1605187084016900096,10.0.1.134,43,pick,-0.770,-0.770,-0.770,0.000,0.000,0.000
1605187085489972224,10.0.1.134,515,move_up,-0.750,-0.750,-0.750,0.000,0.000,0.000
1605187087124398080,10.0.1.134,482,move_up,-0.730,-0.730,-0.730,0.000,0.000,0.000
1605187088880791040,10.0.1.134,616,move_up,-0.710,-0.710,-0.710,0.000,0.000,0.000
1605187090586332928,10.0.1.134,558,move_up,-0.690,-0.690,-0.690,0.000,0.000,0.000
1605187092211909120,10.0.1.134,541,move_up,-0.670,-0.670,-0.670,0.000,0.000,0.000
1605187093874578944,10.0.1.134,515,move_up,-0.650,-0.650,-0.650,0.000,0.000,0.000
1605187095688528896,10.0.1.134,745,move_up,-0.630,-0.630,-0.630,0.000,0.000,0.000
1605187097402231040,10.0.1.134,570,move_up,-0.610,-0.610,-0.610,0.000,0.000,0.000
1605187099011843072,10.0.1.134,479,move_up,-0.590,-0.590,-0.590,0.000,0.000,0.000
1605187100674763008,10.0.1.134,542,move_up,-0.570,-0.570,-0.570,0.000,0.000,0.000
1605187102386019072,10.0.1.134,675,move_up,-0.550,-0.550,-0.550,0.000,0.000,0.000
1605187103982413056,10.0.1.134,502,move_up,-0.530,-0.530,-0.530,0.000,0.000,0.000
1605187105684783872,10.0.1.134,509,move_up,-0.510,-0.510,-0.510,0.000,0.000,0.000
1605187107330321152,10.0.1.134,579,move_up,-0.490,-0.490,-0.490,0.000,0.000,0.000
1605187109173396992,10.0.1.134,651,move_up,-0.470,-0.470,-0.470,0.000,0.000,0.000
1605187110967559168,10.0.1.134,670,move_up,-0.450,-0.450,-0.450,0.000,0.000,0.000
1605187112731632896,10.0.1.134,562,move_up,-0.430,-0.430,-0.430,0.000,0.000,0.000
1605187114533538048,10.0.1.134,737,move_up,-0.410,-0.410,-0.410,0.000,0.000,0.000
1605187116176601856,10.0.1.134,565,move_up,-0.390,-0.390,-0.390,0.000,0.000,0.000
1605187117835304960,10.0.1.134,567,move_up,-0.370,-0.370,-0.370,0.000,0.000,0.000
1605187119520397056,10.0.1.134,585,move_up,-0.350,-0.350,-0.350,0.000,0.000,0.000
1605187121044621056,10.0.1.134,480,move_up,-0.330,-0.330,-0.330,0.000,0.000,0.000
1605187122656270080,10.0.1.134,569,move_up,-0.310,-0.310,-0.310,0.000,0.000,0.000
1605187124475558144,10.0.1.134,576,move_up,-0.290,-0.290,-0.290,0.000,0.000,0.000
1605187126052918784,10.0.1.134,496,move_up,-0.270,-0.270,-0.270,0.000,0.000,0.000
1605187127787888896,10.0.1.134,616,move_up,-0.250,-0.250,-0.250,0.000,0.000,0.000
1605187129454345984,10.0.1.134,567,move_up,-0.230,-0.230,-0.230,0.000,0.000,0.000
1605187131313242880,10.0.1.134,684,move_up,-0.210,-0.210,-0.210,0.000,0.000,0.000
1605187133047166976,10.0.1.134,521,move_up,-0.190,-0.190,-0.190,0.000,0.000,0.000
1605187135185553152,10.0.1.134,NaN,place,-0.170,-0.170,-0.170,0.000,0.000,0.000
1605187135263302144,10.0.1.134,77,place,-0.170,-0.170,-0.170,0.000,0.000,0.000
1605187136243806976,10.0.1.134,56,place,-0.160,-0.160,-0.160,0.000,0.000,0.000
1605187137248846080,10.0.1.134,60,place,-0.150,-0.150,-0.150,0.000,0.000,0.000
1605187138241224960,10.0.1.134,51,place,-0.140,-0.140,-0.140,0.000,0.000,0.000
1605187139242917888,10.0.1.134,51,place,-0.130,-0.130,-0.130,0.000,0.000,0.000
1605187141195589120,10.0.1.134,NaN,place,-0.110,-0.110,-0.110,0.000,0.000,0.000
1605187141271034880,10.0.1.134,75,place,-0.110,-0.110,-0.110,0.000,0.000,0.000
1605187142251691008,10.0.1.134,53,place,-0.100,-0.100,-0.100,0.000,0.000,0.000
1605187143241856000,10.0.1.134,42,place,-0.090,-0.090,-0.090,0.000,0.000,0.000
1605187144253828096,10.0.1.134,54,place,-0.080,-0.080,-0.080,0.000,0.000,0.000
1605187145251579136,10.0.1.134,50,place,-0.070,-0.070,-0.070,0.000,0.000,0.000
1605187146245974016,10.0.1.134,43,place,-0.060,-0.060,-0.060,0.000,0.000,0.000
1605187147240605184,10.0.1.134,36,place,-0.050,-0.050,-0.050,0.000,0.000,0.000
1605187148237998080,10.0.1.134,31,place,-0.040,-0.040,-0.040,0.000,0.000,0.000
1605187149262295040,10.0.1.134,52,place,-0.030,-0.030,-0.030,0.000,0.000,0.000
1605187151216068096,10.0.1.134,NaN,place,-0.010,-0.010,-0.010,0.000,0.000,0.000
1605187151268564992,10.0.1.134,52,place,-0.010,-0.010,-0.010,0.000,0.000,0.000
1605187152268049920,10.0.1.134,50,place,0.000,0.000,0.000,0.000,0.000,0.000
1605187153733739008,10.0.1.134,509,move_down,-0.020,-0.020,-0.020,0.000,0.000,0.000
1605187155424664064,10.0.1.134,608,move_down,-0.040,-0.040,-0.040,0.000,0.000,0.000
1605187157050653952,10.0.1.134,559,move_down,-0.060,-0.060,-0.060,0.000,0.000,0.000
1605187158710151936,10.0.1.134,540,move_down,-0.080,-0.080,-0.080,0.000,0.000,0.000
1605187160489200128,10.0.1.134,543,move_down,-0.100,-0.100,-0.100,0.000,0.000,0.000
1605187162069737984,10.0.1.134,481,move_down,-0.120,-0.120,-0.120,0.000,0.000,0.000
1605187163857202176,10.0.1.134,634,move_down,-0.140,-0.140,-0.140,0.000,0.000,0.000
1605187165415024896,10.0.1.134,474,move_down,-0.160,-0.160,-0.160,0.000,0.000,0.000
1605187167213556992,10.0.1.134,684,move_down,-0.180,-0.180,-0.180,0.000,0.000,0.000
1605187168814883072,10.0.1.134,493,move_down,-0.200,-0.200,-0.200,0.000,0.000,0.000
1605187170662627840,10.0.1.134,702,move_down,-0.220,-0.220,-0.220,0.000,0.000,0.000
1605187172363218176,10.0.1.134,591,move_down,-0.240,-0.240,-0.240,0.000,0.000,0.000
1605187174074729984,10.0.1.134,617,move_down,-0.260,-0.260,-0.260,0.000,0.000,0.000
1605187175698547968,10.0.1.134,543,move_down,-0.280,-0.280,-0.280,0.000,0.000,0.000
1605187177417520128,10.0.1.134,479,move_down,-0.300,-0.300,-0.300,0.000,0.000,0.000
1605187179224595968,10.0.1.134,541,move_down,-0.320,-0.320,-0.320,0.000,0.000,0.000
1605187180827002112,10.0.1.134,507,move_down,-0.340,-0.340,-0.340,0.000,0.000,0.000
1605187182493341952,10.0.1.134,518,move_down,-0.360,-0.360,-0.360,0.000,0.000,0.000
1605187184113056000,10.0.1.134,543,move_down,-0.380,-0.380,-0.380,0.000,0.000,0.000
1605187185808286976,10.0.1.134,635,move_down,-0.400,-0.400,-0.400,0.000,0.000,0.000
1605187187461457920,10.0.1.134,530,move_down,-0.420,-0.420,-0.420,0.000,0.000,0.000
1605187189227092992,10.0.1.134,700,move_down,-0.440,-0.440,-0.440,0.000,0.000,0.000
1605187190848443904,10.0.1.134,479,move_down,-0.460,-0.460,-0.460,0.000,0.000,0.000
1605187192754526976,10.0.1.134,837,move_down,-0.480,-0.480,-0.480,0.000,0.000,0.000
1605187194446248960,10.0.1.134,534,move_down,-0.500,-0.500,-0.500,0.000,0.000,0.000
1605187196318217984,10.0.1.134,742,move_down,-0.520,-0.520,-0.520,0.000,0.000,0.000
1605187198044802048,10.0.1.134,573,move_down,-0.540,-0.540,-0.540,0.000,0.000,0.000
1605187199768112896,10.0.1.134,530,move_down,-0.560,-0.560,-0.560,0.000,0.000,0.000
1605187201354174976,10.0.1.134,584,move_down,-0.580,-0.580,-0.580,0.000,0.000,0.000
1605187202452462848,10.0.1.134,39,pick,-0.590,-0.590,-0.590,0.000,0.000,0.000
1605187203454052096,10.0.1.134,38,pick,-0.600,-0.600,-0.600,0.000,0.000,0.000
1605187204477252864,10.0.1.134,55,pick,-0.610,-0.610,-0.610,0.000,0.000,0.000
1605187205473227008,10.0.1.134,49,pick,-0.620,-0.620,-0.620,0.000,0.000,0.000
1605187206468471040,10.0.1.134,43,pick,-0.630,-0.630,-0.630,0.000,0.000,0.000
1605187208427186944,10.0.1.134,NaN,pick,-0.650,-0.650,-0.650,0.000,0.000,0.000
1605187208490150912,10.0.1.134,62,pick,-0.650,-0.650,-0.650,0.000,0.000,0.000
1605187209464101120,10.0.1.134,35,pick,-0.660,-0.660,-0.660,0.000,0.000,0.000
1605187210478621952,10.0.1.134,46,pick,-0.670,-0.670,-0.670,0.000,0.000,0.000
1605187211494973952,10.0.1.134,52,pick,-0.680,-0.680,-0.680,0.000,0.000,0.000
1605187212498850048,10.0.1.134,54,pick,-0.690,-0.690,-0.690,0.000,0.000,0.000
1605187214447715072,10.0.1.134,NaN,pick,-0.710,-0.710,-0.710,0.000,0.000,0.000
1605187215451540992,10.0.1.134,NaN,pick,-0.720,-0.720,-0.720,0.000,0.000,0.000
1605187215486846976,10.0.1.134,35,pick,-0.720,-0.720,-0.720,0.000,0.000,0.000
1605187216529975040,10.0.1.134,56,pick,-0.730,-0.730,-0.730,0.000,0.000,0.000
1605187217528781056,10.0.1.134,54,pick,-0.740,-0.740,-0.740,0.000,0.000,0.000
1605187218538822912,10.0.1.134,62,pick,-0.750,-0.750,-0.750,0.000,0.000,0.000
1605187219532204032,10.0.1.134,53,pick,-0.760,-0.760,-0.760,0.000,0.000,0.000
1605187220532239872,10.0.1.134,51,pick,-0.770,-0.770,-0.770,0.000,0.000,0.000
1605187222102376960,10.0.1.134,619,move_up,-0.750,-0.750,-0.750,0.000,0.000,0.000
1605187223857722112,10.0.1.134,667,move_up,-0.730,-0.730,-0.730,0.000,0.000,0.000
1605187225591734016,10.0.1.134,608,move_up,-0.710,-0.710,-0.710,0.000,0.000,0.000
1605187227704601088,10.0.1.134,1011,move_up,-0.690,-0.690,-0.690,0.000,0.000,0.000
1605187229591165184,10.0.1.134,760,move_up,-0.670,-0.670,-0.670,0.000,0.000,0.000
1605187231258351104,10.0.1.134,586,move_up,-0.650,-0.650,-0.650,0.000,0.000,0.000
1605187233087287040,10.0.1.134,727,move_up,-0.630,-0.630,-0.630,0.000,0.000,0.000
1605187234708333056,10.0.1.134,583,move_up,-0.610,-0.610,-0.610,0.000,0.000,0.000
1605187236533188096,10.0.1.134,742,move_up,-0.590,-0.590,-0.590,0.000,0.000,0.000
1605187238401107200,10.0.1.134,646,move_up,-0.570,-0.570,-0.570,0.000,0.000,0.000
1605187239973965824,10.0.1.134,491,move_up,-0.550,-0.550,-0.550,0.000,0.000,0.000
1605187241791804160,10.0.1.134,638,move_up,-0.530,-0.530,-0.530,0.000,0.000,0.000
1605187243471427072,10.0.1.134,570,move_up,-0.510,-0.510,-0.510,0.000,0.000,0.000
1605187245177516032,10.0.1.134,577,move_up,-0.490,-0.490,-0.490,0.000,0.000,0.000
1605187246861607936,10.0.1.134,605,move_up,-0.470,-0.470,-0.470,0.000,0.000,0.000
1605187248579888128,10.0.1.134,552,move_up,-0.450,-0.450,-0.450,0.000,0.000,0.000
1605187250225349888,10.0.1.134,533,move_up,-0.430,-0.430,-0.430,0.000,0.000,0.000
1605187251862242816,10.0.1.134,533,move_up,-0.410,-0.410,-0.410,0.000,0.000,0.000
1605187253408687104,10.0.1.134,510,move_up,-0.390,-0.390,-0.390,0.000,0.000,0.000
1605187255198379008,10.0.1.134,608,move_up,-0.370,-0.370,-0.370,0.000,0.000,0.000
1605187256731132928,10.0.1.134,514,move_up,-0.350,-0.350,-0.350,0.000,0.000,0.000
1605187258443571968,10.0.1.134,632,move_up,-0.330,-0.330,-0.330,0.000,0.000,0.000
1605187260078138112,10.0.1.134,521,move_up,-0.310,-0.310,-0.310,0.000,0.000,0.000
1605187261810640128,10.0.1.134,620,move_up,-0.290,-0.290,-0.290,0.000,0.000,0.000
1605187263554432000,10.0.1.134,681,move_up,-0.270,-0.270,-0.270,0.000,0.000,0.000
1605187265277019904,10.0.1.134,558,move_up,-0.250,-0.250,-0.250,0.000,0.000,0.000
1605187266832626176,10.0.1.134,504,move_up,-0.230,-0.230,-0.230,0.000,0.000,0.000
1605187268427897856,10.0.1.134,518,move_up,-0.210,-0.210,-0.210,0.000,0.000,0.000
1605187270188146944,10.0.1.134,630,move_up,-0.190,-0.190,-0.190,0.000,0.000,0.000
1605187271284286976,10.0.1.134,36,place,-0.180,-0.180,-0.180,0.000,0.000,0.000
1605187272313548032,10.0.1.134,60,place,-0.170,-0.170,-0.170,0.000,0.000,0.000
1605187273306194176,10.0.1.134,51,place,-0.160,-0.160,-0.160,0.000,0.000,0.000
1605187274314114048,10.0.1.134,51,place,-0.150,-0.150,-0.150,0.000,0.000,0.000
1605187275322459904,10.0.1.134,58,place,-0.140,-0.140,-0.140,0.000,0.000,0.000
1605187276312892928,10.0.1.134,47,place,-0.130,-0.130,-0.130,0.000,0.000,0.000
1605187277309835008,10.0.1.134,42,place,-0.120,-0.120,-0.120,0.000,0.000,0.000
1605187278313106176,10.0.1.134,44,place,-0.110,-0.110,-0.110,0.000,0.000,0.000
1605187280271565056,10.0.1.134,NaN,place,-0.090,-0.090,-0.090,0.000,0.000,0.000
1605187280380157952,10.0.1.134,108,place,-0.090,-0.090,-0.090,0.000,0.000,0.000
1605187281332688128,10.0.1.134,56,place,-0.080,-0.080,-0.080,0.000,0.000,0.000
1605187282332717056,10.0.1.134,54,place,-0.070,-0.070,-0.070,0.000,0.000,0.000
1605187283320937984,10.0.1.134,35,place,-0.060,-0.060,-0.060,0.000,0.000,0.000
1605187284324187136,10.0.1.134,37,place,-0.050,-0.050,-0.050,0.000,0.000,0.000
1605187285355155968,10.0.1.134,62,place,-0.040,-0.040,-0.040,0.000,0.000,0.000
1605187287295315968,10.0.1.134,NaN,place,-0.020,-0.020,-0.020,0.000,0.000,0.000
1605187288297265152,10.0.1.134,NaN,place,-0.010,-0.010,-0.010,0.000,0.000,0.000
1605187288371365120,10.0.1.134,74,place,-0.010,-0.010,-0.010,0.000,0.000,0.000
1605187289403678976,10.0.1.134,67,place,0.000,0.000,0.000,0.000,0.000,0.000
1605187291359175936,10.0.1.134,975,move_down,-0.020,-0.020,-0.020,0.000,0.000,0.000
1605187293184464896,10.0.1.134,636,move_down,-0.040,-0.040,-0.040,0.000,0.000,0.000
1605187295123627776,10.0.1.134,906,move_down,-0.060,-0.060,-0.060,0.000,0.000,0.000
1605187296846238976,10.0.1.134,616,move_down,-0.080,-0.080,-0.080,0.000,0.000,0.000
1605187298504940032,10.0.1.134,614,move_down,-0.100,-0.100,-0.100,0.000,0.000,0.000
1605187300200311808,10.0.1.134,665,move_down,-0.120,-0.120,-0.120,0.000,0.000,0.000
1605187301895256064,10.0.1.134,516,move_down,-0.140,-0.140,-0.140,0.000,0.000,0.000
1605187303613136896,10.0.1.134,608,move_down,-0.160,-0.160,-0.160,0.000,0.000,0.000
1605187305324062208,10.0.1.134,538,move_down,-0.180,-0.180,-0.180,0.000,0.000,0.000
1605187306996323072,10.0.1.134,565,move_down,-0.200,-0.200,-0.200,0.000,0.000,0.000
1605187309334614016,10.0.1.134,1282,move_down,-0.220,-0.220,-0.220,0.000,0.000,0.000
1605187311244884992,10.0.1.134,849,move_down,-0.240,-0.240,-0.240,0.000,0.000,0.000
1605187313085142016,10.0.1.134,802,move_down,-0.260,-0.260,-0.260,0.000,0.000,0.000
1605187314883353088,10.0.1.134,607,move_down,-0.280,-0.280,-0.280,0.000,0.000,0.000
1605187316807059968,10.0.1.134,743,move_down,-0.300,-0.300,-0.300,0.000,0.000,0.000
1605187318548076032,10.0.1.134,642,move_down,-0.320,-0.320,-0.320,0.000,0.000,0.000
1605187320287740928,10.0.1.134,671,move_down,-0.340,-0.340,-0.340,0.000,0.000,0.000
1605187321990108928,10.0.1.134,527,move_down,-0.360,-0.360,-0.360,0.000,0.000,0.000
1605187323770725120,10.0.1.134,698,move_down,-0.380,-0.380,-0.380,0.000,0.000,0.000
1605187325498171136,10.0.1.134,550,move_down,-0.400,-0.400,-0.400,0.000,0.000,0.000
1605187327257710848,10.0.1.134,711,move_down,-0.420,-0.420,-0.420,0.000,0.000,0.000
1605187329335598080,10.0.1.134,906,move_down,-0.440,-0.440,-0.440,0.000,0.000,0.000
1605187331340235008,10.0.1.134,970,move_down,-0.460,-0.460,-0.460,0.000,0.000,0.000
1605187333017646080,10.0.1.134,607,move_down,-0.480,-0.480,-0.480,0.000,0.000,0.000
1605187334957135872,10.0.1.134,769,move_down,-0.500,-0.500,-0.500,0.000,0.000,0.000
1605187336501355008,10.0.1.134,522,move_down,-0.520,-0.520,-0.520,0.000,0.000,0.000
1605187338275794944,10.0.1.134,706,move_down,-0.540,-0.540,-0.540,0.000,0.000,0.000
1605187339890129920,10.0.1.134,576,move_down,-0.560,-0.560,-0.560,0.000,0.000,0.000
1605187341611705088,10.0.1.134,608,move_down,-0.580,-0.580,-0.580,0.000,0.000,0.000
1605187342736931072,10.0.1.134,56,pick,-0.590,-0.590,-0.590,0.000,0.000,0.000
1605187344684984832,10.0.1.134,NaN,pick,-0.610,-0.610,-0.610,0.000,0.000,0.000
1605187344719024896,10.0.1.134,33,pick,-0.610,-0.610,-0.610,0.000,0.000,0.000
1605187345737879040,10.0.1.134,51,pick,-0.620,-0.620,-0.620,0.000,0.000,0.000
1605187346752187904,10.0.1.134,59,pick,-0.630,-0.630,-0.630,0.000,0.000,0.000
1605187347739738112,10.0.1.134,41,pick,-0.640,-0.640,-0.640,0.000,0.000,0.000
1605187348762483968,10.0.1.134,55,pick,-0.650,-0.650,-0.650,0.000,0.000,0.000
1605187349777430016,10.0.1.134,60,pick,-0.660,-0.660,-0.660,0.000,0.000,0.000
1605187350800663040,10.0.1.134,53,pick,-0.670,-0.670,-0.670,0.000,0.000,0.000
1605187352759190016,10.0.1.134,NaN,pick,-0.690,-0.690,-0.690,0.000,0.000,0.000
1605187352819098880,10.0.1.134,59,pick,-0.690,-0.690,-0.690,0.000,0.000,0.000
1605187353811677952,10.0.1.134,52,pick,-0.700,-0.700,-0.700,0.000,0.000,0.000
1605187354817296896,10.0.1.134,53,pick,-0.710,-0.710,-0.710,0.000,0.000,0.000
1605187355884700928,10.0.1.134,112,pick,-0.720,-0.720,-0.720,0.000,0.000,0.000
1605187356904819968,10.0.1.134,131,pick,-0.730,-0.730,-0.730,0.000,0.000,0.000
1605187357897963008,10.0.1.134,103,pick,-0.740,-0.740,-0.740,0.000,0.000,0.000
1605187358860686080,10.0.1.134,50,pick,-0.750,-0.750,-0.750,0.000,0.000,0.000
1605187360815442176,10.0.1.134,NaN,pick,-0.770,-0.770,-0.770,0.000,0.000,0.000
1605187361817114112,10.0.1.134,NaN,move_up,-0.750,-0.750,-0.750,0.000,0.000,0.000
1605187361829914112,10.0.1.134,12,move_up,-0.750,-0.750,-0.750,0.000,0.000,0.000
1605187364265618944,10.0.1.134,891,move_up,-0.730,-0.730,-0.730,0.000,0.000,0.000
1605187366104378880,10.0.1.134,736,move_up,-0.710,-0.710,-0.710,0.000,0.000,0.000
1605187367980755968,10.0.1.134,791,move_up,-0.690,-0.690,-0.690,0.000,0.000,0.000
1605187369897864192,10.0.1.134,736,move_up,-0.670,-0.670,-0.670,0.000,0.000,0.000
1605187371721522176,10.0.1.134,760,move_up,-0.650,-0.650,-0.650,0.000,0.000,0.000
1605187373570835968,10.0.1.134,769,move_up,-0.630,-0.630,-0.630,0.000,0.000,0.000
1605187375338769920,10.0.1.134,720,move_up,-0.610,-0.610,-0.610,0.000,0.000,0.000
1605187377196923904,10.0.1.134,724,move_up,-0.590,-0.590,-0.590,0.000,0.000,0.000
1605187378965982976,10.0.1.134,620,move_up,-0.570,-0.570,-0.570,0.000,0.000,0.000
1605187380648261120,10.0.1.134,509,move_up,-0.550,-0.550,-0.550,0.000,0.000,0.000
1605187382295972096,10.0.1.134,565,move_up,-0.530,-0.530,-0.530,0.000,0.000,0.000
1605187384324611840,10.0.1.134,957,move_up,-0.510,-0.510,-0.510,0.000,0.000,0.000
1605187386166315008,10.0.1.134,722,move_up,-0.490,-0.490,-0.490,0.000,0.000,0.000
1605187387967375872,10.0.1.134,696,move_up,-0.470,-0.470,-0.470,0.000,0.000,0.000
1605187389910240000,10.0.1.134,735,move_up,-0.450,-0.450,-0.450,0.000,0.000,0.000
1605187391497537024,10.0.1.134,563,move_up,-0.430,-0.430,-0.430,0.000,0.000,0.000
1605187393393026048,10.0.1.134,826,move_up,-0.410,-0.410,-0.410,0.000,0.000,0.000
1605187395206033920,10.0.1.134,676,move_up,-0.390,-0.390,-0.390,0.000,0.000,0.000
1605187396891827968,10.0.1.134,595,move_up,-0.370,-0.370,-0.370,0.000,0.000,0.000
1605187398710510848,10.0.1.134,744,move_up,-0.350,-0.350,-0.350,0.000,0.000,0.000
1605187400858447104,10.0.1.134,1060,move_up,-0.330,-0.330,-0.330,0.000,0.000,0.000
1605187402505454080,10.0.1.134,572,move_up,-0.310,-0.310,-0.310,0.000,0.000,0.000
1605187404184411904,10.0.1.134,639,move_up,-0.290,-0.290,-0.290,0.000,0.000,0.000
1605187405949347072,10.0.1.134,702,move_up,-0.270,-0.270,-0.270,0.000,0.000,0.000
1605187407751233024,10.0.1.134,610,move_up,-0.250,-0.250,-0.250,0.000,0.000,0.000
1605187409469868032,10.0.1.134,549,move_up,-0.230,-0.230,-0.230,0.000,0.000,0.000
1605187411413885184,10.0.1.134,822,move_up,-0.210,-0.210,-0.210,0.000,0.000,0.000
1605187413166776832,10.0.1.134,627,move_up,-0.190,-0.190,-0.190,0.000,0.000,0.000
1605187414235207936,10.0.1.134,33,place,-0.180,-0.180,-0.180,0.000,0.000,0.000
1605187415261209088,10.0.1.134,57,place,-0.170,-0.170,-0.170,0.000,0.000,0.000
1605187416250103040,10.0.1.134,45,place,-0.160,-0.160,-0.160,0.000,0.000,0.000
1605187417300198912,10.0.1.134,88,place,-0.150,-0.150,-0.150,0.000,0.000,0.000
1605187419273627136,10.0.1.134,NaN,place,-0.130,-0.130,-0.130,0.000,0.000,0.000
1605187420279546112,10.0.1.134,NaN,place,-0.120,-0.120,-0.120,0.000,0.000,0.000
1605187420323441152,10.0.1.134,43,place,-0.120,-0.120,-0.120,0.000,0.000,0.000
1605187421371190016,10.0.1.134,86,place,-0.110,-0.110,-0.110,0.000,0.000,0.000
1605187422349349120,10.0.1.134,63,place,-0.100,-0.100,-0.100,0.000,0.000,0.000
1605187423334216960,10.0.1.134,47,place,-0.090,-0.090,-0.090,0.000,0.000,0.000
1605187425288445952,10.0.1.134,NaN,place,-0.070,-0.070,-0.070,0.000,0.000,0.000
1605187425357203968,10.0.1.134,68,place,-0.070,-0.070,-0.070,0.000,0.000,0.000
1605187427291026944,10.0.1.134,NaN,place,-0.050,-0.050,-0.050,0.000,0.000,0.000
1605187427331755008,10.0.1.134,40,place,-0.050,-0.050,-0.050,0.000,0.000,0.000
1605187429295727872,10.0.1.134,NaN,place,-0.030,-0.030,-0.030,0.000,0.000,0.000
1605187429337529856,10.0.1.134,41,place,-0.030,-0.030,-0.030,0.000,0.000,0.000
1605187430352097024,10.0.1.134,53,place,-0.020,-0.020,-0.020,0.000,0.000,0.000
1605187431365158144,10.0.1.134,65,place,-0.010,-0.010,-0.010,0.000,0.000,0.000
1605187433310754048,10.0.1.134,NaN,move_down,-0.020,-0.020,-0.020,0.000,0.000,0.000
1605187433774553088,10.0.1.134,463,move_down,-0.020,-0.020,-0.020,0.000,0.000,0.000
1605187435657300992,10.0.1.134,712,move_down,-0.040,-0.040,-0.040,0.000,0.000,0.000
1605187437527124992,10.0.1.134,719,move_down,-0.060,-0.060,-0.060,0.000,0.000,0.000
1605187439321964032,10.0.1.134,550,move_down,-0.080,-0.080,-0.080,0.000,0.000,0.000
1605187441031790080,10.0.1.134,659,move_down,-0.100,-0.100,-0.100,0.000,0.000,0.000
1605187442709754112,10.0.1.134,584,move_down,-0.120,-0.120,-0.120,0.000,0.000,0.000
1605187444475180032,10.0.1.134,726,move_down,-0.140,-0.140,-0.140,0.000,0.000,0.000
1605187446298379008,10.0.1.134,686,move_down,-0.160,-0.160,-0.160,0.000,0.000,0.000
1605187447955766016,10.0.1.134,517,move_down,-0.180,-0.180,-0.180,0.000,0.000,0.000
1605187449884690944,10.0.1.134,756,move_down,-0.200,-0.200,-0.200,0.000,0.000,0.000
1605187451708228096,10.0.1.134,605,move_down,-0.220,-0.220,-0.220,0.000,0.000,0.000
1605187453531763200,10.0.1.134,758,move_down,-0.240,-0.240,-0.240,0.000,0.000,0.000
1605187455504064000,10.0.1.134,821,move_down,-0.260,-0.260,-0.260,0.000,0.000,0.000
1605187457520432896,10.0.1.134,959,move_down,-0.280,-0.280,-0.280,0.000,0.000,0.000
1605187459375042048,10.0.1.134,656,move_down,-0.300,-0.300,-0.300,0.000,0.000,0.000
1605187461580904960,10.0.1.134,933,move_down,-0.320,-0.320,-0.320,0.000,0.000,0.000
1605187463488780032,10.0.1.134,723,move_down,-0.340,-0.340,-0.340,0.000,0.000,0.000
1605187465176045056,10.0.1.134,646,move_down,-0.360,-0.360,-0.360,0.000,0.000,0.000
1605187466934642944,10.0.1.134,639,move_down,-0.380,-0.380,-0.380,0.000,0.000,0.000
1605187468740175104,10.0.1.134,646,move_down,-0.400,-0.400,-0.400,0.000,0.000,0.000
1605187470623567104,10.0.1.134,632,move_down,-0.420,-0.420,-0.420,0.000,0.000,0.000
1605187472387762944,10.0.1.134,607,move_down,-0.440,-0.440,-0.440,0.000,0.000,0.000
1605187474243799808,10.0.1.134,698,move_down,-0.460,-0.460,-0.460,0.000,0.000,0.000
1605187476144707840,10.0.1.134,860,move_down,-0.480,-0.480,-0.480,0.000,0.000,0.000
1605187477959932160,10.0.1.134,789,move_down,-0.500,-0.500,-0.500,0.000,0.000,0.000
1605187479815921920,10.0.1.134,616,move_down,-0.520,-0.520,-0.520,0.000,0.000,0.000
1605187481916014080,10.0.1.134,879,move_down,-0.540,-0.540,-0.540,0.000,0.000,0.000
1605187483691492096,10.0.1.134,706,move_down,-0.560,-0.560,-0.560,0.000,0.000,0.000
1605187485459311872,10.0.1.134,628,move_down,-0.580,-0.580,-0.580,0.000,0.000,0.000
1605187487559901952,10.0.1.134,NaN,pick,-0.600,-0.600,-0.600,0.000,0.000,0.000
1605187487648830976,10.0.1.134,88,pick,-0.600,-0.600,-0.600,0.000,0.000,0.000
1605187488614338048,10.0.1.134,52,pick,-0.610,-0.610,-0.610,0.000,0.000,0.000
1605187489635159040,10.0.1.134,71,pick,-0.620,-0.620,-0.620,0.000,0.000,0.000
1605187490621617920,10.0.1.134,56,pick,-0.630,-0.630,-0.630,0.000,0.000,0.000
1605187491623473920,10.0.1.134,49,pick,-0.640,-0.640,-0.640,0.000,0.000,0.000
1605187492609469952,10.0.1.134,33,pick,-0.650,-0.650,-0.650,0.000,0.000,0.000
1605187493619092992,10.0.1.134,41,pick,-0.660,-0.660,-0.660,0.000,0.000,0.000
1605187495578667008,10.0.1.134,NaN,pick,-0.680,-0.680,-0.680,0.000,0.000,0.000
1605187495663243008,10.0.1.134,84,pick,-0.680,-0.680,-0.680,0.000,0.000,0.000
1605187496645458944,10.0.1.134,59,pick,-0.690,-0.690,-0.690,0.000,0.000,0.000
1605187498597424896,10.0.1.134,NaN,pick,-0.710,-0.710,-0.710,0.000,0.000,0.000
1605187498659056896,10.0.1.134,61,pick,-0.710,-0.710,-0.710,0.000,0.000,0.000
1605187499649452032,10.0.1.134,49,pick,-0.720,-0.720,-0.720,0.000,0.000,0.000
1605187500654284032,10.0.1.134,53,pick,-0.730,-0.730,-0.730,0.000,0.000,0.000
1605187502605790976,10.0.1.134,NaN,pick,-0.750,-0.750,-0.750,0.000,0.000,0.000
1605187502651678208,10.0.1.134,45,pick,-0.750,-0.750,-0.750,0.000,0.000,0.000
1605187503689881088,10.0.1.134,82,pick,-0.760,-0.760,-0.760,0.000,0.000,0.000
1605187505609595904,10.0.1.134,NaN,move_up,-0.750,-0.750,-0.750,0.000,0.000,0.000
1605187506386814208,10.0.1.134,777,move_up,-0.750,-0.750,-0.750,0.000,0.000,0.000
1605187508123704064,10.0.1.134,606,move_up,-0.730,-0.730,-0.730,0.000,0.000,0.000
1605187509943332864,10.0.1.134,716,move_up,-0.710,-0.710,-0.710,0.000,0.000,0.000
1605187511799272960,10.0.1.134,839,move_up,-0.690,-0.690,-0.690,0.000,0.000,0.000
1605187513878902016,10.0.1.134,907,move_up,-0.670,-0.670,-0.670,0.000,0.000,0.000
1605187515763825920,10.0.1.134,791,move_up,-0.650,-0.650,-0.650,0.000,0.000,0.000
1605187517790097920,10.0.1.134,889,move_up,-0.630,-0.630,-0.630,0.000,0.000,0.000
1605187519560947968,10.0.1.134,701,move_up,-0.610,-0.610,-0.610,0.000,0.000,0.000
1605187521315809024,10.0.1.134,597,move_up,-0.590,-0.590,-0.590,0.000,0.000,0.000
1605187522971721984,10.0.1.134,564,move_up,-0.570,-0.570,-0.570,0.000,0.000,0.000
1605187525010194944,10.0.1.134,927,move_up,-0.550,-0.550,-0.550,0.000,0.000,0.000
1605187526746388992,10.0.1.134,658,move_up,-0.530,-0.530,-0.530,0.000,0.000,0.000
