milangroshev/digital-twin-scalability/logs/run4-300s-nan/10.0.1.128.csv
timestamp,node,latency,action,joint_1,joint_2,joint_3,joint_4,joint_5,joint_6
1605185116762917888,10.0.1.128,NaN,,0.000,0.000,0.000,0.000,0.000,0.000
1605185118768076800,10.0.1.128,2005,,0.000,0.000,0.000,0.000,0.000,0.000
1605185121327277824,10.0.1.128,559,move_down,-0.020,-0.020,-0.020,0.000,0.000,0.000
1605185122797387008,10.0.1.128,386,move_down,-0.040,-0.040,-0.040,0.000,0.000,0.000
1605185124299671040,10.0.1.128,438,move_down,-0.060,-0.060,-0.060,0.000,0.000,0.000
1605185125747128064,10.0.1.128,404,move_down,-0.080,-0.080,-0.080,0.000,0.000,0.000
1605185127182236928,10.0.1.128,395,move_down,-0.100,-0.100,-0.100,0.000,0.000,0.000
1605185128598715904,10.0.1.128,392,move_down,-0.120,-0.120,-0.120,0.000,0.000,0.000
1605185130029201152,10.0.1.128,414,move_down,-0.140,-0.140,-0.140,0.000,0.000,0.000
1605185131464993024,10.0.1.128,389,move_down,-0.160,-0.160,-0.160,0.000,0.000,0.000
1605185132919995136,10.0.1.128,392,move_down,-0.180,-0.180,-0.180,0.000,0.000,0.000
1605185134366375936,10.0.1.128,401,move_down,-0.200,-0.200,-0.200,0.000,0.000,0.000
1605185135845911040,10.0.1.128,406,move_down,-0.220,-0.220,-0.220,0.000,0.000,0.000
1605185137326682112,10.0.1.128,393,move_down,-0.240,-0.240,-0.240,0.000,0.000,0.000
1605185138773410048,10.0.1.128,389,move_down,-0.260,-0.260,-0.260,0.000,0.000,0.000
1605185140188430080,10.0.1.128,386,move_down,-0.280,-0.280,-0.280,0.000,0.000,0.000
1605185141686289152,10.0.1.128,397,move_down,-0.300,-0.300,-0.300,0.000,0.000,0.000
1605185143159427840,10.0.1.128,387,move_down,-0.320,-0.320,-0.320,0.000,0.000,0.000
1605185144625676032,10.0.1.128,406,move_down,-0.340,-0.340,-0.340,0.000,0.000,0.000
1605185146077830912,10.0.1.128,380,move_down,-0.360,-0.360,-0.360,0.000,0.000,0.000
1605185147546861056,10.0.1.128,404,move_down,-0.380,-0.380,-0.380,0.000,0.000,0.000
1605185148987347968,10.0.1.128,396,move_down,-0.400,-0.400,-0.400,0.000,0.000,0.000
1605185150448955904,10.0.1.128,383,move_down,-0.420,-0.420,-0.420,0.000,0.000,0.000
1605185151886718976,10.0.1.128,376,move_down,-0.440,-0.440,-0.440,0.000,0.000,0.000
1605185153336502016,10.0.1.128,406,move_down,-0.460,-0.460,-0.460,0.000,0.000,0.000
1605185154789732096,10.0.1.128,410,move_down,-0.480,-0.480,-0.480,0.000,0.000,0.000
1605185156240551936,10.0.1.128,410,move_down,-0.500,-0.500,-0.500,0.000,0.000,0.000
1605185157658245120,10.0.1.128,383,move_down,-0.520,-0.520,-0.520,0.000,0.000,0.000
1605185159087660032,10.0.1.128,380,move_down,-0.540,-0.540,-0.540,0.000,0.000,0.000
1605185160537019136,10.0.1.128,399,move_down,-0.560,-0.560,-0.560,0.000,0.000,0.000
1605185161976013056,10.0.1.128,406,move_down,-0.580,-0.580,-0.580,0.000,0.000,0.000
1605185163057018112,10.0.1.128,40,pick,-0.590,-0.590,-0.590,0.000,0.000,0.000
1605185164056393984,10.0.1.128,38,pick,-0.600,-0.600,-0.600,0.000,0.000,0.000
1605185165056581888,10.0.1.128,37,pick,-0.610,-0.610,-0.610,0.000,0.000,0.000
1605185166055830016,10.0.1.128,35,pick,-0.620,-0.620,-0.620,0.000,0.000,0.000
1605185167056037888,10.0.1.128,34,pick,-0.630,-0.630,-0.630,0.000,0.000,0.000
1605185168056872960,10.0.1.128,32,pick,-0.640,-0.640,-0.640,0.000,0.000,0.000
1605185169058556928,10.0.1.128,33,pick,-0.650,-0.650,-0.650,0.000,0.000,0.000
1605185170076470016,10.0.1.128,50,pick,-0.660,-0.660,-0.660,0.000,0.000,0.000
1605185171077598976,10.0.1.128,48,pick,-0.670,-0.670,-0.670,0.000,0.000,0.000
1605185172099881984,10.0.1.128,68,pick,-0.680,-0.680,-0.680,0.000,0.000,0.000
1605185173075776000,10.0.1.128,42,pick,-0.690,-0.690,-0.690,0.000,0.000,0.000
1605185174079567872,10.0.1.128,45,pick,-0.700,-0.700,-0.700,0.000,0.000,0.000
1605185175077699072,10.0.1.128,42,pick,-0.710,-0.710,-0.710,0.000,0.000,0.000
1605185177038017024,10.0.1.128,NaN,pick,-0.730,-0.730,-0.730,0.000,0.000,0.000
1605185177077711104,10.0.1.128,39,pick,-0.730,-0.730,-0.730,0.000,0.000,0.000
1605185178096153088,10.0.1.128,56,pick,-0.740,-0.740,-0.740,0.000,0.000,0.000
1605185179076612864,10.0.1.128,35,pick,-0.750,-0.750,-0.750,0.000,0.000,0.000
1605185180076345088,10.0.1.128,34,pick,-0.760,-0.760,-0.760,0.000,0.000,0.000
1605185181077960960,10.0.1.128,34,pick,-0.770,-0.770,-0.770,0.000,0.000,0.000
1605185182399655936,10.0.1.128,355,move_up,-0.750,-0.750,-0.750,0.000,0.000,0.000
1605185183856973824,10.0.1.128,402,move_up,-0.730,-0.730,-0.730,0.000,0.000,0.000
1605185185318387968,10.0.1.128,380,move_up,-0.710,-0.710,-0.710,0.000,0.000,0.000
1605185186778952960,10.0.1.128,389,move_up,-0.690,-0.690,-0.690,0.000,0.000,0.000
1605185188207609856,10.0.1.128,374,move_up,-0.670,-0.670,-0.670,0.000,0.000,0.000
1605185189652337920,10.0.1.128,391,move_up,-0.650,-0.650,-0.650,0.000,0.000,0.000
1605185191077274112,10.0.1.128,371,move_up,-0.630,-0.630,-0.630,0.000,0.000,0.000
1605185192490919168,10.0.1.128,363,move_up,-0.610,-0.610,-0.610,0.000,0.000,0.000
1605185193967192832,10.0.1.128,396,move_up,-0.590,-0.590,-0.590,0.000,0.000,0.000
1605185195443582976,10.0.1.128,429,move_up,-0.570,-0.570,-0.570,0.000,0.000,0.000
1605185196881465856,10.0.1.128,426,move_up,-0.550,-0.550,-0.550,0.000,0.000,0.000
1605185198328422144,10.0.1.128,375,move_up,-0.530,-0.530,-0.530,0.000,0.000,0.000
1605185199747663872,10.0.1.128,367,move_up,-0.510,-0.510,-0.510,0.000,0.000,0.000
1605185201218296064,10.0.1.128,402,move_up,-0.490,-0.490,-0.490,0.000,0.000,0.000
1605185202647828224,10.0.1.128,402,move_up,-0.470,-0.470,-0.470,0.000,0.000,0.000
1605185204087474176,10.0.1.128,385,move_up,-0.450,-0.450,-0.450,0.000,0.000,0.000
1605185205497755136,10.0.1.128,379,move_up,-0.430,-0.430,-0.430,0.000,0.000,0.000
1605185206931441152,10.0.1.128,368,move_up,-0.410,-0.410,-0.410,0.000,0.000,0.000
1605185208396850944,10.0.1.128,387,move_up,-0.390,-0.390,-0.390,0.000,0.000,0.000
1605185209810633984,10.0.1.128,385,move_up,-0.370,-0.370,-0.370,0.000,0.000,0.000
1605185211248953088,10.0.1.128,387,move_up,-0.350,-0.350,-0.350,0.000,0.000,0.000
1605185212676422144,10.0.1.128,381,move_up,-0.330,-0.330,-0.330,0.000,0.000,0.000
1605185214127463168,10.0.1.128,398,move_up,-0.310,-0.310,-0.310,0.000,0.000,0.000
1605185215577542912,10.0.1.128,406,move_up,-0.290,-0.290,-0.290,0.000,0.000,0.000
1605185217022066176,10.0.1.128,375,move_up,-0.270,-0.270,-0.270,0.000,0.000,0.000
1605185218467484928,10.0.1.128,393,move_up,-0.250,-0.250,-0.250,0.000,0.000,0.000
1605185219952502016,10.0.1.128,430,move_up,-0.230,-0.230,-0.230,0.000,0.000,0.000
1605185221397822976,10.0.1.128,396,move_up,-0.210,-0.210,-0.210,0.000,0.000,0.000
1605185222866779136,10.0.1.128,384,move_up,-0.190,-0.190,-0.190,0.000,0.000,0.000
1605185223966671104,10.0.1.128,36,place,-0.180,-0.180,-0.180,0.000,0.000,0.000
1605185224966914048,10.0.1.128,35,place,-0.170,-0.170,-0.170,0.000,0.000,0.000
1605185225966330880,10.0.1.128,34,place,-0.160,-0.160,-0.160,0.000,0.000,0.000
1605185226968129024,10.0.1.128,35,place,-0.150,-0.150,-0.150,0.000,0.000,0.000
1605185227966334208,10.0.1.128,32,place,-0.140,-0.140,-0.140,0.000,0.000,0.000
1605185228966164224,10.0.1.128,30,place,-0.130,-0.130,-0.130,0.000,0.000,0.000
1605185229988356096,10.0.1.128,51,place,-0.120,-0.120,-0.120,0.000,0.000,0.000
1605185230987534080,10.0.1.128,49,place,-0.110,-0.110,-0.110,0.000,0.000,0.000
1605185231988766976,10.0.1.128,49,place,-0.100,-0.100,-0.100,0.000,0.000,0.000
1605185232986627072,10.0.1.128,45,place,-0.090,-0.090,-0.090,0.000,0.000,0.000
1605185233988146944,10.0.1.128,45,place,-0.080,-0.080,-0.080,0.000,0.000,0.000
1605185234986670080,10.0.1.128,43,place,-0.070,-0.070,-0.070,0.000,0.000,0.000
1605185235986865920,10.0.1.128,42,place,-0.060,-0.060,-0.060,0.000,0.000,0.000
1605185236986978048,10.0.1.128,40,place,-0.050,-0.050,-0.050,0.000,0.000,0.000
1605185237989908992,10.0.1.128,42,place,-0.040,-0.040,-0.040,0.000,0.000,0.000
1605185238993532928,10.0.1.128,44,place,-0.030,-0.030,-0.030,0.000,0.000,0.000
1605185239987052032,10.0.1.128,36,place,-0.020,-0.020,-0.020,0.000,0.000,0.000
1605185240989056000,10.0.1.128,35,place,-0.010,-0.010,-0.010,0.000,0.000,0.000
1605185241991143936,10.0.1.128,36,place,0.000,0.000,0.000,0.000,0.000,0.000
1605185243357551104,10.0.1.128,401,move_down,-0.020,-0.020,-0.020,0.000,0.000,0.000
1605185244787565056,10.0.1.128,389,move_down,-0.040,-0.040,-0.040,0.000,0.000,0.000
1605185246227744000,10.0.1.128,381,move_down,-0.060,-0.060,-0.060,0.000,0.000,0.000
1605185247658963968,10.0.1.128,384,move_down,-0.080,-0.080,-0.080,0.000,0.000,0.000
1605185249088118016,10.0.1.128,359,move_down,-0.100,-0.100,-0.100,0.000,0.000,0.000
1605185250550599936,10.0.1.128,394,move_down,-0.120,-0.120,-0.120,0.000,0.000,0.000
1605185251989038848,10.0.1.128,384,move_down,-0.140,-0.140,-0.140,0.000,0.000,0.000
1605185253441120000,10.0.1.128,407,move_down,-0.160,-0.160,-0.160,0.000,0.000,0.000
1605185254877046016,10.0.1.128,385,move_down,-0.180,-0.180,-0.180,0.000,0.000,0.000
1605185256299774976,10.0.1.128,378,move_down,-0.200,-0.200,-0.200,0.000,0.000,0.000
1605185257757046016,10.0.1.128,360,move_down,-0.220,-0.220,-0.220,0.000,0.000,0.000
1605185259229809152,10.0.1.128,405,move_down,-0.240,-0.240,-0.240,0.000,0.000,0.000
1605185260648343040,10.0.1.128,376,move_down,-0.260,-0.260,-0.260,0.000,0.000,0.000
1605185262097944064,10.0.1.128,399,move_down,-0.280,-0.280,-0.280,0.000,0.000,0.000
1605185263566381824,10.0.1.128,390,move_down,-0.300,-0.300,-0.300,0.000,0.000,0.000
1605185265077181952,10.0.1.128,389,move_down,-0.320,-0.320,-0.320,0.000,0.000,0.000
1605185266506604032,10.0.1.128,395,move_down,-0.340,-0.340,-0.340,0.000,0.000,0.000
1605185267957784832,10.0.1.128,387,move_down,-0.360,-0.360,-0.360,0.000,0.000,0.000
1605185269432885760,10.0.1.128,420,move_down,-0.380,-0.380,-0.380,0.000,0.000,0.000
1605185270875237888,10.0.1.128,406,move_down,-0.400,-0.400,-0.400,0.000,0.000,0.000
1605185272327591936,10.0.1.128,410,move_down,-0.420,-0.420,-0.420,0.000,0.000,0.000
1605185273768956928,10.0.1.128,369,move_down,-0.440,-0.440,-0.440,0.000,0.000,0.000
1605185275218010880,10.0.1.128,390,move_down,-0.460,-0.460,-0.460,0.000,0.000,0.000
1605185276679843840,10.0.1.128,397,move_down,-0.480,-0.480,-0.480,0.000,0.000,0.000
1605185278148431104,10.0.1.128,391,move_down,-0.500,-0.500,-0.500,0.000,0.000,0.000
1605185279597472000,10.0.1.128,399,move_down,-0.520,-0.520,-0.520,0.000,0.000,0.000
1605185281044989952,10.0.1.128,403,move_down,-0.540,-0.540,-0.540,0.000,0.000,0.000
1605185282448672000,10.0.1.128,385,move_down,-0.560,-0.560,-0.560,0.000,0.000,0.000
1605185283887309056,10.0.1.128,412,move_down,-0.580,-0.580,-0.580,0.000,0.000,0.000
1605185284966441984,10.0.1.128,44,pick,-0.590,-0.590,-0.590,0.000,0.000,0.000
1605185285966980864,10.0.1.128,43,pick,-0.600,-0.600,-0.600,0.000,0.000,0.000
1605185286966514176,10.0.1.128,41,pick,-0.610,-0.610,-0.610,0.000,0.000,0.000
1605185287966525952,10.0.1.128,40,pick,-0.620,-0.620,-0.620,0.000,0.000,0.000
1605185288967724032,10.0.1.128,40,pick,-0.630,-0.630,-0.630,0.000,0.000,0.000
1605185289968233984,10.0.1.128,39,pick,-0.640,-0.640,-0.640,0.000,0.000,0.000
1605185290967384064,10.0.1.128,37,pick,-0.650,-0.650,-0.650,0.000,0.000,0.000
1605185291969059072,10.0.1.128,37,pick,-0.660,-0.660,-0.660,0.000,0.000,0.000
1605185292968216064,10.0.1.128,34,pick,-0.670,-0.670,-0.670,0.000,0.000,0.000
1605185293968579072,10.0.1.128,33,pick,-0.680,-0.680,-0.680,0.000,0.000,0.000
1605185295937824000,10.0.1.128,NaN,pick,-0.700,-0.700,-0.700,0.000,0.000,0.000
1605185295988805888,10.0.1.128,50,pick,-0.700,-0.700,-0.700,0.000,0.000,0.000
1605185296987085056,10.0.1.128,47,pick,-0.710,-0.710,-0.710,0.000,0.000,0.000
1605185297990437888,10.0.1.128,50,pick,-0.720,-0.720,-0.720,0.000,0.000,0.000
1605185298991715072,10.0.1.128,49,pick,-0.730,-0.730,-0.730,0.000,0.000,0.000
1605185299998433024,10.0.1.128,54,pick,-0.740,-0.740,-0.740,0.000,0.000,0.000
1605185300989154048,10.0.1.128,44,pick,-0.750,-0.750,-0.750,0.000,0.000,0.000
1605185301987444992,10.0.1.128,40,pick,-0.760,-0.760,-0.760,0.000,0.000,0.000
1605185302988066048,10.0.1.128,40,pick,-0.770,-0.770,-0.770,0.000,0.000,0.000
1605185304359326976,10.0.1.128,410,move_up,-0.750,-0.750,-0.750,0.000,0.000,0.000
1605185305807872000,10.0.1.128,415,move_up,-0.730,-0.730,-0.730,0.000,0.000,0.000
1605185307238401024,10.0.1.128,372,move_up,-0.710,-0.710,-0.710,0.000,0.000,0.000
1605185308734041856,10.0.1.128,440,move_up,-0.690,-0.690,-0.690,0.000,0.000,0.000
1605185310167453952,10.0.1.128,390,move_up,-0.670,-0.670,-0.670,0.000,0.000,0.000
1605185311608467200,10.0.1.128,402,move_up,-0.650,-0.650,-0.650,0.000,0.000,0.000
1605185313076697088,10.0.1.128,391,move_up,-0.630,-0.630,-0.630,0.000,0.000,0.000
1605185314545156096,10.0.1.128,385,move_up,-0.610,-0.610,-0.610,0.000,0.000,0.000
1605185315968871168,10.0.1.128,380,move_up,-0.590,-0.590,-0.590,0.000,0.000,0.000
1605185317346867200,10.0.1.128,379,move_up,-0.570,-0.570,-0.570,0.000,0.000,0.000
1605185318797396992,10.0.1.128,374,move_up,-0.550,-0.550,-0.550,0.000,0.000,0.000
1605185320227482112,10.0.1.128,375,move_up,-0.530,-0.530,-0.530,0.000,0.000,0.000
1605185321707087872,10.0.1.128,413,move_up,-0.510,-0.510,-0.510,0.000,0.000,0.000
1605185323177079040,10.0.1.128,405,move_up,-0.490,-0.490,-0.490,0.000,0.000,0.000
1605185324647563008,10.0.1.128,403,move_up,-0.470,-0.470,-0.470,0.000,0.000,0.000
1605185326088453120,10.0.1.128,405,move_up,-0.450,-0.450,-0.450,0.000,0.000,0.000
1605185327556422912,10.0.1.128,395,move_up,-0.430,-0.430,-0.430,0.000,0.000,0.000
1605185328997991168,10.0.1.128,409,move_up,-0.410,-0.410,-0.410,0.000,0.000,0.000
1605185330427889152,10.0.1.128,357,move_up,-0.390,-0.390,-0.390,0.000,0.000,0.000
1605185331867165952,10.0.1.128,387,move_up,-0.370,-0.370,-0.370,0.000,0.000,0.000
1605185333296400128,10.0.1.128,387,move_up,-0.350,-0.350,-0.350,0.000,0.000,0.000
1605185334748891136,10.0.1.128,382,move_up,-0.330,-0.330,-0.330,0.000,0.000,0.000
1605185336167987968,10.0.1.128,390,move_up,-0.310,-0.310,-0.310,0.000,0.000,0.000
1605185337634614016,10.0.1.128,380,move_up,-0.290,-0.290,-0.290,0.000,0.000,0.000
1605185339068101888,10.0.1.128,370,move_up,-0.270,-0.270,-0.270,0.000,0.000,0.000
1605185340527156992,10.0.1.128,402,move_up,-0.250,-0.250,-0.250,0.000,0.000,0.000
1605185341969283072,10.0.1.128,404,move_up,-0.230,-0.230,-0.230,0.000,0.000,0.000
1605185343397548032,10.0.1.128,385,move_up,-0.210,-0.210,-0.210,0.000,0.000,0.000
1605185344856848128,10.0.1.128,396,move_up,-0.190,-0.190,-0.190,0.000,0.000,0.000
1605185345976886016,10.0.1.128,34,place,-0.180,-0.180,-0.180,0.000,0.000,0.000
1605185346977718016,10.0.1.128,33,place,-0.170,-0.170,-0.170,0.000,0.000,0.000
1605185347976555008,10.0.1.128,31,place,-0.160,-0.160,-0.160,0.000,0.000,0.000
1605185348996995840,10.0.1.128,49,place,-0.150,-0.150,-0.150,0.000,0.000,0.000
1605185349996562944,10.0.1.128,47,place,-0.140,-0.140,-0.140,0.000,0.000,0.000
1605185350999332864,10.0.1.128,49,place,-0.130,-0.130,-0.130,0.000,0.000,0.000
1605185351997978880,10.0.1.128,46,place,-0.120,-0.120,-0.120,0.000,0.000,0.000
1605185352996530944,10.0.1.128,43,place,-0.110,-0.110,-0.110,0.000,0.000,0.000
1605185354002060800,10.0.1.128,47,place,-0.100,-0.100,-0.100,0.000,0.000,0.000
1605185354998033152,10.0.1.128,40,place,-0.090,-0.090,-0.090,0.000,0.000,0.000
1605185356000866048,10.0.1.128,41,place,-0.080,-0.080,-0.080,0.000,0.000,0.000
1605185356997946880,10.0.1.128,37,place,-0.070,-0.070,-0.070,0.000,0.000,0.000
1605185357996718848,10.0.1.128,34,place,-0.060,-0.060,-0.060,0.000,0.000,0.000
1605185358997721856,10.0.1.128,34,place,-0.050,-0.050,-0.050,0.000,0.000,0.000
1605185360016896000,10.0.1.128,52,place,-0.040,-0.040,-0.040,0.000,0.000,0.000
1605185360998224128,10.0.1.128,32,place,-0.030,-0.030,-0.030,0.000,0.000,0.000
1605185362018525952,10.0.1.128,51,place,-0.020,-0.020,-0.020,0.000,0.000,0.000
1605185363016269056,10.0.1.128,48,place,-0.010,-0.010,-0.010,0.000,0.000,0.000
1605185364017570048,10.0.1.128,48,place,0.000,0.000,0.000,0.000,0.000,0.000
1605185365377240832,10.0.1.128,406,move_down,-0.020,-0.020,-0.020,0.000,0.000,0.000
1605185366807993856,10.0.1.128,383,move_down,-0.040,-0.040,-0.040,0.000,0.000,0.000
1605185368229750016,10.0.1.128,378,move_down,-0.060,-0.060,-0.060,0.000,0.000,0.000
1605185369681127936,10.0.1.128,386,move_down,-0.080,-0.080,-0.080,0.000,0.000,0.000
1605185371107800064,10.0.1.128,380,move_down,-0.100,-0.100,-0.100,0.000,0.000,0.000
1605185372566924032,10.0.1.128,395,move_down,-0.120,-0.120,-0.120,0.000,0.000,0.000
1605185374000296192,10.0.1.128,386,move_down,-0.140,-0.140,-0.140,0.000,0.000,0.000
1605185375431674112,10.0.1.128,382,move_down,-0.160,-0.160,-0.160,0.000,0.000,0.000
1605185376867080960,10.0.1.128,390,move_down,-0.180,-0.180,-0.180,0.000,0.000,0.000
1605185378307190784,10.0.1.128,386,move_down,-0.200,-0.200,-0.200,0.000,0.000,0.000
1605185379746936064,10.0.1.128,391,move_down,-0.220,-0.220,-0.220,0.000,0.000,0.000
1605185381164417024,10.0.1.128,364,move_down,-0.240,-0.240,-0.240,0.000,0.000,0.000
1605185382608104960,10.0.1.128,379,move_down,-0.260,-0.260,-0.260,0.000,0.000,0.000
1605185384066976000,10.0.1.128,407,move_down,-0.280,-0.280,-0.280,0.000,0.000,0.000
1605185385518117888,10.0.1.128,402,move_down,-0.300,-0.300,-0.300,0.000,0.000,0.000
1605185386997324032,10.0.1.128,396,move_down,-0.320,-0.320,-0.320,0.000,0.000,0.000
1605185388418112000,10.0.1.128,376,move_down,-0.340,-0.340,-0.340,0.000,0.000,0.000
1605185389880032000,10.0.1.128,414,move_down,-0.360,-0.360,-0.360,0.000,0.000,0.000
1605185391347901184,10.0.1.128,404,move_down,-0.380,-0.380,-0.380,0.000,0.000,0.000
1605185392788017152,10.0.1.128,399,move_down,-0.400,-0.400,-0.400,0.000,0.000,0.000
1605185394177253120,10.0.1.128,362,move_down,-0.420,-0.420,-0.420,0.000,0.000,0.000
1605185395687875072,10.0.1.128,443,move_down,-0.440,-0.440,-0.440,0.000,0.000,0.000
1605185397162929152,10.0.1.128,398,move_down,-0.460,-0.460,-0.460,0.000,0.000,0.000
1605185398609192960,10.0.1.128,404,move_down,-0.480,-0.480,-0.480,0.000,0.000,0.000
1605185400062903808,10.0.1.128,401,move_down,-0.500,-0.500,-0.500,0.000,0.000,0.000
1605185401457277952,10.0.1.128,348,move_down,-0.520,-0.520,-0.520,0.000,0.000,0.000
1605185402936706048,10.0.1.128,416,move_down,-0.540,-0.540,-0.540,0.000,0.000,0.000
1605185404347769856,10.0.1.128,376,move_down,-0.560,-0.560,-0.560,0.000,0.000,0.000
1605185405788756992,10.0.1.128,393,move_down,-0.580,-0.580,-0.580,0.000,0.000,0.000
1605185406887459072,10.0.1.128,46,pick,-0.590,-0.590,-0.590,0.000,0.000,0.000
1605185407886739968,10.0.1.128,44,pick,-0.600,-0.600,-0.600,0.000,0.000,0.000
1605185408887265024,10.0.1.128,43,pick,-0.610,-0.610,-0.610,0.000,0.000,0.000
1605185409887267072,10.0.1.128,42,pick,-0.620,-0.620,-0.620,0.000,0.000,0.000
1605185410887838976,10.0.1.128,41,pick,-0.630,-0.630,-0.630,0.000,0.000,0.000
1605185411887335936,10.0.1.128,34,pick,-0.640,-0.640,-0.640,0.000,0.000,0.000
1605185412907661056,10.0.1.128,53,pick,-0.650,-0.650,-0.650,0.000,0.000,0.000
1605185413891196928,10.0.1.128,35,pick,-0.660,-0.660,-0.660,0.000,0.000,0.000
1605185414907280896,10.0.1.128,50,pick,-0.670,-0.670,-0.670,0.000,0.000,0.000
1605185415908147200,10.0.1.128,49,pick,-0.680,-0.680,-0.680,0.000,0.000,0.000
1605185416917270784,10.0.1.128,57,pick,-0.690,-0.690,-0.690,0.000,0.000,0.000
1605185417907994112,10.0.1.128,46,pick,-0.700,-0.700,-0.700,0.000,0.000,0.000
1605185418906505984,10.0.1.128,41,pick,-0.710,-0.710,-0.710,0.000,0.000,0.000
1605185419909750016,10.0.1.128,42,pick,-0.720,-0.720,-0.720,0.000,0.000,0.000
1605185420915443968,10.0.1.128,46,pick,-0.730,-0.730,-0.730,0.000,0.000,0.000
1605185421907475968,10.0.1.128,37,pick,-0.740,-0.740,-0.740,0.000,0.000,0.000
1605185422908530944,10.0.1.128,37,pick,-0.750,-0.750,-0.750,0.000,0.000,0.000
1605185423926446080,10.0.1.128,54,pick,-0.760,-0.760,-0.760,0.000,0.000,0.000
1605185424906984192,10.0.1.128,34,pick,-0.770,-0.770,-0.770,0.000,0.000,0.000
1605185426277048064,10.0.1.128,402,move_up,-0.750,-0.750,-0.750,0.000,0.000,0.000
1605185427760770048,10.0.1.128,413,move_up,-0.730,-0.730,-0.730,0.000,0.000,0.000
1605185429126571776,10.0.1.128,369,move_up,-0.710,-0.710,-0.710,0.000,0.000,0.000
1605185430566852096,10.0.1.128,384,move_up,-0.690,-0.690,-0.690,0.000,0.000,0.000
1605185431976526080,10.0.1.128,368,move_up,-0.670,-0.670,-0.670,0.000,0.000,0.000
1605185433426863872,10.0.1.128,400,move_up,-0.650,-0.650,-0.650,0.000,0.000,0.000
1605185434897180160,10.0.1.128,392,move_up,-0.630,-0.630,-0.630,0.000,0.000,0.000
1605185436306916864,10.0.1.128,390,move_up,-0.610,-0.610,-0.610,0.000,0.000,0.000
1605185437897278976,10.0.1.128,498,move_up,-0.590,-0.590,-0.590,0.000,0.000,0.000
1605185439396761856,10.0.1.128,429,move_up,-0.570,-0.570,-0.570,0.000,0.000,0.000
1605185440956968960,10.0.1.128,430,move_up,-0.550,-0.550,-0.550,0.000,0.000,0.000
1605185442442652928,10.0.1.128,433,move_up,-0.530,-0.530,-0.530,0.000,0.000,0.000
1605185443945915904,10.0.1.128,444,move_up,-0.510,-0.510,-0.510,0.000,0.000,0.000
1605185445426491904,10.0.1.128,406,move_up,-0.490,-0.490,-0.490,0.000,0.000,0.000
1605185446926067968,10.0.1.128,410,move_up,-0.470,-0.470,-0.470,0.000,0.000,0.000
1605185448361562112,10.0.1.128,364,move_up,-0.450,-0.450,-0.450,0.000,0.000,0.000
1605185449786739200,10.0.1.128,413,move_up,-0.430,-0.430,-0.430,0.000,0.000,0.000
1605185451309457920,10.0.1.128,457,move_up,-0.410,-0.410,-0.410,0.000,0.000,0.000
1605185452768433920,10.0.1.128,405,move_up,-0.390,-0.390,-0.390,0.000,0.000,0.000
1605185454272649984,10.0.1.128,425,move_up,-0.370,-0.370,-0.370,0.000,0.000,0.000
1605185455777734144,10.0.1.128,409,move_up,-0.350,-0.350,-0.350,0.000,0.000,0.000
1605185457251252992,10.0.1.128,393,move_up,-0.330,-0.330,-0.330,0.000,0.000,0.000
1605185458765029888,10.0.1.128,429,move_up,-0.310,-0.310,-0.310,0.000,0.000,0.000
1605185460219460096,10.0.1.128,416,move_up,-0.290,-0.290,-0.290,0.000,0.000,0.000
1605185461660134144,10.0.1.128,387,move_up,-0.270,-0.270,-0.270,0.000,0.000,0.000
1605185463119689984,10.0.1.128,413,move_up,-0.250,-0.250,-0.250,0.000,0.000,0.000
1605185464668932864,10.0.1.128,486,move_up,-0.230,-0.230,-0.230,0.000,0.000,0.000
1605185466177675008,10.0.1.128,411,move_up,-0.210,-0.210,-0.210,0.000,0.000,0.000
1605185467669091840,10.0.1.128,410,move_up,-0.190,-0.190,-0.190,0.000,0.000,0.000
1605185468769345024,10.0.1.128,44,place,-0.180,-0.180,-0.180,0.000,0.000,0.000
1605185469775023872,10.0.1.128,48,place,-0.170,-0.170,-0.170,0.000,0.000,0.000
1605185470773551104,10.0.1.128,46,place,-0.160,-0.160,-0.160,0.000,0.000,0.000
1605185471771027200,10.0.1.128,42,place,-0.150,-0.150,-0.150,0.000,0.000,0.000
1605185472769232896,10.0.1.128,39,place,-0.140,-0.140,-0.140,0.000,0.000,0.000
1605185473768258048,10.0.1.128,36,place,-0.130,-0.130,-0.130,0.000,0.000,0.000
1605185474769946112,10.0.1.128,37,place,-0.120,-0.120,-0.120,0.000,0.000,0.000
1605185475768555008,10.0.1.128,34,place,-0.110,-0.110,-0.110,0.000,0.000,0.000
1605185476769304064,10.0.1.128,33,place,-0.100,-0.100,-0.100,0.000,0.000,0.000
1605185477768126976,10.0.1.128,32,place,-0.090,-0.090,-0.090,0.000,0.000,0.000
1605185478788093184,10.0.1.128,51,place,-0.080,-0.080,-0.080,0.000,0.000,0.000
1605185479792056064,10.0.1.128,53,place,-0.070,-0.070,-0.070,0.000,0.000,0.000
1605185480790247936,10.0.1.128,51,place,-0.060,-0.060,-0.060,0.000,0.000,0.000
1605185481774759936,10.0.1.128,35,place,-0.050,-0.050,-0.050,0.000,0.000,0.000
1605185482795252992,10.0.1.128,53,place,-0.040,-0.040,-0.040,0.000,0.000,0.000
1605185483813250048,10.0.1.128,61,place,-0.030,-0.030,-0.030,0.000,0.000,0.000
1605185484792587008,10.0.1.128,39,place,-0.020,-0.020,-0.020,0.000,0.000,0.000
1605185485794710016,10.0.1.128,40,place,-0.010,-0.010,-0.010,0.000,0.000,0.000
1605185486792134144,10.0.1.128,36,place,0.000,0.000,0.000,0.000,0.000,0.000
1605185488162995200,10.0.1.128,406,move_down,-0.020,-0.020,-0.020,0.000,0.000,0.000
1605185489652698112,10.0.1.128,429,move_down,-0.040,-0.040,-0.040,0.000,0.000,0.000
1605185491171361024,10.0.1.128,440,move_down,-0.060,-0.060,-0.060,0.000,0.000,0.000
1605185492706959872,10.0.1.128,439,move_down,-0.080,-0.080,-0.080,0.000,0.000,0.000
1605185494182297856,10.0.1.128,391,move_down,-0.100,-0.100,-0.100,0.000,0.000,0.000
1605185495663328000,10.0.1.128,391,move_down,-0.120,-0.120,-0.120,0.000,0.000,0.000
1605185497154469888,10.0.1.128,437,move_down,-0.140,-0.140,-0.140,0.000,0.000,0.000
1605185498627474944,10.0.1.128,422,move_down,-0.160,-0.160,-0.160,0.000,0.000,0.000
1605185500085145088,10.0.1.128,401,move_down,-0.180,-0.180,-0.180,0.000,0.000,0.000
1605185501568624128,10.0.1.128,426,move_down,-0.200,-0.200,-0.200,0.000,0.000,0.000
1605185503030040064,10.0.1.128,403,move_down,-0.220,-0.220,-0.220,0.000,0.000,0.000
1605185504523688960,10.0.1.128,410,move_down,-0.240,-0.240,-0.240,0.000,0.000,0.000
1605185505995266048,10.0.1.128,405,move_down,-0.260,-0.260,-0.260,0.000,0.000,0.000
1605185507446098176,10.0.1.128,426,move_down,-0.280,-0.280,-0.280,0.000,0.000,0.000
1605185508906691072,10.0.1.128,382,move_down,-0.300,-0.300,-0.300,0.000,0.000,0.000
1605185510375271936,10.0.1.128,403,move_down,-0.320,-0.320,-0.320,0.000,0.000,0.000
1605185511860291072,10.0.1.128,402,move_down,-0.340,-0.340,-0.340,0.000,0.000,0.000
1605185513265161984,10.0.1.128,383,move_down,-0.360,-0.360,-0.360,0.000,0.000,0.000
1605185514714516992,10.0.1.128,386,move_down,-0.380,-0.380,-0.380,0.000,0.000,0.000
1605185516199980032,10.0.1.128,392,move_down,-0.400,-0.400,-0.400,0.000,0.000,0.000
1605185517679814144,10.0.1.128,391,move_down,-0.420,-0.420,-0.420,0.000,0.000,0.000
1605185519135284992,10.0.1.128,393,move_down,-0.440,-0.440,-0.440,0.000,0.000,0.000
1605185520624773888,10.0.1.128,398,move_down,-0.460,-0.460,-0.460,0.000,0.000,0.000
1605185522107332096,10.0.1.128,389,move_down,-0.480,-0.480,-0.480,0.000,0.000,0.000
1605185523575395072,10.0.1.128,409,move_down,-0.500,-0.500,-0.500,0.000,0.000,0.000
1605185525025487872,10.0.1.128,409,move_down,-0.520,-0.520,-0.520,0.000,0.000,0.000
1605185526464894976,10.0.1.128,390,move_down,-0.540,-0.540,-0.540,0.000,0.000,0.000
1605185527914850048,10.0.1.128,385,move_down,-0.560,-0.560,-0.560,0.000,0.000,0.000
1605185529367970048,10.0.1.128,390,move_down,-0.580,-0.580,-0.580,0.000,0.000,0.000
1605185530508374016,10.0.1.128,50,pick,-0.590,-0.590,-0.590,0.000,0.000,0.000
1605185531505125888,10.0.1.128,46,pick,-0.600,-0.600,-0.600,0.000,0.000,0.000
1605185532507471104,10.0.1.128,47,pick,-0.610,-0.610,-0.610,0.000,0.000,0.000
1605185533508868096,10.0.1.128,47,pick,-0.620,-0.620,-0.620,0.000,0.000,0.000
1605185534508380928,10.0.1.128,44,pick,-0.630,-0.630,-0.630,0.000,0.000,0.000
1605185535506781184,10.0.1.128,41,pick,-0.640,-0.640,-0.640,0.000,0.000,0.000
1605185536513314048,10.0.1.128,47,pick,-0.650,-0.650,-0.650,0.000,0.000,0.000
1605185537505152000,10.0.1.128,37,pick,-0.660,-0.660,-0.660,0.000,0.000,0.000
1605185538509978112,10.0.1.128,41,pick,-0.670,-0.670,-0.670,0.000,0.000,0.000
1605185539503785984,10.0.1.128,33,pick,-0.680,-0.680,-0.680,0.000,0.000,0.000
1605185540512603136,10.0.1.128,41,pick,-0.690,-0.690,-0.690,0.000,0.000,0.000
1605185541509601024,10.0.1.128,36,pick,-0.700,-0.700,-0.700,0.000,0.000,0.000
1605185542539151872,10.0.1.128,65,pick,-0.710,-0.710,-0.710,0.000,0.000,0.000
1605185543525027072,10.0.1.128,49,pick,-0.720,-0.720,-0.720,0.000,0.000,0.000
1605185544525021184,10.0.1.128,48,pick,-0.730,-0.730,-0.730,0.000,0.000,0.000
1605185545526892032,10.0.1.128,48,pick,-0.740,-0.740,-0.740,0.000,0.000,0.000
1605185546527618816,10.0.1.128,48,pick,-0.750,-0.750,-0.750,0.000,0.000,0.000
1605185547526534912,10.0.1.128,45,pick,-0.760,-0.760,-0.760,0.000,0.000,0.000
1605185548528660992,10.0.1.128,42,pick,-0.770,-0.770,-0.770,0.000,0.000,0.000
1605185549915177984,10.0.1.128,427,move_up,-0.750,-0.750,-0.750,0.000,0.000,0.000
1605185551379915008,10.0.1.128,400,move_up,-0.730,-0.730,-0.730,0.000,0.000,0.000
1605185552844097024,10.0.1.128,411,move_up,-0.710,-0.710,-0.710,0.000,0.000,0.000
1605185554303385856,10.0.1.128,379,move_up,-0.690,-0.690,-0.690,0.000,0.000,0.000
1605185555843671040,10.0.1.128,403,move_up,-0.670,-0.670,-0.670,0.000,0.000,0.000
1605185557334774016,10.0.1.128,410,move_up,-0.650,-0.650,-0.650,0.000,0.000,0.000
1605185558833210880,10.0.1.128,415,move_up,-0.630,-0.630,-0.630,0.000,0.000,0.000
1605185560326488064,10.0.1.128,416,move_up,-0.610,-0.610,-0.610,0.000,0.000,0.000
1605185561794599936,10.0.1.128,403,move_up,-0.590,-0.590,-0.590,0.000,0.000,0.000
1605185563274480128,10.0.1.128,405,move_up,-0.570,-0.570,-0.570,0.000,0.000,0.000
1605185564766437120,10.0.1.128,414,move_up,-0.550,-0.550,-0.550,0.000,0.000,0.000
1605185566244571904,10.0.1.128,416,move_up,-0.530,-0.530,-0.530,0.000,0.000,0.000
1605185567713332992,10.0.1.128,401,move_up,-0.510,-0.510,-0.510,0.000,0.000,0.000
1605185569156878848,10.0.1.128,365,move_up,-0.490,-0.490,-0.490,0.000,0.000,0.000
1605185570656954880,10.0.1.128,435,move_up,-0.470,-0.470,-0.470,0.000,0.000,0.000
1605185572124613120,10.0.1.128,391,move_up,-0.450,-0.450,-0.450,0.000,0.000,0.000
1605185573637259008,10.0.1.128,442,move_up,-0.430,-0.430,-0.430,0.000,0.000,0.000
1605185575077955840,10.0.1.128,390,move_up,-0.410,-0.410,-0.410,0.000,0.000,0.000
1605185576513500928,10.0.1.128,379,move_up,-0.390,-0.390,-0.390,0.000,0.000,0.000
1605185578064227072,10.0.1.128,451,move_up,-0.370,-0.370,-0.370,0.000,0.000,0.000
1605185579485096960,10.0.1.128,395,move_up,-0.350,-0.350,-0.350,0.000,0.000,0.000
1605185580958071040,10.0.1.128,422,move_up,-0.330,-0.330,-0.330,0.000,0.000,0.000
1605185582435645184,10.0.1.128,377,move_up,-0.310,-0.310,-0.310,0.000,0.000,0.000
1605185583924457984,10.0.1.128,423,move_up,-0.290,-0.290,-0.290,0.000,0.000,0.000
1605185585403080960,10.0.1.128,413,move_up,-0.270,-0.270,-0.270,0.000,0.000,0.000
1605185586870742016,10.0.1.128,400,move_up,-0.250,-0.250,-0.250,0.000,0.000,0.000
1605185588305076992,10.0.1.128,387,move_up,-0.230,-0.230,-0.230,0.000,0.000,0.000
1605185589763587072,10.0.1.128,408,move_up,-0.210,-0.210,-0.210,0.000,0.000,0.000
1605185591226198016,10.0.1.128,396,move_up,-0.190,-0.190,-0.190,0.000,0.000,0.000
1605185592324161024,10.0.1.128,49,place,-0.180,-0.180,-0.180,0.000,0.000,0.000
1605185593324343808,10.0.1.128,48,place,-0.170,-0.170,-0.170,0.000,0.000,0.000
1605185594327316992,10.0.1.128,50,place,-0.160,-0.160,-0.160,0.000,0.000,0.000
1605185595323863040,10.0.1.128,45,place,-0.150,-0.150,-0.150,0.000,0.000,0.000
1605185596325421056,10.0.1.128,45,place,-0.140,-0.140,-0.140,0.000,0.000,0.000
1605185597325263872,10.0.1.128,44,place,-0.130,-0.130,-0.130,0.000,0.000,0.000
1605185598324836096,10.0.1.128,42,place,-0.120,-0.120,-0.120,0.000,0.000,0.000
1605185599325597952,10.0.1.128,41,place,-0.110,-0.110,-0.110,0.000,0.000,0.000
1605185600325890048,10.0.1.128,40,place,-0.100,-0.100,-0.100,0.000,0.000,0.000
1605185601327930880,10.0.1.128,41,place,-0.090,-0.090,-0.090,0.000,0.000,0.000
1605185602325641984,10.0.1.128,38,place,-0.080,-0.080,-0.080,0.000,0.000,0.000
1605185603324378880,10.0.1.128,35,place,-0.070,-0.070,-0.070,0.000,0.000,0.000
1605185604345572864,10.0.1.128,50,place,-0.060,-0.060,-0.060,0.000,0.000,0.000
1605185605345562880,10.0.1.128,49,place,-0.050,-0.050,-0.050,0.000,0.000,0.000
1605185606347294208,10.0.1.128,49,place,-0.040,-0.040,-0.040,0.000,0.000,0.000
1605185607346415872,10.0.1.128,47,place,-0.030,-0.030,-0.030,0.000,0.000,0.000
1605185608356357120,10.0.1.128,55,place,-0.020,-0.020,-0.020,0.000,0.000,0.000
1605185609344192000,10.0.1.128,42,place,-0.010,-0.010,-0.010,0.000,0.000,0.000
1605185610346589952,10.0.1.128,42,place,0.000,0.000,0.000,0.000,0.000,0.000
1605185611747883008,10.0.1.128,442,move_down,-0.020,-0.020,-0.020,0.000,0.000,0.000
1605185613225778944,10.0.1.128,404,move_down,-0.040,-0.040,-0.040,0.000,0.000,0.000
1605185614689120000,10.0.1.128,406,move_down,-0.060,-0.060,-0.060,0.000,0.000,0.000
1605185616163744000,10.0.1.128,420,move_down,-0.080,-0.080,-0.080,0.000,0.000,0.000
1605185617732424960,10.0.1.128,438,move_down,-0.100,-0.100,-0.100,0.000,0.000,0.000
1605185619265966848,10.0.1.128,457,move_down,-0.120,-0.120,-0.120,0.000,0.000,0.000
1605185620728164864,10.0.1.128,408,move_down,-0.140,-0.140,-0.140,0.000,0.000,0.000
1605185622154927104,10.0.1.128,372,move_down,-0.160,-0.160,-0.160,0.000,0.000,0.000
1605185623614530048,10.0.1.128,408,move_down,-0.180,-0.180,-0.180,0.000,0.000,0.000
1605185625045527808,10.0.1.128,365,move_down,-0.200,-0.200,-0.200,0.000,0.000,0.000
1605185626526206976,10.0.1.128,401,move_down,-0.220,-0.220,-0.220,0.000,0.000,0.000
1605185627991607040,10.0.1.128,407,move_down,-0.240,-0.240,-0.240,0.000,0.000,0.000
1605185629476484096,10.0.1.128,381,move_down,-0.260,-0.260,-0.260,0.000,0.000,0.000
1605185630894499072,10.0.1.128,417,move_down,-0.280,-0.280,-0.280,0.000,0.000,0.000
1605185632349033984,10.0.1.128,393,move_down,-0.300,-0.300,-0.300,0.000,0.000,0.000
1605185633789555968,10.0.1.128,388,move_down,-0.320,-0.320,-0.320,0.000,0.000,0.000
1605185635243705088,10.0.1.128,417,move_down,-0.340,-0.340,-0.340,0.000,0.000,0.000
1605185636676875008,10.0.1.128,388,move_down,-0.360,-0.360,-0.360,0.000,0.000,0.000
1605185638169796864,10.0.1.128,448,move_down,-0.380,-0.380,-0.380,0.000,0.000,0.000
1605185639597289984,10.0.1.128,388,move_down,-0.400,-0.400,-0.400,0.000,0.000,0.000
1605185641047416064,10.0.1.128,390,move_down,-0.420,-0.420,-0.420,0.000,0.000,0.000
1605185642499355136,10.0.1.128,398,move_down,-0.440,-0.440,-0.440,0.000,0.000,0.000
1605185643927197952,10.0.1.128,371,move_down,-0.460,-0.460,-0.460,0.000,0.000,0.000
1605185645397139968,10.0.1.128,414,move_down,-0.480,-0.480,-0.480,0.000,0.000,0.000
1605185646878198016,10.0.1.128,413,move_down,-0.500,-0.500,-0.500,0.000,0.000,0.000
1605185648358309888,10.0.1.128,410,move_down,-0.520,-0.520,-0.520,0.000,0.000,0.000
1605185649836992000,10.0.1.128,409,move_down,-0.540,-0.540,-0.540,0.000,0.000,0.000
1605185651259539968,10.0.1.128,377,move_down,-0.560,-0.560,-0.560,0.000,0.000,0.000
1605185652718547968,10.0.1.128,393,move_down,-0.580,-0.580,-0.580,0.000,0.000,0.000
1605185653818126848,10.0.1.128,43,pick,-0.590,-0.590,-0.590,0.000,0.000,0.000
1605185654817095168,10.0.1.128,40,pick,-0.600,-0.600,-0.600,0.000,0.000,0.000
1605185655840322048,10.0.1.128,62,pick,-0.610,-0.610,-0.610,0.000,0.000,0.000
1605185656817266944,10.0.1.128,38,pick,-0.620,-0.620,-0.620,0.000,0.000,0.000
1605185657818149120,10.0.1.128,38,pick,-0.630,-0.630,-0.630,0.000,0.000,0.000
1605185658817976832,10.0.1.128,36,pick,-0.640,-0.640,-0.640,0.000,0.000,0.000
1605185659816875008,10.0.1.128,34,pick,-0.650,-0.650,-0.650,0.000,0.000,0.000
1605185660816605952,10.0.1.128,33,pick,-0.660,-0.660,-0.660,0.000,0.000,0.000
1605185661817684992,10.0.1.128,33,pick,-0.670,-0.670,-0.670,0.000,0.000,0.000
1605185662838764800,10.0.1.128,52,pick,-0.680,-0.680,-0.680,0.000,0.000,0.000
1605185663841504000,10.0.1.128,54,pick,-0.690,-0.690,-0.690,0.000,0.000,0.000
1605185664836072960,10.0.1.128,48,pick,-0.700,-0.700,-0.700,0.000,0.000,0.000
1605185665839099904,10.0.1.128,50,pick,-0.710,-0.710,-0.710,0.000,0.000,0.000
1605185666840521984,10.0.1.128,50,pick,-0.720,-0.720,-0.720,0.000,0.000,0.000
1605185667840580864,10.0.1.128,49,pick,-0.730,-0.730,-0.730,0.000,0.000,0.000
1605185668832506880,10.0.1.128,39,pick,-0.740,-0.740,-0.740,0.000,0.000,0.000
1605185669839234048,10.0.1.128,45,pick,-0.750,-0.750,-0.750,0.000,0.000,0.000
1605185670844142080,10.0.1.128,48,pick,-0.760,-0.760,-0.760,0.000,0.000,0.000
1605185671837338880,10.0.1.128,40,pick,-0.770,-0.770,-0.770,0.000,0.000,0.000
1605185673248899840,10.0.1.128,450,move_up,-0.750,-0.750,-0.750,0.000,0.000,0.000
1605185674679193856,10.0.1.128,391,move_up,-0.730,-0.730,-0.730,0.000,0.000,0.000
1605185676126950144,10.0.1.128,395,move_up,-0.710,-0.710,-0.710,0.000,0.000,0.000
1605185677589327104,10.0.1.128,401,move_up,-0.690,-0.690,-0.690,0.000,0.000,0.000
1605185679020025088,10.0.1.128,378,move_up,-0.670,-0.670,-0.670,0.000,0.000,0.000
1605185680540472064,10.0.1.128,453,move_up,-0.650,-0.650,-0.650,0.000,0.000,0.000
1605185682019774976,10.0.1.128,416,move_up,-0.630,-0.630,-0.630,0.000,0.000,0.000
1605185683472592128,10.0.1.128,386,move_up,-0.610,-0.610,-0.610,0.000,0.000,0.000
1605185684834402048,10.0.1.128,370,move_up,-0.590,-0.590,-0.590,0.000,0.000,0.000
1605185686271559936,10.0.1.128,396,move_up,-0.570,-0.570,-0.570,0.000,0.000,0.000
1605185687742956032,10.0.1.128,384,move_up,-0.550,-0.550,-0.550,0.000,0.000,0.000
1605185689180046080,10.0.1.128,379,move_up,-0.530,-0.530,-0.530,0.000,0.000,0.000
1605185690723064064,10.0.1.128,443,move_up,-0.510,-0.510,-0.510,0.000,0.000,0.000
1605185692188858112,10.0.1.128,398,move_up,-0.490,-0.490,-0.490,0.000,0.000,0.000
1605185693619224064,10.0.1.128,377,move_up,-0.470,-0.470,-0.470,0.000,0.000,0.000
1605185695121940992,10.0.1.128,440,move_up,-0.450,-0.450,-0.450,0.000,0.000,0.000
1605185696629731840,10.0.1.128,434,move_up,-0.430,-0.430,-0.430,0.000,0.000,0.000
1605185698079087104,10.0.1.128,406,move_up,-0.410,-0.410,-0.410,0.000,0.000,0.000
1605185699538002944,10.0.1.128,407,move_up,-0.390,-0.390,-0.390,0.000,0.000,0.000
1605185701018467840,10.0.1.128,369,move_up,-0.370,-0.370,-0.370,0.000,0.000,0.000
1605185702479665152,10.0.1.128,409,move_up,-0.350,-0.350,-0.350,0.000,0.000,0.000
1605185703943865088,10.0.1.128,408,move_up,-0.330,-0.330,-0.330,0.000,0.000,0.000
1605185705418546944,10.0.1.128,399,move_up,-0.310,-0.310,-0.310,0.000,0.000,0.000
1605185706862739200,10.0.1.128,425,move_up,-0.290,-0.290,-0.290,0.000,0.000,0.000
1605185708289496064,10.0.1.128,415,move_up,-0.270,-0.270,-0.270,0.000,0.000,0.000
1605185709768505088,10.0.1.128,376,move_up,-0.250,-0.250,-0.250,0.000,0.000,0.000
1605185711259398912,10.0.1.128,385,move_up,-0.230,-0.230,-0.230,0.000,0.000,0.000
1605185712680141056,10.0.1.128,390,move_up,-0.210,-0.210,-0.210,0.000,0.000,0.000
1605185714158425088,10.0.1.128,392,move_up,-0.190,-0.190,-0.190,0.000,0.000,0.000
1605185715240551936,10.0.1.128,32,place,-0.180,-0.180,-0.180,0.000,0.000,0.000
1605185716264508928,10.0.1.128,55,place,-0.170,-0.170,-0.170,0.000,0.000,0.000
1605185717258647808,10.0.1.128,47,place,-0.160,-0.160,-0.160,0.000,0.000,0.000
1605185718259476992,10.0.1.128,47,place,-0.150,-0.150,-0.150,0.000,0.000,0.000
1605185719257752832,10.0.1.128,44,place,-0.140,-0.140,-0.140,0.000,0.000,0.000
1605185720257463040,10.0.1.128,43,place,-0.130,-0.130,-0.130,0.000,0.000,0.000
1605185721258321920,10.0.1.128,42,place,-0.120,-0.120,-0.120,0.000,0.000,0.000
1605185722259685120,10.0.1.128,42,place,-0.110,-0.110,-0.110,0.000,0.000,0.000
1605185723258512128,10.0.1.128,40,place,-0.100,-0.100,-0.100,0.000,0.000,0.000
1605185724267847168,10.0.1.128,48,place,-0.090,-0.090,-0.090,0.000,0.000,0.000
1605185725266956032,10.0.1.128,45,place,-0.080,-0.080,-0.080,0.000,0.000,0.000
1605185726257703168,10.0.1.128,35,place,-0.070,-0.070,-0.070,0.000,0.000,0.000
1605185727259414016,10.0.1.128,35,place,-0.060,-0.060,-0.060,0.000,0.000,0.000
1605185728258017024,10.0.1.128,33,place,-0.050,-0.050,-0.050,0.000,0.000,0.000
1605185729258119168,10.0.1.128,31,place,-0.040,-0.040,-0.040,0.000,0.000,0.000
1605185730278768128,10.0.1.128,50,place,-0.030,-0.030,-0.030,0.000,0.000,0.000
1605185731277998848,10.0.1.128,48,place,-0.020,-0.020,-0.020,0.000,0.000,0.000
1605185732278184960,10.0.1.128,47,place,-0.010,-0.010,-0.010,0.000,0.000,0.000
1605185733279393792,10.0.1.128,46,place,0.000,0.000,0.000,0.000,0.000,0.000
1605185734698931968,10.0.1.128,459,move_down,-0.020,-0.020,-0.020,0.000,0.000,0.000
1605185736193353984,10.0.1.128,423,move_down,-0.040,-0.040,-0.040,0.000,0.000,0.000
1605185737690349056,10.0.1.128,394,move_down,-0.060,-0.060,-0.060,0.000,0.000,0.000
1605185739202370048,10.0.1.128,430,move_down,-0.080,-0.080,-0.080,0.000,0.000,0.000
1605185740754720000,10.0.1.128,453,move_down,-0.100,-0.100,-0.100,0.000,0.000,0.000
1605185742188747776,10.0.1.128,410,move_down,-0.120,-0.120,-0.120,0.000,0.000,0.000
1605185743640659200,10.0.1.128,417,move_down,-0.140,-0.140,-0.140,0.000,0.000,0.000
1605185745089088000,10.0.1.128,413,move_down,-0.160,-0.160,-0.160,0.000,0.000,0.000
1605185746488747008,10.0.1.128,394,move_down,-0.180,-0.180,-0.180,0.000,0.000,0.000
1605185747978795008,10.0.1.128,401,move_down,-0.200,-0.200,-0.200,0.000,0.000,0.000
1605185749479929856,10.0.1.128,387,move_down,-0.220,-0.220,-0.220,0.000,0.000,0.000
1605185750960381952,10.0.1.128,420,move_down,-0.240,-0.240,-0.240,0.000,0.000,0.000
1605185752400818176,10.0.1.128,385,move_down,-0.260,-0.260,-0.260,0.000,0.000,0.000
1605185753898452992,10.0.1.128,431,move_down,-0.280,-0.280,-0.280,0.000,0.000,0.000
1605185755328088064,10.0.1.128,378,move_down,-0.300,-0.300,-0.300,0.000,0.000,0.000
1605185756808360960,10.0.1.128,407,move_down,-0.320,-0.320,-0.320,0.000,0.000,0.000
1605185758280136960,10.0.1.128,406,move_down,-0.340,-0.340,-0.340,0.000,0.000,0.000
1605185759728281088,10.0.1.128,408,move_down,-0.360,-0.360,-0.360,0.000,0.000,0.000
1605185761219705088,10.0.1.128,419,move_down,-0.380,-0.380,-0.380,0.000,0.000,0.000
1605185762720453888,10.0.1.128,445,move_down,-0.400,-0.400,-0.400,0.000,0.000,0.000
1605185764208648960,10.0.1.128,413,move_down,-0.420,-0.420,-0.420,0.000,0.000,0.000
1605185765629862912,10.0.1.128,362,move_down,-0.440,-0.440,-0.440,0.000,0.000,0.000
1605185767078530048,10.0.1.128,398,move_down,-0.460,-0.460,-0.460,0.000,0.000,0.000
1605185768528613120,10.0.1.128,385,move_down,-0.480,-0.480,-0.480,0.000,0.000,0.000
1605185769997707008,10.0.1.128,406,move_down,-0.500,-0.500,-0.500,0.000,0.000,0.000
1605185771468153088,10.0.1.128,402,move_down,-0.520,-0.520,-0.520,0.000,0.000,0.000
1605185772934710016,10.0.1.128,389,move_down,-0.540,-0.540,-0.540,0.000,0.000,0.000
1605185774413611008,10.0.1.128,391,move_down,-0.560,-0.560,-0.560,0.000,0.000,0.000
1605185775921235968,10.0.1.128,389,move_down,-0.580,-0.580,-0.580,0.000,0.000,0.000
1605185776991312896,10.0.1.128,39,pick,-0.590,-0.590,-0.590,0.000,0.000,0.000
1605185777988445952,10.0.1.128,35,pick,-0.600,-0.600,-0.600,0.000,0.000,0.000
1605185778988517120,10.0.1.128,34,pick,-0.610,-0.610,-0.610,0.000,0.000,0.000
1605185779990140928,10.0.1.128,32,pick,-0.620,-0.620,-0.620,0.000,0.000,0.000
1605185781008157952,10.0.1.128,49,pick,-0.630,-0.630,-0.630,0.000,0.000,0.000
1605185782008552960,10.0.1.128,47,pick,-0.640,-0.640,-0.640,0.000,0.000,0.000
1605185783010094848,10.0.1.128,47,pick,-0.650,-0.650,-0.650,0.000,0.000,0.000
1605185784008688896,10.0.1.128,45,pick,-0.660,-0.660,-0.660,0.000,0.000,0.000
1605185785022761984,10.0.1.128,58,pick,-0.670,-0.670,-0.670,0.000,0.000,0.000
1605185786007636992,10.0.1.128,39,pick,-0.680,-0.680,-0.680,0.000,0.000,0.000
1605185787009803008,10.0.1.128,39,pick,-0.690,-0.690,-0.690,0.000,0.000,0.000
1605185788009798912,10.0.1.128,37,pick,-0.700,-0.700,-0.700,0.000,0.000,0.000
1605185789008589056,10.0.1.128,35,pick,-0.710,-0.710,-0.710,0.000,0.000,0.000
1605185790015456000,10.0.1.128,40,pick,-0.720,-0.720,-0.720,0.000,0.000,0.000
1605185791026068992,10.0.1.128,50,pick,-0.730,-0.730,-0.730,0.000,0.000,0.000
1605185792008829952,10.0.1.128,31,pick,-0.740,-0.740,-0.740,0.000,0.000,0.000
1605185793978743040,10.0.1.128,NaN,pick,-0.760,-0.760,-0.760,0.000,0.000,0.000
1605185794030177024,10.0.1.128,51,pick,-0.760,-0.760,-0.760,0.000,0.000,0.000
1605185795031858944,10.0.1.128,52,pick,-0.770,-0.770,-0.770,0.000,0.000,0.000
1605185796401012992,10.0.1.128,420,move_up,-0.750,-0.750,-0.750,0.000,0.000,0.000
1605185797880814080,10.0.1.128,411,move_up,-0.730,-0.730,-0.730,0.000,0.000,0.000
1605185799328870144,10.0.1.128,413,move_up,-0.710,-0.710,-0.710,0.000,0.000,0.000
1605185800769462016,10.0.1.128,401,move_up,-0.690,-0.690,-0.690,0.000,0.000,0.000
1605185802268754944,10.0.1.128,423,move_up,-0.670,-0.670,-0.670,0.000,0.000,0.000
1605185803722952960,10.0.1.128,391,move_up,-0.650,-0.650,-0.650,0.000,0.000,0.000
1605185805130539776,10.0.1.128,411,move_up,-0.630,-0.630,-0.630,0.000,0.000,0.000
1605185806634332928,10.0.1.128,422,move_up,-0.610,-0.610,-0.610,0.000,0.000,0.000
1605185808109024000,10.0.1.128,410,move_up,-0.590,-0.590,-0.590,0.000,0.000,0.000
1605185809649964032,10.0.1.128,431,move_up,-0.570,-0.570,-0.570,0.000,0.000,0.000
1605185811099942912,10.0.1.128,396,move_up,-0.550,-0.550,-0.550,0.000,0.000,0.000
1605185812642050048,10.0.1.128,422,move_up,-0.530,-0.530,-0.530,0.000,0.000,0.000
1605185814044795904,10.0.1.128,388,move_up,-0.510,-0.510,-0.510,0.000,0.000,0.000
1605185815525757952,10.0.1.128,455,move_up,-0.490,-0.490,-0.490,0.000,0.000,0.000
1605185816991161088,10.0.1.128,404,move_up,-0.470,-0.470,-0.470,0.000,0.000,0.000
1605185818391855872,10.0.1.128,381,move_up,-0.450,-0.450,-0.450,0.000,0.000,0.000
1605185819850512896,10.0.1.128,394,move_up,-0.430,-0.430,-0.430,0.000,0.000,0.000
1605185821392832000,10.0.1.128,463,move_up,-0.410,-0.410,-0.410,0.000,0.000,0.000
1605185822854255872,10.0.1.128,396,move_up,-0.390,-0.390,-0.390,0.000,0.000,0.000
1605185824281677056,10.0.1.128,380,move_up,-0.370,-0.370,-0.370,0.000,0.000,0.000
1605185825810311168,10.0.1.128,400,move_up,-0.350,-0.350,-0.350,0.000,0.000,0.000
1605185827260369152,10.0.1.128,390,move_up,-0.330,-0.330,-0.330,0.000,0.000,0.000
1605185828700622080,10.0.1.128,384,move_up,-0.310,-0.310,-0.310,0.000,0.000,0.000
1605185830170077184,10.0.1.128,440,move_up,-0.290,-0.290,-0.290,0.000,0.000,0.000
1605185831700203008,10.0.1.128,429,move_up,-0.270,-0.270,-0.270,0.000,0.000,0.000
1605185833206871040,10.0.1.128,419,move_up,-0.250,-0.250,-0.250,0.000,0.000,0.000
1605185834682012160,10.0.1.128,423,move_up,-0.230,-0.230,-0.230,0.000,0.000,0.000
1605185836161339136,10.0.1.128,410,move_up,-0.210,-0.210,-0.210,0.000,0.000,0.000
1605185837656851968,10.0.1.128,437,move_up,-0.190,-0.190,-0.190,0.000,0.000,0.000
1605185838779255040,10.0.1.128,71,place,-0.180,-0.180,-0.180,0.000,0.000,0.000
1605185839761070848,10.0.1.128,52,place,-0.170,-0.170,-0.170,0.000,0.000,0.000
1605185840756293888,10.0.1.128,46,place,-0.160,-0.160,-0.160,0.000,0.000,0.000
1605185841761751040,10.0.1.128,51,place,-0.150,-0.150,-0.150,0.000,0.000,0.000
1605185842757509888,10.0.1.128,44,place,-0.140,-0.140,-0.140,0.000,0.000,0.000
1605185843760094976,10.0.1.128,45,place,-0.130,-0.130,-0.130,0.000,0.000,0.000
1605185844776456192,10.0.1.128,59,place,-0.120,-0.120,-0.120,0.000,0.000,0.000
1605185845756797184,10.0.1.128,39,place,-0.110,-0.110,-0.110,0.000,0.000,0.000
1605185846764771072,10.0.1.128,46,place,-0.100,-0.100,-0.100,0.000,0.000,0.000
1605185847756311040,10.0.1.128,36,place,-0.090,-0.090,-0.090,0.000,0.000,0.000
1605185848756844032,10.0.1.128,34,place,-0.080,-0.080,-0.080,0.000,0.000,0.000
1605185849756304896,10.0.1.128,32,place,-0.070,-0.070,-0.070,0.000,0.000,0.000
1605185850776463872,10.0.1.128,51,place,-0.060,-0.060,-0.060,0.000,0.000,0.000
1605185851786717952,10.0.1.128,57,place,-0.050,-0.050,-0.050,0.000,0.000,0.000
1605185852778452992,10.0.1.128,47,place,-0.040,-0.040,-0.040,0.000,0.000,0.000
1605185853778667008,10.0.1.128,45,place,-0.030,-0.030,-0.030,0.000,0.000,0.000
1605185854776153088,10.0.1.128,41,place,-0.020,-0.020,-0.020,0.000,0.000,0.000
1605185855785870080,10.0.1.128,43,place,-0.010,-0.010,-0.010,0.000,0.000,0.000
1605185856774796032,10.0.1.128,31,place,0.000,0.000,0.000,0.000,0.000,0.000
1605185858155177984,10.0.1.128,410,move_down,-0.020,-0.020,-0.020,0.000,0.000,0.000
1605185859626390016,10.0.1.128,412,move_down,-0.040,-0.040,-0.040,0.000,0.000,0.000
1605185861095134976,10.0.1.128,405,move_down,-0.060,-0.060,-0.060,0.000,0.000,0.000
1605185862554601984,10.0.1.128,390,move_down,-0.080,-0.080,-0.080,0.000,0.000,0.000
1605185864078337024,10.0.1.128,433,move_down,-0.100,-0.100,-0.100,0.000,0.000,0.000
1605185865564640000,10.0.1.128,419,move_down,-0.120,-0.120,-0.120,0.000,0.000,0.000
1605185867065402880,10.0.1.128,416,move_down,-0.140,-0.140,-0.140,0.000,0.000,0.000
1605185868595609856,10.0.1.128,448,move_down,-0.160,-0.160,-0.160,0.000,0.000,0.000
1605185870114796032,10.0.1.128,399,move_down,-0.180,-0.180,-0.180,0.000,0.000,0.000
1605185871618684928,10.0.1.128,419,move_down,-0.200,-0.200,-0.200,0.000,0.000,0.000
1605185873125052928,10.0.1.128,433,move_down,-0.220,-0.220,-0.220,0.000,0.000,0.000
1605185874595467008,10.0.1.128,423,move_down,-0.240,-0.240,-0.240,0.000,0.000,0.000
1605185876106424064,10.0.1.128,422,move_down,-0.260,-0.260,-0.260,0.000,0.000,0.000
1605185877599323136,10.0.1.128,402,move_down,-0.280,-0.280,-0.280,0.000,0.000,0.000
1605185879106134016,10.0.1.128,423,move_down,-0.300,-0.300,-0.300,0.000,0.000,0.000
1605185880625335040,10.0.1.128,423,move_down,-0.320,-0.320,-0.320,0.000,0.000,0.000
1605185882114563840,10.0.1.128,422,move_down,-0.340,-0.340,-0.340,0.000,0.000,0.000
1605185883580945920,10.0.1.128,413,move_down,-0.360,-0.360,-0.360,0.000,0.000,0.000
1605185885005445120,10.0.1.128,403,move_down,-0.380,-0.380,-0.380,0.000,0.000,0.000
1605185886575894016,10.0.1.128,484,move_down,-0.400,-0.400,-0.400,0.000,0.000,0.000
1605185888041562112,10.0.1.128,428,move_down,-0.420,-0.420,-0.420,0.000,0.000,0.000
1605185889545785856,10.0.1.128,438,move_down,-0.440,-0.440,-0.440,0.000,0.000,0.000
1605185891040297984,10.0.1.128,424,move_down,-0.460,-0.460,-0.460,0.000,0.000,0.000
1605185892532747008,10.0.1.128,405,move_down,-0.480,-0.480,-0.480,0.000,0.000,0.000
1605185894040875008,10.0.1.128,458,move_down,-0.500,-0.500,-0.500,0.000,0.000,0.000
1605185895515147008,10.0.1.128,408,move_down,-0.520,-0.520,-0.520,0.000,0.000,0.000
1605185897016412928,10.0.1.128,424,move_down,-0.540,-0.540,-0.540,0.000,0.000,0.000
1605185898516026112,10.0.1.128,404,move_down,-0.560,-0.560,-0.560,0.000,0.000,0.000
1605185899950093056,10.0.1.128,418,move_down,-0.580,-0.580,-0.580,0.000,0.000,0.000
1605185901069832192,10.0.1.128,46,pick,-0.590,-0.590,-0.590,0.000,0.000,0.000
1605185902067373056,10.0.1.128,41,pick,-0.600,-0.600,-0.600,0.000,0.000,0.000
1605185903066732800,10.0.1.128,40,pick,-0.610,-0.610,-0.610,0.000,0.000,0.000
1605185904068048128,10.0.1.128,39,pick,-0.620,-0.620,-0.620,0.000,0.000,0.000
1605185905065015040,10.0.1.128,30,pick,-0.630,-0.630,-0.630,0.000,0.000,0.000
1605185906085285888,10.0.1.128,45,pick,-0.640,-0.640,-0.640,0.000,0.000,0.000
1605185907087933952,10.0.1.128,46,pick,-0.650,-0.650,-0.650,0.000,0.000,0.000
1605185908086008064,10.0.1.128,43,pick,-0.660,-0.660,-0.660,0.000,0.000,0.000
1605185909086721024,10.0.1.128,42,pick,-0.670,-0.670,-0.670,0.000,0.000,0.000
1605185910045497856,10.0.1.128,-1,pick,-0.680,-0.680,-0.680,0.000,0.000,0.000
1605185911085652224,10.0.1.128,39,pick,-0.690,-0.690,-0.690,0.000,0.000,0.000
1605185912095331840,10.0.1.128,47,pick,-0.700,-0.700,-0.700,0.000,0.000,0.000
1605185913085683200,10.0.1.128,36,pick,-0.710,-0.710,-0.710,0.000,0.000,0.000
1605185914086205952,10.0.1.128,35,pick,-0.720,-0.720,-0.720,0.000,0.000,0.000
1605185915086048000,10.0.1.128,31,pick,-0.730,-0.730,-0.730,0.000,0.000,0.000
1605185916113351168,10.0.1.128,57,pick,-0.740,-0.740,-0.740,0.000,0.000,0.000
1605185917119618816,10.0.1.128,62,pick,-0.750,-0.750,-0.750,0.000,0.000,0.000
1605185918105981952,10.0.1.128,47,pick,-0.760,-0.760,-0.760,0.000,0.000,0.000
1605185919110114048,10.0.1.128,50,pick,-0.770,-0.770,-0.770,0.000,0.000,0.000
1605185920445959936,10.0.1.128,385,move_up,-0.750,-0.750,-0.750,0.000,0.000,0.000
1605185921952835072,10.0.1.128,406,move_up,-0.730,-0.730,-0.730,0.000,0.000,0.000
1605185923450648064,10.0.1.128,400,move_up,-0.710,-0.710,-0.710,0.000,0.000,0.000
1605185924928101120,10.0.1.128,401,move_up,-0.690,-0.690,-0.690,0.000,0.000,0.000
1605185926388056064,10.0.1.128,390,move_up,-0.670,-0.670,-0.670,0.000,0.000,0.000
1605185927907735040,10.0.1.128,454,move_up,-0.650,-0.650,-0.650,0.000,0.000,0.000
1605185929374150912,10.0.1.128,406,move_up,-0.630,-0.630,-0.630,0.000,0.000,0.000
1605185930848135936,10.0.1.128,369,move_up,-0.610,-0.610,-0.610,0.000,0.000,0.000
1605185932366607872,10.0.1.128,408,move_up,-0.590,-0.590,-0.590,0.000,0.000,0.000
1605185933926053120,10.0.1.128,448,move_up,-0.570,-0.570,-0.570,0.000,0.000,0.000
1605185935388241920,10.0.1.128,385,move_up,-0.550,-0.550,-0.550,0.000,0.000,0.000
1605185936906198016,10.0.1.128,415,move_up,-0.530,-0.530,-0.530,0.000,0.000,0.000
1605185938379009024,10.0.1.128,424,move_up,-0.510,-0.510,-0.510,0.000,0.000,0.000
1605185939878020096,10.0.1.128,428,move_up,-0.490,-0.490,-0.490,0.000,0.000,0.000
1605185941408472064,10.0.1.128,435,move_up,-0.470,-0.470,-0.470,0.000,0.000,0.000
1605185942886769152,10.0.1.128,400,move_up,-0.450,-0.450,-0.450,0.000,0.000,0.000
1605185944388043008,10.0.1.128,414,move_up,-0.430,-0.430,-0.430,0.000,0.000,0.000
1605185945891236096,10.0.1.128,431,move_up,-0.410,-0.410,-0.410,0.000,0.000,0.000
1605185947425481984,10.0.1.128,446,move_up,-0.390,-0.390,-0.390,0.000,0.000,0.000
1605185948953892864,10.0.1.128,448,move_up,-0.370,-0.370,-0.370,0.000,0.000,0.000
1605185950429075968,10.0.1.128,402,move_up,-0.350,-0.350,-0.350,0.000,0.000,0.000
1605185951953138176,10.0.1.128,435,move_up,-0.330,-0.330,-0.330,0.000,0.000,0.000
1605185953469170176,10.0.1.128,454,move_up,-0.310,-0.310,-0.310,0.000,0.000,0.000
1605185954993260032,10.0.1.128,399,move_up,-0.290,-0.290,-0.290,0.000,0.000,0.000
1605185956401242112,10.0.1.128,396,move_up,-0.270,-0.270,-0.270,0.000,0.000,0.000
1605185957927872000,10.0.1.128,426,move_up,-0.250,-0.250,-0.250,0.000,0.000,0.000
1605185959436248064,10.0.1.128,433,move_up,-0.230,-0.230,-0.230,0.000,0.000,0.000
1605185960950181888,10.0.1.128,456,move_up,-0.210,-0.210,-0.210,0.000,0.000,0.000
1605185962428865792,10.0.1.128,412,move_up,-0.190,-0.190,-0.190,0.000,0.000,0.000
1605185963508438016,10.0.1.128,42,place,-0.180,-0.180,-0.180,0.000,0.000,0.000
1605185964507087872,10.0.1.128,40,place,-0.170,-0.170,-0.170,0.000,0.000,0.000
1605185965510857216,10.0.1.128,41,place,-0.160,-0.160,-0.160,0.000,0.000,0.000
1605185966506791168,10.0.1.128,36,place,-0.150,-0.150,-0.150,0.000,0.000,0.000
1605185967513519104,10.0.1.128,41,place,-0.140,-0.140,-0.140,0.000,0.000,0.000
1605185968515220992,10.0.1.128,41,place,-0.130,-0.130,-0.130,0.000,0.000,0.000
1605185969507420928,10.0.1.128,32,place,-0.120,-0.120,-0.120,0.000,0.000,0.000
1605185970526600960,10.0.1.128,49,place,-0.110,-0.110,-0.110,0.000,0.000,0.000
1605185971527960064,10.0.1.128,49,place,-0.100,-0.100,-0.100,0.000,0.000,0.000
1605185972529014016,10.0.1.128,49,place,-0.090,-0.090,-0.090,0.000,0.000,0.000
1605185973527457024,10.0.1.128,47,place,-0.080,-0.080,-0.080,0.000,0.000,0.000
1605185974526622976,10.0.1.128,45,place,-0.070,-0.070,-0.070,0.000,0.000,0.000
1605185975526727936,10.0.1.128,43,place,-0.060,-0.060,-0.060,0.000,0.000,0.000
1605185976532843008,10.0.1.128,49,place,-0.050,-0.050,-0.050,0.000,0.000,0.000
1605185977530073856,10.0.1.128,45,place,-0.040,-0.040,-0.040,0.000,0.000,0.000
1605185978526660864,10.0.1.128,40,place,-0.030,-0.030,-0.030,0.000,0.000,0.000
1605185979530942976,10.0.1.128,42,place,-0.020,-0.020,-0.020,0.000,0.000,0.000
1605185980527302144,10.0.1.128,37,place,-0.010,-0.010,-0.010,0.000,0.000,0.000
1605185981532082176,10.0.1.128,40,place,0.000,0.000,0.000,0.000,0.000,0.000
1605185982888126976,10.0.1.128,395,move_down,-0.020,-0.020,-0.020,0.000,0.000,0.000
1605185984367422976,10.0.1.128,399,move_down,-0.040,-0.040,-0.040,0.000,0.000,0.000
1605185985890327040,10.0.1.128,408,move_down,-0.060,-0.060,-0.060,0.000,0.000,0.000
1605185987386415104,10.0.1.128,417,move_down,-0.080,-0.080,-0.080,0.000,0.000,0.000
1605185988896706048,10.0.1.128,443,move_down,-0.100,-0.100,-0.100,0.000,0.000,0.000
1605185990392642048,10.0.1.128,443,move_down,-0.120,-0.120,-0.120,0.000,0.000,0.000
1605185991879369984,10.0.1.128,444,move_down,-0.140,-0.140,-0.140,0.000,0.000,0.000
1605185993352091136,10.0.1.128,405,move_down,-0.160,-0.160,-0.160,0.000,0.000,0.000
1605185994833081856,10.0.1.128,429,move_down,-0.180,-0.180,-0.180,0.000,0.000,0.000
1605185996320954112,10.0.1.128,399,move_down,-0.200,-0.200,-0.200,0.000,0.000,0.000
1605185997864829952,10.0.1.128,460,move_down,-0.220,-0.220,-0.220,0.000,0.000,0.000
1605185999351825920,10.0.1.128,400,move_down,-0.240,-0.240,-0.240,0.000,0.000,0.000
1605186000809575936,10.0.1.128,397,move_down,-0.260,-0.260,-0.260,0.000,0.000,0.000
1605186002281296128,10.0.1.128,387,move_down,-0.280,-0.280,-0.280,0.000,0.000,0.000
1605186003800141056,10.0.1.128,429,move_down,-0.300,-0.300,-0.300,0.000,0.000,0.000
1605186005257704960,10.0.1.128,407,move_down,-0.320,-0.320,-0.320,0.000,0.000,0.000
1605186006748680192,10.0.1.128,402,move_down,-0.340,-0.340,-0.340,0.000,0.000,0.000
1605186008297116160,10.0.1.128,448,move_down,-0.360,-0.360,-0.360,0.000,0.000,0.000
1605186009758663936,10.0.1.128,389,move_down,-0.380,-0.380,-0.380,0.000,0.000,0.000
1605186011218366976,10.0.1.128,388,move_down,-0.400,-0.400,-0.400,0.000,0.000,0.000
1605186012727910912,10.0.1.128,408,move_down,-0.420,-0.420,-0.420,0.000,0.000,0.000
1605186014231973888,10.0.1.128,421,move_down,-0.440,-0.440,-0.440,0.000,0.000,0.000
1605186015719748096,10.0.1.128,390,move_down,-0.460,-0.460,-0.460,0.000,0.000,0.000
1605186017198391040,10.0.1.128,416,move_down,-0.480,-0.480,-0.480,0.000,0.000,0.000
1605186018664133120,10.0.1.128,399,move_down,-0.500,-0.500,-0.500,0.000,0.000,0.000
1605186020307702016,10.0.1.128,560,move_down,-0.520,-0.520,-0.520,0.000,0.000,0.000
1605186021787607040,10.0.1.128,398,move_down,-0.540,-0.540,-0.540,0.000,0.000,0.000
1605186023278248960,10.0.1.128,411,move_down,-0.560,-0.560,-0.560,0.000,0.000,0.000
1605186024817487872,10.0.1.128,433,move_down,-0.580,-0.580,-0.580,0.000,0.000,0.000
1605186025937017088,10.0.1.128,41,pick,-0.590,-0.590,-0.590,0.000,0.000,0.000
1605186026937684992,10.0.1.128,41,pick,-0.600,-0.600,-0.600,0.000,0.000,0.000
1605186027938228992,10.0.1.128,40,pick,-0.610,-0.610,-0.610,0.000,0.000,0.000
1605186028942760960,10.0.1.128,43,pick,-0.620,-0.620,-0.620,0.000,0.000,0.000
1605186029946643200,10.0.1.128,46,pick,-0.630,-0.630,-0.630,0.000,0.000,0.000
1605186030938180096,10.0.1.128,36,pick,-0.640,-0.640,-0.640,0.000,0.000,0.000
1605186031937805056,10.0.1.128,34,pick,-0.650,-0.650,-0.650,0.000,0.000,0.000
1605186032937836032,10.0.1.128,33,pick,-0.660,-0.660,-0.660,0.000,0.000,0.000
1605186033950580992,10.0.1.128,45,pick,-0.670,-0.670,-0.670,0.000,0.000,0.000
1605186034959709952,10.0.1.128,53,pick,-0.680,-0.680,-0.680,0.000,0.000,0.000
1605186035961419008,10.0.1.128,54,pick,-0.690,-0.690,-0.690,0.000,0.000,0.000
1605186036958482944,10.0.1.128,49,pick,-0.700,-0.700,-0.700,0.000,0.000,0.000
1605186037961296128,10.0.1.128,51,pick,-0.710,-0.710,-0.710,0.000,0.000,0.000
1605186038960738048,10.0.1.128,49,pick,-0.720,-0.720,-0.720,0.000,0.000,0.000
1605186039961364992,10.0.1.128,48,pick,-0.730,-0.730,-0.730,0.000,0.000,0.000
1605186041915271168,10.0.1.128,NaN,pick,-0.750,-0.750,-0.750,0.000,0.000,0.000
1605186041963161088,10.0.1.128,47,pick,-0.750,-0.750,-0.750,0.000,0.000,0.000
1605186042959721984,10.0.1.128,42,pick,-0.760,-0.760,-0.760,0.000,0.000,0.000
1605186043963005184,10.0.1.128,44,pick,-0.770,-0.770,-0.770,0.000,0.000,0.000
1605186045319420928,10.0.1.128,400,move_up,-0.750,-0.750,-0.750,0.000,0.000,0.000
1605186046813036800,10.0.1.128,411,move_up,-0.730,-0.730,-0.730,0.000,0.000,0.000
1605186048300983808,10.0.1.128,417,move_up,-0.710,-0.710,-0.710,0.000,0.000,0.000
1605186049791688960,10.0.1.128,428,move_up,-0.690,-0.690,-0.690,0.000,0.000,0.000
1605186051320594176,10.0.1.128,433,move_up,-0.670,-0.670,-0.670,0.000,0.000,0.000
1605186052808048128,10.0.1.128,408,move_up,-0.650,-0.650,-0.650,0.000,0.000,0.000
1605186054310626048,10.0.1.128,430,move_up,-0.630,-0.630,-0.630,0.000,0.000,0.000
1605186055792096000,10.0.1.128,405,move_up,-0.610,-0.610,-0.610,0.000,0.000,0.000
1605186057320972800,10.0.1.128,445,move_up,-0.590,-0.590,-0.590,0.000,0.000,0.000
1605186058804732928,10.0.1.128,410,move_up,-0.570,-0.570,-0.570,0.000,0.000,0.000
1605186060314724864,10.0.1.128,443,move_up,-0.550,-0.550,-0.550,0.000,0.000,0.000
1605186061782601984,10.0.1.128,390,move_up,-0.530,-0.530,-0.530,0.000,0.000,0.000
1605186063310926080,10.0.1.128,415,move_up,-0.510,-0.510,-0.510,0.000,0.000,0.000
1605186064791551232,10.0.1.128,415,move_up,-0.490,-0.490,-0.490,0.000,0.000,0.000
1605186066259403008,10.0.1.128,393,move_up,-0.470,-0.470,-0.470,0.000,0.000,0.000
1605186067740967936,10.0.1.128,392,move_up,-0.450,-0.450,-0.450,0.000,0.000,0.000
1605186069280730112,10.0.1.128,443,move_up,-0.430,-0.430,-0.430,0.000,0.000,0.000
1605186070751211776,10.0.1.128,389,move_up,-0.410,-0.410,-0.410,0.000,0.000,0.000
1605186072256823040,10.0.1.128,407,move_up,-0.390,-0.390,-0.390,0.000,0.000,0.000
1605186073755537152,10.0.1.128,387,move_up,-0.370,-0.370,-0.370,0.000,0.000,0.000
1605186075333658880,10.0.1.128,452,move_up,-0.350,-0.350,-0.350,0.000,0.000,0.000
1605186076862076160,10.0.1.128,418,move_up,-0.330,-0.330,-0.330,0.000,0.000,0.000
1605186078330675968,10.0.1.128,403,move_up,-0.310,-0.310,-0.310,0.000,0.000,0.000
1605186079847980032,10.0.1.128,456,move_up,-0.290,-0.290,-0.290,0.000,0.000,0.000
1605186081324083200,10.0.1.128,435,move_up,-0.270,-0.270,-0.270,0.000,0.000,0.000
1605186082820851200,10.0.1.128,424,move_up,-0.250,-0.250,-0.250,0.000,0.000,0.000
1605186084334958080,10.0.1.128,416,move_up,-0.230,-0.230,-0.230,0.000,0.000,0.000
1605186085849821184,10.0.1.128,406,move_up,-0.210,-0.210,-0.210,0.000,0.000,0.000
1605186087362237952,10.0.1.128,426,move_up,-0.190,-0.190,-0.190,0.000,0.000,0.000
1605186088474590976,10.0.1.128,42,place,-0.180,-0.180,-0.180,0.000,0.000,0.000
1605186089474210048,10.0.1.128,39,place,-0.170,-0.170,-0.170,0.000,0.000,0.000
1605186090485608960,10.0.1.128,49,place,-0.160,-0.160,-0.160,0.000,0.000,0.000
1605186091480931072,10.0.1.128,43,place,-0.150,-0.150,-0.150,0.000,0.000,0.000
1605186092481347072,10.0.1.128,42,place,-0.140,-0.140,-0.140,0.000,0.000,0.000
1605186093472364032,10.0.1.128,32,place,-0.130,-0.130,-0.130,0.000,0.000,0.000
1605186094483648000,10.0.1.128,41,place,-0.120,-0.120,-0.120,0.000,0.000,0.000
1605186095481048064,10.0.1.128,37,place,-0.110,-0.110,-0.110,0.000,0.000,0.000
1605186096503261184,10.0.1.128,58,place,-0.100,-0.100,-0.100,0.000,0.000,0.000
1605186097501260032,10.0.1.128,55,place,-0.090,-0.090,-0.090,0.000,0.000,0.000
1605186098512674048,10.0.1.128,65,place,-0.080,-0.080,-0.080,0.000,0.000,0.000
1605186099485779968,10.0.1.128,36,place,-0.070,-0.070,-0.070,0.000,0.000,0.000
1605186100506923008,10.0.1.128,55,place,-0.060,-0.060,-0.060,0.000,0.000,0.000
1605186101502135040,10.0.1.128,49,place,-0.050,-0.050,-0.050,0.000,0.000,0.000
1605186102491236864,10.0.1.128,37,place,-0.040,-0.040,-0.040,0.000,0.000,0.000
1605186103502955008,10.0.1.128,47,place,-0.030,-0.030,-0.030,0.000,0.000,0.000
1605186104500570112,10.0.1.128,43,place,-0.020,-0.020,-0.020,0.000,0.000,0.000
1605186105517476096,10.0.1.128,58,place,-0.010,-0.010,-0.010,0.000,0.000,0.000
1605186106459898880,10.0.1.128,-1,place,0.000,0.000,0.000,0.000,0.000,0.000
1605186107910327808,10.0.1.128,449,move_down,-0.020,-0.020,-0.020,0.000,0.000,0.000
1605186109389932032,10.0.1.128,402,move_down,-0.040,-0.040,-0.040,0.000,0.000,0.000
1605186110945735936,10.0.1.128,467,move_down,-0.060,-0.060,-0.060,0.000,0.000,0.000
1605186112461731072,10.0.1.128,423,move_down,-0.080,-0.080,-0.080,0.000,0.000,0.000
1605186114010366976,10.0.1.128,489,move_down,-0.100,-0.100,-0.100,0.000,0.000,0.000
1605186115471767040,10.0.1.128,394,move_down,-0.120,-0.120,-0.120,0.000,0.000,0.000
1605186117021810944,10.0.1.128,416,move_down,-0.140,-0.140,-0.140,0.000,0.000,0.000
1605186118547655936,10.0.1.128,461,move_down,-0.160,-0.160,-0.160,0.000,0.000,0.000
1605186120097414144,10.0.1.128,475,move_down,-0.180,-0.180,-0.180,0.000,0.000,0.000
1605186121649266944,10.0.1.128,463,move_down,-0.200,-0.200,-0.200,0.000,0.000,0.000
1605186123115475968,10.0.1.128,411,move_down,-0.220,-0.220,-0.220,0.000,0.000,0.000
1605186124682219008,10.0.1.128,461,move_down,-0.240,-0.240,-0.240,0.000,0.000,0.000
1605186126184804864,10.0.1.128,416,move_down,-0.260,-0.260,-0.260,0.000,0.000,0.000
1605186127736591104,10.0.1.128,457,move_down,-0.280,-0.280,-0.280,0.000,0.000,0.000
1605186129255366144,10.0.1.128,445,move_down,-0.300,-0.300,-0.300,0.000,0.000,0.000
1605186130806369024,10.0.1.128,478,move_down,-0.320,-0.320,-0.320,0.000,0.000,0.000
1605186132327841024,10.0.1.128,437,move_down,-0.340,-0.340,-0.340,0.000,0.000,0.000
1605186133902099968,10.0.1.128,513,move_down,-0.360,-0.360,-0.360,0.000,0.000,0.000
1605186135308690176,10.0.1.128,402,move_down,-0.380,-0.380,-0.380,0.000,0.000,0.000
1605186136748456960,10.0.1.128,422,move_down,-0.400,-0.400,-0.400,0.000,0.000,0.000
1605186138290579200,10.0.1.128,466,move_down,-0.420,-0.420,-0.420,0.000,0.000,0.000
1605186139800691968,10.0.1.128,419,move_down,-0.440,-0.440,-0.440,0.000,0.000,0.000
1605186141301306112,10.0.1.128,429,move_down,-0.460,-0.460,-0.460,0.000,0.000,0.000
1605186142803337216,10.0.1.128,397,move_down,-0.480,-0.480,-0.480,0.000,0.000,0.000
1605186144312887040,10.0.1.128,424,move_down,-0.500,-0.500,-0.500,0.000,0.000,0.000
1605186145802665984,10.0.1.128,420,move_down,-0.520,-0.520,-0.520,0.000,0.000,0.000
1605186147311768064,10.0.1.128,418,move_down,-0.540,-0.540,-0.540,0.000,0.000,0.000
1605186148795026944,10.0.1.128,404,move_down,-0.560,-0.560,-0.560,0.000,0.000,0.000
1605186150293189120,10.0.1.128,407,move_down,-0.580,-0.580,-0.580,0.000,0.000,0.000
1605186151411328000,10.0.1.128,43,pick,-0.590,-0.590,-0.590,0.000,0.000,0.000
1605186152416222976,10.0.1.128,47,pick,-0.600,-0.600,-0.600,0.000,0.000,0.000
1605186153411191040,10.0.1.128,40,pick,-0.610,-0.610,-0.610,0.000,0.000,0.000
1605186154411709952,10.0.1.128,39,pick,-0.620,-0.620,-0.620,0.000,0.000,0.000
1605186155436697856,10.0.1.128,58,pick,-0.630,-0.630,-0.630,0.000,0.000,0.000
1605186156412185856,10.0.1.128,32,pick,-0.640,-0.640,-0.640,0.000,0.000,0.000
1605186157432549120,10.0.1.128,51,pick,-0.650,-0.650,-0.650,0.000,0.000,0.000
1605186158444313088,10.0.1.128,61,pick,-0.660,-0.660,-0.660,0.000,0.000,0.000
1605186159437669888,10.0.1.128,54,pick,-0.670,-0.670,-0.670,0.000,0.000,0.000
1605186160444531968,10.0.1.128,58,pick,-0.680,-0.680,-0.680,0.000,0.000,0.000
1605186161450042880,10.0.1.128,62,pick,-0.690,-0.690,-0.690,0.000,0.000,0.000
1605186162445350912,10.0.1.128,57,pick,-0.700,-0.700,-0.700,0.000,0.000,0.000
1605186163427848192,10.0.1.128,38,pick,-0.710,-0.710,-0.710,0.000,0.000,0.000
1605186164431479808,10.0.1.128,41,pick,-0.720,-0.720,-0.720,0.000,0.000,0.000
1605186165441113088,10.0.1.128,49,pick,-0.730,-0.730,-0.730,0.000,0.000,0.000
1605186166449733888,10.0.1.128,56,pick,-0.740,-0.740,-0.740,0.000,0.000,0.000
1605186167463932928,10.0.1.128,69,pick,-0.750,-0.750,-0.750,0.000,0.000,0.000
1605186168450817024,10.0.1.128,55,pick,-0.760,-0.760,-0.760,0.000,0.000,0.000
1605186169452464128,10.0.1.128,55,pick,-0.770,-0.770,-0.770,0.000,0.000,0.000
1605186170829433856,10.0.1.128,428,move_up,-0.750,-0.750,-0.750,0.000,0.000,0.000
1605186172345084928,10.0.1.128,421,move_up,-0.730,-0.730,-0.730,0.000,0.000,0.000
1605186173816303104,10.0.1.128,426,move_up,-0.710,-0.710,-0.710,0.000,0.000,0.000
1605186175358475008,10.0.1.128,440,move_up,-0.690,-0.690,-0.690,0.000,0.000,0.000
1605186176868512000,10.0.1.128,427,move_up,-0.670,-0.670,-0.670,0.000,0.000,0.000
1605186178410125056,10.0.1.128,470,move_up,-0.650,-0.650,-0.650,0.000,0.000,0.000
1605186179870259968,10.0.1.128,431,move_up,-0.630,-0.630,-0.630,0.000,0.000,0.000
1605186181416230912,10.0.1.128,492,move_up,-0.610,-0.610,-0.610,0.000,0.000,0.000
1605186182945065984,10.0.1.128,432,move_up,-0.590,-0.590,-0.590,0.000,0.000,0.000
1605186184603596032,10.0.1.128,555,move_up,-0.570,-0.570,-0.570,0.000,0.000,0.000
1605186186161916928,10.0.1.128,481,move_up,-0.550,-0.550,-0.550,0.000,0.000,0.000
1605186187934836992,10.0.1.128,665,move_up,-0.530,-0.530,-0.530,0.000,0.000,0.000
1605186189440040192,10.0.1.128,440,move_up,-0.510,-0.510,-0.510,0.000,0.000,0.000
1605186191020979968,10.0.1.128,482,move_up,-0.490,-0.490,-0.490,0.000,0.000,0.000
1605186192581472000,10.0.1.128,482,move_up,-0.470,-0.470,-0.470,0.000,0.000,0.000
1605186194052613120,10.0.1.128,410,move_up,-0.450,-0.450,-0.450,0.000,0.000,0.000
1605186195560636160,10.0.1.128,421,move_up,-0.430,-0.430,-0.430,0.000,0.000,0.000
1605186197088044032,10.0.1.128,423,move_up,-0.410,-0.410,-0.410,0.000,0.000,0.000
1605186198728688128,10.0.1.128,557,move_up,-0.390,-0.390,-0.390,0.000,0.000,0.000
1605186200203233024,10.0.1.128,408,move_up,-0.370,-0.370,-0.370,0.000,0.000,0.000
1605186201713691904,10.0.1.128,396,move_up,-0.350,-0.350,-0.350,0.000,0.000,0.000
1605186203250145024,10.0.1.128,469,move_up,-0.330,-0.330,-0.330,0.000,0.000,0.000
1605186204733579008,10.0.1.128,425,move_up,-0.310,-0.310,-0.310,0.000,0.000,0.000
1605186206182738944,10.0.1.128,424,move_up,-0.290,-0.290,-0.290,0.000,0.000,0.000
1605186207722619136,10.0.1.128,432,move_up,-0.270,-0.270,-0.270,0.000,0.000,0.000
1605186209268122880,10.0.1.128,428,move_up,-0.250,-0.250,-0.250,0.000,0.000,0.000
1605186210843646976,10.0.1.128,455,move_up,-0.230,-0.230,-0.230,0.000,0.000,0.000
1605186212371012096,10.0.1.128,478,move_up,-0.210,-0.210,-0.210,0.000,0.000,0.000
1605186213864700160,10.0.1.128,413,move_up,-0.190,-0.190,-0.190,0.000,0.000,0.000
1605186214976125952,10.0.1.128,42,place,-0.180,-0.180,-0.180,0.000,0.000,0.000
1605186215975211008,10.0.1.128,40,place,-0.170,-0.170,-0.170,0.000,0.000,0.000
1605186216977335040,10.0.1.128,40,place,-0.160,-0.160,-0.160,0.000,0.000,0.000
1605186217979674112,10.0.1.128,41,place,-0.150,-0.150,-0.150,0.000,0.000,0.000
1605186218976727040,10.0.1.128,37,place,-0.140,-0.140,-0.140,0.000,0.000,0.000
1605186220001178880,10.0.1.128,54,place,-0.130,-0.130,-0.130,0.000,0.000,0.000
1605186220994426112,10.0.1.128,46,place,-0.120,-0.120,-0.120,0.000,0.000,0.000
1605186221998274048,10.0.1.128,45,place,-0.110,-0.110,-0.110,0.000,0.000,0.000
1605186223002212096,10.0.1.128,47,place,-0.100,-0.100,-0.100,0.000,0.000,0.000
1605186223994299904,10.0.1.128,37,place,-0.090,-0.090,-0.090,0.000,0.000,0.000
1605186224996364032,10.0.1.128,37,place,-0.080,-0.080,-0.080,0.000,0.000,0.000
1605186225994547968,10.0.1.128,34,place,-0.070,-0.070,-0.070,0.000,0.000,0.000
1605186226999064064,10.0.1.128,38,place,-0.060,-0.060,-0.060,0.000,0.000,0.000
1605186227997854976,10.0.1.128,35,place,-0.050,-0.050,-0.050,0.000,0.000,0.000
1605186229020109056,10.0.1.128,56,place,-0.040,-0.040,-0.040,0.000,0.000,0.000
1605186230008696064,10.0.1.128,43,place,-0.030,-0.030,-0.030,0.000,0.000,0.000
1605186231017463040,10.0.1.128,45,place,-0.020,-0.020,-0.020,0.000,0.000,0.000
1605186232016359168,10.0.1.128,43,place,-0.010,-0.010,-0.010,0.000,0.000,0.000
1605186233014120192,10.0.1.128,39,place,0.000,0.000,0.000,0.000,0.000,0.000
1605186234457412096,10.0.1.128,478,move_down,-0.020,-0.020,-0.020,0.000,0.000,0.000
1605186235925643008,10.0.1.128,403,move_down,-0.040,-0.040,-0.040,0.000,0.000,0.000
1605186237536320000,10.0.1.128,488,move_down,-0.060,-0.060,-0.060,0.000,0.000,0.000
1605186239076140032,10.0.1.128,450,move_down,-0.080,-0.080,-0.080,0.000,0.000,0.000
1605186240564677120,10.0.1.128,413,move_down,-0.100,-0.100,-0.100,0.000,0.000,0.000
1605186242145075200,10.0.1.128,481,move_down,-0.120,-0.120,-0.120,0.000,0.000,0.000
1605186243657031936,10.0.1.128,435,move_down,-0.140,-0.140,-0.140,0.000,0.000,0.000
1605186245134903040,10.0.1.128,465,move_down,-0.160,-0.160,-0.160,0.000,0.000,0.000
1605186246666040064,10.0.1.128,442,move_down,-0.180,-0.180,-0.180,0.000,0.000,0.000
1605186248227863040,10.0.1.128,462,move_down,-0.200,-0.200,-0.200,0.000,0.000,0.000
1605186249767990016,10.0.1.128,472,move_down,-0.220,-0.220,-0.220,0.000,0.000,0.000
1605186251350652928,10.0.1.128,525,move_down,-0.240,-0.240,-0.240,0.000,0.000,0.000
1605186252895593984,10.0.1.128,491,move_down,-0.260,-0.260,-0.260,0.000,0.000,0.000
1605186254424434944,10.0.1.128,432,move_down,-0.280,-0.280,-0.280,0.000,0.000,0.000
1605186256094537984,10.0.1.128,501,move_down,-0.300,-0.300,-0.300,0.000,0.000,0.000
1605186257596150016,10.0.1.128,442,move_down,-0.320,-0.320,-0.320,0.000,0.000,0.000
1605186259125276160,10.0.1.128,442,move_down,-0.340,-0.340,-0.340,0.000,0.000,0.000
1605186260645332224,10.0.1.128,465,move_down,-0.360,-0.360,-0.360,0.000,0.000,0.000
1605186262157399040,10.0.1.128,441,move_down,-0.380,-0.380,-0.380,0.000,0.000,0.000
1605186263688448000,10.0.1.128,483,move_down,-0.400,-0.400,-0.400,0.000,0.000,0.000
1605186265218036992,10.0.1.128,467,move_down,-0.420,-0.420,-0.420,0.000,0.000,0.000
1605186266683732992,10.0.1.128,409,move_down,-0.440,-0.440,-0.440,0.000,0.000,0.000
1605186268217422848,10.0.1.128,447,move_down,-0.460,-0.460,-0.460,0.000,0.000,0.000
1605186269814529792,10.0.1.128,486,move_down,-0.480,-0.480,-0.480,0.000,0.000,0.000
1605186271326732032,10.0.1.128,441,move_down,-0.500,-0.500,-0.500,0.000,0.000,0.000
1605186272894983168,10.0.1.128,495,move_down,-0.520,-0.520,-0.520,0.000,0.000,0.000
1605186274382966016,10.0.1.128,444,move_down,-0.540,-0.540,-0.540,0.000,0.000,0.000
1605186275966274048,10.0.1.128,478,move_down,-0.560,-0.560,-0.560,0.000,0.000,0.000
1605186277454807040,10.0.1.128,416,move_down,-0.580,-0.580,-0.580,0.000,0.000,0.000
1605186278576369152,10.0.1.128,42,pick,-0.590,-0.590,-0.590,0.000,0.000,0.000
1605186279573249024,10.0.1.128,37,pick,-0.600,-0.600,-0.600,0.000,0.000,0.000
1605186280580286976,10.0.1.128,43,pick,-0.610,-0.610,-0.610,0.000,0.000,0.000
1605186281583006976,10.0.1.128,44,pick,-0.620,-0.620,-0.620,0.000,0.000,0.000
1605186282574825984,10.0.1.128,34,pick,-0.630,-0.630,-0.630,0.000,0.000,0.000
1605186283576888064,10.0.1.128,35,pick,-0.640,-0.640,-0.640,0.000,0.000,0.000
1605186284595296000,10.0.1.128,47,pick,-0.650,-0.650,-0.650,0.000,0.000,0.000
1605186285596246016,10.0.1.128,46,pick,-0.660,-0.660,-0.660,0.000,0.000,0.000
1605186286594415872,10.0.1.128,44,pick,-0.670,-0.670,-0.670,0.000,0.000,0.000
1605186287596905984,10.0.1.128,45,pick,-0.680,-0.680,-0.680,0.000,0.000,0.000
1605186288605121024,10.0.1.128,52,pick,-0.690,-0.690,-0.690,0.000,0.000,0.000
1605186289597117952,10.0.1.128,42,pick,-0.700,-0.700,-0.700,0.000,0.000,0.000
1605186290595532032,10.0.1.128,39,pick,-0.710,-0.710,-0.710,0.000,0.000,0.000
1605186291595213824,10.0.1.128,37,pick,-0.720,-0.720,-0.720,0.000,0.000,0.000
1605186292594310144,10.0.1.128,35,pick,-0.730,-0.730,-0.730,0.000,0.000,0.000
1605186293598872832,10.0.1.128,35,pick,-0.740,-0.740,-0.740,0.000,0.000,0.000
1605186294601074944,10.0.1.128,36,pick,-0.750,-0.750,-0.750,0.000,0.000,0.000
1605186295617400832,10.0.1.128,48,pick,-0.760,-0.760,-0.760,0.000,0.000,0.000
1605186296614759936,10.0.1.128,44,pick,-0.770,-0.770,-0.770,0.000,0.000,0.000
1605186298050249216,10.0.1.128,479,move_up,-0.750,-0.750,-0.750,0.000,0.000,0.000
1605186299585903872,10.0.1.128,486,move_up,-0.730,-0.730,-0.730,0.000,0.000,0.000
1605186301176732160,10.0.1.128,486,move_up,-0.710,-0.710,-0.710,0.000,0.000,0.000
1605186302660994048,10.0.1.128,394,move_up,-0.690,-0.690,-0.690,0.000,0.000,0.000
1605186304186765824,10.0.1.128,459,move_up,-0.670,-0.670,-0.670,0.000,0.000,0.000
1605186305796782080,10.0.1.128,485,move_up,-0.650,-0.650,-0.650,0.000,0.000,0.000
1605186307358701824,10.0.1.128,492,move_up,-0.630,-0.630,-0.630,0.000,0.000,0.000
1605186308878956032,10.0.1.128,454,move_up,-0.610,-0.610,-0.610,0.000,0.000,0.000
1605186310354286080,10.0.1.128,403,move_up,-0.590,-0.590,-0.590,0.000,0.000,0.000
1605186311908883200,10.0.1.128,434,move_up,-0.570,-0.570,-0.570,0.000,0.000,0.000
1605186313424745984,10.0.1.128,424,move_up,-0.550,-0.550,-0.550,0.000,0.000,0.000
1605186314928838912,10.0.1.128,423,move_up,-0.530,-0.530,-0.530,0.000,0.000,0.000
1605186316439204864,10.0.1.128,414,move_up,-0.510,-0.510,-0.510,0.000,0.000,0.000
1605186317941158144,10.0.1.128,428,move_up,-0.490,-0.490,-0.490,0.000,0.000,0.000
1605186319543932928,10.0.1.128,474,move_up,-0.470,-0.470,-0.470,0.000,0.000,0.000
1605186320963444992,10.0.1.128,407,move_up,-0.450,-0.450,-0.450,0.000,0.000,0.000
1605186322540260096,10.0.1.128,453,move_up,-0.430,-0.430,-0.430,0.000,0.000,0.000
1605186324139138048,10.0.1.128,456,move_up,-0.410,-0.410,-0.410,0.000,0.000,0.000
1605186325680391936,10.0.1.128,446,move_up,-0.390,-0.390,-0.390,0.000,0.000,0.000
1605186327151917056,10.0.1.128,444,move_up,-0.370,-0.370,-0.370,0.000,0.000,0.000
1605186328705355008,10.0.1.128,478,move_up,-0.350,-0.350,-0.350,0.000,0.000,0.000
1605186330253209088,10.0.1.128,469,move_up,-0.330,-0.330,-0.330,0.000,0.000,0.000
1605186331707956992,10.0.1.128,401,move_up,-0.310,-0.310,-0.310,0.000,0.000,0.000
1605186333160590848,10.0.1.128,425,move_up,-0.290,-0.290,-0.290,0.000,0.000,0.000
1605186334590642944,10.0.1.128,396,move_up,-0.270,-0.270,-0.270,0.000,0.000,0.000
1605186336219852800,10.0.1.128,518,move_up,-0.250,-0.250,-0.250,0.000,0.000,0.000
1605186337801122816,10.0.1.128,458,move_up,-0.230,-0.230,-0.230,0.000,0.000,0.000
1605186339300509952,10.0.1.128,413,move_up,-0.210,-0.210,-0.210,0.000,0.000,0.000
1605186340819777024,10.0.1.128,416,move_up,-0.190,-0.190,-0.190,0.000,0.000,0.000
1605186341958861056,10.0.1.128,35,place,-0.180,-0.180,-0.180,0.000,0.000,0.000
1605186342966900224,10.0.1.128,42,place,-0.170,-0.170,-0.170,0.000,0.000,0.000
1605186343965033984,10.0.1.128,38,place,-0.160,-0.160,-0.160,0.000,0.000,0.000
1605186344959158784,10.0.1.128,31,place,-0.150,-0.150,-0.150,0.000,0.000,0.000
1605186345980731904,10.0.1.128,51,place,-0.140,-0.140,-0.140,0.000,0.000,0.000
1605186346979154944,10.0.1.128,49,place,-0.130,-0.130,-0.130,0.000,0.000,0.000
1605186347964081920,10.0.1.128,32,place,-0.120,-0.120,-0.120,0.000,0.000,0.000
1605186348982189056,10.0.1.128,49,place,-0.110,-0.110,-0.110,0.000,0.000,0.000
1605186349983030016,10.0.1.128,49,place,-0.100,-0.100,-0.100,0.000,0.000,0.000
1605186350990669056,10.0.1.128,55,place,-0.090,-0.090,-0.090,0.000,0.000,0.000
1605186351979141120,10.0.1.128,42,place,-0.080,-0.080,-0.080,0.000,0.000,0.000
1605186352982489088,10.0.1.128,44,place,-0.070,-0.070,-0.070,0.000,0.000,0.000
1605186353985764864,10.0.1.128,46,place,-0.060,-0.060,-0.060,0.000,0.000,0.000
1605186354987059968,10.0.1.128,46,place,-0.050,-0.050,-0.050,0.000,0.000,0.000
1605186355987598848,10.0.1.128,45,place,-0.040,-0.040,-0.040,0.000,0.000,0.000
1605186356983706112,10.0.1.128,40,place,-0.030,-0.030,-0.030,0.000,0.000,0.000
1605186357982621952,10.0.1.128,38,place,-0.020,-0.020,-0.020,0.000,0.000,0.000
1605186358982178048,10.0.1.128,38,place,-0.010,-0.010,-0.010,0.000,0.000,0.000
1605186359986494976,10.0.1.128,38,place,0.000,0.000,0.000,0.000,0.000,0.000
1605186361362722048,10.0.1.128,414,move_down,-0.020,-0.020,-0.020,0.000,0.000,0.000
1605186362896570880,10.0.1.128,417,move_down,-0.040,-0.040,-0.040,0.000,0.000,0.000
1605186364460220160,10.0.1.128,461,move_down,-0.060,-0.060,-0.060,0.000,0.000,0.000
1605186365991794944,10.0.1.128,457,move_down,-0.080,-0.080,-0.080,0.000,0.000,0.000
1605186367530679040,10.0.1.128,457,move_down,-0.100,-0.100,-0.100,0.000,0.000,0.000
1605186369029256192,10.0.1.128,497,move_down,-0.120,-0.120,-0.120,0.000,0.000,0.000
1605186370555310848,10.0.1.128,432,move_down,-0.140,-0.140,-0.140,0.000,0.000,0.000
1605186372225294080,10.0.1.128,561,move_down,-0.160,-0.160,-0.160,0.000,0.000,0.000
1605186373750479104,10.0.1.128,454,move_down,-0.180,-0.180,-0.180,0.000,0.000,0.000
1605186375293536000,10.0.1.128,466,move_down,-0.200,-0.200,-0.200,0.000,0.000,0.000
1605186376772250880,10.0.1.128,433,move_down,-0.220,-0.220,-0.220,0.000,0.000,0.000
1605186378197211904,10.0.1.128,424,move_down,-0.240,-0.240,-0.240,0.000,0.000,0.000
1605186379728858112,10.0.1.128,433,move_down,-0.260,-0.260,-0.260,0.000,0.000,0.000
1605186381307111936,10.0.1.128,510,move_down,-0.280,-0.280,-0.280,0.000,0.000,0.000
1605186382837029888,10.0.1.128,455,move_down,-0.300,-0.300,-0.300,0.000,0.000,0.000
1605186384358434048,10.0.1.128,446,move_down,-0.320,-0.320,-0.320,0.000,0.000,0.000
1605186385934177024,10.0.1.128,491,move_down,-0.340,-0.340,-0.340,0.000,0.000,0.000
1605186387450031872,10.0.1.128,455,move_down,-0.360,-0.360,-0.360,0.000,0.000,0.000
1605186389052167936,10.0.1.128,519,move_down,-0.380,-0.380,-0.380,0.000,0.000,0.000
1605186390592642048,10.0.1.128,449,move_down,-0.400,-0.400,-0.400,0.000,0.000,0.000
1605186392214670848,10.0.1.128,476,move_down,-0.420,-0.420,-0.420,0.000,0.000,0.000
1605186393762578944,10.0.1.128,474,move_down,-0.440,-0.440,-0.440,0.000,0.000,0.000
1605186395316952064,10.0.1.128,438,move_down,-0.460,-0.460,-0.460,0.000,0.000,0.000
1605186396864315904,10.0.1.128,472,move_down,-0.480,-0.480,-0.480,0.000,0.000,0.000
1605186398324933120,10.0.1.128,399,move_down,-0.500,-0.500,-0.500,0.000,0.000,0.000
1605186399842766080,10.0.1.128,435,move_down,-0.520,-0.520,-0.520,0.000,0.000,0.000
1605186401377914880,10.0.1.128,430,move_down,-0.540,-0.540,-0.540,0.000,0.000,0.000
1605186403003074048,10.0.1.128,535,move_down,-0.560,-0.560,-0.560,0.000,0.000,0.000
1605186404499481088,10.0.1.128,394,move_down,-0.580,-0.580,-0.580,0.000,0.000,0.000
1605186405561755904,10.0.1.128,41,pick,-0.590,-0.590,-0.590,0.000,0.000,0.000
1605186406574162944,10.0.1.128,52,pick,-0.600,-0.600,-0.600,0.000,0.000,0.000
1605186407575872000,10.0.1.128,51,pick,-0.610,-0.610,-0.610,0.000,0.000,0.000
1605186408573553152,10.0.1.128,48,pick,-0.620,-0.620,-0.620,0.000,0.000,0.000
1605186409557796096,10.0.1.128,31,pick,-0.630,-0.630,-0.630,0.000,0.000,0.000
1605186410572474112,10.0.1.128,45,pick,-0.640,-0.640,-0.640,0.000,0.000,0.000
1605186411572642048,10.0.1.128,45,pick,-0.650,-0.650,-0.650,0.000,0.000,0.000
1605186412572779008,10.0.1.128,44,pick,-0.660,-0.660,-0.660,0.000,0.000,0.000
1605186413571752960,10.0.1.128,43,pick,-0.670,-0.670,-0.670,0.000,0.000,0.000
1605186414573338112,10.0.1.128,43,pick,-0.680,-0.680,-0.680,0.000,0.000,0.000
1605186415574908928,10.0.1.128,43,pick,-0.690,-0.690,-0.690,0.000,0.000,0.000
1605186416578493184,10.0.1.128,45,pick,-0.700,-0.700,-0.700,0.000,0.000,0.000
1605186417574048000,10.0.1.128,39,pick,-0.710,-0.710,-0.710,0.000,0.000,0.000
1605186418573051904,10.0.1.128,35,pick,-0.720,-0.720,-0.720,0.000,0.000,0.000
1605186419577914880,10.0.1.128,39,pick,-0.730,-0.730,-0.730,0.000,0.000,0.000
1605186420576161024,10.0.1.128,36,pick,-0.740,-0.740,-0.740,0.000,0.000,0.000
1605186421574343936,10.0.1.128,33,pick,-0.750,-0.750,-0.750,0.000,0.000,0.000
1605186422574786816,10.0.1.128,32,pick,-0.760,-0.760,-0.760,0.000,0.000,0.000
1605186423596102912,10.0.1.128,51,pick,-0.770,-0.770,-0.770,0.000,0.000,0.000
1605186424975392000,10.0.1.128,428,move_up,-0.750,-0.750,-0.750,0.000,0.000,0.000
1605186426510462976,10.0.1.128,419,move_up,-0.730,-0.730,-0.730,0.000,0.000,0.000
1605186428051322880,10.0.1.128,443,move_up,-0.710,-0.710,-0.710,0.000,0.000,0.000
1605186429608616192,10.0.1.128,478,move_up,-0.690,-0.690,-0.690,0.000,0.000,0.000
1605186431083723008,10.0.1.128,409,move_up,-0.670,-0.670,-0.670,0.000,0.000,0.000
1605186432573132032,10.0.1.128,406,move_up,-0.650,-0.650,-0.650,0.000,0.000,0.000
1605186434059230976,10.0.1.128,404,move_up,-0.630,-0.630,-0.630,0.000,0.000,0.000
1605186435599708160,10.0.1.128,517,move_up,-0.610,-0.610,-0.610,0.000,0.000,0.000
1605186437130426880,10.0.1.128,472,move_up,-0.590,-0.590,-0.590,0.000,0.000,0.000
1605186438628271104,10.0.1.128,462,move_up,-0.570,-0.570,-0.570,0.000,0.000,0.000
1605186440294235904,10.0.1.128,497,move_up,-0.550,-0.550,-0.550,0.000,0.000,0.000
1605186441786350080,10.0.1.128,451,move_up,-0.530,-0.530,-0.530,0.000,0.000,0.000
1605186443351624960,10.0.1.128,479,move_up,-0.510,-0.510,-0.510,0.000,0.000,0.000
1605186444925669888,10.0.1.128,447,move_up,-0.490,-0.490,-0.490,0.000,0.000,0.000
1605186446661118976,10.0.1.128,562,move_up,-0.470,-0.470,-0.470,0.000,0.000,0.000
1605186448232728064,10.0.1.128,460,move_up,-0.450,-0.450,-0.450,0.000,0.000,0.000
1605186449773009152,10.0.1.128,465,move_up,-0.430,-0.430,-0.430,0.000,0.000,0.000
1605186451260445952,10.0.1.128,424,move_up,-0.410,-0.410,-0.410,0.000,0.000,0.000
1605186452723126016,10.0.1.128,426,move_up,-0.390,-0.390,-0.390,0.000,0.000,0.000
1605186454215822080,10.0.1.128,431,move_up,-0.370,-0.370,-0.370,0.000,0.000,0.000
1605186455803917824,10.0.1.128,520,move_up,-0.350,-0.350,-0.350,0.000,0.000,0.000
1605186457344369920,10.0.1.128,442,move_up,-0.330,-0.330,-0.330,0.000,0.000,0.000
1605186458907257088,10.0.1.128,464,move_up,-0.310,-0.310,-0.310,0.000,0.000,0.000
1605186460505043968,10.0.1.128,516,move_up,-0.290,-0.290,-0.290,0.000,0.000,0.000
1605186461977586944,10.0.1.128,429,move_up,-0.270,-0.270,-0.270,0.000,0.000,0.000
1605186463501382144,10.0.1.128,415,move_up,-0.250,-0.250,-0.250,0.000,0.000,0.000
1605186465024486912,10.0.1.128,420,move_up,-0.230,-0.230,-0.230,0.000,0.000,0.000
1605186466578114048,10.0.1.128,453,move_up,-0.210,-0.210,-0.210,0.000,0.000,0.000
1605186468074951936,10.0.1.128,445,move_up,-0.190,-0.190,-0.190,0.000,0.000,0.000
1605186469181009920,10.0.1.128,45,place,-0.180,-0.180,-0.180,0.000,0.000,0.000
1605186470181564928,10.0.1.128,45,place,-0.170,-0.170,-0.170,0.000,0.000,0.000
1605186471175257088,10.0.1.128,37,place,-0.160,-0.160,-0.160,0.000,0.000,0.000
1605186472173613056,10.0.1.128,34,place,-0.150,-0.150,-0.150,0.000,0.000,0.000
1605186473178292992,10.0.1.128,37,place,-0.140,-0.140,-0.140,0.000,0.000,0.000
1605186474179054080,10.0.1.128,36,place,-0.130,-0.130,-0.130,0.000,0.000,0.000
1605186475197995776,10.0.1.128,54,place,-0.120,-0.120,-0.120,0.000,0.000,0.000
1605186476202120192,10.0.1.128,55,place,-0.110,-0.110,-0.110,0.000,0.000,0.000
1605186477196232960,10.0.1.128,47,place,-0.100,-0.100,-0.100,0.000,0.000,0.000
1605186478195067904,10.0.1.128,45,place,-0.090,-0.090,-0.090,0.000,0.000,0.000
1605186479197853952,10.0.1.128,46,place,-0.080,-0.080,-0.080,0.000,0.000,0.000
1605186480193389824,10.0.1.128,40,place,-0.070,-0.070,-0.070,0.000,0.000,0.000
1605186481200680960,10.0.1.128,46,place,-0.060,-0.060,-0.060,0.000,0.000,0.000
1605186483157188864,10.0.1.128,NaN,place,-0.040,-0.040,-0.040,0.000,0.000,0.000
1605186483197995008,10.0.1.128,40,place,-0.040,-0.040,-0.040,0.000,0.000,0.000
1605186484197676800,10.0.1.128,39,place,-0.030,-0.030,-0.030,0.000,0.000,0.000
1605186485200613120,10.0.1.128,41,place,-0.020,-0.020,-0.020,0.000,0.000,0.000
1605186486198744064,10.0.1.128,37,place,-0.010,-0.010,-0.010,0.000,0.000,0.000
1605186487217116160,10.0.1.128,54,place,0.000,0.000,0.000,0.000,0.000,0.000
1605186488604918016,10.0.1.128,440,move_down,-0.020,-0.020,-0.020,0.000,0.000,0.000
1605186490049873152,10.0.1.128,418,move_down,-0.040,-0.040,-0.040,0.000,0.000,0.000
1605186491573158144,10.0.1.128,441,move_down,-0.060,-0.060,-0.060,0.000,0.000,0.000
1605186493075686912,10.0.1.128,447,move_down,-0.080,-0.080,-0.080,0.000,0.000,0.000
1605186494600861184,10.0.1.128,436,move_down,-0.100,-0.100,-0.100,0.000,0.000,0.000
1605186496115185920,10.0.1.128,445,move_down,-0.120,-0.120,-0.120,0.000,0.000,0.000
1605186497673302784,10.0.1.128,480,move_down,-0.140,-0.140,-0.140,0.000,0.000,0.000
1605186499260363008,10.0.1.128,495,move_down,-0.160,-0.160,-0.160,0.000,0.000,0.000
1605186500838452224,10.0.1.128,465,move_down,-0.180,-0.180,-0.180,0.000,0.000,0.000
1605186502362009088,10.0.1.128,472,move_down,-0.200,-0.200,-0.200,0.000,0.000,0.000
1605186503865573888,10.0.1.128,452,move_down,-0.220,-0.220,-0.220,0.000,0.000,0.000
1605186505364830976,10.0.1.128,429,move_down,-0.240,-0.240,-0.240,0.000,0.000,0.000
1605186506886531072,10.0.1.128,456,move_down,-0.260,-0.260,-0.260,0.000,0.000,0.000
1605186508421267968,10.0.1.128,454,move_down,-0.280,-0.280,-0.280,0.000,0.000,0.000
1605186509931097088,10.0.1.128,442,move_down,-0.300,-0.300,-0.300,0.000,0.000,0.000
1605186511447832064,10.0.1.128,439,move_down,-0.320,-0.320,-0.320,0.000,0.000,0.000
1605186513011746048,10.0.1.128,426,move_down,-0.340,-0.340,-0.340,0.000,0.000,0.000
1605186514480041984,10.0.1.128,434,move_down,-0.360,-0.360,-0.360,0.000,0.000,0.000
1605186516060289024,10.0.1.128,472,move_down,-0.380,-0.380,-0.380,0.000,0.000,0.000
1605186517571526144,10.0.1.128,410,move_down,-0.400,-0.400,-0.400,0.000,0.000,0.000
1605186519150496000,10.0.1.128,500,move_down,-0.420,-0.420,-0.420,0.000,0.000,0.000
1605186520675638016,10.0.1.128,509,move_down,-0.440,-0.440,-0.440,0.000,0.000,0.000
1605186522216839936,10.0.1.128,460,move_down,-0.460,-0.460,-0.460,0.000,0.000,0.000
1605186523756432896,10.0.1.128,443,move_down,-0.480,-0.480,-0.480,0.000,0.000,0.000
1605186525298195968,10.0.1.128,428,move_down,-0.500,-0.500,-0.500,0.000,0.000,0.000
1605186526818214912,10.0.1.128,395,move_down,-0.520,-0.520,-0.520,0.000,0.000,0.000
1605186528282296832,10.0.1.128,410,move_down,-0.540,-0.540,-0.540,0.000,0.000,0.000
1605186529865346048,10.0.1.128,507,move_down,-0.560,-0.560,-0.560,0.000,0.000,0.000
1605186531454071040,10.0.1.128,533,move_down,-0.580,-0.580,-0.580,0.000,0.000,0.000
1605186533543557888,10.0.1.128,NaN,pick,-0.600,-0.600,-0.600,0.000,0.000,0.000
1605186533584446976,10.0.1.128,40,pick,-0.600,-0.600,-0.600,0.000,0.000,0.000
1605186534590888960,10.0.1.128,37,pick,-0.610,-0.610,-0.610,0.000,0.000,0.000
1605186535603852032,10.0.1.128,48,pick,-0.620,-0.620,-0.620,0.000,0.000,0.000
1605186537588375040,10.0.1.128,NaN,pick,-0.640,-0.640,-0.640,0.000,0.000,0.000
1605186537654774016,10.0.1.128,66,pick,-0.640,-0.640,-0.640,0.000,0.000,0.000
1605186538649768960,10.0.1.128,59,pick,-0.650,-0.650,-0.650,0.000,0.000,0.000
1605186539656861184,10.0.1.128,65,pick,-0.660,-0.660,-0.660,0.000,0.000,0.000
1605186540646404864,10.0.1.128,53,pick,-0.670,-0.670,-0.670,0.000,0.000,0.000
1605186541657038848,10.0.1.128,62,pick,-0.680,-0.680,-0.680,0.000,0.000,0.000
1605186542654472192,10.0.1.128,58,pick,-0.690,-0.690,-0.690,0.000,0.000,0.000
1605186543651233792,10.0.1.128,54,pick,-0.700,-0.700,-0.700,0.000,0.000,0.000
1605186544639664896,10.0.1.128,41,pick,-0.710,-0.710,-0.710,0.000,0.000,0.000
1605186545650361088,10.0.1.128,50,pick,-0.720,-0.720,-0.720,0.000,0.000,0.000
1605186546645159936,10.0.1.128,43,pick,-0.730,-0.730,-0.730,0.000,0.000,0.000
1605186547646425088,10.0.1.128,43,pick,-0.740,-0.740,-0.740,0.000,0.000,0.000
1605186548644033024,10.0.1.128,40,pick,-0.750,-0.750,-0.750,0.000,0.000,0.000
1605186549646460928,10.0.1.128,41,pick,-0.760,-0.760,-0.760,0.000,0.000,0.000
1605186550643305984,10.0.1.128,36,pick,-0.770,-0.770,-0.770,0.000,0.000,0.000
1605186552031554816,10.0.1.128,423,move_up,-0.750,-0.750,-0.750,0.000,0.000,0.000
1605186553583985920,10.0.1.128,494,move_up,-0.730,-0.730,-0.730,0.000,0.000,0.000
1605186555180044032,10.0.1.128,495,move_up,-0.710,-0.710,-0.710,0.000,0.000,0.000
1605186556705457920,10.0.1.128,477,move_up,-0.690,-0.690,-0.690,0.000,0.000,0.000
1605186558322844928,10.0.1.128,537,move_up,-0.670,-0.670,-0.670,0.000,0.000,0.000
1605186559959117056,10.0.1.128,527,move_up,-0.650,-0.650,-0.650,0.000,0.000,0.000
1605186561576456192,10.0.1.128,498,move_up,-0.630,-0.630,-0.630,0.000,0.000,0.000
1605186563116012032,10.0.1.128,451,move_up,-0.610,-0.610,-0.610,0.000,0.000,0.000
1605186564682946048,10.0.1.128,485,move_up,-0.590,-0.590,-0.590,0.000,0.000,0.000
1605186566293384960,10.0.1.128,512,move_up,-0.570,-0.570,-0.570,0.000,0.000,0.000
1605186567845302016,10.0.1.128,482,move_up,-0.550,-0.550,-0.550,0.000,0.000,0.000
1605186569339104768,10.0.1.128,478,move_up,-0.530,-0.530,-0.530,0.000,0.000,0.000
1605186570939630080,10.0.1.128,493,move_up,-0.510,-0.510,-0.510,0.000,0.000,0.000
1605186572557750016,10.0.1.128,498,move_up,-0.490,-0.490,-0.490,0.000,0.000,0.000
1605186574287448832,10.0.1.128,577,move_up,-0.470,-0.470,-0.470,0.000,0.000,0.000
1605186575868047104,10.0.1.128,496,move_up,-0.450,-0.450,-0.450,0.000,0.000,0.000
1605186577467251968,10.0.1.128,490,move_up,-0.430,-0.430,-0.430,0.000,0.000,0.000
1605186578956355072,10.0.1.128,447,move_up,-0.410,-0.410,-0.410,0.000,0.000,0.000
1605186580501383936,10.0.1.128,475,move_up,-0.390,-0.390,-0.390,0.000,0.000,0.000
1605186582060185856,10.0.1.128,490,move_up,-0.370,-0.370,-0.370,0.000,0.000,0.000
1605186583698450944,10.0.1.128,542,move_up,-0.350,-0.350,-0.350,0.000,0.000,0.000
1605186585304649216,10.0.1.128,496,move_up,-0.330,-0.330,-0.330,0.000,0.000,0.000
1605186586772686080,10.0.1.128,440,move_up,-0.310,-0.310,-0.310,0.000,0.000,0.000
1605186588323565056,10.0.1.128,450,move_up,-0.290,-0.290,-0.290,0.000,0.000,0.000
1605186589976374016,10.0.1.128,537,move_up,-0.270,-0.270,-0.270,0.000,0.000,0.000
1605186591504834048,10.0.1.128,458,move_up,-0.250,-0.250,-0.250,0.000,0.000,0.000
1605186593042188800,10.0.1.128,451,move_up,-0.230,-0.230,-0.230,0.000,0.000,0.000
1605186594601072128,10.0.1.128,473,move_up,-0.210,-0.210,-0.210,0.000,0.000,0.000
1605186596150049024,10.0.1.128,491,move_up,-0.190,-0.190,-0.190,0.000,0.000,0.000
1605186597267541760,10.0.1.128,51,place,-0.180,-0.180,-0.180,0.000,0.000,0.000
1605186598289374976,10.0.1.128,72,place,-0.170,-0.170,-0.170,0.000,0.000,0.000
1605186599284137984,10.0.1.128,65,place,-0.160,-0.160,-0.160,0.000,0.000,0.000
1605186600298182912,10.0.1.128,79,place,-0.150,-0.150,-0.150,0.000,0.000,0.000
1605186602221805056,10.0.1.128,NaN,place,-0.130,-0.130,-0.130,0.000,0.000,0.000
1605186602287414016,10.0.1.128,65,place,-0.130,-0.130,-0.130,0.000,0.000,0.000
1605186603284077056,10.0.1.128,60,place,-0.120,-0.120,-0.120,0.000,0.000,0.000
1605186604277234944,10.0.1.128,53,place,-0.110,-0.110,-0.110,0.000,0.000,0.000
1605186605288420864,10.0.1.128,60,place,-0.100,-0.100,-0.100,0.000,0.000,0.000
1605186606291422976,10.0.1.128,61,place,-0.090,-0.090,-0.090,0.000,0.000,0.000
1605186607294598144,10.0.1.128,63,place,-0.080,-0.080,-0.080,0.000,0.000,0.000
1605186608268493824,10.0.1.128,36,place,-0.070,-0.070,-0.070,0.000,0.000,0.000
1605186609297944064,10.0.1.128,62,place,-0.060,-0.060,-0.060,0.000,0.000,0.000
1605186610287302912,10.0.1.128,51,place,-0.050,-0.050,-0.050,0.000,0.000,0.000
1605186611297276928,10.0.1.128,58,place,-0.040,-0.040,-0.040,0.000,0.000,0.000
1605186612305463040,10.0.1.128,35,place,-0.030,-0.030,-0.030,0.000,0.000,0.000
1605186613330908160,10.0.1.128,38,place,-0.020,-0.020,-0.020,0.000,0.000,0.000
1605186614329833984,10.0.1.128,35,place,-0.010,-0.010,-0.010,0.000,0.000,0.000
1605186615347300096,10.0.1.128,50,place,0.000,0.000,0.000,0.000,0.000,0.000
1605186616842696960,10.0.1.128,545,move_down,-0.020,-0.020,-0.020,0.000,0.000,0.000
1605186618376781824,10.0.1.128,450,move_down,-0.040,-0.040,-0.040,0.000,0.000,0.000
1605186620093596928,10.0.1.128,544,move_down,-0.060,-0.060,-0.060,0.000,0.000,0.000
1605186621610689024,10.0.1.128,478,move_down,-0.080,-0.080,-0.080,0.000,0.000,0.000
1605186623298841088,10.0.1.128,603,move_down,-0.100,-0.100,-0.100,0.000,0.000,0.000
1605186624979568896,10.0.1.128,607,move_down,-0.120,-0.120,-0.120,0.000,0.000,0.000
1605186626643255040,10.0.1.128,560,move_down,-0.140,-0.140,-0.140,0.000,0.000,0.000
1605186628316986112,10.0.1.128,608,move_down,-0.160,-0.160,-0.160,0.000,0.000,0.000
1605186629881718016,10.0.1.128,500,move_down,-0.180,-0.180,-0.180,0.000,0.000,0.000
1605186631500721920,10.0.1.128,509,move_down,-0.200,-0.200,-0.200,0.000,0.000,0.000
1605186633014859008,10.0.1.128,494,move_down,-0.220,-0.220,-0.220,0.000,0.000,0.000
1605186634735811840,10.0.1.128,667,move_down,-0.240,-0.240,-0.240,0.000,0.000,0.000
1605186636448391936,10.0.1.128,627,move_down,-0.260,-0.260,-0.260,0.000,0.000,0.000
1605186638067293952,10.0.1.128,507,move_down,-0.280,-0.280,-0.280,0.000,0.000,0.000
1605186639587790080,10.0.1.128,484,move_down,-0.300,-0.300,-0.300,0.000,0.000,0.000
1605186641162801152,10.0.1.128,468,move_down,-0.320,-0.320,-0.320,0.000,0.000,0.000
1605186642886443008,10.0.1.128,590,move_down,-0.340,-0.340,-0.340,0.000,0.000,0.000
1605186644608153088,10.0.1.128,626,move_down,-0.360,-0.360,-0.360,0.000,0.000,0.000
1605186646194184960,10.0.1.128,507,move_down,-0.380,-0.380,-0.380,0.000,0.000,0.000
1605186647846004992,10.0.1.128,563,move_down,-0.400,-0.400,-0.400,0.000,0.000,0.000
1605186649574126848,10.0.1.128,577,move_down,-0.420,-0.420,-0.420,0.000,0.000,0.000
1605186651188934144,10.0.1.128,541,move_down,-0.440,-0.440,-0.440,0.000,0.000,0.000
1605186652755016960,10.0.1.128,456,move_down,-0.460,-0.460,-0.460,0.000,0.000,0.000
1605186654335568896,10.0.1.128,499,move_down,-0.480,-0.480,-0.480,0.000,0.000,0.000
1605186655901312000,10.0.1.128,518,move_down,-0.500,-0.500,-0.500,0.000,0.000,0.000
1605186657367023104,10.0.1.128,417,move_down,-0.520,-0.520,-0.520,0.000,0.000,0.000
1605186658890795008,10.0.1.128,474,move_down,-0.540,-0.540,-0.540,0.000,0.000,0.000
1605186660448381952,10.0.1.128,479,move_down,-0.560,-0.560,-0.560,0.000,0.000,0.000
1605186662046439936,10.0.1.128,498,move_down,-0.580,-0.580,-0.580,0.000,0.000,0.000
1605186663120877056,10.0.1.128,34,pick,-0.590,-0.590,-0.590,0.000,0.000,0.000
1605186664127262208,10.0.1.128,39,pick,-0.600,-0.600,-0.600,0.000,0.000,0.000
1605186665146192128,10.0.1.128,53,pick,-0.610,-0.610,-0.610,0.000,0.000,0.000
1605186666143537920,10.0.1.128,49,pick,-0.620,-0.620,-0.620,0.000,0.000,0.000
1605186667145822976,10.0.1.128,47,pick,-0.630,-0.630,-0.630,0.000,0.000,0.000
1605186668150706176,10.0.1.128,51,pick,-0.640,-0.640,-0.640,0.000,0.000,0.000
1605186669138427904,10.0.1.128,37,pick,-0.650,-0.650,-0.650,0.000,0.000,0.000
1605186670140250880,10.0.1.128,37,pick,-0.660,-0.660,-0.660,0.000,0.000,0.000
1605186671154299904,10.0.1.128,50,pick,-0.670,-0.670,-0.670,0.000,0.000,0.000
1605186672153108992,10.0.1.128,47,pick,-0.680,-0.680,-0.680,0.000,0.000,0.000
1605186673165467136,10.0.1.128,58,pick,-0.690,-0.690,-0.690,0.000,0.000,0.000
1605186674137080064,10.0.1.128,29,pick,-0.700,-0.700,-0.700,0.000,0.000,0.000
1605186675161668096,10.0.1.128,52,pick,-0.710,-0.710,-0.710,0.000,0.000,0.000
1605186676152476160,10.0.1.128,42,pick,-0.720,-0.720,-0.720,0.000,0.000,0.000
1605186677170371072,10.0.1.128,58,pick,-0.730,-0.730,-0.730,0.000,0.000,0.000
1605186678159580928,10.0.1.128,46,pick,-0.740,-0.740,-0.740,0.000,0.000,0.000
1605186679172003072,10.0.1.128,57,pick,-0.750,-0.750,-0.750,0.000,0.000,0.000
1605186680165175040,10.0.1.128,49,pick,-0.760,-0.760,-0.760,0.000,0.000,0.000
1605186681183342848,10.0.1.128,67,pick,-0.770,-0.770,-0.770,0.000,0.000,0.000
1605186682607937024,10.0.1.128,490,move_up,-0.750,-0.750,-0.750,0.000,0.000,0.000
1605186684179218944,10.0.1.128,458,move_up,-0.730,-0.730,-0.730,0.000,0.000,0.000
1605186685838646784,10.0.1.128,554,move_up,-0.710,-0.710,-0.710,0.000,0.000,0.000
1605186687388880128,10.0.1.128,517,move_up,-0.690,-0.690,-0.690,0.000,0.000,0.000
1605186688968163840,10.0.1.128,444,move_up,-0.670,-0.670,-0.670,0.000,0.000,0.000
1605186690608791040,10.0.1.128,559,move_up,-0.650,-0.650,-0.650,0.000,0.000,0.000
1605186692369120000,10.0.1.128,672,move_up,-0.630,-0.630,-0.630,0.000,0.000,0.000
1605186694053078784,10.0.1.128,541,move_up,-0.610,-0.610,-0.610,0.000,0.000,0.000
1605186695660780032,10.0.1.128,534,move_up,-0.590,-0.590,-0.590,0.000,0.000,0.000
1605186697306212864,10.0.1.128,587,move_up,-0.570,-0.570,-0.570,0.000,0.000,0.000
1605186698967216896,10.0.1.128,470,move_up,-0.550,-0.550,-0.550,0.000,0.000,0.000
1605186700487762944,10.0.1.128,469,move_up,-0.530,-0.530,-0.530,0.000,0.000,0.000
1605186702049683200,10.0.1.128,460,move_up,-0.510,-0.510,-0.510,0.000,0.000,0.000
