milangroshev/digital-twin-scalability/logs/run4-300s-nan/10.0.1.140.csv
timestamp,node,latency,action,joint_1,joint_2,joint_3,joint_4,joint_5,joint_6
1605186609113677056,10.0.1.140,NaN,,0.000,0.000,0.000,0.000,0.000,0.000
1605186611135031040,10.0.1.140,2021,,0.000,0.000,0.000,0.000,0.000,0.000
1605186613873174784,10.0.1.140,756,move_down,-0.020,-0.020,-0.020,0.000,0.000,0.000
1605186615483344128,10.0.1.140,521,move_down,-0.040,-0.040,-0.040,0.000,0.000,0.000
1605186616993916160,10.0.1.140,457,move_down,-0.060,-0.060,-0.060,0.000,0.000,0.000
1605186618579102976,10.0.1.140,499,move_down,-0.080,-0.080,-0.080,0.000,0.000,0.000
1605186620079170816,10.0.1.140,444,move_down,-0.100,-0.100,-0.100,0.000,0.000,0.000
1605186621663291904,10.0.1.140,497,move_down,-0.120,-0.120,-0.120,0.000,0.000,0.000
1605186623245644032,10.0.1.140,545,move_down,-0.140,-0.140,-0.140,0.000,0.000,0.000
1605186624896219904,10.0.1.140,569,move_down,-0.160,-0.160,-0.160,0.000,0.000,0.000
1605186626481889024,10.0.1.140,474,move_down,-0.180,-0.180,-0.180,0.000,0.000,0.000
1605186628051394816,10.0.1.140,483,move_down,-0.200,-0.200,-0.200,0.000,0.000,0.000
1605186629628314112,10.0.1.140,492,move_down,-0.220,-0.220,-0.220,0.000,0.000,0.000
1605186631255821056,10.0.1.140,563,move_down,-0.240,-0.240,-0.240,0.000,0.000,0.000
1605186632831087104,10.0.1.140,539,move_down,-0.260,-0.260,-0.260,0.000,0.000,0.000
1605186634369772032,10.0.1.140,446,move_down,-0.280,-0.280,-0.280,0.000,0.000,0.000
1605186635945107968,10.0.1.140,471,move_down,-0.300,-0.300,-0.300,0.000,0.000,0.000
1605186637539712000,10.0.1.140,541,move_down,-0.320,-0.320,-0.320,0.000,0.000,0.000
1605186639151212032,10.0.1.140,455,move_down,-0.340,-0.340,-0.340,0.000,0.000,0.000
1605186640738806016,10.0.1.140,520,move_down,-0.360,-0.360,-0.360,0.000,0.000,0.000
1605186642293590016,10.0.1.140,497,move_down,-0.380,-0.380,-0.380,0.000,0.000,0.000
1605186643815650816,10.0.1.140,464,move_down,-0.400,-0.400,-0.400,0.000,0.000,0.000
1605186645329809920,10.0.1.140,499,move_down,-0.420,-0.420,-0.420,0.000,0.000,0.000
1605186646925648896,10.0.1.140,464,move_down,-0.440,-0.440,-0.440,0.000,0.000,0.000
1605186648505014784,10.0.1.140,516,move_down,-0.460,-0.460,-0.460,0.000,0.000,0.000
1605186650010875904,10.0.1.140,492,move_down,-0.480,-0.480,-0.480,0.000,0.000,0.000
1605186651523650048,10.0.1.140,422,move_down,-0.500,-0.500,-0.500,0.000,0.000,0.000
1605186653046155008,10.0.1.140,451,move_down,-0.520,-0.520,-0.520,0.000,0.000,0.000
1605186654563456000,10.0.1.140,440,move_down,-0.540,-0.540,-0.540,0.000,0.000,0.000
1605186656074198016,10.0.1.140,436,move_down,-0.560,-0.560,-0.560,0.000,0.000,0.000
1605186657583596032,10.0.1.140,478,move_down,-0.580,-0.580,-0.580,0.000,0.000,0.000
1605186658729345024,10.0.1.140,49,pick,-0.590,-0.590,-0.590,0.000,0.000,0.000
1605186660682430976,10.0.1.140,NaN,pick,-0.610,-0.610,-0.610,0.000,0.000,0.000
1605186660721529088,10.0.1.140,39,pick,-0.610,-0.610,-0.610,0.000,0.000,0.000
1605186661729885952,10.0.1.140,44,pick,-0.620,-0.620,-0.620,0.000,0.000,0.000
1605186662746377984,10.0.1.140,59,pick,-0.630,-0.630,-0.630,0.000,0.000,0.000
1605186663733208064,10.0.1.140,44,pick,-0.640,-0.640,-0.640,0.000,0.000,0.000
1605186664729262080,10.0.1.140,39,pick,-0.650,-0.650,-0.650,0.000,0.000,0.000
1605186665751085056,10.0.1.140,60,pick,-0.660,-0.660,-0.660,0.000,0.000,0.000
1605186666753349120,10.0.1.140,60,pick,-0.670,-0.670,-0.670,0.000,0.000,0.000
1605186667753638144,10.0.1.140,59,pick,-0.680,-0.680,-0.680,0.000,0.000,0.000
1605186668748553984,10.0.1.140,53,pick,-0.690,-0.690,-0.690,0.000,0.000,0.000
1605186669743453952,10.0.1.140,46,pick,-0.700,-0.700,-0.700,0.000,0.000,0.000
1605186670744955904,10.0.1.140,45,pick,-0.710,-0.710,-0.710,0.000,0.000,0.000
1605186671749135104,10.0.1.140,48,pick,-0.720,-0.720,-0.720,0.000,0.000,0.000
1605186672754472960,10.0.1.140,47,pick,-0.730,-0.730,-0.730,0.000,0.000,0.000
1605186673762347008,10.0.1.140,52,pick,-0.740,-0.740,-0.740,0.000,0.000,0.000
1605186674765452032,10.0.1.140,54,pick,-0.750,-0.750,-0.750,0.000,0.000,0.000
1605186675764915968,10.0.1.140,52,pick,-0.760,-0.760,-0.760,0.000,0.000,0.000
1605186676759293184,10.0.1.140,45,pick,-0.770,-0.770,-0.770,0.000,0.000,0.000
1605186678259321088,10.0.1.140,544,move_up,-0.750,-0.750,-0.750,0.000,0.000,0.000
1605186679877401088,10.0.1.140,534,move_up,-0.730,-0.730,-0.730,0.000,0.000,0.000
1605186681514301184,10.0.1.140,517,move_up,-0.710,-0.710,-0.710,0.000,0.000,0.000
1605186683240307968,10.0.1.140,641,move_up,-0.690,-0.690,-0.690,0.000,0.000,0.000
1605186684865036032,10.0.1.140,551,move_up,-0.670,-0.670,-0.670,0.000,0.000,0.000
1605186686491321088,10.0.1.140,521,move_up,-0.650,-0.650,-0.650,0.000,0.000,0.000
1605186688146755072,10.0.1.140,513,move_up,-0.630,-0.630,-0.630,0.000,0.000,0.000
1605186689789666048,10.0.1.140,552,move_up,-0.610,-0.610,-0.610,0.000,0.000,0.000
1605186691414254848,10.0.1.140,538,move_up,-0.590,-0.590,-0.590,0.000,0.000,0.000
1605186693060410880,10.0.1.140,534,move_up,-0.570,-0.570,-0.570,0.000,0.000,0.000
1605186694627067136,10.0.1.140,479,move_up,-0.550,-0.550,-0.550,0.000,0.000,0.000
1605186696168667904,10.0.1.140,493,move_up,-0.530,-0.530,-0.530,0.000,0.000,0.000
1605186697817536000,10.0.1.140,551,move_up,-0.510,-0.510,-0.510,0.000,0.000,0.000
1605186699411067136,10.0.1.140,501,move_up,-0.490,-0.490,-0.490,0.000,0.000,0.000
1605186700976421120,10.0.1.140,487,move_up,-0.470,-0.470,-0.470,0.000,0.000,0.000
1605186702573223168,10.0.1.140,511,move_up,-0.450,-0.450,-0.450,0.000,0.000,0.000
1605186704091736064,10.0.1.140,452,move_up,-0.430,-0.430,-0.430,0.000,0.000,0.000
1605186705625982976,10.0.1.140,466,move_up,-0.410,-0.410,-0.410,0.000,0.000,0.000
1605186707251884032,10.0.1.140,565,move_up,-0.390,-0.390,-0.390,0.000,0.000,0.000
1605186708833842944,10.0.1.140,535,move_up,-0.370,-0.370,-0.370,0.000,0.000,0.000
1605186710387470080,10.0.1.140,487,move_up,-0.350,-0.350,-0.350,0.000,0.000,0.000
1605186711873847040,10.0.1.140,438,move_up,-0.330,-0.330,-0.330,0.000,0.000,0.000
1605186713463257088,10.0.1.140,509,move_up,-0.310,-0.310,-0.310,0.000,0.000,0.000
1605186715042262016,10.0.1.140,475,move_up,-0.290,-0.290,-0.290,0.000,0.000,0.000
1605186716571134208,10.0.1.140,488,move_up,-0.270,-0.270,-0.270,0.000,0.000,0.000
1605186718201451008,10.0.1.140,533,move_up,-0.250,-0.250,-0.250,0.000,0.000,0.000
1605186719755395840,10.0.1.140,454,move_up,-0.230,-0.230,-0.230,0.000,0.000,0.000
1605186721408145920,10.0.1.140,567,move_up,-0.210,-0.210,-0.210,0.000,0.000,0.000
1605186723090395904,10.0.1.140,583,move_up,-0.190,-0.190,-0.190,0.000,0.000,0.000
1605186724235815168,10.0.1.140,48,place,-0.180,-0.180,-0.180,0.000,0.000,0.000
1605186725233927936,10.0.1.140,44,place,-0.170,-0.170,-0.170,0.000,0.000,0.000
1605186726231770880,10.0.1.140,40,place,-0.160,-0.160,-0.160,0.000,0.000,0.000
1605186727237995008,10.0.1.140,45,place,-0.150,-0.150,-0.150,0.000,0.000,0.000
1605186728236013824,10.0.1.140,42,place,-0.140,-0.140,-0.140,0.000,0.000,0.000
1605186729249972992,10.0.1.140,50,place,-0.130,-0.130,-0.130,0.000,0.000,0.000
1605186730259421184,10.0.1.140,56,place,-0.120,-0.120,-0.120,0.000,0.000,0.000
1605186731252630016,10.0.1.140,49,place,-0.110,-0.110,-0.110,0.000,0.000,0.000
1605186733206257152,10.0.1.140,NaN,place,-0.090,-0.090,-0.090,0.000,0.000,0.000
1605186734207685120,10.0.1.140,NaN,place,-0.080,-0.080,-0.080,0.000,0.000,0.000
1605186734262132992,10.0.1.140,54,place,-0.080,-0.080,-0.080,0.000,0.000,0.000
1605186735246379008,10.0.1.140,37,place,-0.070,-0.070,-0.070,0.000,0.000,0.000
1605186737214464000,10.0.1.140,NaN,place,-0.050,-0.050,-0.050,0.000,0.000,0.000
1605186737258447872,10.0.1.140,43,place,-0.050,-0.050,-0.050,0.000,0.000,0.000
1605186738249902080,10.0.1.140,34,place,-0.040,-0.040,-0.040,0.000,0.000,0.000
1605186739273363200,10.0.1.140,56,place,-0.030,-0.030,-0.030,0.000,0.000,0.000
1605186740263421184,10.0.1.140,45,place,-0.020,-0.020,-0.020,0.000,0.000,0.000
1605186742223164928,10.0.1.140,NaN,place,0.000,0.000,0.000,0.000,0.000,0.000
1605186742275752192,10.0.1.140,52,place,0.000,0.000,0.000,0.000,0.000,0.000
1605186743683564800,10.0.1.140,459,move_down,-0.020,-0.020,-0.020,0.000,0.000,0.000
1605186745224657920,10.0.1.140,462,move_down,-0.040,-0.040,-0.040,0.000,0.000,0.000
1605186746822196992,10.0.1.140,458,move_down,-0.060,-0.060,-0.060,0.000,0.000,0.000
1605186748339137024,10.0.1.140,449,move_down,-0.080,-0.080,-0.080,0.000,0.000,0.000
1605186750004005888,10.0.1.140,589,move_down,-0.100,-0.100,-0.100,0.000,0.000,0.000
1605186751676203008,10.0.1.140,524,move_down,-0.120,-0.120,-0.120,0.000,0.000,0.000
1605186753156976896,10.0.1.140,446,move_down,-0.140,-0.140,-0.140,0.000,0.000,0.000
1605186754675220992,10.0.1.140,465,move_down,-0.160,-0.160,-0.160,0.000,0.000,0.000
1605186756205054976,10.0.1.140,517,move_down,-0.180,-0.180,-0.180,0.000,0.000,0.000
1605186757860559872,10.0.1.140,571,move_down,-0.200,-0.200,-0.200,0.000,0.000,0.000
1605186759313153024,10.0.1.140,439,move_down,-0.220,-0.220,-0.220,0.000,0.000,0.000
1605186760867436032,10.0.1.140,479,move_down,-0.240,-0.240,-0.240,0.000,0.000,0.000
1605186762539649024,10.0.1.140,576,move_down,-0.260,-0.260,-0.260,0.000,0.000,0.000
1605186764049679104,10.0.1.140,465,move_down,-0.280,-0.280,-0.280,0.000,0.000,0.000
1605186765687345920,10.0.1.140,564,move_down,-0.300,-0.300,-0.300,0.000,0.000,0.000
1605186767386959104,10.0.1.140,522,move_down,-0.320,-0.320,-0.320,0.000,0.000,0.000
1605186768981743104,10.0.1.140,454,move_down,-0.340,-0.340,-0.340,0.000,0.000,0.000
1605186770510777088,10.0.1.140,445,move_down,-0.360,-0.360,-0.360,0.000,0.000,0.000
1605186772081847808,10.0.1.140,502,move_down,-0.380,-0.380,-0.380,0.000,0.000,0.000
1605186773712590848,10.0.1.140,521,move_down,-0.400,-0.400,-0.400,0.000,0.000,0.000
1605186775349297152,10.0.1.140,604,move_down,-0.420,-0.420,-0.420,0.000,0.000,0.000
1605186776941318144,10.0.1.140,512,move_down,-0.440,-0.440,-0.440,0.000,0.000,0.000
1605186778393829120,10.0.1.140,418,move_down,-0.460,-0.460,-0.460,0.000,0.000,0.000
1605186780122891008,10.0.1.140,551,move_down,-0.480,-0.480,-0.480,0.000,0.000,0.000
1605186781738284032,10.0.1.140,520,move_down,-0.500,-0.500,-0.500,0.000,0.000,0.000
1605186783391334912,10.0.1.140,508,move_down,-0.520,-0.520,-0.520,0.000,0.000,0.000
1605186784944331008,10.0.1.140,482,move_down,-0.540,-0.540,-0.540,0.000,0.000,0.000
1605186786512099072,10.0.1.140,486,move_down,-0.560,-0.560,-0.560,0.000,0.000,0.000
1605186788217638912,10.0.1.140,583,move_down,-0.580,-0.580,-0.580,0.000,0.000,0.000
1605186789353207040,10.0.1.140,44,pick,-0.590,-0.590,-0.590,0.000,0.000,0.000
1605186790368786176,10.0.1.140,58,pick,-0.600,-0.600,-0.600,0.000,0.000,0.000
1605186791352011008,10.0.1.140,40,pick,-0.610,-0.610,-0.610,0.000,0.000,0.000
1605186792360183040,10.0.1.140,46,pick,-0.620,-0.620,-0.620,0.000,0.000,0.000
1605186793358995968,10.0.1.140,43,pick,-0.630,-0.630,-0.630,0.000,0.000,0.000
1605186794356358912,10.0.1.140,39,pick,-0.640,-0.640,-0.640,0.000,0.000,0.000
1605186795358257920,10.0.1.140,39,pick,-0.650,-0.650,-0.650,0.000,0.000,0.000
1605186796366728960,10.0.1.140,47,pick,-0.660,-0.660,-0.660,0.000,0.000,0.000
1605186797371171840,10.0.1.140,50,pick,-0.670,-0.670,-0.670,0.000,0.000,0.000
1605186798371993088,10.0.1.140,48,pick,-0.680,-0.680,-0.680,0.000,0.000,0.000
1605186799378446080,10.0.1.140,53,pick,-0.690,-0.690,-0.690,0.000,0.000,0.000
1605186800370421760,10.0.1.140,44,pick,-0.700,-0.700,-0.700,0.000,0.000,0.000
1605186801373686016,10.0.1.140,45,pick,-0.710,-0.710,-0.710,0.000,0.000,0.000
1605186802374336000,10.0.1.140,44,pick,-0.720,-0.720,-0.720,0.000,0.000,0.000
1605186803369925120,10.0.1.140,39,pick,-0.730,-0.730,-0.730,0.000,0.000,0.000
1605186804369338880,10.0.1.140,35,pick,-0.740,-0.740,-0.740,0.000,0.000,0.000
1605186805385539072,10.0.1.140,50,pick,-0.750,-0.750,-0.750,0.000,0.000,0.000
1605186807337647872,10.0.1.140,NaN,pick,-0.770,-0.770,-0.770,0.000,0.000,0.000
1605186807374299136,10.0.1.140,36,pick,-0.770,-0.770,-0.770,0.000,0.000,0.000
1605186808879868928,10.0.1.140,541,move_up,-0.750,-0.750,-0.750,0.000,0.000,0.000
1605186810449433088,10.0.1.140,521,move_up,-0.730,-0.730,-0.730,0.000,0.000,0.000
1605186811989603072,10.0.1.140,439,move_up,-0.710,-0.710,-0.710,0.000,0.000,0.000
1605186813581387008,10.0.1.140,526,move_up,-0.690,-0.690,-0.690,0.000,0.000,0.000
1605186815161804032,10.0.1.140,573,move_up,-0.670,-0.670,-0.670,0.000,0.000,0.000
1605186816580889088,10.0.1.140,421,move_up,-0.650,-0.650,-0.650,0.000,0.000,0.000
1605186818208616960,10.0.1.140,525,move_up,-0.630,-0.630,-0.630,0.000,0.000,0.000
1605186819838534144,10.0.1.140,581,move_up,-0.610,-0.610,-0.610,0.000,0.000,0.000
1605186821426074880,10.0.1.140,473,move_up,-0.590,-0.590,-0.590,0.000,0.000,0.000
1605186822975933952,10.0.1.140,494,move_up,-0.570,-0.570,-0.570,0.000,0.000,0.000
1605186824495595008,10.0.1.140,473,move_up,-0.550,-0.550,-0.550,0.000,0.000,0.000
1605186826042969856,10.0.1.140,508,move_up,-0.530,-0.530,-0.530,0.000,0.000,0.000
1605186827715792896,10.0.1.140,604,move_up,-0.510,-0.510,-0.510,0.000,0.000,0.000
1605186829277064192,10.0.1.140,474,move_up,-0.490,-0.490,-0.490,0.000,0.000,0.000
1605186830853230080,10.0.1.140,514,move_up,-0.470,-0.470,-0.470,0.000,0.000,0.000
1605186832524591872,10.0.1.140,557,move_up,-0.450,-0.450,-0.450,0.000,0.000,0.000
1605186834170476032,10.0.1.140,588,move_up,-0.430,-0.430,-0.430,0.000,0.000,0.000
1605186835889734912,10.0.1.140,623,move_up,-0.410,-0.410,-0.410,0.000,0.000,0.000
1605186837532521984,10.0.1.140,540,move_up,-0.390,-0.390,-0.390,0.000,0.000,0.000
1605186839174439936,10.0.1.140,546,move_up,-0.370,-0.370,-0.370,0.000,0.000,0.000
1605186840915802880,10.0.1.140,637,move_up,-0.350,-0.350,-0.350,0.000,0.000,0.000
1605186842536993024,10.0.1.140,544,move_up,-0.330,-0.330,-0.330,0.000,0.000,0.000
1605186844098942976,10.0.1.140,512,move_up,-0.310,-0.310,-0.310,0.000,0.000,0.000
1605186845733820928,10.0.1.140,534,move_up,-0.290,-0.290,-0.290,0.000,0.000,0.000
1605186847261874944,10.0.1.140,469,move_up,-0.270,-0.270,-0.270,0.000,0.000,0.000
1605186848894174208,10.0.1.140,576,move_up,-0.250,-0.250,-0.250,0.000,0.000,0.000
1605186850502667776,10.0.1.140,530,move_up,-0.230,-0.230,-0.230,0.000,0.000,0.000
1605186852014082816,10.0.1.140,478,move_up,-0.210,-0.210,-0.210,0.000,0.000,0.000
1605186853629797888,10.0.1.140,537,move_up,-0.190,-0.190,-0.190,0.000,0.000,0.000
1605186854736894976,10.0.1.140,46,place,-0.180,-0.180,-0.180,0.000,0.000,0.000
1605186855736839168,10.0.1.140,45,place,-0.170,-0.170,-0.170,0.000,0.000,0.000
1605186856730334976,10.0.1.140,37,place,-0.160,-0.160,-0.160,0.000,0.000,0.000
1605186857731425024,10.0.1.140,34,place,-0.150,-0.150,-0.150,0.000,0.000,0.000
1605186858733489152,10.0.1.140,35,place,-0.140,-0.140,-0.140,0.000,0.000,0.000
1605186859762612224,10.0.1.140,63,place,-0.130,-0.130,-0.130,0.000,0.000,0.000
1605186860757142016,10.0.1.140,56,place,-0.120,-0.120,-0.120,0.000,0.000,0.000
1605186861753212928,10.0.1.140,51,place,-0.110,-0.110,-0.110,0.000,0.000,0.000
1605186862757460992,10.0.1.140,54,place,-0.100,-0.100,-0.100,0.000,0.000,0.000
1605186863751215872,10.0.1.140,46,place,-0.090,-0.090,-0.090,0.000,0.000,0.000
1605186864752273152,10.0.1.140,46,place,-0.080,-0.080,-0.080,0.000,0.000,0.000
1605186865755435008,10.0.1.140,48,place,-0.070,-0.070,-0.070,0.000,0.000,0.000
1605186866755609088,10.0.1.140,47,place,-0.060,-0.060,-0.060,0.000,0.000,0.000
1605186867765000192,10.0.1.140,55,place,-0.050,-0.050,-0.050,0.000,0.000,0.000
1605186868753102080,10.0.1.140,41,place,-0.040,-0.040,-0.040,0.000,0.000,0.000
1605186869757890816,10.0.1.140,45,place,-0.030,-0.030,-0.030,0.000,0.000,0.000
1605186870756304896,10.0.1.140,42,place,-0.020,-0.020,-0.020,0.000,0.000,0.000
1605186871752280064,10.0.1.140,36,place,-0.010,-0.010,-0.010,0.000,0.000,0.000
1605186872754245888,10.0.1.140,37,place,0.000,0.000,0.000,0.000,0.000,0.000
1605186874156899072,10.0.1.140,438,move_down,-0.020,-0.020,-0.020,0.000,0.000,0.000
1605186875690817024,10.0.1.140,440,move_down,-0.040,-0.040,-0.040,0.000,0.000,0.000
1605186877260241920,10.0.1.140,514,move_down,-0.060,-0.060,-0.060,0.000,0.000,0.000
1605186878782710016,10.0.1.140,468,move_down,-0.080,-0.080,-0.080,0.000,0.000,0.000
1605186880382085120,10.0.1.140,522,move_down,-0.100,-0.100,-0.100,0.000,0.000,0.000
1605186882065996800,10.0.1.140,628,move_down,-0.120,-0.120,-0.120,0.000,0.000,0.000
1605186883704175104,10.0.1.140,533,move_down,-0.140,-0.140,-0.140,0.000,0.000,0.000
1605186885354420992,10.0.1.140,588,move_down,-0.160,-0.160,-0.160,0.000,0.000,0.000
1605186886877927936,10.0.1.140,455,move_down,-0.180,-0.180,-0.180,0.000,0.000,0.000
1605186888516741888,10.0.1.140,606,move_down,-0.200,-0.200,-0.200,0.000,0.000,0.000
1605186890081128960,10.0.1.140,505,move_down,-0.220,-0.220,-0.220,0.000,0.000,0.000
1605186891793539072,10.0.1.140,644,move_down,-0.240,-0.240,-0.240,0.000,0.000,0.000
1605186893357204992,10.0.1.140,457,move_down,-0.260,-0.260,-0.260,0.000,0.000,0.000
1605186894900154112,10.0.1.140,506,move_down,-0.280,-0.280,-0.280,0.000,0.000,0.000
1605186896392311040,10.0.1.140,491,move_down,-0.300,-0.300,-0.300,0.000,0.000,0.000
1605186897968441856,10.0.1.140,501,move_down,-0.320,-0.320,-0.320,0.000,0.000,0.000
1605186899521646080,10.0.1.140,520,move_down,-0.340,-0.340,-0.340,0.000,0.000,0.000
1605186901071814912,10.0.1.140,422,move_down,-0.360,-0.360,-0.360,0.000,0.000,0.000
1605186902650675968,10.0.1.140,463,move_down,-0.380,-0.380,-0.380,0.000,0.000,0.000
1605186904331703808,10.0.1.140,596,move_down,-0.400,-0.400,-0.400,0.000,0.000,0.000
1605186905931073792,10.0.1.140,538,move_down,-0.420,-0.420,-0.420,0.000,0.000,0.000
1605186907522988032,10.0.1.140,597,move_down,-0.440,-0.440,-0.440,0.000,0.000,0.000
1605186909161712896,10.0.1.140,574,move_down,-0.460,-0.460,-0.460,0.000,0.000,0.000
1605186911071710976,10.0.1.140,833,move_down,-0.480,-0.480,-0.480,0.000,0.000,0.000
1605186913066183936,10.0.1.140,817,move_down,-0.500,-0.500,-0.500,0.000,0.000,0.000
1605186914824086016,10.0.1.140,702,move_down,-0.520,-0.520,-0.520,0.000,0.000,0.000
1605186916468736768,10.0.1.140,591,move_down,-0.540,-0.540,-0.540,0.000,0.000,0.000
1605186918193073152,10.0.1.140,607,move_down,-0.560,-0.560,-0.560,0.000,0.000,0.000
1605186919721889024,10.0.1.140,435,move_down,-0.580,-0.580,-0.580,0.000,0.000,0.000
1605186920922627072,10.0.1.140,58,pick,-0.590,-0.590,-0.590,0.000,0.000,0.000
1605186921906161920,10.0.1.140,40,pick,-0.600,-0.600,-0.600,0.000,0.000,0.000
1605186922907296000,10.0.1.140,40,pick,-0.610,-0.610,-0.610,0.000,0.000,0.000
1605186923902697984,10.0.1.140,34,pick,-0.620,-0.620,-0.620,0.000,0.000,0.000
1605186924913062144,10.0.1.140,43,pick,-0.630,-0.630,-0.630,0.000,0.000,0.000
1605186925930775040,10.0.1.140,60,pick,-0.640,-0.640,-0.640,0.000,0.000,0.000
1605186926926511104,10.0.1.140,53,pick,-0.650,-0.650,-0.650,0.000,0.000,0.000
1605186927914542848,10.0.1.140,40,pick,-0.660,-0.660,-0.660,0.000,0.000,0.000
1605186928929050880,10.0.1.140,53,pick,-0.670,-0.670,-0.670,0.000,0.000,0.000
1605186929926196992,10.0.1.140,48,pick,-0.680,-0.680,-0.680,0.000,0.000,0.000
1605186931879611904,10.0.1.140,NaN,pick,-0.700,-0.700,-0.700,0.000,0.000,0.000
1605186931927534080,10.0.1.140,47,pick,-0.700,-0.700,-0.700,0.000,0.000,0.000
1605186932923250944,10.0.1.140,42,pick,-0.710,-0.710,-0.710,0.000,0.000,0.000
1605186934882850816,10.0.1.140,NaN,pick,-0.730,-0.730,-0.730,0.000,0.000,0.000
1605186934918787072,10.0.1.140,35,pick,-0.730,-0.730,-0.730,0.000,0.000,0.000
1605186935940588032,10.0.1.140,56,pick,-0.740,-0.740,-0.740,0.000,0.000,0.000
1605186937887607040,10.0.1.140,NaN,pick,-0.760,-0.760,-0.760,0.000,0.000,0.000
1605186937938370816,10.0.1.140,50,pick,-0.760,-0.760,-0.760,0.000,0.000,0.000
1605186938939730944,10.0.1.140,50,pick,-0.770,-0.770,-0.770,0.000,0.000,0.000
1605186940473912832,10.0.1.140,583,move_up,-0.750,-0.750,-0.750,0.000,0.000,0.000
1605186942112121088,10.0.1.140,538,move_up,-0.730,-0.730,-0.730,0.000,0.000,0.000
1605186943673211136,10.0.1.140,506,move_up,-0.710,-0.710,-0.710,0.000,0.000,0.000
1605186945211936000,10.0.1.140,496,move_up,-0.690,-0.690,-0.690,0.000,0.000,0.000
1605186946789474048,10.0.1.140,476,move_up,-0.670,-0.670,-0.670,0.000,0.000,0.000
1605186948456195072,10.0.1.140,644,move_up,-0.650,-0.650,-0.650,0.000,0.000,0.000
1605186950200480000,10.0.1.140,665,move_up,-0.630,-0.630,-0.630,0.000,0.000,0.000
1605186951732986880,10.0.1.140,446,move_up,-0.610,-0.610,-0.610,0.000,0.000,0.000
1605186953346076928,10.0.1.140,535,move_up,-0.590,-0.590,-0.590,0.000,0.000,0.000
1605186955018110976,10.0.1.140,539,move_up,-0.570,-0.570,-0.570,0.000,0.000,0.000
1605186956643053056,10.0.1.140,519,move_up,-0.550,-0.550,-0.550,0.000,0.000,0.000
1605186958522788096,10.0.1.140,792,move_up,-0.530,-0.530,-0.530,0.000,0.000,0.000
1605186960195662080,10.0.1.140,586,move_up,-0.510,-0.510,-0.510,0.000,0.000,0.000
1605186961971909120,10.0.1.140,655,move_up,-0.490,-0.490,-0.490,0.000,0.000,0.000
1605186963729022976,10.0.1.140,620,move_up,-0.470,-0.470,-0.470,0.000,0.000,0.000
1605186965396041984,10.0.1.140,616,move_up,-0.450,-0.450,-0.450,0.000,0.000,0.000
1605186966941163008,10.0.1.140,494,move_up,-0.430,-0.430,-0.430,0.000,0.000,0.000
1605186968686976000,10.0.1.140,576,move_up,-0.410,-0.410,-0.410,0.000,0.000,0.000
1605186970321400832,10.0.1.140,565,move_up,-0.390,-0.390,-0.390,0.000,0.000,0.000
1605186971934683136,10.0.1.140,568,move_up,-0.370,-0.370,-0.370,0.000,0.000,0.000
1605186973552012032,10.0.1.140,602,move_up,-0.350,-0.350,-0.350,0.000,0.000,0.000
1605186975216955904,10.0.1.140,571,move_up,-0.330,-0.330,-0.330,0.000,0.000,0.000
1605186976849940992,10.0.1.140,541,move_up,-0.310,-0.310,-0.310,0.000,0.000,0.000
1605186978473297152,10.0.1.140,550,move_up,-0.290,-0.290,-0.290,0.000,0.000,0.000
1605186980266989824,10.0.1.140,693,move_up,-0.270,-0.270,-0.270,0.000,0.000,0.000
1605186982289486848,10.0.1.140,913,move_up,-0.250,-0.250,-0.250,0.000,0.000,0.000
1605186984020840960,10.0.1.140,682,move_up,-0.230,-0.230,-0.230,0.000,0.000,0.000
1605186985585880064,10.0.1.140,514,move_up,-0.210,-0.210,-0.210,0.000,0.000,0.000
1605186987119993088,10.0.1.140,458,move_up,-0.190,-0.190,-0.190,0.000,0.000,0.000
1605186988228204032,10.0.1.140,37,place,-0.180,-0.180,-0.180,0.000,0.000,0.000
1605186989250907904,10.0.1.140,59,place,-0.170,-0.170,-0.170,0.000,0.000,0.000
1605186990284813824,10.0.1.140,93,place,-0.160,-0.160,-0.160,0.000,0.000,0.000
1605186991237988864,10.0.1.140,44,place,-0.150,-0.150,-0.150,0.000,0.000,0.000
1605186992252677888,10.0.1.140,57,place,-0.140,-0.140,-0.140,0.000,0.000,0.000
1605186993261827840,10.0.1.140,66,place,-0.130,-0.130,-0.130,0.000,0.000,0.000
1605186994252471040,10.0.1.140,55,place,-0.120,-0.120,-0.120,0.000,0.000,0.000
1605186995251833088,10.0.1.140,52,place,-0.110,-0.110,-0.110,0.000,0.000,0.000
1605186997201889024,10.0.1.140,NaN,place,-0.090,-0.090,-0.090,0.000,0.000,0.000
1605186997261797888,10.0.1.140,59,place,-0.090,-0.090,-0.090,0.000,0.000,0.000
1605186998251224064,10.0.1.140,47,place,-0.080,-0.080,-0.080,0.000,0.000,0.000
1605186999263856896,10.0.1.140,59,place,-0.070,-0.070,-0.070,0.000,0.000,0.000
1605187000249931008,10.0.1.140,44,place,-0.060,-0.060,-0.060,0.000,0.000,0.000
1605187001249505024,10.0.1.140,42,place,-0.050,-0.050,-0.050,0.000,0.000,0.000
1605187002240466176,10.0.1.140,31,place,-0.040,-0.040,-0.040,0.000,0.000,0.000
1605187003258482944,10.0.1.140,48,place,-0.030,-0.030,-0.030,0.000,0.000,0.000
1605187004275911936,10.0.1.140,64,place,-0.020,-0.020,-0.020,0.000,0.000,0.000
1605187005274864896,10.0.1.140,62,place,-0.010,-0.010,-0.010,0.000,0.000,0.000
1605187006264766976,10.0.1.140,51,place,0.000,0.000,0.000,0.000,0.000,0.000
1605187007861818112,10.0.1.140,645,move_down,-0.020,-0.020,-0.020,0.000,0.000,0.000
1605187009400003840,10.0.1.140,507,move_down,-0.040,-0.040,-0.040,0.000,0.000,0.000
1605187010986183936,10.0.1.140,496,move_down,-0.060,-0.060,-0.060,0.000,0.000,0.000
1605187012492607232,10.0.1.140,461,move_down,-0.080,-0.080,-0.080,0.000,0.000,0.000
1605187014158369024,10.0.1.140,599,move_down,-0.100,-0.100,-0.100,0.000,0.000,0.000
1605187015828418048,10.0.1.140,543,move_down,-0.120,-0.120,-0.120,0.000,0.000,0.000
1605187017351717120,10.0.1.140,460,move_down,-0.140,-0.140,-0.140,0.000,0.000,0.000
1605187018982356992,10.0.1.140,549,move_down,-0.160,-0.160,-0.160,0.000,0.000,0.000
1605187020590534912,10.0.1.140,532,move_down,-0.180,-0.180,-0.180,0.000,0.000,0.000
1605187022288436992,10.0.1.140,653,move_down,-0.200,-0.200,-0.200,0.000,0.000,0.000
1605187024355475968,10.0.1.140,915,move_down,-0.220,-0.220,-0.220,0.000,0.000,0.000
1605187025880320000,10.0.1.140,464,move_down,-0.240,-0.240,-0.240,0.000,0.000,0.000
1605187027472676096,10.0.1.140,509,move_down,-0.260,-0.260,-0.260,0.000,0.000,0.000
1605187028983860992,10.0.1.140,467,move_down,-0.280,-0.280,-0.280,0.000,0.000,0.000
1605187030641222912,10.0.1.140,577,move_down,-0.300,-0.300,-0.300,0.000,0.000,0.000
1605187032261449984,10.0.1.140,548,move_down,-0.320,-0.320,-0.320,0.000,0.000,0.000
1605187033889718016,10.0.1.140,553,move_down,-0.340,-0.340,-0.340,0.000,0.000,0.000
1605187035670226944,10.0.1.140,677,move_down,-0.360,-0.360,-0.360,0.000,0.000,0.000
1605187037231420160,10.0.1.140,482,move_down,-0.380,-0.380,-0.380,0.000,0.000,0.000
1605187038846152192,10.0.1.140,532,move_down,-0.400,-0.400,-0.400,0.000,0.000,0.000
1605187040466344192,10.0.1.140,499,move_down,-0.420,-0.420,-0.420,0.000,0.000,0.000
1605187042207154944,10.0.1.140,595,move_down,-0.440,-0.440,-0.440,0.000,0.000,0.000
1605187043879284992,10.0.1.140,555,move_down,-0.460,-0.460,-0.460,0.000,0.000,0.000
1605187045501431040,10.0.1.140,540,move_down,-0.480,-0.480,-0.480,0.000,0.000,0.000
1605187047101046016,10.0.1.140,500,move_down,-0.500,-0.500,-0.500,0.000,0.000,0.000
1605187048702915840,10.0.1.140,569,move_down,-0.520,-0.520,-0.520,0.000,0.000,0.000
1605187050388849920,10.0.1.140,549,move_down,-0.540,-0.540,-0.540,0.000,0.000,0.000
1605187051997180928,10.0.1.140,494,move_down,-0.560,-0.560,-0.560,0.000,0.000,0.000
1605187053617032960,10.0.1.140,565,move_down,-0.580,-0.580,-0.580,0.000,0.000,0.000
1605187054734467072,10.0.1.140,41,pick,-0.590,-0.590,-0.590,0.000,0.000,0.000
1605187055752427008,10.0.1.140,57,pick,-0.600,-0.600,-0.600,0.000,0.000,0.000
1605187056741127936,10.0.1.140,44,pick,-0.610,-0.610,-0.610,0.000,0.000,0.000
1605187057735904000,10.0.1.140,38,pick,-0.620,-0.620,-0.620,0.000,0.000,0.000
1605187058755151104,10.0.1.140,56,pick,-0.630,-0.630,-0.630,0.000,0.000,0.000
1605187060702230016,10.0.1.140,NaN,pick,-0.650,-0.650,-0.650,0.000,0.000,0.000
1605187060748256000,10.0.1.140,45,pick,-0.650,-0.650,-0.650,0.000,0.000,0.000
1605187061759900928,10.0.1.140,56,pick,-0.660,-0.660,-0.660,0.000,0.000,0.000
1605187062764408064,10.0.1.140,59,pick,-0.670,-0.670,-0.670,0.000,0.000,0.000
1605187063751100160,10.0.1.140,44,pick,-0.680,-0.680,-0.680,0.000,0.000,0.000
1605187064764157184,10.0.1.140,50,pick,-0.690,-0.690,-0.690,0.000,0.000,0.000
1605187065768420096,10.0.1.140,53,pick,-0.700,-0.700,-0.700,0.000,0.000,0.000
1605187066758661888,10.0.1.140,36,pick,-0.710,-0.710,-0.710,0.000,0.000,0.000
1605187067759282944,10.0.1.140,34,pick,-0.720,-0.720,-0.720,0.000,0.000,0.000
1605187069727909120,10.0.1.140,NaN,pick,-0.740,-0.740,-0.740,0.000,0.000,0.000
1605187069756694016,10.0.1.140,28,pick,-0.740,-0.740,-0.740,0.000,0.000,0.000
1605187070796947968,10.0.1.140,66,pick,-0.750,-0.750,-0.750,0.000,0.000,0.000
1605187071789997056,10.0.1.140,57,pick,-0.760,-0.760,-0.760,0.000,0.000,0.000
1605187072785775872,10.0.1.140,52,pick,-0.770,-0.770,-0.770,0.000,0.000,0.000
1605187074276357888,10.0.1.140,541,move_up,-0.750,-0.750,-0.750,0.000,0.000,0.000
1605187075868210944,10.0.1.140,529,move_up,-0.730,-0.730,-0.730,0.000,0.000,0.000
1605187077538435840,10.0.1.140,559,move_up,-0.710,-0.710,-0.710,0.000,0.000,0.000
1605187079361645824,10.0.1.140,634,move_up,-0.690,-0.690,-0.690,0.000,0.000,0.000
1605187080980828160,10.0.1.140,505,move_up,-0.670,-0.670,-0.670,0.000,0.000,0.000
1605187082686366208,10.0.1.140,580,move_up,-0.650,-0.650,-0.650,0.000,0.000,0.000
1605187084337999104,10.0.1.140,576,move_up,-0.630,-0.630,-0.630,0.000,0.000,0.000
1605187086072002048,10.0.1.140,659,move_up,-0.610,-0.610,-0.610,0.000,0.000,0.000
1605187087739959040,10.0.1.140,589,move_up,-0.590,-0.590,-0.590,0.000,0.000,0.000
1605187089463713024,10.0.1.140,628,move_up,-0.570,-0.570,-0.570,0.000,0.000,0.000
1605187091076921856,10.0.1.140,508,move_up,-0.550,-0.550,-0.550,0.000,0.000,0.000
1605187092708836096,10.0.1.140,577,move_up,-0.530,-0.530,-0.530,0.000,0.000,0.000
1605187094334564864,10.0.1.140,442,move_up,-0.510,-0.510,-0.510,0.000,0.000,0.000
1605187095979901184,10.0.1.140,560,move_up,-0.490,-0.490,-0.490,0.000,0.000,0.000
1605187097563602944,10.0.1.140,548,move_up,-0.470,-0.470,-0.470,0.000,0.000,0.000
1605187099160103168,10.0.1.140,533,move_up,-0.450,-0.450,-0.450,0.000,0.000,0.000
1605187100768608000,10.0.1.140,551,move_up,-0.430,-0.430,-0.430,0.000,0.000,0.000
1605187102377449984,10.0.1.140,479,move_up,-0.410,-0.410,-0.410,0.000,0.000,0.000
1605187103975155200,10.0.1.140,532,move_up,-0.390,-0.390,-0.390,0.000,0.000,0.000
1605187105744734976,10.0.1.140,636,move_up,-0.370,-0.370,-0.370,0.000,0.000,0.000
1605187107400749056,10.0.1.140,556,move_up,-0.350,-0.350,-0.350,0.000,0.000,0.000
1605187109015189760,10.0.1.140,533,move_up,-0.330,-0.330,-0.330,0.000,0.000,0.000
1605187110706408960,10.0.1.140,596,move_up,-0.310,-0.310,-0.310,0.000,0.000,0.000
1605187112172100096,10.0.1.140,448,move_up,-0.290,-0.290,-0.290,0.000,0.000,0.000
1605187113801278976,10.0.1.140,505,move_up,-0.270,-0.270,-0.270,0.000,0.000,0.000
1605187115490066944,10.0.1.140,568,move_up,-0.250,-0.250,-0.250,0.000,0.000,0.000
1605187117035013888,10.0.1.140,526,move_up,-0.230,-0.230,-0.230,0.000,0.000,0.000
1605187118678530816,10.0.1.140,560,move_up,-0.210,-0.210,-0.210,0.000,0.000,0.000
1605187120320000000,10.0.1.140,568,move_up,-0.190,-0.190,-0.190,0.000,0.000,0.000
1605187121427213824,10.0.1.140,71,place,-0.180,-0.180,-0.180,0.000,0.000,0.000
1605187122428374016,10.0.1.140,71,place,-0.170,-0.170,-0.170,0.000,0.000,0.000
1605187123421145856,10.0.1.140,56,place,-0.160,-0.160,-0.160,0.000,0.000,0.000
1605187124403820032,10.0.1.140,38,place,-0.150,-0.150,-0.150,0.000,0.000,0.000
1605187125412851200,10.0.1.140,43,place,-0.140,-0.140,-0.140,0.000,0.000,0.000
1605187126401966080,10.0.1.140,30,place,-0.130,-0.130,-0.130,0.000,0.000,0.000
1605187127437256960,10.0.1.140,59,place,-0.120,-0.120,-0.120,0.000,0.000,0.000
1605187128429256960,10.0.1.140,49,place,-0.110,-0.110,-0.110,0.000,0.000,0.000
1605187129425412864,10.0.1.140,44,place,-0.100,-0.100,-0.100,0.000,0.000,0.000
1605187130430731008,10.0.1.140,48,place,-0.090,-0.090,-0.090,0.000,0.000,0.000
1605187131440890112,10.0.1.140,57,place,-0.080,-0.080,-0.080,0.000,0.000,0.000
1605187133387110912,10.0.1.140,NaN,place,-0.060,-0.060,-0.060,0.000,0.000,0.000
1605187133425741056,10.0.1.140,38,place,-0.060,-0.060,-0.060,0.000,0.000,0.000
1605187134428674816,10.0.1.140,40,place,-0.050,-0.050,-0.050,0.000,0.000,0.000
1605187136390995968,10.0.1.140,NaN,place,-0.030,-0.030,-0.030,0.000,0.000,0.000
1605187136431109888,10.0.1.140,40,place,-0.030,-0.030,-0.030,0.000,0.000,0.000
1605187137429774080,10.0.1.140,38,place,-0.020,-0.020,-0.020,0.000,0.000,0.000
1605187138446244864,10.0.1.140,53,place,-0.010,-0.010,-0.010,0.000,0.000,0.000
1605187139456339968,10.0.1.140,61,place,0.000,0.000,0.000,0.000,0.000,0.000
1605187140848158976,10.0.1.140,449,move_down,-0.020,-0.020,-0.020,0.000,0.000,0.000
1605187142470598912,10.0.1.140,538,move_down,-0.040,-0.040,-0.040,0.000,0.000,0.000
1605187144021313024,10.0.1.140,477,move_down,-0.060,-0.060,-0.060,0.000,0.000,0.000
1605187145616561920,10.0.1.140,505,move_down,-0.080,-0.080,-0.080,0.000,0.000,0.000
1605187147418813952,10.0.1.140,664,move_down,-0.100,-0.100,-0.100,0.000,0.000,0.000
1605187149023034112,10.0.1.140,571,move_down,-0.120,-0.120,-0.120,0.000,0.000,0.000
1605187150771246848,10.0.1.140,644,move_down,-0.140,-0.140,-0.140,0.000,0.000,0.000
1605187152401760000,10.0.1.140,563,move_down,-0.160,-0.160,-0.160,0.000,0.000,0.000
1605187154029529088,10.0.1.140,560,move_down,-0.180,-0.180,-0.180,0.000,0.000,0.000
1605187155708537088,10.0.1.140,539,move_down,-0.200,-0.200,-0.200,0.000,0.000,0.000
1605187157485207040,10.0.1.140,709,move_down,-0.220,-0.220,-0.220,0.000,0.000,0.000
1605187159012867072,10.0.1.140,443,move_down,-0.240,-0.240,-0.240,0.000,0.000,0.000
1605187160681380096,10.0.1.140,615,move_down,-0.260,-0.260,-0.260,0.000,0.000,0.000
1605187162264961024,10.0.1.140,522,move_down,-0.280,-0.280,-0.280,0.000,0.000,0.000
1605187163854150912,10.0.1.140,572,move_down,-0.300,-0.300,-0.300,0.000,0.000,0.000
1605187165488017152,10.0.1.140,566,move_down,-0.320,-0.320,-0.320,0.000,0.000,0.000
1605187167260272896,10.0.1.140,707,move_down,-0.340,-0.340,-0.340,0.000,0.000,0.000
1605187168857903104,10.0.1.140,540,move_down,-0.360,-0.360,-0.360,0.000,0.000,0.000
1605187170669053952,10.0.1.140,709,move_down,-0.380,-0.380,-0.380,0.000,0.000,0.000
1605187172230022912,10.0.1.140,532,move_down,-0.400,-0.400,-0.400,0.000,0.000,0.000
1605187173820219904,10.0.1.140,499,move_down,-0.420,-0.420,-0.420,0.000,0.000,0.000
1605187175487938816,10.0.1.140,580,move_down,-0.440,-0.440,-0.440,0.000,0.000,0.000
1605187177145431040,10.0.1.140,581,move_down,-0.460,-0.460,-0.460,0.000,0.000,0.000
1605187178896378880,10.0.1.140,682,move_down,-0.480,-0.480,-0.480,0.000,0.000,0.000
1605187180519012096,10.0.1.140,562,move_down,-0.500,-0.500,-0.500,0.000,0.000,0.000
1605187182296006912,10.0.1.140,698,move_down,-0.520,-0.520,-0.520,0.000,0.000,0.000
1605187184103141120,10.0.1.140,636,move_down,-0.540,-0.540,-0.540,0.000,0.000,0.000
1605187185689115904,10.0.1.140,524,move_down,-0.560,-0.560,-0.560,0.000,0.000,0.000
1605187187310023936,10.0.1.140,522,move_down,-0.580,-0.580,-0.580,0.000,0.000,0.000
1605187189366369024,10.0.1.140,NaN,pick,-0.600,-0.600,-0.600,0.000,0.000,0.000
1605187189405765120,10.0.1.140,38,pick,-0.600,-0.600,-0.600,0.000,0.000,0.000
1605187190421519872,10.0.1.140,53,pick,-0.610,-0.610,-0.610,0.000,0.000,0.000
1605187191412493056,10.0.1.140,42,pick,-0.620,-0.620,-0.620,0.000,0.000,0.000
1605187192436937984,10.0.1.140,59,pick,-0.630,-0.630,-0.630,0.000,0.000,0.000
1605187193446897920,10.0.1.140,64,pick,-0.640,-0.640,-0.640,0.000,0.000,0.000
1605187194424750080,10.0.1.140,40,pick,-0.650,-0.650,-0.650,0.000,0.000,0.000
1605187195424773888,10.0.1.140,39,pick,-0.660,-0.660,-0.660,0.000,0.000,0.000
1605187196427364096,10.0.1.140,40,pick,-0.670,-0.670,-0.670,0.000,0.000,0.000
1605187197423151104,10.0.1.140,35,pick,-0.680,-0.680,-0.680,0.000,0.000,0.000
1605187198423695104,10.0.1.140,36,pick,-0.690,-0.690,-0.690,0.000,0.000,0.000
1605187199427051008,10.0.1.140,38,pick,-0.700,-0.700,-0.700,0.000,0.000,0.000
1605187200425818880,10.0.1.140,35,pick,-0.710,-0.710,-0.710,0.000,0.000,0.000
1605187201433819136,10.0.1.140,43,pick,-0.720,-0.720,-0.720,0.000,0.000,0.000
1605187202424758016,10.0.1.140,32,pick,-0.730,-0.730,-0.730,0.000,0.000,0.000
1605187203426095872,10.0.1.140,32,pick,-0.740,-0.740,-0.740,0.000,0.000,0.000
1605187204426829056,10.0.1.140,32,pick,-0.750,-0.750,-0.750,0.000,0.000,0.000
1605187205445221888,10.0.1.140,47,pick,-0.760,-0.760,-0.760,0.000,0.000,0.000
1605187206443928064,10.0.1.140,45,pick,-0.770,-0.770,-0.770,0.000,0.000,0.000
1605187207892015104,10.0.1.140,492,move_up,-0.750,-0.750,-0.750,0.000,0.000,0.000
1605187209420098048,10.0.1.140,484,move_up,-0.730,-0.730,-0.730,0.000,0.000,0.000
1605187210999650048,10.0.1.140,473,move_up,-0.710,-0.710,-0.710,0.000,0.000,0.000
1605187212684084992,10.0.1.140,597,move_up,-0.690,-0.690,-0.690,0.000,0.000,0.000
1605187214348412928,10.0.1.140,625,move_up,-0.670,-0.670,-0.670,0.000,0.000,0.000
1605187215979621888,10.0.1.140,521,move_up,-0.650,-0.650,-0.650,0.000,0.000,0.000
1605187217689435904,10.0.1.140,619,move_up,-0.630,-0.630,-0.630,0.000,0.000,0.000
1605187219395847168,10.0.1.140,632,move_up,-0.610,-0.610,-0.610,0.000,0.000,0.000
1605187221090944000,10.0.1.140,508,move_up,-0.590,-0.590,-0.590,0.000,0.000,0.000
1605187222652757760,10.0.1.140,488,move_up,-0.570,-0.570,-0.570,0.000,0.000,0.000
1605187224207879936,10.0.1.140,480,move_up,-0.550,-0.550,-0.550,0.000,0.000,0.000
1605187225942353920,10.0.1.140,649,move_up,-0.530,-0.530,-0.530,0.000,0.000,0.000
1605187227704257024,10.0.1.140,699,move_up,-0.510,-0.510,-0.510,0.000,0.000,0.000
1605187229249125888,10.0.1.140,477,move_up,-0.490,-0.490,-0.490,0.000,0.000,0.000
1605187230973210112,10.0.1.140,673,move_up,-0.470,-0.470,-0.470,0.000,0.000,0.000
1605187232050496000,10.0.1.140,-2,move_up,-0.450,-0.450,-0.450,0.000,0.000,0.000
1605187234171571968,10.0.1.140,454,move_up,-0.430,-0.430,-0.430,0.000,0.000,0.000
1605187235739950848,10.0.1.140,489,move_up,-0.410,-0.410,-0.410,0.000,0.000,0.000
1605187237496339968,10.0.1.140,648,move_up,-0.390,-0.390,-0.390,0.000,0.000,0.000
1605187239202754048,10.0.1.140,590,move_up,-0.370,-0.370,-0.370,0.000,0.000,0.000
1605187240898629888,10.0.1.140,643,move_up,-0.350,-0.350,-0.350,0.000,0.000,0.000
1605187242652652032,10.0.1.140,637,move_up,-0.330,-0.330,-0.330,0.000,0.000,0.000
1605187244302467072,10.0.1.140,616,move_up,-0.310,-0.310,-0.310,0.000,0.000,0.000
1605187245999680000,10.0.1.140,633,move_up,-0.290,-0.290,-0.290,0.000,0.000,0.000
1605187247618673920,10.0.1.140,522,move_up,-0.270,-0.270,-0.270,0.000,0.000,0.000
1605187249234786048,10.0.1.140,529,move_up,-0.250,-0.250,-0.250,0.000,0.000,0.000
1605187251048408064,10.0.1.140,704,move_up,-0.230,-0.230,-0.230,0.000,0.000,0.000
1605187252710760960,10.0.1.140,477,move_up,-0.210,-0.210,-0.210,0.000,0.000,0.000
1605187254325732096,10.0.1.140,544,move_up,-0.190,-0.190,-0.190,0.000,0.000,0.000
1605187255421564160,10.0.1.140,44,place,-0.180,-0.180,-0.180,0.000,0.000,0.000
1605187256423717888,10.0.1.140,45,place,-0.170,-0.170,-0.170,0.000,0.000,0.000
1605187257420756224,10.0.1.140,40,place,-0.160,-0.160,-0.160,0.000,0.000,0.000
1605187258420820992,10.0.1.140,38,place,-0.150,-0.150,-0.150,0.000,0.000,0.000
1605187259423963136,10.0.1.140,40,place,-0.140,-0.140,-0.140,0.000,0.000,0.000
1605187260417661952,10.0.1.140,32,place,-0.130,-0.130,-0.130,0.000,0.000,0.000
1605187261433694976,10.0.1.140,46,place,-0.120,-0.120,-0.120,0.000,0.000,0.000
1605187262452289024,10.0.1.140,62,place,-0.110,-0.110,-0.110,0.000,0.000,0.000
1605187263447086080,10.0.1.140,55,place,-0.100,-0.100,-0.100,0.000,0.000,0.000
1605187264450488064,10.0.1.140,57,place,-0.090,-0.090,-0.090,0.000,0.000,0.000
1605187265436160000,10.0.1.140,39,place,-0.080,-0.080,-0.080,0.000,0.000,0.000
1605187266460172800,10.0.1.140,61,place,-0.070,-0.070,-0.070,0.000,0.000,0.000
1605187267446531072,10.0.1.140,44,place,-0.060,-0.060,-0.060,0.000,0.000,0.000
1605187268464669952,10.0.1.140,57,place,-0.050,-0.050,-0.050,0.000,0.000,0.000
1605187269459363840,10.0.1.140,51,place,-0.040,-0.040,-0.040,0.000,0.000,0.000
1605187270464241920,10.0.1.140,55,place,-0.030,-0.030,-0.030,0.000,0.000,0.000
1605187271464043008,10.0.1.140,53,place,-0.020,-0.020,-0.020,0.000,0.000,0.000
1605187272463015936,10.0.1.140,51,place,-0.010,-0.010,-0.010,0.000,0.000,0.000
1605187273467343104,10.0.1.140,53,place,0.000,0.000,0.000,0.000,0.000,0.000
1605187274954606080,10.0.1.140,540,move_down,-0.020,-0.020,-0.020,0.000,0.000,0.000
1605187276679353856,10.0.1.140,655,move_down,-0.040,-0.040,-0.040,0.000,0.000,0.000
1605187278241064960,10.0.1.140,474,move_down,-0.060,-0.060,-0.060,0.000,0.000,0.000
1605187279893246976,10.0.1.140,561,move_down,-0.080,-0.080,-0.080,0.000,0.000,0.000
1605187281782928896,10.0.1.140,602,move_down,-0.100,-0.100,-0.100,0.000,0.000,0.000
1605187283654582016,10.0.1.140,759,move_down,-0.120,-0.120,-0.120,0.000,0.000,0.000
1605187285380197120,10.0.1.140,622,move_down,-0.140,-0.140,-0.140,0.000,0.000,0.000
1605187287342674944,10.0.1.140,870,move_down,-0.160,-0.160,-0.160,0.000,0.000,0.000
1605187289313745920,10.0.1.140,954,move_down,-0.180,-0.180,-0.180,0.000,0.000,0.000
1605187291268281088,10.0.1.140,933,move_down,-0.200,-0.200,-0.200,0.000,0.000,0.000
1605187293093547008,10.0.1.140,703,move_down,-0.220,-0.220,-0.220,0.000,0.000,0.000
1605187295176024064,10.0.1.140,990,move_down,-0.240,-0.240,-0.240,0.000,0.000,0.000
1605187296747220992,10.0.1.140,558,move_down,-0.260,-0.260,-0.260,0.000,0.000,0.000
1605187298309972992,10.0.1.140,532,move_down,-0.280,-0.280,-0.280,0.000,0.000,0.000
1605187300020935168,10.0.1.140,617,move_down,-0.300,-0.300,-0.300,0.000,0.000,0.000
1605187301649847040,10.0.1.140,545,move_down,-0.320,-0.320,-0.320,0.000,0.000,0.000
1605187303213104128,10.0.1.140,496,move_down,-0.340,-0.340,-0.340,0.000,0.000,0.000
1605187305152987904,10.0.1.140,877,move_down,-0.360,-0.360,-0.360,0.000,0.000,0.000
1605187306788280064,10.0.1.140,608,move_down,-0.380,-0.380,-0.380,0.000,0.000,0.000
1605187309318937088,10.0.1.140,1359,move_down,-0.400,-0.400,-0.400,0.000,0.000,0.000
1605187311127173888,10.0.1.140,539,move_down,-0.420,-0.420,-0.420,0.000,0.000,0.000
1605187312965039872,10.0.1.140,617,move_down,-0.440,-0.440,-0.440,0.000,0.000,0.000
1605187314623408128,10.0.1.140,483,move_down,-0.460,-0.460,-0.460,0.000,0.000,0.000
1605187316429803008,10.0.1.140,658,move_down,-0.480,-0.480,-0.480,0.000,0.000,0.000
1605187318205348864,10.0.1.140,568,move_down,-0.500,-0.500,-0.500,0.000,0.000,0.000
1605187320028198912,10.0.1.140,782,move_down,-0.520,-0.520,-0.520,0.000,0.000,0.000
1605187321618268928,10.0.1.140,547,move_down,-0.540,-0.540,-0.540,0.000,0.000,0.000
1605187323567898880,10.0.1.140,662,move_down,-0.560,-0.560,-0.560,0.000,0.000,0.000
1605187325245883904,10.0.1.140,621,move_down,-0.580,-0.580,-0.580,0.000,0.000,0.000
1605187326378313984,10.0.1.140,49,pick,-0.590,-0.590,-0.590,0.000,0.000,0.000
1605187327396611072,10.0.1.140,57,pick,-0.600,-0.600,-0.600,0.000,0.000,0.000
1605187328390664192,10.0.1.140,50,pick,-0.610,-0.610,-0.610,0.000,0.000,0.000
1605187329398046976,10.0.1.140,57,pick,-0.620,-0.620,-0.620,0.000,0.000,0.000
1605187331344407040,10.0.1.140,NaN,pick,-0.640,-0.640,-0.640,0.000,0.000,0.000
1605187331396445952,10.0.1.140,51,pick,-0.640,-0.640,-0.640,0.000,0.000,0.000
1605187332404594944,10.0.1.140,59,pick,-0.650,-0.650,-0.650,0.000,0.000,0.000
1605187333394886144,10.0.1.140,48,pick,-0.660,-0.660,-0.660,0.000,0.000,0.000
1605187334392022016,10.0.1.140,44,pick,-0.670,-0.670,-0.670,0.000,0.000,0.000
1605187335395094016,10.0.1.140,46,pick,-0.680,-0.680,-0.680,0.000,0.000,0.000
1605187336388918016,10.0.1.140,38,pick,-0.690,-0.690,-0.690,0.000,0.000,0.000
1605187338351759872,10.0.1.140,NaN,pick,-0.710,-0.710,-0.710,0.000,0.000,0.000
1605187339353081088,10.0.1.140,NaN,pick,-0.720,-0.720,-0.720,0.000,0.000,0.000
1605187339404103936,10.0.1.140,50,pick,-0.720,-0.720,-0.720,0.000,0.000,0.000
1605187340392537088,10.0.1.140,34,pick,-0.730,-0.730,-0.730,0.000,0.000,0.000
1605187341418699008,10.0.1.140,59,pick,-0.740,-0.740,-0.740,0.000,0.000,0.000
1605187342426843904,10.0.1.140,65,pick,-0.750,-0.750,-0.750,0.000,0.000,0.000
1605187344363860992,10.0.1.140,NaN,pick,-0.770,-0.770,-0.770,0.000,0.000,0.000
1605187344425001984,10.0.1.140,61,pick,-0.770,-0.770,-0.770,0.000,0.000,0.000
1605187345986062080,10.0.1.140,620,move_up,-0.750,-0.750,-0.750,0.000,0.000,0.000
1605187347650490880,10.0.1.140,597,move_up,-0.730,-0.730,-0.730,0.000,0.000,0.000
1605187349288077056,10.0.1.140,561,move_up,-0.710,-0.710,-0.710,0.000,0.000,0.000
1605187351142792960,10.0.1.140,801,move_up,-0.690,-0.690,-0.690,0.000,0.000,0.000
1605187352775643136,10.0.1.140,564,move_up,-0.670,-0.670,-0.670,0.000,0.000,0.000
1605187354411723008,10.0.1.140,566,move_up,-0.650,-0.650,-0.650,0.000,0.000,0.000
1605187356042215168,10.0.1.140,514,move_up,-0.630,-0.630,-0.630,0.000,0.000,0.000
1605187357808652032,10.0.1.140,629,move_up,-0.610,-0.610,-0.610,0.000,0.000,0.000
1605187359693132032,10.0.1.140,760,move_up,-0.590,-0.590,-0.590,0.000,0.000,0.000
1605187361455717120,10.0.1.140,669,move_up,-0.570,-0.570,-0.570,0.000,0.000,0.000
1605187363113122816,10.0.1.140,614,move_up,-0.550,-0.550,-0.550,0.000,0.000,0.000
1605187364813594112,10.0.1.140,666,move_up,-0.530,-0.530,-0.530,0.000,0.000,0.000
1605187366468481024,10.0.1.140,546,move_up,-0.510,-0.510,-0.510,0.000,0.000,0.000
1605187368497925120,10.0.1.140,976,move_up,-0.490,-0.490,-0.490,0.000,0.000,0.000
1605187370487084032,10.0.1.140,813,move_up,-0.470,-0.470,-0.470,0.000,0.000,0.000
1605187372458832896,10.0.1.140,834,move_up,-0.450,-0.450,-0.450,0.000,0.000,0.000
1605187374290044928,10.0.1.140,718,move_up,-0.430,-0.430,-0.430,0.000,0.000,0.000
1605187376031564032,10.0.1.140,652,move_up,-0.410,-0.410,-0.410,0.000,0.000,0.000
1605187377784485120,10.0.1.140,626,move_up,-0.390,-0.390,-0.390,0.000,0.000,0.000
1605187379540460032,10.0.1.140,597,move_up,-0.370,-0.370,-0.370,0.000,0.000,0.000
1605187381366931968,10.0.1.140,742,move_up,-0.350,-0.350,-0.350,0.000,0.000,0.000
1605187383098778112,10.0.1.140,596,move_up,-0.330,-0.330,-0.330,0.000,0.000,0.000
1605187385063621120,10.0.1.140,915,move_up,-0.310,-0.310,-0.310,0.000,0.000,0.000
1605187387062727936,10.0.1.140,900,move_up,-0.290,-0.290,-0.290,0.000,0.000,0.000
1605187388677987072,10.0.1.140,526,move_up,-0.270,-0.270,-0.270,0.000,0.000,0.000
1605187390494797824,10.0.1.140,685,move_up,-0.250,-0.250,-0.250,0.000,0.000,0.000
1605187392365561856,10.0.1.140,784,move_up,-0.230,-0.230,-0.230,0.000,0.000,0.000
1605187394037296128,10.0.1.140,540,move_up,-0.210,-0.210,-0.210,0.000,0.000,0.000
1605187395841387008,10.0.1.140,707,move_up,-0.190,-0.190,-0.190,0.000,0.000,0.000
1605187396926213120,10.0.1.140,58,place,-0.180,-0.180,-0.180,0.000,0.000,0.000
1605187398875543040,10.0.1.140,NaN,place,-0.160,-0.160,-0.160,0.000,0.000,0.000
1605187399879939072,10.0.1.140,NaN,place,-0.150,-0.150,-0.150,0.000,0.000,0.000
1605187400883538944,10.0.1.140,NaN,place,-0.140,-0.140,-0.140,0.000,0.000,0.000
1605187401884881920,10.0.1.140,NaN,place,-0.130,-0.130,-0.130,0.000,0.000,0.000
1605187401931760128,10.0.1.140,46,place,-0.130,-0.130,-0.130,0.000,0.000,0.000
1605187402935249920,10.0.1.140,45,place,-0.120,-0.120,-0.120,0.000,0.000,0.000
1605187403932728064,10.0.1.140,36,place,-0.110,-0.110,-0.110,0.000,0.000,0.000
1605187404950192896,10.0.1.140,52,place,-0.100,-0.100,-0.100,0.000,0.000,0.000
1605187405953408000,10.0.1.140,54,place,-0.090,-0.090,-0.090,0.000,0.000,0.000
1605187406952105984,10.0.1.140,45,place,-0.080,-0.080,-0.080,0.000,0.000,0.000
1605187408915323136,10.0.1.140,NaN,place,-0.060,-0.060,-0.060,0.000,0.000,0.000
1605187408966327040,10.0.1.140,50,place,-0.060,-0.060,-0.060,0.000,0.000,0.000
1605187409989641984,10.0.1.140,71,place,-0.050,-0.050,-0.050,0.000,0.000,0.000
1605187410988423936,10.0.1.140,68,place,-0.040,-0.040,-0.040,0.000,0.000,0.000
1605187411971366912,10.0.1.140,51,place,-0.030,-0.030,-0.030,0.000,0.000,0.000
1605187412960452096,10.0.1.140,38,place,-0.020,-0.020,-0.020,0.000,0.000,0.000
1605187413974416128,10.0.1.140,51,place,-0.010,-0.010,-0.010,0.000,0.000,0.000
1605187414973161984,10.0.1.140,49,place,0.000,0.000,0.000,0.000,0.000,0.000
1605187416690098944,10.0.1.140,755,move_down,-0.020,-0.020,-0.020,0.000,0.000,0.000
1605187418524229120,10.0.1.140,560,move_down,-0.040,-0.040,-0.040,0.000,0.000,0.000
1605187420190262016,10.0.1.140,596,move_down,-0.060,-0.060,-0.060,0.000,0.000,0.000
1605187422108262144,10.0.1.140,799,move_down,-0.080,-0.080,-0.080,0.000,0.000,0.000
1605187423894179072,10.0.1.140,728,move_down,-0.100,-0.100,-0.100,0.000,0.000,0.000
1605187425439354880,10.0.1.140,494,move_down,-0.120,-0.120,-0.120,0.000,0.000,0.000
1605187427091042048,10.0.1.140,552,move_down,-0.140,-0.140,-0.140,0.000,0.000,0.000
1605187428758671104,10.0.1.140,582,move_down,-0.160,-0.160,-0.160,0.000,0.000,0.000
1605187430539920128,10.0.1.140,694,move_down,-0.180,-0.180,-0.180,0.000,0.000,0.000
1605187432265976832,10.0.1.140,704,move_down,-0.200,-0.200,-0.200,0.000,0.000,0.000
1605187433994919936,10.0.1.140,640,move_down,-0.220,-0.220,-0.220,0.000,0.000,0.000
1605187435677303040,10.0.1.140,604,move_down,-0.240,-0.240,-0.240,0.000,0.000,0.000
1605187437527479808,10.0.1.140,729,move_down,-0.260,-0.260,-0.260,0.000,0.000,0.000
1605187439366276096,10.0.1.140,610,move_down,-0.280,-0.280,-0.280,0.000,0.000,0.000
1605187441015036160,10.0.1.140,629,move_down,-0.300,-0.300,-0.300,0.000,0.000,0.000
1605187442706121984,10.0.1.140,617,move_down,-0.320,-0.320,-0.320,0.000,0.000,0.000
1605187444442308864,10.0.1.140,646,move_down,-0.340,-0.340,-0.340,0.000,0.000,0.000
1605187446004247040,10.0.1.140,488,move_down,-0.360,-0.360,-0.360,0.000,0.000,0.000
1605187447773876992,10.0.1.140,684,move_down,-0.380,-0.380,-0.380,0.000,0.000,0.000
1605187449620707072,10.0.1.140,755,move_down,-0.400,-0.400,-0.400,0.000,0.000,0.000
1605187451235385856,10.0.1.140,548,move_down,-0.420,-0.420,-0.420,0.000,0.000,0.000
1605187453012422144,10.0.1.140,734,move_down,-0.440,-0.440,-0.440,0.000,0.000,0.000
1605187454763390976,10.0.1.140,590,move_down,-0.460,-0.460,-0.460,0.000,0.000,0.000
1605187456381786112,10.0.1.140,616,move_down,-0.480,-0.480,-0.480,0.000,0.000,0.000
1605187458179217152,10.0.1.140,591,move_down,-0.500,-0.500,-0.500,0.000,0.000,0.000
1605187460001765888,10.0.1.140,698,move_down,-0.520,-0.520,-0.520,0.000,0.000,0.000
1605187461757193984,10.0.1.140,672,move_down,-0.540,-0.540,-0.540,0.000,0.000,0.000
1605187463555483136,10.0.1.140,738,move_down,-0.560,-0.560,-0.560,0.000,0.000,0.000
1605187465267379968,10.0.1.140,660,move_down,-0.580,-0.580,-0.580,0.000,0.000,0.000
1605187467373875968,10.0.1.140,NaN,pick,-0.600,-0.600,-0.600,0.000,0.000,0.000
1605187468387529984,10.0.1.140,NaN,pick,-0.610,-0.610,-0.610,0.000,0.000,0.000
1605187468444751872,10.0.1.140,57,pick,-0.610,-0.610,-0.610,0.000,0.000,0.000
1605187470390703872,10.0.1.140,NaN,pick,-0.630,-0.630,-0.630,0.000,0.000,0.000
1605187470464112128,10.0.1.140,73,pick,-0.630,-0.630,-0.630,0.000,0.000,0.000
1605187471491355904,10.0.1.140,97,pick,-0.640,-0.640,-0.640,0.000,0.000,0.000
1605187472473171968,10.0.1.140,74,pick,-0.650,-0.650,-0.650,0.000,0.000,0.000
1605187473472413952,10.0.1.140,67,pick,-0.660,-0.660,-0.660,0.000,0.000,0.000
1605187474501071104,10.0.1.140,91,pick,-0.670,-0.670,-0.670,0.000,0.000,0.000
1605187475496186112,10.0.1.140,84,pick,-0.680,-0.680,-0.680,0.000,0.000,0.000
1605187476534053120,10.0.1.140,97,pick,-0.690,-0.690,-0.690,0.000,0.000,0.000
1605187477493580032,10.0.1.140,49,pick,-0.700,-0.700,-0.700,0.000,0.000,0.000
1605187478521006080,10.0.1.140,70,pick,-0.710,-0.710,-0.710,0.000,0.000,0.000
1605187480463372032,10.0.1.140,NaN,pick,-0.730,-0.730,-0.730,0.000,0.000,0.000
1605187481478562048,10.0.1.140,NaN,pick,-0.740,-0.740,-0.740,0.000,0.000,0.000
1605187481537782784,10.0.1.140,59,pick,-0.740,-0.740,-0.740,0.000,0.000,0.000
1605187482537667072,10.0.1.140,58,pick,-0.750,-0.750,-0.750,0.000,0.000,0.000
1605187483532674048,10.0.1.140,52,pick,-0.760,-0.760,-0.760,0.000,0.000,0.000
1605187484572094976,10.0.1.140,81,pick,-0.770,-0.770,-0.770,0.000,0.000,0.000
1605187486119247872,10.0.1.140,627,move_up,-0.750,-0.750,-0.750,0.000,0.000,0.000
1605187487729062912,10.0.1.140,592,move_up,-0.730,-0.730,-0.730,0.000,0.000,0.000
1605187489473690880,10.0.1.140,672,move_up,-0.710,-0.710,-0.710,0.000,0.000,0.000
1605187491220576000,10.0.1.140,611,move_up,-0.690,-0.690,-0.690,0.000,0.000,0.000
1605187493329555968,10.0.1.140,926,move_up,-0.670,-0.670,-0.670,0.000,0.000,0.000
1605187495069499136,10.0.1.140,700,move_up,-0.650,-0.650,-0.650,0.000,0.000,0.000
1605187497090056960,10.0.1.140,823,move_up,-0.630,-0.630,-0.630,0.000,0.000,0.000
1605187498733639936,10.0.1.140,533,move_up,-0.610,-0.610,-0.610,0.000,0.000,0.000
1605187500586520064,10.0.1.140,797,move_up,-0.590,-0.590,-0.590,0.000,0.000,0.000
1605187502490697984,10.0.1.140,901,move_up,-0.570,-0.570,-0.570,0.000,0.000,0.000
1605187504147272192,10.0.1.140,651,move_up,-0.550,-0.550,-0.550,0.000,0.000,0.000
1605187505951659008,10.0.1.140,734,move_up,-0.530,-0.530,-0.530,0.000,0.000,0.000
1605187507778390016,10.0.1.140,801,move_up,-0.510,-0.510,-0.510,0.000,0.000,0.000
1605187509721432832,10.0.1.140,776,move_up,-0.490,-0.490,-0.490,0.000,0.000,0.000
1605187511585037056,10.0.1.140,698,move_up,-0.470,-0.470,-0.470,0.000,0.000,0.000
1605187513357036032,10.0.1.140,652,move_up,-0.450,-0.450,-0.450,0.000,0.000,0.000
1605187515172615936,10.0.1.140,750,move_up,-0.430,-0.430,-0.430,0.000,0.000,0.000
1605187516964809984,10.0.1.140,667,move_up,-0.410,-0.410,-0.410,0.000,0.000,0.000
1605187518792968960,10.0.1.140,731,move_up,-0.390,-0.390,-0.390,0.000,0.000,0.000
1605187520879033088,10.0.1.140,954,move_up,-0.370,-0.370,-0.370,0.000,0.000,0.000
1605187522553246976,10.0.1.140,630,move_up,-0.350,-0.350,-0.350,0.000,0.000,0.000
1605187524530714112,10.0.1.140,789,move_up,-0.330,-0.330,-0.330,0.000,0.000,0.000
1605187526368755968,10.0.1.140,645,move_up,-0.310,-0.310,-0.310,0.000,0.000,0.000
1605187528095841024,10.0.1.140,692,move_up,-0.290,-0.290,-0.290,0.000,0.000,0.000
1605187530046801152,10.0.1.140,536,move_up,-0.270,-0.270,-0.270,0.000,0.000,0.000
1605187531972694016,10.0.1.140,795,move_up,-0.250,-0.250,-0.250,0.000,0.000,0.000
1605187533743046912,10.0.1.140,685,move_up,-0.230,-0.230,-0.230,0.000,0.000,0.000
1605187535658426880,10.0.1.140,743,move_up,-0.210,-0.210,-0.210,0.000,0.000,0.000
1605187537355739136,10.0.1.140,623,move_up,-0.190,-0.190,-0.190,0.000,0.000,0.000
1605187538534915840,10.0.1.140,66,place,-0.180,-0.180,-0.180,0.000,0.000,0.000
1605187539542518016,10.0.1.140,72,place,-0.170,-0.170,-0.170,0.000,0.000,0.000
1605187541478780928,10.0.1.140,NaN,place,-0.150,-0.150,-0.150,0.000,0.000,0.000
1605187542479815936,10.0.1.140,NaN,place,-0.140,-0.140,-0.140,0.000,0.000,0.000
1605187542553036032,10.0.1.140,73,place,-0.140,-0.140,-0.140,0.000,0.000,0.000
1605187543537988864,10.0.1.140,52,place,-0.130,-0.130,-0.130,0.000,0.000,0.000
1605187544569523200,10.0.1.140,82,place,-0.120,-0.120,-0.120,0.000,0.000,0.000
1605187545532123136,10.0.1.140,43,place,-0.110,-0.110,-0.110,0.000,0.000,0.000
1605187546560455168,10.0.1.140,70,place,-0.100,-0.100,-0.100,0.000,0.000,0.000
1605187548499563008,10.0.1.140,NaN,place,-0.080,-0.080,-0.080,0.000,0.000,0.000
1605187548549495040,10.0.1.140,49,place,-0.080,-0.080,-0.080,0.000,0.000,0.000
1605187549550219008,10.0.1.140,45,place,-0.070,-0.070,-0.070,0.000,0.000,0.000
1605187550563126016,10.0.1.140,57,place,-0.060,-0.060,-0.060,0.000,0.000,0.000
1605187551569288960,10.0.1.140,60,place,-0.050,-0.050,-0.050,0.000,0.000,0.000
1605187552559240960,10.0.1.140,41,place,-0.040,-0.040,-0.040,0.000,0.000,0.000
1605187554521075968,10.0.1.140,NaN,place,-0.020,-0.020,-0.020,0.000,0.000,0.000
1605187555522542848,10.0.1.140,NaN,place,-0.010,-0.010,-0.010,0.000,0.000,0.000
1605187555573391872,10.0.1.140,50,place,-0.010,-0.010,-0.010,0.000,0.000,0.000
1605187556580278016,10.0.1.140,53,place,0.000,0.000,0.000,0.000,0.000,0.000
1605187558088015104,10.0.1.140,558,move_down,-0.020,-0.020,-0.020,0.000,0.000,0.000
1605187559960505856,10.0.1.140,815,move_down,-0.040,-0.040,-0.040,0.000,0.000,0.000
1605187561725047040,10.0.1.140,718,move_down,-0.060,-0.060,-0.060,0.000,0.000,0.000
1605187563675236096,10.0.1.140,665,move_down,-0.080,-0.080,-0.080,0.000,0.000,0.000
1605187565283864064,10.0.1.140,541,move_down,-0.100,-0.100,-0.100,0.000,0.000,0.000
1605187566821820928,10.0.1.140,459,move_down,-0.120,-0.120,-0.120,0.000,0.000,0.000
1605187568563211008,10.0.1.140,662,move_down,-0.140,-0.140,-0.140,0.000,0.000,0.000
1605187570385241088,10.0.1.140,628,move_down,-0.160,-0.160,-0.160,0.000,0.000,0.000
1605187572289310976,10.0.1.140,781,move_down,-0.180,-0.180,-0.180,0.000,0.000,0.000
1605187574099872000,10.0.1.140,689,move_down,-0.200,-0.200,-0.200,0.000,0.000,0.000
1605187575700589824,10.0.1.140,530,move_down,-0.220,-0.220,-0.220,0.000,0.000,0.000
1605187577462022144,10.0.1.140,734,move_down,-0.240,-0.240,-0.240,0.000,0.000,0.000
1605187579245186048,10.0.1.140,645,move_down,-0.260,-0.260,-0.260,0.000,0.000,0.000
1605187581287239168,10.0.1.140,939,move_down,-0.280,-0.280,-0.280,0.000,0.000,0.000
1605187583125649920,10.0.1.140,759,move_down,-0.300,-0.300,-0.300,0.000,0.000,0.000
1605187584805233920,10.0.1.140,679,move_down,-0.320,-0.320,-0.320,0.000,0.000,0.000
1605187586751930880,10.0.1.140,763,move_down,-0.340,-0.340,-0.340,0.000,0.000,0.000
1605187588767309824,10.0.1.140,865,move_down,-0.360,-0.360,-0.360,0.000,0.000,0.000
1605187590702924032,10.0.1.140,861,move_down,-0.380,-0.380,-0.380,0.000,0.000,0.000
1605187592454067968,10.0.1.140,685,move_down,-0.400,-0.400,-0.400,0.000,0.000,0.000
1605187594301993984,10.0.1.140,745,move_down,-0.420,-0.420,-0.420,0.000,0.000,0.000
1605187596006073856,10.0.1.140,722,move_down,-0.440,-0.440,-0.440,0.000,0.000,0.000
1605187597730132224,10.0.1.140,637,move_down,-0.460,-0.460,-0.460,0.000,0.000,0.000
1605187599565063936,10.0.1.140,752,move_down,-0.480,-0.480,-0.480,0.000,0.000,0.000
1605187601512695040,10.0.1.140,775,move_down,-0.500,-0.500,-0.500,0.000,0.000,0.000
1605187603201172992,10.0.1.140,592,move_down,-0.520,-0.520,-0.520,0.000,0.000,0.000
1605187605101548032,10.0.1.140,786,move_down,-0.540,-0.540,-0.540,0.000,0.000,0.000
1605187606967767040,10.0.1.140,760,move_down,-0.560,-0.560,-0.560,0.000,0.000,0.000
1605187608720316928,10.0.1.140,757,move_down,-0.580,-0.580,-0.580,0.000,0.000,0.000
1605187609868689152,10.0.1.140,56,pick,-0.590,-0.590,-0.590,0.000,0.000,0.000
1605187610861569024,10.0.1.140,49,pick,-0.600,-0.600,-0.600,0.000,0.000,0.000
1605187612814789120,10.0.1.140,NaN,pick,-0.620,-0.620,-0.620,0.000,0.000,0.000
1605187612881510144,10.0.1.140,66,pick,-0.620,-0.620,-0.620,0.000,0.000,0.000
1605187613847801856,10.0.1.140,32,pick,-0.630,-0.630,-0.630,0.000,0.000,0.000
1605187614930882048,10.0.1.140,59,pick,-0.640,-0.640,-0.640,0.000,0.000,0.000
1605187615917556992,10.0.1.140,45,pick,-0.650,-0.650,-0.650,0.000,0.000,0.000
1605187616925665024,10.0.1.140,53,pick,-0.660,-0.660,-0.660,0.000,0.000,0.000
1605187617913788928,10.0.1.140,39,pick,-0.670,-0.670,-0.670,0.000,0.000,0.000
1605187619879472896,10.0.1.140,NaN,pick,-0.690,-0.690,-0.690,0.000,0.000,0.000
1605187620882468096,10.0.1.140,NaN,pick,-0.700,-0.700,-0.700,0.000,0.000,0.000
1605187620924691968,10.0.1.140,42,pick,-0.700,-0.700,-0.700,0.000,0.000,0.000
1605187621922708992,10.0.1.140,38,pick,-0.710,-0.710,-0.710,0.000,0.000,0.000
1605187622965266944,10.0.1.140,74,pick,-0.720,-0.720,-0.720,0.000,0.000,0.000
1605187624905314816,10.0.1.140,NaN,pick,-0.740,-0.740,-0.740,0.000,0.000,0.000
1605187624941709056,10.0.1.140,36,pick,-0.740,-0.740,-0.740,0.000,0.000,0.000
1605187625949366016,10.0.1.140,40,pick,-0.750,-0.750,-0.750,0.000,0.000,0.000
1605187626986532096,10.0.1.140,69,pick,-0.760,-0.760,-0.760,0.000,0.000,0.000
1605187628923693056,10.0.1.140,NaN,move_up,-0.750,-0.750,-0.750,0.000,0.000,0.000
1605187629545031168,10.0.1.140,621,move_up,-0.750,-0.750,-0.750,0.000,0.000,0.000
1605187631292702976,10.0.1.140,617,move_up,-0.730,-0.730,-0.730,0.000,0.000,0.000
1605187632996001024,10.0.1.140,610,move_up,-0.710,-0.710,-0.710,0.000,0.000,0.000
1605187634783910144,10.0.1.140,740,move_up,-0.690,-0.690,-0.690,0.000,0.000,0.000
1605187636791332864,10.0.1.140,837,move_up,-0.670,-0.670,-0.670,0.000,0.000,0.000
1605187638593158912,10.0.1.140,670,move_up,-0.650,-0.650,-0.650,0.000,0.000,0.000
1605187640314829056,10.0.1.140,583,move_up,-0.630,-0.630,-0.630,0.000,0.000,0.000
1605187641941734912,10.0.1.140,447,move_up,-0.610,-0.610,-0.610,0.000,0.000,0.000
1605187643744365824,10.0.1.140,598,move_up,-0.590,-0.590,-0.590,0.000,0.000,0.000
1605187645520751104,10.0.1.140,705,move_up,-0.570,-0.570,-0.570,0.000,0.000,0.000
1605187647312568832,10.0.1.140,568,move_up,-0.550,-0.550,-0.550,0.000,0.000,0.000
1605187649115917056,10.0.1.140,675,move_up,-0.530,-0.530,-0.530,0.000,0.000,0.000
1605187650889859840,10.0.1.140,680,move_up,-0.510,-0.510,-0.510,0.000,0.000,0.000
1605187652742610944,10.0.1.140,635,move_up,-0.490,-0.490,-0.490,0.000,0.000,0.000
1605187654694535936,10.0.1.140,751,move_up,-0.470,-0.470,-0.470,0.000,0.000,0.000
1605187656346482944,10.0.1.140,612,move_up,-0.450,-0.450,-0.450,0.000,0.000,0.000
1605187658004493824,10.0.1.140,569,move_up,-0.430,-0.430,-0.430,0.000,0.000,0.000
1605187659963568896,10.0.1.140,818,move_up,-0.410,-0.410,-0.410,0.000,0.000,0.000
1605187662052598016,10.0.1.140,1073,move_up,-0.390,-0.390,-0.390,0.000,0.000,0.000
1605187663871550976,10.0.1.140,661,move_up,-0.370,-0.370,-0.370,0.000,0.000,0.000
1605187665697908992,10.0.1.140,743,move_up,-0.350,-0.350,-0.350,0.000,0.000,0.000
1605187667291232000,10.0.1.140,527,move_up,-0.330,-0.330,-0.330,0.000,0.000,0.000
1605187669147644928,10.0.1.140,718,move_up,-0.310,-0.310,-0.310,0.000,0.000,0.000
1605187671145824000,10.0.1.140,885,move_up,-0.290,-0.290,-0.290,0.000,0.000,0.000
1605187673490227968,10.0.1.140,1136,move_up,-0.270,-0.270,-0.270,0.000,0.000,0.000
1605187675309166848,10.0.1.140,736,move_up,-0.250,-0.250,-0.250,0.000,0.000,0.000
1605187677008742144,10.0.1.140,617,move_up,-0.230,-0.230,-0.230,0.000,0.000,0.000
1605187678805830912,10.0.1.140,667,move_up,-0.210,-0.210,-0.210,0.000,0.000,0.000
1605187681203901952,10.0.1.140,1299,move_up,-0.190,-0.190,-0.190,0.000,0.000,0.000
1605187682421152000,10.0.1.140,66,place,-0.180,-0.180,-0.180,0.000,0.000,0.000
1605187684364610048,10.0.1.140,NaN,place,-0.160,-0.160,-0.160,0.000,0.000,0.000
1605187684436889856,10.0.1.140,72,place,-0.160,-0.160,-0.160,0.000,0.000,0.000
1605187685451003904,10.0.1.140,84,place,-0.150,-0.150,-0.150,0.000,0.000,0.000
1605187686489743104,10.0.1.140,122,place,-0.140,-0.140,-0.140,0.000,0.000,0.000
1605187688382985216,10.0.1.140,NaN,place,-0.120,-0.120,-0.120,0.000,0.000,0.000
1605187688437496064,10.0.1.140,54,place,-0.120,-0.120,-0.120,0.000,0.000,0.000
1605187689438824960,10.0.1.140,53,place,-0.110,-0.110,-0.110,0.000,0.000,0.000
1605187691394099968,10.0.1.140,NaN,place,-0.090,-0.090,-0.090,0.000,0.000,0.000
1605187691496293120,10.0.1.140,101,place,-0.090,-0.090,-0.090,0.000,0.000,0.000
1605187693397777920,10.0.1.140,NaN,place,-0.070,-0.070,-0.070,0.000,0.000,0.000
1605187693451121920,10.0.1.140,53,place,-0.070,-0.070,-0.070,0.000,0.000,0.000
1605187694464335872,10.0.1.140,62,place,-0.060,-0.060,-0.060,0.000,0.000,0.000
1605187695497611008,10.0.1.140,79,place,-0.050,-0.050,-0.050,0.000,0.000,0.000
1605187696480429824,10.0.1.140,56,place,-0.040,-0.040,-0.040,0.000,0.000,0.000
1605187697507406848,10.0.1.140,62,place,-0.030,-0.030,-0.030,0.000,0.000,0.000
1605187699474211072,10.0.1.140,NaN,place,-0.010,-0.010,-0.010,0.000,0.000,0.000
1605187699592324096,10.0.1.140,117,place,-0.010,-0.010,-0.010,0.000,0.000,0.000
1605187701515639040,10.0.1.140,NaN,move_down,-0.020,-0.020,-0.020,0.000,0.000,0.000
1605187702094561024,10.0.1.140,578,move_down,-0.020,-0.020,-0.020,0.000,0.000,0.000
1605187704165388032,10.0.1.140,993,move_down,-0.040,-0.040,-0.040,0.000,0.000,0.000
1605187705826374144,10.0.1.140,622,move_down,-0.060,-0.060,-0.060,0.000,0.000,0.000
1605187707656023040,10.0.1.140,770,move_down,-0.080,-0.080,-0.080,0.000,0.000,0.000
1605187709701648896,10.0.1.140,722,move_down,-0.100,-0.100,-0.100,0.000,0.000,0.000
1605187711514228992,10.0.1.140,745,move_down,-0.120,-0.120,-0.120,0.000,0.000,0.000
1605187713447681024,10.0.1.140,882,move_down,-0.140,-0.140,-0.140,0.000,0.000,0.000
1605187715096937984,10.0.1.140,581,move_down,-0.160,-0.160,-0.160,0.000,0.000,0.000
1605187716729120000,10.0.1.140,582,move_down,-0.180,-0.180,-0.180,0.000,0.000,0.000
1605187718427350016,10.0.1.140,616,move_down,-0.200,-0.200,-0.200,0.000,0.000,0.000
1605187720115587072,10.0.1.140,563,move_down,-0.220,-0.220,-0.220,0.000,0.000,0.000
1605187721840238080,10.0.1.140,655,move_down,-0.240,-0.240,-0.240,0.000,0.000,0.000
1605187723599575040,10.0.1.140,713,move_down,-0.260,-0.260,-0.260,0.000,0.000,0.000
1605187725517793792,10.0.1.140,788,move_down,-0.280,-0.280,-0.280,0.000,0.000,0.000
1605187727299321856,10.0.1.140,673,move_down,-0.300,-0.300,-0.300,0.000,0.000,0.000
1605187729180374016,10.0.1.140,826,move_down,-0.320,-0.320,-0.320,0.000,0.000,0.000
1605187730860594944,10.0.1.140,592,move_down,-0.340,-0.340,-0.340,0.000,0.000,0.000
1605187732554560000,10.0.1.140,596,move_down,-0.360,-0.360,-0.360,0.000,0.000,0.000
1605187734163881984,10.0.1.140,547,move_down,-0.380,-0.380,-0.380,0.000,0.000,0.000
1605187736108055040,10.0.1.140,816,move_down,-0.400,-0.400,-0.400,0.000,0.000,0.000
1605187737717542912,10.0.1.140,551,move_down,-0.420,-0.420,-0.420,0.000,0.000,0.000
1605187740235116032,10.0.1.140,1410,move_down,-0.440,-0.440,-0.440,0.000,0.000,0.000
1605187742315576064,10.0.1.140,748,move_down,-0.460,-0.460,-0.460,0.000,0.000,0.000
1605187744464654848,10.0.1.140,964,move_down,-0.480,-0.480,-0.480,0.000,0.000,0.000
1605187746293679104,10.0.1.140,760,move_down,-0.500,-0.500,-0.500,0.000,0.000,0.000
1605187748385623808,10.0.1.140,999,move_down,-0.520,-0.520,-0.520,0.000,0.000,0.000
1605187750271022080,10.0.1.140,752,move_down,-0.540,-0.540,-0.540,0.000,0.000,0.000
1605187752516227072,10.0.1.140,1110,move_down,-0.560,-0.560,-0.560,0.000,0.000,0.000
1605187754317533952,10.0.1.140,653,move_down,-0.580,-0.580,-0.580,0.000,0.000,0.000
1605187755482865152,10.0.1.140,67,pick,-0.590,-0.590,-0.590,0.000,0.000,0.000
1605187756526341888,10.0.1.140,101,pick,-0.600,-0.600,-0.600,0.000,0.000,0.000
1605187757508646912,10.0.1.140,82,pick,-0.610,-0.610,-0.610,0.000,0.000,0.000
1605187758492517120,10.0.1.140,57,pick,-0.620,-0.620,-0.620,0.000,0.000,0.000
1605187759486329088,10.0.1.140,49,pick,-0.630,-0.630,-0.630,0.000,0.000,0.000
1605187760564835072,10.0.1.140,84,pick,-0.640,-0.640,-0.640,0.000,0.000,0.000
1605187762483249920,10.0.1.140,NaN,pick,-0.660,-0.660,-0.660,0.000,0.000,0.000
1605187762667749888,10.0.1.140,184,pick,-0.660,-0.660,-0.660,0.000,0.000,0.000
1605187763556335872,10.0.1.140,63,pick,-0.670,-0.670,-0.670,0.000,0.000,0.000
1605187765531339776,10.0.1.140,NaN,pick,-0.690,-0.690,-0.690,0.000,0.000,0.000
1605187765581715968,10.0.1.140,50,pick,-0.690,-0.690,-0.690,0.000,0.000,0.000
1605187766590976000,10.0.1.140,49,pick,-0.700,-0.700,-0.700,0.000,0.000,0.000
1605187768543476224,10.0.1.140,NaN,pick,-0.720,-0.720,-0.720,0.000,0.000,0.000
1605187768649327104,10.0.1.140,105,pick,-0.720,-0.720,-0.720,0.000,0.000,0.000
1605187769657784832,10.0.1.140,111,pick,-0.730,-0.730,-0.730,0.000,0.000,0.000
1605187771551620864,10.0.1.140,NaN,pick,-0.750,-0.750,-0.750,0.000,0.000,0.000
1605187771596208128,10.0.1.140,44,pick,-0.750,-0.750,-0.750,0.000,0.000,0.000
1605187772625016832,10.0.1.140,71,pick,-0.760,-0.760,-0.760,0.000,0.000,0.000
1605187774555964928,10.0.1.140,NaN,move_up,-0.750,-0.750,-0.750,0.000,0.000,0.000
1605187775637825024,10.0.1.140,1081,move_up,-0.750,-0.750,-0.750,0.000,0.000,0.000
1605187777769248000,10.0.1.140,1024,move_up,-0.730,-0.730,-0.730,0.000,0.000,0.000
1605187779568720128,10.0.1.140,801,move_up,-0.710,-0.710,-0.710,0.000,0.000,0.000
1605187781377541120,10.0.1.140,672,move_up,-0.690,-0.690,-0.690,0.000,0.000,0.000
1605187783322840064,10.0.1.140,803,move_up,-0.670,-0.670,-0.670,0.000,0.000,0.000
1605187785349723136,10.0.1.140,813,move_up,-0.650,-0.650,-0.650,0.000,0.000,0.000
1605187787076931840,10.0.1.140,699,move_up,-0.630,-0.630,-0.630,0.000,0.000,0.000
1605187789149538048,10.0.1.140,948,move_up,-0.610,-0.610,-0.610,0.000,0.000,0.000
1605187791092169984,10.0.1.140,795,move_up,-0.590,-0.590,-0.590,0.000,0.000,0.000
1605187793005588992,10.0.1.140,842,move_up,-0.570,-0.570,-0.570,0.000,0.000,0.000
1605187794833574912,10.0.1.140,733,move_up,-0.550,-0.550,-0.550,0.000,0.000,0.000
1605187796525955072,10.0.1.140,654,move_up,-0.530,-0.530,-0.530,0.000,0.000,0.000
1605187798723800064,10.0.1.140,1020,move_up,-0.510,-0.510,-0.510,0.000,0.000,0.000
1605187800448901888,10.0.1.140,737,move_up,-0.490,-0.490,-0.490,0.000,0.000,0.000
1605187802487351040,10.0.1.140,728,move_up,-0.470,-0.470,-0.470,0.000,0.000,0.000
1605187804688224000,10.0.1.140,1120,move_up,-0.450,-0.450,-0.450,0.000,0.000,0.000
1605187807001255936,10.0.1.140,1272,move_up,-0.430,-0.430,-0.430,0.000,0.000,0.000
1605187809105652992,10.0.1.140,950,move_up,-0.410,-0.410,-0.410,0.000,0.000,0.000
1605187811078375168,10.0.1.140,724,move_up,-0.390,-0.390,-0.390,0.000,0.000,0.000
1605187813313771008,10.0.1.140,1182,move_up,-0.370,-0.370,-0.370,0.000,0.000,0.000
1605187815101922048,10.0.1.140,756,move_up,-0.350,-0.350,-0.350,0.000,0.000,0.000
1605187816774811904,10.0.1.140,620,move_up,-0.330,-0.330,-0.330,0.000,0.000,0.000
1605187818788844032,10.0.1.140,903,move_up,-0.310,-0.310,-0.310,0.000,0.000,0.000
1605187820676049920,10.0.1.140,686,move_up,-0.290,-0.290,-0.290,0.000,0.000,0.000
1605187822612904960,10.0.1.140,859,move_up,-0.270,-0.270,-0.270,0.000,0.000,0.000
1605187824496071168,10.0.1.140,775,move_up,-0.250,-0.250,-0.250,0.000,0.000,0.000
1605187826335990784,10.0.1.140,788,move_up,-0.230,-0.230,-0.230,0.000,0.000,0.000
1605187828572387840,10.0.1.140,1204,move_up,-0.210,-0.210,-0.210,0.000,0.000,0.000
1605187830708215040,10.0.1.140,1060,move_up,-0.190,-0.190,-0.190,0.000,0.000,0.000
1605187831901353984,10.0.1.140,120,place,-0.180,-0.180,-0.180,0.000,0.000,0.000
1605187832866221824,10.0.1.140,77,place,-0.170,-0.170,-0.170,0.000,0.000,0.000
1605187833851033856,10.0.1.140,51,place,-0.160,-0.160,-0.160,0.000,0.000,0.000
1605187834862525952,10.0.1.140,56,place,-0.150,-0.150,-0.150,0.000,0.000,0.000
1605187836818528000,10.0.1.140,NaN,place,-0.130,-0.130,-0.130,0.000,0.000,0.000
1605187837819919104,10.0.1.140,NaN,place,-0.120,-0.120,-0.120,0.000,0.000,0.000
1605187838821504000,10.0.1.140,NaN,place,-0.110,-0.110,-0.110,0.000,0.000,0.000
1605187838884186112,10.0.1.140,62,place,-0.110,-0.110,-0.110,0.000,0.000,0.000
1605187840906161152,10.0.1.140,NaN,place,-0.090,-0.090,-0.090,0.000,0.000,0.000
1605187840943377920,10.0.1.140,37,place,-0.090,-0.090,-0.090,0.000,0.000,0.000
1605187842917676800,10.0.1.140,NaN,place,-0.070,-0.070,-0.070,0.000,0.000,0.000
1605187843940204032,10.0.1.140,NaN,place,-0.060,-0.060,-0.060,0.000,0.000,0.000
1605187844066569216,10.0.1.140,126,place,-0.060,-0.060,-0.060,0.000,0.000,0.000
1605187845012114176,10.0.1.140,58,place,-0.050,-0.050,-0.050,0.000,0.000,0.000
1605187846966868992,10.0.1.140,NaN,place,-0.030,-0.030,-0.030,0.000,0.000,0.000
1605187847968029952,10.0.1.140,NaN,place,-0.020,-0.020,-0.020,0.000,0.000,0.000
1605187848025753088,10.0.1.140,57,place,-0.020,-0.020,-0.020,0.000,0.000,0.000
1605187849977436160,10.0.1.140,NaN,place,0.000,0.000,0.000,0.000,0.000,0.000
1605187850042972928,10.0.1.140,65,place,0.000,0.000,0.000,0.000,0.000,0.000
1605187851665847040,10.0.1.140,687,move_down,-0.020,-0.020,-0.020,0.000,0.000,0.000
1605187853603331072,10.0.1.140,783,move_down,-0.040,-0.040,-0.040,0.000,0.000,0.000
1605187855641129984,10.0.1.140,948,move_down,-0.060,-0.060,-0.060,0.000,0.000,0.000
1605187857535294976,10.0.1.140,825,move_down,-0.080,-0.080,-0.080,0.000,0.000,0.000
1605187859640225792,10.0.1.140,1025,move_down,-0.100,-0.100,-0.100,0.000,0.000,0.000
1605187861833592064,10.0.1.140,1016,move_down,-0.120,-0.120,-0.120,0.000,0.000,0.000
1605187863882369024,10.0.1.140,753,move_down,-0.140,-0.140,-0.140,0.000,0.000,0.000
1605187865812467968,10.0.1.140,905,move_down,-0.160,-0.160,-0.160,0.000,0.000,0.000
1605187867652144896,10.0.1.140,760,move_down,-0.180,-0.180,-0.180,0.000,0.000,0.000
1605187869605735168,10.0.1.140,717,move_down,-0.200,-0.200,-0.200,0.000,0.000,0.000
1605187871685911040,10.0.1.140,958,move_down,-0.220,-0.220,-0.220,0.000,0.000,0.000
1605187873471483904,10.0.1.140,593,move_down,-0.240,-0.240,-0.240,0.000,0.000,0.000
1605187875432423168,10.0.1.140,838,move_down,-0.260,-0.260,-0.260,0.000,0.000,0.000
1605187877432185856,10.0.1.140,859,move_down,-0.280,-0.280,-0.280,0.000,0.000,0.000
1605187879557449984,10.0.1.140,979,move_down,-0.300,-0.300,-0.300,0.000,0.000,0.000
1605187881575544064,10.0.1.140,966,move_down,-0.320,-0.320,-0.320,0.000,0.000,0.000
1605187883336489984,10.0.1.140,632,move_down,-0.340,-0.340,-0.340,0.000,0.000,0.000
1605187885688033024,10.0.1.140,1241,move_down,-0.360,-0.360,-0.360,0.000,0.000,0.000
1605187887881186048,10.0.1.140,1101,move_down,-0.380,-0.380,-0.380,0.000,0.000,0.000
1605187889605797120,10.0.1.140,709,move_down,-0.400,-0.400,-0.400,0.000,0.000,0.000
1605187891583740928,10.0.1.140,786,move_down,-0.420,-0.420,-0.420,0.000,0.000,0.000
1605187893489105920,10.0.1.140,673,move_down,-0.440,-0.440,-0.440,0.000,0.000,0.000
1605187896162296064,10.0.1.140,1497,move_down,-0.460,-0.460,-0.460,0.000,0.000,0.000
1605187898272470016,10.0.1.140,887,move_down,-0.480,-0.480,-0.480,0.000,0.000,0.000
1605187900598429952,10.0.1.140,1080,move_down,-0.500,-0.500,-0.500,0.000,0.000,0.000
1605187902362382848,10.0.1.140,574,move_down,-0.520,-0.520,-0.520,0.000,0.000,0.000
1605187904379569152,10.0.1.140,891,move_down,-0.540,-0.540,-0.540,0.000,0.000,0.000
1605187906174848000,10.0.1.140,672,move_down,-0.560,-0.560,-0.560,0.000,0.000,0.000
1605187908183654144,10.0.1.140,760,move_down,-0.580,-0.580,-0.580,0.000,0.000,0.000
1605187909372306176,10.0.1.140,53,pick,-0.590,-0.590,-0.590,0.000,0.000,0.000
1605187910378114816,10.0.1.140,58,pick,-0.600,-0.600,-0.600,0.000,0.000,0.000
1605187911383883008,10.0.1.140,60,pick,-0.610,-0.610,-0.610,0.000,0.000,0.000
1605187913334970880,10.0.1.140,NaN,pick,-0.630,-0.630,-0.630,0.000,0.000,0.000
1605187913412247040,10.0.1.140,77,pick,-0.630,-0.630,-0.630,0.000,0.000,0.000
1605187914443696896,10.0.1.140,105,pick,-0.640,-0.640,-0.640,0.000,0.000,0.000
1605187915400690944,10.0.1.140,51,pick,-0.650,-0.650,-0.650,0.000,0.000,0.000
1605187916436951040,10.0.1.140,80,pick,-0.660,-0.660,-0.660,0.000,0.000,0.000
1605187917437635072,10.0.1.140,79,pick,-0.670,-0.670,-0.670,0.000,0.000,0.000
1605187918399930880,10.0.1.140,40,pick,-0.680,-0.680,-0.680,0.000,0.000,0.000
1605187919451270144,10.0.1.140,80,pick,-0.690,-0.690,-0.690,0.000,0.000,0.000
1605187921374519040,10.0.1.140,NaN,pick,-0.710,-0.710,-0.710,0.000,0.000,0.000
1605187921474778880,10.0.1.140,100,pick,-0.710,-0.710,-0.710,0.000,0.000,0.000
1605187922430053120,10.0.1.140,49,pick,-0.720,-0.720,-0.720,0.000,0.000,0.000
1605187924387866112,10.0.1.140,NaN,pick,-0.740,-0.740,-0.740,0.000,0.000,0.000
1605187924428303104,10.0.1.140,40,pick,-0.740,-0.740,-0.740,0.000,0.000,0.000
1605187926394507776,10.0.1.140,NaN,pick,-0.760,-0.760,-0.760,0.000,0.000,0.000
1605187927400561920,10.0.1.140,NaN,pick,-0.770,-0.770,-0.770,0.000,0.000,0.000
1605187927512197120,10.0.1.140,111,pick,-0.770,-0.770,-0.770,0.000,0.000,0.000
1605187929156599040,10.0.1.140,754,move_up,-0.750,-0.750,-0.750,0.000,0.000,0.000
1605187930975321088,10.0.1.140,776,move_up,-0.730,-0.730,-0.730,0.000,0.000,0.000
1605187933281071872,10.0.1.140,1031,move_up,-0.710,-0.710,-0.710,0.000,0.000,0.000
1605187934994041856,10.0.1.140,657,move_up,-0.690,-0.690,-0.690,0.000,0.000,0.000
1605187937032197888,10.0.1.140,844,move_up,-0.670,-0.670,-0.670,0.000,0.000,0.000
1605187939213836032,10.0.1.140,714,move_up,-0.650,-0.650,-0.650,0.000,0.000,0.000
1605187941520116992,10.0.1.140,947,move_up,-0.630,-0.630,-0.630,0.000,0.000,0.000
1605187944037396992,10.0.1.140,1288,move_up,-0.610,-0.610,-0.610,0.000,0.000,0.000
1605187946080800000,10.0.1.140,946,move_up,-0.590,-0.590,-0.590,0.000,0.000,0.000
1605187947941082112,10.0.1.140,758,move_up,-0.570,-0.570,-0.570,0.000,0.000,0.000
1605187949654373888,10.0.1.140,675,move_up,-0.550,-0.550,-0.550,0.000,0.000,0.000
1605187951429135104,10.0.1.140,650,move_up,-0.530,-0.530,-0.530,0.000,0.000,0.000
1605187953454024960,10.0.1.140,943,move_up,-0.510,-0.510,-0.510,0.000,0.000,0.000
1605187955409820928,10.0.1.140,889,move_up,-0.490,-0.490,-0.490,0.000,0.000,0.000
1605187957404726016,10.0.1.140,828,move_up,-0.470,-0.470,-0.470,0.000,0.000,0.000
1605187958988826880,10.0.1.140,551,move_up,-0.450,-0.450,-0.450,0.000,0.000,0.000
1605187960748132864,10.0.1.140,605,move_up,-0.430,-0.430,-0.430,0.000,0.000,0.000
1605187962454382848,10.0.1.140,631,move_up,-0.410,-0.410,-0.410,0.000,0.000,0.000
1605187964612083968,10.0.1.140,746,move_up,-0.390,-0.390,-0.390,0.000,0.000,0.000
1605187966695975936,10.0.1.140,805,move_up,-0.370,-0.370,-0.370,0.000,0.000,0.000
1605187968618908928,10.0.1.140,847,move_up,-0.350,-0.350,-0.350,0.000,0.000,0.000
1605187970832724992,10.0.1.140,1078,move_up,-0.330,-0.330,-0.330,0.000,0.000,0.000
1605187972974616064,10.0.1.140,954,move_up,-0.310,-0.310,-0.310,0.000,0.000,0.000
1605187974764688128,10.0.1.140,687,move_up,-0.290,-0.290,-0.290,0.000,0.000,0.000
1605187976808656896,10.0.1.140,800,move_up,-0.270,-0.270,-0.270,0.000,0.000,0.000
1605187978608489984,10.0.1.140,684,move_up,-0.250,-0.250,-0.250,0.000,0.000,0.000
1605187980524116992,10.0.1.140,814,move_up,-0.230,-0.230,-0.230,0.000,0.000,0.000
1605187982640064000,10.0.1.140,1108,move_up,-0.210,-0.210,-0.210,0.000,0.000,0.000
1605187984404214016,10.0.1.140,600,move_up,-0.190,-0.190,-0.190,0.000,0.000,0.000
1605187985621362944,10.0.1.140,82,place,-0.180,-0.180,-0.180,0.000,0.000,0.000
1605187986606836992,10.0.1.140,66,place,-0.170,-0.170,-0.170,0.000,0.000,0.000
1605187987600096000,10.0.1.140,57,place,-0.160,-0.160,-0.160,0.000,0.000,0.000
1605187988606929920,10.0.1.140,55,place,-0.150,-0.150,-0.150,0.000,0.000,0.000
1605187990558819072,10.0.1.140,NaN,place,-0.130,-0.130,-0.130,0.000,0.000,0.000
1605187990622732032,10.0.1.140,63,place,-0.130,-0.130,-0.130,0.000,0.000,0.000
1605187991610513920,10.0.1.140,49,place,-0.120,-0.120,-0.120,0.000,0.000,0.000
1605187992628086016,10.0.1.140,64,place,-0.110,-0.110,-0.110,0.000,0.000,0.000
1605187993602929152,10.0.1.140,37,place,-0.100,-0.100,-0.100,0.000,0.000,0.000
1605187994674264064,10.0.1.140,90,place,-0.090,-0.090,-0.090,0.000,0.000,0.000
1605187995631841792,10.0.1.140,46,place,-0.080,-0.080,-0.080,0.000,0.000,0.000
1605187996720408832,10.0.1.140,134,place,-0.070,-0.070,-0.070,0.000,0.000,0.000
1605187998591227136,10.0.1.140,NaN,place,-0.050,-0.050,-0.050,0.000,0.000,0.000
1605187998646436864,10.0.1.140,55,place,-0.050,-0.050,-0.050,0.000,0.000,0.000
1605187999659857920,10.0.1.140,60,place,-0.040,-0.040,-0.040,0.000,0.000,0.000
1605188000651042816,10.0.1.140,51,place,-0.030,-0.030,-0.030,0.000,0.000,0.000
1605188001659854848,10.0.1.140,58,place,-0.020,-0.020,-0.020,0.000,0.000,0.000
1605188002669709824,10.0.1.140,62,place,-0.010,-0.010,-0.010,0.000,0.000,0.000
1605188003679738880,10.0.1.140,70,place,0.000,0.000,0.000,0.000,0.000,0.000
1605188005579493120,10.0.1.140,970,move_down,-0.020,-0.020,-0.020,0.000,0.000,0.000
1605188007511744000,10.0.1.140,798,move_down,-0.040,-0.040,-0.040,0.000,0.000,0.000
1605188009538320896,10.0.1.140,862,move_down,-0.060,-0.060,-0.060,0.000,0.000,0.000
1605188010589639936,10.0.1.140,-8,move_down,-0.080,-0.080,-0.080,0.000,0.000,0.000
1605188013462598912,10.0.1.140,1029,move_down,-0.100,-0.100,-0.100,0.000,0.000,0.000
1605188015270355968,10.0.1.140,573,move_down,-0.120,-0.120,-0.120,0.000,0.000,0.000
1605188017289820928,10.0.1.140,905,move_down,-0.140,-0.140,-0.140,0.000,0.000,0.000
1605188019630153984,10.0.1.140,1284,move_down,-0.160,-0.160,-0.160,0.000,0.000,0.000
1605188021776102144,10.0.1.140,1020,move_down,-0.180,-0.180,-0.180,0.000,0.000,0.000
1605188023696256000,10.0.1.140,883,move_down,-0.200,-0.200,-0.200,0.000,0.000,0.000
1605188025930226176,10.0.1.140,1140,move_down,-0.220,-0.220,-0.220,0.000,0.000,0.000
1605188027666129152,10.0.1.140,659,move_down,-0.240,-0.240,-0.240,0.000,0.000,0.000
1605188029830493952,10.0.1.140,1083,move_down,-0.260,-0.260,-0.260,0.000,0.000,0.000
1605188031669025024,10.0.1.140,746,move_down,-0.280,-0.280,-0.280,0.000,0.000,0.000
1605188033905669888,10.0.1.140,1101,move_down,-0.300,-0.300,-0.300,0.000,0.000,0.000
1605188036302563840,10.0.1.140,1321,move_down,-0.320,-0.320,-0.320,0.000,0.000,0.000
1605188038040307968,10.0.1.140,651,move_down,-0.340,-0.340,-0.340,0.000,0.000,0.000
1605188040037108992,10.0.1.140,665,move_down,-0.360,-0.360,-0.360,0.000,0.000,0.000
1605188042197857024,10.0.1.140,1034,move_down,-0.380,-0.380,-0.380,0.000,0.000,0.000
1605188044538612992,10.0.1.140,1238,move_down,-0.400,-0.400,-0.400,0.000,0.000,0.000
1605188046664402944,10.0.1.140,958,move_down,-0.420,-0.420,-0.420,0.000,0.000,0.000
1605188048596327936,10.0.1.140,767,move_down,-0.440,-0.440,-0.440,0.000,0.000,0.000
1605188050559368960,10.0.1.140,809,move_down,-0.460,-0.460,-0.460,0.000,0.000,0.000
1605188052451021056,10.0.1.140,772,move_down,-0.480,-0.480,-0.480,0.000,0.000,0.000
1605188054562476032,10.0.1.140,1002,move_down,-0.500,-0.500,-0.500,0.000,0.000,0.000
1605188056529923840,10.0.1.140,885,move_down,-0.520,-0.520,-0.520,0.000,0.000,0.000
1605188058637059072,10.0.1.140,913,move_down,-0.540,-0.540,-0.540,0.000,0.000,0.000
1605188061864231168,10.0.1.140,1990,move_down,-0.560,-0.560,-0.560,0.000,0.000,0.000
1605188063726171904,10.0.1.140,745,move_down,-0.580,-0.580,-0.580,0.000,0.000,0.000
1605188064934519040,10.0.1.140,100,pick,-0.590,-0.590,-0.590,0.000,0.000,0.000
1605188066845474048,10.0.1.140,NaN,pick,-0.610,-0.610,-0.610,0.000,0.000,0.000
1605188066898829056,10.0.1.140,53,pick,-0.610,-0.610,-0.610,0.000,0.000,0.000
1605188067912425984,10.0.1.140,63,pick,-0.620,-0.620,-0.620,0.000,0.000,0.000
1605188069873562112,10.0.1.140,NaN,pick,-0.640,-0.640,-0.640,0.000,0.000,0.000
1605188070002490880,10.0.1.140,128,pick,-0.640,-0.640,-0.640,0.000,0.000,0.000
1605188070934809088,10.0.1.140,59,pick,-0.650,-0.650,-0.650,0.000,0.000,0.000
1605188072879302144,10.0.1.140,NaN,pick,-0.670,-0.670,-0.670,0.000,0.000,0.000
1605188072942996992,10.0.1.140,63,pick,-0.670,-0.670,-0.670,0.000,0.000,0.000
1605188073961216000,10.0.1.140,78,pick,-0.680,-0.680,-0.680,0.000,0.000,0.000
1605188074941369088,10.0.1.140,57,pick,-0.690,-0.690,-0.690,0.000,0.000,0.000
1605188076894563072,10.0.1.140,NaN,pick,-0.710,-0.710,-0.710,0.000,0.000,0.000
1605188076987108096,10.0.1.140,92,pick,-0.710,-0.710,-0.710,0.000,0.000,0.000
1605188078903289088,10.0.1.140,NaN,pick,-0.730,-0.730,-0.730,0.000,0.000,0.000
1605188078961793792,10.0.1.140,58,pick,-0.730,-0.730,-0.730,0.000,0.000,0.000
1605188080924626176,10.0.1.140,NaN,pick,-0.750,-0.750,-0.750,0.000,0.000,0.000
1605188081929108992,10.0.1.140,NaN,pick,-0.760,-0.760,-0.760,0.000,0.000,0.000
1605188081975516160,10.0.1.140,46,pick,-0.760,-0.760,-0.760,0.000,0.000,0.000
1605188083932748032,10.0.1.140,NaN,move_up,-0.750,-0.750,-0.750,0.000,0.000,0.000
1605188084863847936,10.0.1.140,931,move_up,-0.750,-0.750,-0.750,0.000,0.000,0.000
1605188087242083072,10.0.1.140,1288,move_up,-0.730,-0.730,-0.730,0.000,0.000,0.000
1605188089149071104,10.0.1.140,849,move_up,-0.710,-0.710,-0.710,0.000,0.000,0.000
1605188091293000960,10.0.1.140,863,move_up,-0.690,-0.690,-0.690,0.000,0.000,0.000
1605188093698080000,10.0.1.140,1323,move_up,-0.670,-0.670,-0.670,0.000,0.000,0.000
1605188095843022080,10.0.1.140,804,move_up,-0.650,-0.650,-0.650,0.000,0.000,0.000
1605188097812657152,10.0.1.140,887,move_up,-0.630,-0.630,-0.630,0.000,0.000,0.000
1605188100376070912,10.0.1.140,1462,move_up,-0.610,-0.610,-0.610,0.000,0.000,0.000
1605188102566926848,10.0.1.140,1011,move_up,-0.590,-0.590,-0.590,0.000,0.000,0.000
1605188104315789824,10.0.1.140,656,move_up,-0.570,-0.570,-0.570,0.000,0.000,0.000
1605188106489643008,10.0.1.140,915,move_up,-0.550,-0.550,-0.550,0.000,0.000,0.000
1605188109070908160,10.0.1.140,1500,move_up,-0.530,-0.530,-0.530,0.000,0.000,0.000
1605188111236075008,10.0.1.140,1087,move_up,-0.510,-0.510,-0.510,0.000,0.000,0.000
1605188112986778880,10.0.1.140,623,move_up,-0.490,-0.490,-0.490,0.000,0.000,0.000
1605188115322859008,10.0.1.140,749,move_up,-0.470,-0.470,-0.470,0.000,0.000,0.000
1605188117123693056,10.0.1.140,689,move_up,-0.450,-0.450,-0.450,0.000,0.000,0.000
1605188119609064960,10.0.1.140,1371,move_up,-0.430,-0.430,-0.430,0.000,0.000,0.000
1605188122043468032,10.0.1.140,810,move_up,-0.410,-0.410,-0.410,0.000,0.000,0.000
1605188124202998016,10.0.1.140,986,move_up,-0.390,-0.390,-0.390,0.000,0.000,0.000
1605188126300115968,10.0.1.140,865,move_up,-0.370,-0.370,-0.370,0.000,0.000,0.000
1605188128391633920,10.0.1.140,1000,move_up,-0.350,-0.350,-0.350,0.000,0.000,0.000
1605188130602310912,10.0.1.140,983,move_up,-0.330,-0.330,-0.330,0.000,0.000,0.000
1605188132771176192,10.0.1.140,806,move_up,-0.310,-0.310,-0.310,0.000,0.000,0.000
1605188134724679936,10.0.1.140,690,move_up,-0.290,-0.290,-0.290,0.000,0.000,0.000
1605188136749680896,10.0.1.140,928,move_up,-0.270,-0.270,-0.270,0.000,0.000,0.000
1605188138603010048,10.0.1.140,734,move_up,-0.250,-0.250,-0.250,0.000,0.000,0.000
1605188140564132096,10.0.1.140,799,move_up,-0.230,-0.230,-0.230,0.000,0.000,0.000
1605188142131004928,10.0.1.140,580,move_up,-0.210,-0.210,-0.210,0.000,0.000,0.000
1605188143988544000,10.0.1.140,747,move_up,-0.190,-0.190,-0.190,0.000,0.000,0.000
1605188145186841088,10.0.1.140,110,place,-0.180,-0.180,-0.180,0.000,0.000,0.000
1605188147077836032,10.0.1.140,NaN,place,-0.160,-0.160,-0.160,0.000,0.000,0.000
1605188148092206848,10.0.1.140,NaN,place,-0.150,-0.150,-0.150,0.000,0.000,0.000
1605188149093499904,10.0.1.140,NaN,place,-0.140,-0.140,-0.140,0.000,0.000,0.000
1605188149152601856,10.0.1.140,59,place,-0.140,-0.140,-0.140,0.000,0.000,0.000
1605188150197371904,10.0.1.140,79,place,-0.130,-0.130,-0.130,0.000,0.000,0.000
1605188151207955968,10.0.1.140,87,place,-0.120,-0.120,-0.120,0.000,0.000,0.000
1605188153130646016,10.0.1.140,NaN,place,-0.100,-0.100,-0.100,0.000,0.000,0.000
1605188153204186880,10.0.1.140,73,place,-0.100,-0.100,-0.100,0.000,0.000,0.000
1605188155135698944,10.0.1.140,NaN,place,-0.080,-0.080,-0.080,0.000,0.000,0.000
1605188156148608000,10.0.1.140,NaN,place,-0.070,-0.070,-0.070,0.000,0.000,0.000
1605188156211803904,10.0.1.140,63,place,-0.070,-0.070,-0.070,0.000,0.000,0.000
1605188157206262016,10.0.1.140,56,place,-0.060,-0.060,-0.060,0.000,0.000,0.000
1605188159237612032,10.0.1.140,NaN,place,-0.040,-0.040,-0.040,0.000,0.000,0.000
1605188159314316032,10.0.1.140,76,place,-0.040,-0.040,-0.040,0.000,0.000,0.000
1605188161246891008,10.0.1.140,NaN,place,-0.020,-0.020,-0.020,0.000,0.000,0.000
1605188161330661888,10.0.1.140,83,place,-0.020,-0.020,-0.020,0.000,0.000,0.000
1605188162329203968,10.0.1.140,81,place,-0.010,-0.010,-0.010,0.000,0.000,0.000
1605188163320003072,10.0.1.140,66,place,0.000,0.000,0.000,0.000,0.000,0.000
1605188165428675840,10.0.1.140,1174,move_down,-0.020,-0.020,-0.020,0.000,0.000,0.000
1605188168030301184,10.0.1.140,1534,move_down,-0.040,-0.040,-0.040,0.000,0.000,0.000
1605188169708070144,10.0.1.140,608,move_down,-0.060,-0.060,-0.060,0.000,0.000,0.000
1605188171685031936,10.0.1.140,755,move_down,-0.080,-0.080,-0.080,0.000,0.000,0.000
1605188174513344000,10.0.1.140,1702,move_down,-0.100,-0.100,-0.100,0.000,0.000,0.000
1605188176428354048,10.0.1.140,846,move_down,-0.120,-0.120,-0.120,0.000,0.000,0.000
1605188178511099136,10.0.1.140,700,move_down,-0.140,-0.140,-0.140,0.000,0.000,0.000
1605188180628093952,10.0.1.140,888,move_down,-0.160,-0.160,-0.160,0.000,0.000,0.000
1605188182614295040,10.0.1.140,839,move_down,-0.180,-0.180,-0.180,0.000,0.000,0.000
1605188184643920896,10.0.1.140,920,move_down,-0.200,-0.200,-0.200,0.000,0.000,0.000
1605188186771023104,10.0.1.140,1026,move_down,-0.220,-0.220,-0.220,0.000,0.000,0.000
1605188189151653888,10.0.1.140,1226,move_down,-0.240,-0.240,-0.240,0.000,0.000,0.000
1605188191306788864,10.0.1.140,1025,move_down,-0.260,-0.260,-0.260,0.000,0.000,0.000
1605188193517815040,10.0.1.140,1198,move_down,-0.280,-0.280,-0.280,0.000,0.000,0.000
1605188195421264896,10.0.1.140,799,move_down,-0.300,-0.300,-0.300,0.000,0.000,0.000
1605188197430052096,10.0.1.140,840,move_down,-0.320,-0.320,-0.320,0.000,0.000,0.000
1605188199563755008,10.0.1.140,942,move_down,-0.340,-0.340,-0.340,0.000,0.000,0.000
1605188201350054912,10.0.1.140,691,move_down,-0.360,-0.360,-0.360,0.000,0.000,0.000
1605188203680735232,10.0.1.140,1236,move_down,-0.380,-0.380,-0.380,0.000,0.000,0.000
1605188205885519104,10.0.1.140,915,move_down,-0.400,-0.400,-0.400,0.000,0.000,0.000
1605188211149933056,10.0.1.140,609,move_down,-0.420,-0.420,-0.420,0.000,0.000,0.000
1605188213778043904,10.0.1.140,1511,move_down,-0.440,-0.440,-0.440,0.000,0.000,0.000
1605188215620013056,10.0.1.140,753,move_down,-0.460,-0.460,-0.460,0.000,0.000,0.000
1605188217622631168,10.0.1.140,773,move_down,-0.480,-0.480,-0.480,0.000,0.000,0.000
1605188219703368960,10.0.1.140,1095,move_down,-0.500,-0.500,-0.500,0.000,0.000,0.000
1605188222309756928,10.0.1.140,888,move_down,-0.520,-0.520,-0.520,0.000,0.000,0.000
1605188224529582080,10.0.1.140,766,move_down,-0.540,-0.540,-0.540,0.000,0.000,0.000
1605188226562382080,10.0.1.140,925,move_down,-0.560,-0.560,-0.560,0.000,0.000,0.000
1605188229262782208,10.0.1.140,1201,move_down,-0.580,-0.580,-0.580,0.000,0.000,0.000
1605188230721758976,10.0.1.140,56,pick,-0.590,-0.590,-0.590,0.000,0.000,0.000
1605188231718117888,10.0.1.140,47,pick,-0.600,-0.600,-0.600,0.000,0.000,0.000
1605188233674836992,10.0.1.140,NaN,pick,-0.620,-0.620,-0.620,0.000,0.000,0.000
1605188233764190976,10.0.1.140,89,pick,-0.620,-0.620,-0.620,0.000,0.000,0.000
1605188234729306880,10.0.1.140,52,pick,-0.630,-0.630,-0.630,0.000,0.000,0.000
1605188236681814784,10.0.1.140,NaN,pick,-0.650,-0.650,-0.650,0.000,0.000,0.000
1605188236763292928,10.0.1.140,81,pick,-0.650,-0.650,-0.650,0.000,0.000,0.000
1605188237767287040,10.0.1.140,84,pick,-0.660,-0.660,-0.660,0.000,0.000,0.000
1605188238753634048,10.0.1.140,66,pick,-0.670,-0.670,-0.670,0.000,0.000,0.000
1605188239737734912,10.0.1.140,50,pick,-0.680,-0.680,-0.680,0.000,0.000,0.000
1605188240749927936,10.0.1.140,60,pick,-0.690,-0.690,-0.690,0.000,0.000,0.000
1605188241733553920,10.0.1.140,42,pick,-0.700,-0.700,-0.700,0.000,0.000,0.000
1605188242756165120,10.0.1.140,62,pick,-0.710,-0.710,-0.710,0.000,0.000,0.000
1605188244699655936,10.0.1.140,NaN,pick,-0.730,-0.730,-0.730,0.000,0.000,0.000
1605188245715643904,10.0.1.140,NaN,pick,-0.740,-0.740,-0.740,0.000,0.000,0.000
1605188245808582144,10.0.1.140,92,pick,-0.740,-0.740,-0.740,0.000,0.000,0.000
1605188247811547904,10.0.1.140,NaN,pick,-0.760,-0.760,-0.760,0.000,0.000,0.000
1605188247882451968,10.0.1.140,70,pick,-0.760,-0.760,-0.760,0.000,0.000,0.000
1605188249011646976,10.0.1.140,190,pick,-0.770,-0.770,-0.770,0.000,0.000,0.000
1605188250753084928,10.0.1.140,930,move_up,-0.750,-0.750,-0.750,0.000,0.000,0.000
1605188252686404864,10.0.1.140,776,move_up,-0.730,-0.730,-0.730,0.000,0.000,0.000
1605188254616125184,10.0.1.140,786,move_up,-0.710,-0.710,-0.710,0.000,0.000,0.000
1605188257142457088,10.0.1.140,1219,move_up,-0.690,-0.690,-0.690,0.000,0.000,0.000
1605188259234672896,10.0.1.140,971,move_up,-0.670,-0.670,-0.670,0.000,0.000,0.000
1605188261662921984,10.0.1.140,1279,move_up,-0.650,-0.650,-0.650,0.000,0.000,0.000
1605188263866806016,10.0.1.140,986,move_up,-0.630,-0.630,-0.630,0.000,0.000,0.000
1605188266057776896,10.0.1.140,861,move_up,-0.610,-0.610,-0.610,0.000,0.000,0.000
1605188268245263104,10.0.1.140,1074,move_up,-0.590,-0.590,-0.590,0.000,0.000,0.000
1605188270257210112,10.0.1.140,812,move_up,-0.570,-0.570,-0.570,0.000,0.000,0.000
1605188272585412864,10.0.1.140,1227,move_up,-0.550,-0.550,-0.550,0.000,0.000,0.000
1605188274821582080,10.0.1.140,918,move_up,-0.530,-0.530,-0.530,0.000,0.000,0.000
1605188277205743104,10.0.1.140,876,move_up,-0.510,-0.510,-0.510,0.000,0.000,0.000
1605188280039974912,10.0.1.140,1518,move_up,-0.490,-0.490,-0.490,0.000,0.000,0.000
1605188281970266112,10.0.1.140,820,move_up,-0.470,-0.470,-0.470,0.000,0.000,0.000
1605188284085768960,10.0.1.140,949,move_up,-0.450,-0.450,-0.450,0.000,0.000,0.000
1605188286544279040,10.0.1.140,1285,move_up,-0.430,-0.430,-0.430,0.000,0.000,0.000
1605188289041615104,10.0.1.140,1353,move_up,-0.410,-0.410,-0.410,0.000,0.000,0.000
1605188291487636992,10.0.1.140,1312,move_up,-0.390,-0.390,-0.390,0.000,0.000,0.000
1605188293927465984,10.0.1.140,1168,move_up,-0.370,-0.370,-0.370,0.000,0.000,0.000
1605188296159322880,10.0.1.140,1084,move_up,-0.350,-0.350,-0.350,0.000,0.000,0.000
1605188298580328960,10.0.1.140,1243,move_up,-0.330,-0.330,-0.330,0.000,0.000,0.000
1605188301456017920,10.0.1.140,1524,move_up,-0.310,-0.310,-0.310,0.000,0.000,0.000
1605188303953906176,10.0.1.140,1100,move_up,-0.290,-0.290,-0.290,0.000,0.000,0.000
1605188305847636992,10.0.1.140,728,move_up,-0.270,-0.270,-0.270,0.000,0.000,0.000
1605188308459441920,10.0.1.140,1245,move_up,-0.250,-0.250,-0.250,0.000,0.000,0.000
1605188310522987008,10.0.1.140,944,move_up,-0.230,-0.230,-0.230,0.000,0.000,0.000
1605188312886816000,10.0.1.140,1238,move_up,-0.210,-0.210,-0.210,0.000,0.000,0.000
1605188315411337984,10.0.1.140,1153,move_up,-0.190,-0.190,-0.190,0.000,0.000,0.000
1605188316658972928,10.0.1.140,67,place,-0.180,-0.180,-0.180,0.000,0.000,0.000
1605188318596612096,10.0.1.140,NaN,place,-0.160,-0.160,-0.160,0.000,0.000,0.000
1605188318674284032,10.0.1.140,77,place,-0.160,-0.160,-0.160,0.000,0.000,0.000
1605188319742498048,10.0.1.140,138,place,-0.150,-0.150,-0.150,0.000,0.000,0.000
1605188320717680896,10.0.1.140,107,place,-0.140,-0.140,-0.140,0.000,0.000,0.000
1605188322614945792,10.0.1.140,NaN,place,-0.120,-0.120,-0.120,0.000,0.000,0.000
1605188323630667008,10.0.1.140,NaN,place,-0.110,-0.110,-0.110,0.000,0.000,0.000
1605188323719033088,10.0.1.140,88,place,-0.110,-0.110,-0.110,0.000,0.000,0.000
1605188324719579904,10.0.1.140,87,place,-0.100,-0.100,-0.100,0.000,0.000,0.000
1605188325698246912,10.0.1.140,58,place,-0.090,-0.090,-0.090,0.000,0.000,0.000
1605188327648251904,10.0.1.140,NaN,place,-0.070,-0.070,-0.070,0.000,0.000,0.000
1605188328663047936,10.0.1.140,NaN,place,-0.060,-0.060,-0.060,0.000,0.000,0.000
1605188328752006912,10.0.1.140,88,place,-0.060,-0.060,-0.060,0.000,0.000,0.000
1605188329723359232,10.0.1.140,59,place,-0.050,-0.050,-0.050,0.000,0.000,0.000
1605188331671744000,10.0.1.140,NaN,place,-0.030,-0.030,-0.030,0.000,0.000,0.000
1605188331734814976,10.0.1.140,62,place,-0.030,-0.030,-0.030,0.000,0.000,0.000
1605188333688060928,10.0.1.140,NaN,place,-0.010,-0.010,-0.010,0.000,0.000,0.000
1605188333755289088,10.0.1.140,67,place,-0.010,-0.010,-0.010,0.000,0.000,0.000
1605188334837545984,10.0.1.140,82,place,0.000,0.000,0.000,0.000,0.000,0.000
1605188336604248064,10.0.1.140,847,move_down,-0.020,-0.020,-0.020,0.000,0.000,0.000
1605188339043988992,10.0.1.140,1079,move_down,-0.040,-0.040,-0.040,0.000,0.000,0.000
1605188340845544960,10.0.1.140,606,move_down,-0.060,-0.060,-0.060,0.000,0.000,0.000
1605188342878166016,10.0.1.140,858,move_down,-0.080,-0.080,-0.080,0.000,0.000,0.000
1605188345261445120,10.0.1.140,898,move_down,-0.100,-0.100,-0.100,0.000,0.000,0.000
1605188347906130944,10.0.1.140,1564,move_down,-0.120,-0.120,-0.120,0.000,0.000,0.000
1605188349799539200,10.0.1.140,819,move_down,-0.140,-0.140,-0.140,0.000,0.000,0.000
1605188351872334848,10.0.1.140,945,move_down,-0.160,-0.160,-0.160,0.000,0.000,0.000
1605188353703600896,10.0.1.140,746,move_down,-0.180,-0.180,-0.180,0.000,0.000,0.000
1605188356384731904,10.0.1.140,1387,move_down,-0.200,-0.200,-0.200,0.000,0.000,0.000
1605188358130543104,10.0.1.140,664,move_down,-0.220,-0.220,-0.220,0.000,0.000,0.000
1605188360227238912,10.0.1.140,921,move_down,-0.240,-0.240,-0.240,0.000,0.000,0.000
1605188363427865856,10.0.1.140,1990,move_down,-0.260,-0.260,-0.260,0.000,0.000,0.000
1605188365816652032,10.0.1.140,1181,move_down,-0.280,-0.280,-0.280,0.000,0.000,0.000
1605188367808503040,10.0.1.140,961,move_down,-0.300,-0.300,-0.300,0.000,0.000,0.000
1605188370081320960,10.0.1.140,1098,move_down,-0.320,-0.320,-0.320,0.000,0.000,0.000
1605188372297138944,10.0.1.140,645,move_down,-0.340,-0.340,-0.340,0.000,0.000,0.000
1605188374651375104,10.0.1.140,1250,move_down,-0.360,-0.360,-0.360,0.000,0.000,0.000
1605188377039760128,10.0.1.140,1047,move_down,-0.380,-0.380,-0.380,0.000,0.000,0.000
1605188378881603072,10.0.1.140,682,move_down,-0.400,-0.400,-0.400,0.000,0.000,0.000
1605188381178569984,10.0.1.140,1216,move_down,-0.420,-0.420,-0.420,0.000,0.000,0.000
1605188383191004928,10.0.1.140,946,move_down,-0.440,-0.440,-0.440,0.000,0.000,0.000
1605188385268632832,10.0.1.140,976,move_down,-0.460,-0.460,-0.460,0.000,0.000,0.000
1605188387323158016,10.0.1.140,912,move_down,-0.480,-0.480,-0.480,0.000,0.000,0.000
1605188389960937984,10.0.1.140,1485,move_down,-0.500,-0.500,-0.500,0.000,0.000,0.000
1605188392725732096,10.0.1.140,1506,move_down,-0.520,-0.520,-0.520,0.000,0.000,0.000
1605188395605638912,10.0.1.140,1477,move_down,-0.540,-0.540,-0.540,0.000,0.000,0.000
1605188397906845184,10.0.1.140,991,move_down,-0.560,-0.560,-0.560,0.000,0.000,0.000
1605188399751725056,10.0.1.140,826,move_down,-0.580,-0.580,-0.580,0.000,0.000,0.000
1605188401884347904,10.0.1.140,NaN,pick,-0.600,-0.600,-0.600,0.000,0.000,0.000
1605188402889035008,10.0.1.140,NaN,pick,-0.610,-0.610,-0.610,0.000,0.000,0.000
1605188402926230016,10.0.1.140,37,pick,-0.610,-0.610,-0.610,0.000,0.000,0.000
1605188403934508032,10.0.1.140,34,pick,-0.620,-0.620,-0.620,0.000,0.000,0.000
1605188404969121024,10.0.1.140,56,pick,-0.630,-0.630,-0.630,0.000,0.000,0.000
1605188405996506880,10.0.1.140,82,pick,-0.640,-0.640,-0.640,0.000,0.000,0.000
1605188406964220160,10.0.1.140,48,pick,-0.650,-0.650,-0.650,0.000,0.000,0.000
1605188407993444864,10.0.1.140,73,pick,-0.660,-0.660,-0.660,0.000,0.000,0.000
1605188410003642112,10.0.1.140,NaN,pick,-0.680,-0.680,-0.680,0.000,0.000,0.000
