milangroshev/digital-twin-scalability/logs/run4-300s-nan/10.0.1.122.csv
timestamp,node,latency,action,joint_1,joint_2,joint_3,joint_4,joint_5,joint_6
1605184376459700992,10.0.1.122,NaN,,0.000,0.000,0.000,0.000,0.000,0.000
1605184378475804160,10.0.1.122,2015,,0.000,0.000,0.000,0.000,0.000,0.000
1605184380994025984,10.0.1.122,529,move_down,-0.020,-0.020,-0.020,0.000,0.000,0.000
1605184382465431808,10.0.1.122,409,move_down,-0.040,-0.040,-0.040,0.000,0.000,0.000
1605184383874708992,10.0.1.122,375,move_down,-0.060,-0.060,-0.060,0.000,0.000,0.000
1605184385284305152,10.0.1.122,361,move_down,-0.080,-0.080,-0.080,0.000,0.000,0.000
1605184386714731008,10.0.1.122,367,move_down,-0.100,-0.100,-0.100,0.000,0.000,0.000
1605184388144334080,10.0.1.122,380,move_down,-0.120,-0.120,-0.120,0.000,0.000,0.000
1605184389554803968,10.0.1.122,364,move_down,-0.140,-0.140,-0.140,0.000,0.000,0.000
1605184390966978048,10.0.1.122,368,move_down,-0.160,-0.160,-0.160,0.000,0.000,0.000
1605184392395830016,10.0.1.122,366,move_down,-0.180,-0.180,-0.180,0.000,0.000,0.000
1605184393815648000,10.0.1.122,350,move_down,-0.200,-0.200,-0.200,0.000,0.000,0.000
1605184395224685056,10.0.1.122,351,move_down,-0.220,-0.220,-0.220,0.000,0.000,0.000
1605184396654712064,10.0.1.122,368,move_down,-0.240,-0.240,-0.240,0.000,0.000,0.000
1605184398084187904,10.0.1.122,381,move_down,-0.260,-0.260,-0.260,0.000,0.000,0.000
1605184399518605056,10.0.1.122,376,move_down,-0.280,-0.280,-0.280,0.000,0.000,0.000
1605184400945122048,10.0.1.122,377,move_down,-0.300,-0.300,-0.300,0.000,0.000,0.000
1605184402337174784,10.0.1.122,353,move_down,-0.320,-0.320,-0.320,0.000,0.000,0.000
1605184403804318976,10.0.1.122,400,move_down,-0.340,-0.340,-0.340,0.000,0.000,0.000
1605184405233907968,10.0.1.122,389,move_down,-0.360,-0.360,-0.360,0.000,0.000,0.000
1605184406663981056,10.0.1.122,379,move_down,-0.380,-0.380,-0.380,0.000,0.000,0.000
1605184408094676992,10.0.1.122,369,move_down,-0.400,-0.400,-0.400,0.000,0.000,0.000
1605184409504856064,10.0.1.122,365,move_down,-0.420,-0.420,-0.420,0.000,0.000,0.000
1605184410933910016,10.0.1.122,362,move_down,-0.440,-0.440,-0.440,0.000,0.000,0.000
1605184412385565952,10.0.1.122,374,move_down,-0.460,-0.460,-0.460,0.000,0.000,0.000
1605184413795116800,10.0.1.122,366,move_down,-0.480,-0.480,-0.480,0.000,0.000,0.000
1605184415204414976,10.0.1.122,364,move_down,-0.500,-0.500,-0.500,0.000,0.000,0.000
1605184416615435008,10.0.1.122,367,move_down,-0.520,-0.520,-0.520,0.000,0.000,0.000
1605184418054889984,10.0.1.122,397,move_down,-0.540,-0.540,-0.540,0.000,0.000,0.000
1605184419484679936,10.0.1.122,403,move_down,-0.560,-0.560,-0.560,0.000,0.000,0.000
1605184420875931136,10.0.1.122,354,move_down,-0.580,-0.580,-0.580,0.000,0.000,0.000
1605184421975347968,10.0.1.122,37,pick,-0.590,-0.590,-0.590,0.000,0.000,0.000
1605184422974534912,10.0.1.122,34,pick,-0.600,-0.600,-0.600,0.000,0.000,0.000
1605184423975356928,10.0.1.122,34,pick,-0.610,-0.610,-0.610,0.000,0.000,0.000
1605184424974100224,10.0.1.122,32,pick,-0.620,-0.620,-0.620,0.000,0.000,0.000
1605184425974350848,10.0.1.122,31,pick,-0.630,-0.630,-0.630,0.000,0.000,0.000
1605184426995403008,10.0.1.122,50,pick,-0.640,-0.640,-0.640,0.000,0.000,0.000
1605184427994112000,10.0.1.122,48,pick,-0.650,-0.650,-0.650,0.000,0.000,0.000
1605184428994859008,10.0.1.122,47,pick,-0.660,-0.660,-0.660,0.000,0.000,0.000
1605184429994784000,10.0.1.122,46,pick,-0.670,-0.670,-0.670,0.000,0.000,0.000
1605184430994089984,10.0.1.122,44,pick,-0.680,-0.680,-0.680,0.000,0.000,0.000
1605184431994287872,10.0.1.122,43,pick,-0.690,-0.690,-0.690,0.000,0.000,0.000
1605184432995300096,10.0.1.122,43,pick,-0.700,-0.700,-0.700,0.000,0.000,0.000
1605184433994875904,10.0.1.122,41,pick,-0.710,-0.710,-0.710,0.000,0.000,0.000
1605184434994488064,10.0.1.122,39,pick,-0.720,-0.720,-0.720,0.000,0.000,0.000
1605184435997371904,10.0.1.122,41,pick,-0.730,-0.730,-0.730,0.000,0.000,0.000
1605184436995342080,10.0.1.122,38,pick,-0.740,-0.740,-0.740,0.000,0.000,0.000
1605184437994894080,10.0.1.122,36,pick,-0.750,-0.750,-0.750,0.000,0.000,0.000
1605184438994589952,10.0.1.122,35,pick,-0.760,-0.760,-0.760,0.000,0.000,0.000
1605184439994337024,10.0.1.122,33,pick,-0.770,-0.770,-0.770,0.000,0.000,0.000
1605184441344186112,10.0.1.122,382,move_up,-0.750,-0.750,-0.750,0.000,0.000,0.000
1605184442785315072,10.0.1.122,383,move_up,-0.730,-0.730,-0.730,0.000,0.000,0.000
1605184444184506880,10.0.1.122,354,move_up,-0.710,-0.710,-0.710,0.000,0.000,0.000
1605184445615139072,10.0.1.122,369,move_up,-0.690,-0.690,-0.690,0.000,0.000,0.000
1605184447044823040,10.0.1.122,381,move_up,-0.670,-0.670,-0.670,0.000,0.000,0.000
1605184448454245120,10.0.1.122,364,move_up,-0.650,-0.650,-0.650,0.000,0.000,0.000
1605184449877142016,10.0.1.122,378,move_up,-0.630,-0.630,-0.630,0.000,0.000,0.000
1605184451286494976,10.0.1.122,362,move_up,-0.610,-0.610,-0.610,0.000,0.000,0.000
1605184452674770944,10.0.1.122,378,move_up,-0.590,-0.590,-0.590,0.000,0.000,0.000
1605184454084173056,10.0.1.122,363,move_up,-0.570,-0.570,-0.570,0.000,0.000,0.000
1605184455534706176,10.0.1.122,405,move_up,-0.550,-0.550,-0.550,0.000,0.000,0.000
1605184456954567936,10.0.1.122,384,move_up,-0.530,-0.530,-0.530,0.000,0.000,0.000
1605184458365342976,10.0.1.122,369,move_up,-0.510,-0.510,-0.510,0.000,0.000,0.000
1605184459795796992,10.0.1.122,384,move_up,-0.490,-0.490,-0.490,0.000,0.000,0.000
1605184461205470208,10.0.1.122,351,move_up,-0.470,-0.470,-0.470,0.000,0.000,0.000
1605184462644418048,10.0.1.122,376,move_up,-0.450,-0.450,-0.450,0.000,0.000,0.000
1605184464074450944,10.0.1.122,381,move_up,-0.430,-0.430,-0.430,0.000,0.000,0.000
1605184465504511232,10.0.1.122,383,move_up,-0.410,-0.410,-0.410,0.000,0.000,0.000
1605184466935070976,10.0.1.122,380,move_up,-0.390,-0.390,-0.390,0.000,0.000,0.000
1605184468344449024,10.0.1.122,365,move_up,-0.370,-0.370,-0.370,0.000,0.000,0.000
1605184469775268096,10.0.1.122,386,move_up,-0.350,-0.350,-0.350,0.000,0.000,0.000
1605184471164852992,10.0.1.122,368,move_up,-0.330,-0.330,-0.330,0.000,0.000,0.000
1605184472584855040,10.0.1.122,378,move_up,-0.310,-0.310,-0.310,0.000,0.000,0.000
1605184474015228160,10.0.1.122,368,move_up,-0.290,-0.290,-0.290,0.000,0.000,0.000
1605184475445157888,10.0.1.122,386,move_up,-0.270,-0.270,-0.270,0.000,0.000,0.000
1605184476815293952,10.0.1.122,346,move_up,-0.250,-0.250,-0.250,0.000,0.000,0.000
1605184478227747840,10.0.1.122,347,move_up,-0.230,-0.230,-0.230,0.000,0.000,0.000
1605184479654812928,10.0.1.122,366,move_up,-0.210,-0.210,-0.210,0.000,0.000,0.000
1605184481086021888,10.0.1.122,386,move_up,-0.190,-0.190,-0.190,0.000,0.000,0.000
1605184482184964864,10.0.1.122,43,place,-0.180,-0.180,-0.180,0.000,0.000,0.000
1605184483184393984,10.0.1.122,41,place,-0.170,-0.170,-0.170,0.000,0.000,0.000
1605184484184945152,10.0.1.122,40,place,-0.160,-0.160,-0.160,0.000,0.000,0.000
1605184485184704000,10.0.1.122,39,place,-0.150,-0.150,-0.150,0.000,0.000,0.000
1605184486185928960,10.0.1.122,39,place,-0.140,-0.140,-0.140,0.000,0.000,0.000
1605184487184979968,10.0.1.122,36,place,-0.130,-0.130,-0.130,0.000,0.000,0.000
1605184488185117952,10.0.1.122,35,place,-0.120,-0.120,-0.120,0.000,0.000,0.000
1605184489184592896,10.0.1.122,33,place,-0.110,-0.110,-0.110,0.000,0.000,0.000
1605184490190893056,10.0.1.122,38,place,-0.100,-0.100,-0.100,0.000,0.000,0.000
1605184491184772864,10.0.1.122,31,place,-0.090,-0.090,-0.090,0.000,0.000,0.000
1605184492204175104,10.0.1.122,49,place,-0.080,-0.080,-0.080,0.000,0.000,0.000
1605184493204539904,10.0.1.122,48,place,-0.070,-0.070,-0.070,0.000,0.000,0.000
1605184494204827904,10.0.1.122,47,place,-0.060,-0.060,-0.060,0.000,0.000,0.000
1605184495204969984,10.0.1.122,46,place,-0.050,-0.050,-0.050,0.000,0.000,0.000
1605184496205926912,10.0.1.122,46,place,-0.040,-0.040,-0.040,0.000,0.000,0.000
1605184497204878080,10.0.1.122,43,place,-0.030,-0.030,-0.030,0.000,0.000,0.000
1605184498204770048,10.0.1.122,42,place,-0.020,-0.020,-0.020,0.000,0.000,0.000
1605184499204304896,10.0.1.122,40,place,-0.010,-0.010,-0.010,0.000,0.000,0.000
1605184500204648960,10.0.1.122,39,place,0.000,0.000,0.000,0.000,0.000,0.000
1605184501554838784,10.0.1.122,388,move_down,-0.020,-0.020,-0.020,0.000,0.000,0.000
1605184502954812928,10.0.1.122,355,move_down,-0.040,-0.040,-0.040,0.000,0.000,0.000
1605184504365048832,10.0.1.122,347,move_down,-0.060,-0.060,-0.060,0.000,0.000,0.000
1605184505794307840,10.0.1.122,365,move_down,-0.080,-0.080,-0.080,0.000,0.000,0.000
1605184507204864000,10.0.1.122,366,move_down,-0.100,-0.100,-0.100,0.000,0.000,0.000
1605184508634528000,10.0.1.122,383,move_down,-0.120,-0.120,-0.120,0.000,0.000,0.000
1605184510064647936,10.0.1.122,383,move_down,-0.140,-0.140,-0.140,0.000,0.000,0.000
1605184511514547968,10.0.1.122,393,move_down,-0.160,-0.160,-0.160,0.000,0.000,0.000
1605184512924870912,10.0.1.122,378,move_down,-0.180,-0.180,-0.180,0.000,0.000,0.000
1605184514324908032,10.0.1.122,354,move_down,-0.200,-0.200,-0.200,0.000,0.000,0.000
1605184515745454080,10.0.1.122,366,move_down,-0.220,-0.220,-0.220,0.000,0.000,0.000
1605184517194349056,10.0.1.122,404,move_down,-0.240,-0.240,-0.240,0.000,0.000,0.000
1605184518604432128,10.0.1.122,373,move_down,-0.260,-0.260,-0.260,0.000,0.000,0.000
1605184520034827008,10.0.1.122,384,move_down,-0.280,-0.280,-0.280,0.000,0.000,0.000
1605184521454838016,10.0.1.122,378,move_down,-0.300,-0.300,-0.300,0.000,0.000,0.000
1605184522865246976,10.0.1.122,380,move_down,-0.320,-0.320,-0.320,0.000,0.000,0.000
1605184524304997888,10.0.1.122,394,move_down,-0.340,-0.340,-0.340,0.000,0.000,0.000
1605184525714979840,10.0.1.122,377,move_down,-0.360,-0.360,-0.360,0.000,0.000,0.000
1605184527144228096,10.0.1.122,375,move_down,-0.380,-0.380,-0.380,0.000,0.000,0.000
1605184528555017984,10.0.1.122,368,move_down,-0.400,-0.400,-0.400,0.000,0.000,0.000
1605184529954123008,10.0.1.122,357,move_down,-0.420,-0.420,-0.420,0.000,0.000,0.000
1605184531375617024,10.0.1.122,406,move_down,-0.440,-0.440,-0.440,0.000,0.000,0.000
1605184532785052160,10.0.1.122,375,move_down,-0.460,-0.460,-0.460,0.000,0.000,0.000
1605184534214398976,10.0.1.122,384,move_down,-0.480,-0.480,-0.480,0.000,0.000,0.000
1605184535624993024,10.0.1.122,352,move_down,-0.500,-0.500,-0.500,0.000,0.000,0.000
1605184537095522048,10.0.1.122,381,move_down,-0.520,-0.520,-0.520,0.000,0.000,0.000
1605184538504440064,10.0.1.122,365,move_down,-0.540,-0.540,-0.540,0.000,0.000,0.000
1605184539936491008,10.0.1.122,388,move_down,-0.560,-0.560,-0.560,0.000,0.000,0.000
1605184541324232960,10.0.1.122,352,move_down,-0.580,-0.580,-0.580,0.000,0.000,0.000
1605184542424563968,10.0.1.122,38,pick,-0.590,-0.590,-0.590,0.000,0.000,0.000
1605184543424776192,10.0.1.122,36,pick,-0.600,-0.600,-0.600,0.000,0.000,0.000
1605184544424345088,10.0.1.122,35,pick,-0.610,-0.610,-0.610,0.000,0.000,0.000
1605184545424798976,10.0.1.122,34,pick,-0.620,-0.620,-0.620,0.000,0.000,0.000
1605184546424916992,10.0.1.122,33,pick,-0.630,-0.630,-0.630,0.000,0.000,0.000
1605184547425518080,10.0.1.122,32,pick,-0.640,-0.640,-0.640,0.000,0.000,0.000
1605184548444689152,10.0.1.122,50,pick,-0.650,-0.650,-0.650,0.000,0.000,0.000
1605184549447846912,10.0.1.122,52,pick,-0.660,-0.660,-0.660,0.000,0.000,0.000
1605184550444787968,10.0.1.122,47,pick,-0.670,-0.670,-0.670,0.000,0.000,0.000
1605184551444855808,10.0.1.122,46,pick,-0.680,-0.680,-0.680,0.000,0.000,0.000
1605184552445027072,10.0.1.122,45,pick,-0.690,-0.690,-0.690,0.000,0.000,0.000
1605184553444220160,10.0.1.122,43,pick,-0.700,-0.700,-0.700,0.000,0.000,0.000
1605184554446104064,10.0.1.122,43,pick,-0.710,-0.710,-0.710,0.000,0.000,0.000
1605184555444883200,10.0.1.122,41,pick,-0.720,-0.720,-0.720,0.000,0.000,0.000
1605184556444873216,10.0.1.122,39,pick,-0.730,-0.730,-0.730,0.000,0.000,0.000
1605184557444601088,10.0.1.122,38,pick,-0.740,-0.740,-0.740,0.000,0.000,0.000
1605184558444499968,10.0.1.122,37,pick,-0.750,-0.750,-0.750,0.000,0.000,0.000
1605184559444869120,10.0.1.122,36,pick,-0.760,-0.760,-0.760,0.000,0.000,0.000
1605184560445822976,10.0.1.122,35,pick,-0.770,-0.770,-0.770,0.000,0.000,0.000
1605184561796742912,10.0.1.122,385,move_up,-0.750,-0.750,-0.750,0.000,0.000,0.000
1605184563204752896,10.0.1.122,377,move_up,-0.730,-0.730,-0.730,0.000,0.000,0.000
1605184564645481216,10.0.1.122,394,move_up,-0.710,-0.710,-0.710,0.000,0.000,0.000
1605184566074096896,10.0.1.122,376,move_up,-0.690,-0.690,-0.690,0.000,0.000,0.000
1605184567505007872,10.0.1.122,383,move_up,-0.670,-0.670,-0.670,0.000,0.000,0.000
1605184568914562816,10.0.1.122,366,move_up,-0.650,-0.650,-0.650,0.000,0.000,0.000
1605184570354546944,10.0.1.122,395,move_up,-0.630,-0.630,-0.630,0.000,0.000,0.000
1605184571787249152,10.0.1.122,388,move_up,-0.610,-0.610,-0.610,0.000,0.000,0.000
1605184573214274048,10.0.1.122,371,move_up,-0.590,-0.590,-0.590,0.000,0.000,0.000
1605184574633331968,10.0.1.122,379,move_up,-0.570,-0.570,-0.570,0.000,0.000,0.000
1605184576034512128,10.0.1.122,362,move_up,-0.550,-0.550,-0.550,0.000,0.000,0.000
1605184577484844032,10.0.1.122,371,move_up,-0.530,-0.530,-0.530,0.000,0.000,0.000
1605184578934497024,10.0.1.122,403,move_up,-0.510,-0.510,-0.510,0.000,0.000,0.000
1605184580344930048,10.0.1.122,374,move_up,-0.490,-0.490,-0.490,0.000,0.000,0.000
1605184581744411904,10.0.1.122,355,move_up,-0.470,-0.470,-0.470,0.000,0.000,0.000
1605184583174818048,10.0.1.122,369,move_up,-0.450,-0.450,-0.450,0.000,0.000,0.000
1605184584594970880,10.0.1.122,372,move_up,-0.430,-0.430,-0.430,0.000,0.000,0.000
1605184586025104896,10.0.1.122,377,move_up,-0.410,-0.410,-0.410,0.000,0.000,0.000
1605184587434909184,10.0.1.122,366,move_up,-0.390,-0.390,-0.390,0.000,0.000,0.000
1605184588865207808,10.0.1.122,384,move_up,-0.370,-0.370,-0.370,0.000,0.000,0.000
1605184590274914048,10.0.1.122,366,move_up,-0.350,-0.350,-0.350,0.000,0.000,0.000
1605184591686824192,10.0.1.122,368,move_up,-0.330,-0.330,-0.330,0.000,0.000,0.000
1605184593114455040,10.0.1.122,386,move_up,-0.310,-0.310,-0.310,0.000,0.000,0.000
1605184594524708096,10.0.1.122,380,move_up,-0.290,-0.290,-0.290,0.000,0.000,0.000
1605184595934946048,10.0.1.122,355,move_up,-0.270,-0.270,-0.270,0.000,0.000,0.000
1605184597383901952,10.0.1.122,380,move_up,-0.250,-0.250,-0.250,0.000,0.000,0.000
1605184598814352896,10.0.1.122,383,move_up,-0.230,-0.230,-0.230,0.000,0.000,0.000
1605184600244937984,10.0.1.122,370,move_up,-0.210,-0.210,-0.210,0.000,0.000,0.000
1605184601665079040,10.0.1.122,374,move_up,-0.190,-0.190,-0.190,0.000,0.000,0.000
1605184602764614144,10.0.1.122,34,place,-0.180,-0.180,-0.180,0.000,0.000,0.000
1605184603764985088,10.0.1.122,33,place,-0.170,-0.170,-0.170,0.000,0.000,0.000
1605184604764326144,10.0.1.122,31,place,-0.160,-0.160,-0.160,0.000,0.000,0.000
1605184605784758016,10.0.1.122,50,place,-0.150,-0.150,-0.150,0.000,0.000,0.000
1605184606784594176,10.0.1.122,49,place,-0.140,-0.140,-0.140,0.000,0.000,0.000
1605184607783802112,10.0.1.122,47,place,-0.130,-0.130,-0.130,0.000,0.000,0.000
1605184608785126912,10.0.1.122,46,place,-0.120,-0.120,-0.120,0.000,0.000,0.000
1605184609784038144,10.0.1.122,43,place,-0.110,-0.110,-0.110,0.000,0.000,0.000
1605184610784087040,10.0.1.122,42,place,-0.100,-0.100,-0.100,0.000,0.000,0.000
1605184611784465920,10.0.1.122,41,place,-0.090,-0.090,-0.090,0.000,0.000,0.000
1605184612784867072,10.0.1.122,40,place,-0.080,-0.080,-0.080,0.000,0.000,0.000
1605184613783934208,10.0.1.122,38,place,-0.070,-0.070,-0.070,0.000,0.000,0.000
1605184614784489984,10.0.1.122,37,place,-0.060,-0.060,-0.060,0.000,0.000,0.000
1605184615784276992,10.0.1.122,36,place,-0.050,-0.050,-0.050,0.000,0.000,0.000
1605184616784122880,10.0.1.122,34,place,-0.040,-0.040,-0.040,0.000,0.000,0.000
1605184617783910144,10.0.1.122,33,place,-0.030,-0.030,-0.030,0.000,0.000,0.000
1605184618784528128,10.0.1.122,32,place,-0.020,-0.020,-0.020,0.000,0.000,0.000
1605184619785232896,10.0.1.122,31,place,-0.010,-0.010,-0.010,0.000,0.000,0.000
1605184620804514816,10.0.1.122,49,place,0.000,0.000,0.000,0.000,0.000,0.000
1605184622134754048,10.0.1.122,379,move_down,-0.020,-0.020,-0.020,0.000,0.000,0.000
1605184623565114880,10.0.1.122,385,move_down,-0.040,-0.040,-0.040,0.000,0.000,0.000
1605184624993933824,10.0.1.122,375,move_down,-0.060,-0.060,-0.060,0.000,0.000,0.000
1605184626404912896,10.0.1.122,365,move_down,-0.080,-0.080,-0.080,0.000,0.000,0.000
1605184627833970176,10.0.1.122,366,move_down,-0.100,-0.100,-0.100,0.000,0.000,0.000
1605184629254466048,10.0.1.122,376,move_down,-0.120,-0.120,-0.120,0.000,0.000,0.000
1605184630685112832,10.0.1.122,383,move_down,-0.140,-0.140,-0.140,0.000,0.000,0.000
1605184632114445824,10.0.1.122,372,move_down,-0.160,-0.160,-0.160,0.000,0.000,0.000
1605184633524943104,10.0.1.122,366,move_down,-0.180,-0.180,-0.180,0.000,0.000,0.000
1605184634935767040,10.0.1.122,367,move_down,-0.200,-0.200,-0.200,0.000,0.000,0.000
1605184636344461824,10.0.1.122,344,move_down,-0.220,-0.220,-0.220,0.000,0.000,0.000
1605184637776738816,10.0.1.122,367,move_down,-0.240,-0.240,-0.240,0.000,0.000,0.000
1605184639224065024,10.0.1.122,404,move_down,-0.260,-0.260,-0.260,0.000,0.000,0.000
1605184640634300928,10.0.1.122,372,move_down,-0.280,-0.280,-0.280,0.000,0.000,0.000
1605184642044480000,10.0.1.122,370,move_down,-0.300,-0.300,-0.300,0.000,0.000,0.000
1605184643454119936,10.0.1.122,365,move_down,-0.320,-0.320,-0.320,0.000,0.000,0.000
1605184644887121920,10.0.1.122,382,move_down,-0.340,-0.340,-0.340,0.000,0.000,0.000
1605184646295531008,10.0.1.122,350,move_down,-0.360,-0.360,-0.360,0.000,0.000,0.000
1605184647745639168,10.0.1.122,386,move_down,-0.380,-0.380,-0.380,0.000,0.000,0.000
1605184649134470912,10.0.1.122,366,move_down,-0.400,-0.400,-0.400,0.000,0.000,0.000
1605184650564434176,10.0.1.122,353,move_down,-0.420,-0.420,-0.420,0.000,0.000,0.000
1605184651994180864,10.0.1.122,371,move_down,-0.440,-0.440,-0.440,0.000,0.000,0.000
1605184653449216000,10.0.1.122,409,move_down,-0.460,-0.460,-0.460,0.000,0.000,0.000
1605184654853940992,10.0.1.122,369,move_down,-0.480,-0.480,-0.480,0.000,0.000,0.000
1605184656294715904,10.0.1.122,391,move_down,-0.500,-0.500,-0.500,0.000,0.000,0.000
1605184657724535040,10.0.1.122,380,move_down,-0.520,-0.520,-0.520,0.000,0.000,0.000
1605184659154499072,10.0.1.122,371,move_down,-0.540,-0.540,-0.540,0.000,0.000,0.000
1605184660543836160,10.0.1.122,347,move_down,-0.560,-0.560,-0.560,0.000,0.000,0.000
1605184661993808128,10.0.1.122,381,move_down,-0.580,-0.580,-0.580,0.000,0.000,0.000
1605184663074571008,10.0.1.122,32,pick,-0.590,-0.590,-0.590,0.000,0.000,0.000
1605184664074843904,10.0.1.122,31,pick,-0.600,-0.600,-0.600,0.000,0.000,0.000
1605184665095606016,10.0.1.122,50,pick,-0.610,-0.610,-0.610,0.000,0.000,0.000
1605184666094376192,10.0.1.122,48,pick,-0.620,-0.620,-0.620,0.000,0.000,0.000
1605184667094543872,10.0.1.122,47,pick,-0.630,-0.630,-0.630,0.000,0.000,0.000
1605184668094525184,10.0.1.122,46,pick,-0.640,-0.640,-0.640,0.000,0.000,0.000
1605184669094409984,10.0.1.122,44,pick,-0.650,-0.650,-0.650,0.000,0.000,0.000
1605184670094753024,10.0.1.122,43,pick,-0.660,-0.660,-0.660,0.000,0.000,0.000
1605184671095591168,10.0.1.122,43,pick,-0.670,-0.670,-0.670,0.000,0.000,0.000
1605184672094900992,10.0.1.122,38,pick,-0.680,-0.680,-0.680,0.000,0.000,0.000
1605184673096188928,10.0.1.122,38,pick,-0.690,-0.690,-0.690,0.000,0.000,0.000
1605184674099523072,10.0.1.122,40,pick,-0.700,-0.700,-0.700,0.000,0.000,0.000
1605184675099576064,10.0.1.122,39,pick,-0.710,-0.710,-0.710,0.000,0.000,0.000
1605184676097507840,10.0.1.122,35,pick,-0.720,-0.720,-0.720,0.000,0.000,0.000
1605184677115529984,10.0.1.122,47,pick,-0.730,-0.730,-0.730,0.000,0.000,0.000
1605184678115454976,10.0.1.122,45,pick,-0.740,-0.740,-0.740,0.000,0.000,0.000
1605184679115753984,10.0.1.122,44,pick,-0.750,-0.750,-0.750,0.000,0.000,0.000
1605184680116868864,10.0.1.122,44,pick,-0.760,-0.760,-0.760,0.000,0.000,0.000
1605184681114443008,10.0.1.122,40,pick,-0.770,-0.770,-0.770,0.000,0.000,0.000
1605184682435260928,10.0.1.122,360,move_up,-0.750,-0.750,-0.750,0.000,0.000,0.000
1605184683864687872,10.0.1.122,365,move_up,-0.730,-0.730,-0.730,0.000,0.000,0.000
1605184685265182976,10.0.1.122,393,move_up,-0.710,-0.710,-0.710,0.000,0.000,0.000
1605184686715680000,10.0.1.122,368,move_up,-0.690,-0.690,-0.690,0.000,0.000,0.000
1605184688134476032,10.0.1.122,376,move_up,-0.670,-0.670,-0.670,0.000,0.000,0.000
1605184689564129024,10.0.1.122,380,move_up,-0.650,-0.650,-0.650,0.000,0.000,0.000
1605184690974808832,10.0.1.122,367,move_up,-0.630,-0.630,-0.630,0.000,0.000,0.000
1605184692384204032,10.0.1.122,361,move_up,-0.610,-0.610,-0.610,0.000,0.000,0.000
1605184693824350976,10.0.1.122,374,move_up,-0.590,-0.590,-0.590,0.000,0.000,0.000
1605184695254075136,10.0.1.122,380,move_up,-0.570,-0.570,-0.570,0.000,0.000,0.000
1605184696655004928,10.0.1.122,355,move_up,-0.550,-0.550,-0.550,0.000,0.000,0.000
1605184698095324160,10.0.1.122,368,move_up,-0.530,-0.530,-0.530,0.000,0.000,0.000
1605184699557132032,10.0.1.122,404,move_up,-0.510,-0.510,-0.510,0.000,0.000,0.000
1605184701054579968,10.0.1.122,423,move_up,-0.490,-0.490,-0.490,0.000,0.000,0.000
1605184702464963072,10.0.1.122,378,move_up,-0.470,-0.470,-0.470,0.000,0.000,0.000
1605184703894359040,10.0.1.122,376,move_up,-0.450,-0.450,-0.450,0.000,0.000,0.000
1605184705275245824,10.0.1.122,383,move_up,-0.430,-0.430,-0.430,0.000,0.000,0.000
1605184706694942976,10.0.1.122,377,move_up,-0.410,-0.410,-0.410,0.000,0.000,0.000
1605184708125080064,10.0.1.122,383,move_up,-0.390,-0.390,-0.390,0.000,0.000,0.000
1605184709555229952,10.0.1.122,374,move_up,-0.370,-0.370,-0.370,0.000,0.000,0.000
1605184710984631040,10.0.1.122,387,move_up,-0.350,-0.350,-0.350,0.000,0.000,0.000
1605184712434722048,10.0.1.122,388,move_up,-0.330,-0.330,-0.330,0.000,0.000,0.000
1605184713864312832,10.0.1.122,370,move_up,-0.310,-0.310,-0.310,0.000,0.000,0.000
1605184715294776064,10.0.1.122,384,move_up,-0.290,-0.290,-0.290,0.000,0.000,0.000
1605184716714749952,10.0.1.122,377,move_up,-0.270,-0.270,-0.270,0.000,0.000,0.000
1605184718164637184,10.0.1.122,397,move_up,-0.250,-0.250,-0.250,0.000,0.000,0.000
1605184719597945856,10.0.1.122,386,move_up,-0.230,-0.230,-0.230,0.000,0.000,0.000
1605184721065116928,10.0.1.122,405,move_up,-0.210,-0.210,-0.210,0.000,0.000,0.000
1605184722575116032,10.0.1.122,394,move_up,-0.190,-0.190,-0.190,0.000,0.000,0.000
1605184723675142912,10.0.1.122,45,place,-0.180,-0.180,-0.180,0.000,0.000,0.000
1605184724676194816,10.0.1.122,44,place,-0.170,-0.170,-0.170,0.000,0.000,0.000
1605184725675218944,10.0.1.122,36,place,-0.160,-0.160,-0.160,0.000,0.000,0.000
1605184727642912000,10.0.1.122,NaN,place,-0.140,-0.140,-0.140,0.000,0.000,0.000
1605184727675631872,10.0.1.122,32,place,-0.140,-0.140,-0.140,0.000,0.000,0.000
1605184729645517056,10.0.1.122,NaN,place,-0.120,-0.120,-0.120,0.000,0.000,0.000
1605184729695135232,10.0.1.122,49,place,-0.120,-0.120,-0.120,0.000,0.000,0.000
1605184730695139840,10.0.1.122,48,place,-0.110,-0.110,-0.110,0.000,0.000,0.000
1605184731694957056,10.0.1.122,46,place,-0.100,-0.100,-0.100,0.000,0.000,0.000
1605184732695878912,10.0.1.122,46,place,-0.090,-0.090,-0.090,0.000,0.000,0.000
1605184733696284160,10.0.1.122,45,place,-0.080,-0.080,-0.080,0.000,0.000,0.000
1605184734695142912,10.0.1.122,43,place,-0.070,-0.070,-0.070,0.000,0.000,0.000
1605184736654781184,10.0.1.122,NaN,place,-0.050,-0.050,-0.050,0.000,0.000,0.000
1605184736694956032,10.0.1.122,40,place,-0.050,-0.050,-0.050,0.000,0.000,0.000
1605184737694798848,10.0.1.122,38,place,-0.040,-0.040,-0.040,0.000,0.000,0.000
1605184738694653952,10.0.1.122,37,place,-0.030,-0.030,-0.030,0.000,0.000,0.000
1605184739694454016,10.0.1.122,35,place,-0.020,-0.020,-0.020,0.000,0.000,0.000
1605184740695687168,10.0.1.122,36,place,-0.010,-0.010,-0.010,0.000,0.000,0.000
1605184741698533888,10.0.1.122,37,place,0.000,0.000,0.000,0.000,0.000,0.000
1605184743085701888,10.0.1.122,423,move_down,-0.020,-0.020,-0.020,0.000,0.000,0.000
1605184744535557120,10.0.1.122,389,move_down,-0.040,-0.040,-0.040,0.000,0.000,0.000
1605184745996856064,10.0.1.122,401,move_down,-0.060,-0.060,-0.060,0.000,0.000,0.000
1605184747425196800,10.0.1.122,377,move_down,-0.080,-0.080,-0.080,0.000,0.000,0.000
1605184748855084800,10.0.1.122,373,move_down,-0.100,-0.100,-0.100,0.000,0.000,0.000
1605184750316101120,10.0.1.122,392,move_down,-0.120,-0.120,-0.120,0.000,0.000,0.000
1605184751726067968,10.0.1.122,360,move_down,-0.140,-0.140,-0.140,0.000,0.000,0.000
1605184753135427840,10.0.1.122,360,move_down,-0.160,-0.160,-0.160,0.000,0.000,0.000
1605184754605315072,10.0.1.122,398,move_down,-0.180,-0.180,-0.180,0.000,0.000,0.000
1605184756085398016,10.0.1.122,399,move_down,-0.200,-0.200,-0.200,0.000,0.000,0.000
1605184757534568192,10.0.1.122,404,move_down,-0.220,-0.220,-0.220,0.000,0.000,0.000
1605184758946168832,10.0.1.122,383,move_down,-0.240,-0.240,-0.240,0.000,0.000,0.000
1605184760375080192,10.0.1.122,380,move_down,-0.260,-0.260,-0.260,0.000,0.000,0.000
1605184761795162880,10.0.1.122,370,move_down,-0.280,-0.280,-0.280,0.000,0.000,0.000
1605184763245028864,10.0.1.122,393,move_down,-0.300,-0.300,-0.300,0.000,0.000,0.000
1605184764694598912,10.0.1.122,391,move_down,-0.320,-0.320,-0.320,0.000,0.000,0.000
1605184766124720128,10.0.1.122,375,move_down,-0.340,-0.340,-0.340,0.000,0.000,0.000
1605184767555600896,10.0.1.122,388,move_down,-0.360,-0.360,-0.360,0.000,0.000,0.000
1605184768944796160,10.0.1.122,365,move_down,-0.380,-0.380,-0.380,0.000,0.000,0.000
1605184770374856960,10.0.1.122,381,move_down,-0.400,-0.400,-0.400,0.000,0.000,0.000
1605184771835490816,10.0.1.122,401,move_down,-0.420,-0.420,-0.420,0.000,0.000,0.000
1605184773274831104,10.0.1.122,391,move_down,-0.440,-0.440,-0.440,0.000,0.000,0.000
1605184774714297088,10.0.1.122,381,move_down,-0.460,-0.460,-0.460,0.000,0.000,0.000
1605184776134723840,10.0.1.122,374,move_down,-0.480,-0.480,-0.480,0.000,0.000,0.000
1605184777564632064,10.0.1.122,386,move_down,-0.500,-0.500,-0.500,0.000,0.000,0.000
1605184778995183872,10.0.1.122,373,move_down,-0.520,-0.520,-0.520,0.000,0.000,0.000
1605184780444976128,10.0.1.122,398,move_down,-0.540,-0.540,-0.540,0.000,0.000,0.000
1605184781904643072,10.0.1.122,414,move_down,-0.560,-0.560,-0.560,0.000,0.000,0.000
1605184783314661120,10.0.1.122,381,move_down,-0.580,-0.580,-0.580,0.000,0.000,0.000
1605184784414708992,10.0.1.122,46,pick,-0.590,-0.590,-0.590,0.000,0.000,0.000
1605184785418694912,10.0.1.122,49,pick,-0.600,-0.600,-0.600,0.000,0.000,0.000
1605184786415579136,10.0.1.122,44,pick,-0.610,-0.610,-0.610,0.000,0.000,0.000
1605184787414820864,10.0.1.122,42,pick,-0.620,-0.620,-0.620,0.000,0.000,0.000
1605184788415361792,10.0.1.122,41,pick,-0.630,-0.630,-0.630,0.000,0.000,0.000
1605184789414231040,10.0.1.122,39,pick,-0.640,-0.640,-0.640,0.000,0.000,0.000
1605184790415580160,10.0.1.122,39,pick,-0.650,-0.650,-0.650,0.000,0.000,0.000
1605184791414501888,10.0.1.122,37,pick,-0.660,-0.660,-0.660,0.000,0.000,0.000
1605184792415590912,10.0.1.122,37,pick,-0.670,-0.670,-0.670,0.000,0.000,0.000
1605184793413913088,10.0.1.122,34,pick,-0.680,-0.680,-0.680,0.000,0.000,0.000
1605184794414738944,10.0.1.122,33,pick,-0.690,-0.690,-0.690,0.000,0.000,0.000
1605184795414226944,10.0.1.122,31,pick,-0.700,-0.700,-0.700,0.000,0.000,0.000
1605184796434490880,10.0.1.122,50,pick,-0.710,-0.710,-0.710,0.000,0.000,0.000
1605184797437532928,10.0.1.122,52,pick,-0.720,-0.720,-0.720,0.000,0.000,0.000
1605184798435287040,10.0.1.122,48,pick,-0.730,-0.730,-0.730,0.000,0.000,0.000
1605184799435003904,10.0.1.122,47,pick,-0.740,-0.740,-0.740,0.000,0.000,0.000
1605184800434927872,10.0.1.122,46,pick,-0.750,-0.750,-0.750,0.000,0.000,0.000
1605184801443856128,10.0.1.122,54,pick,-0.760,-0.760,-0.760,0.000,0.000,0.000
1605184802435129856,10.0.1.122,44,pick,-0.770,-0.770,-0.770,0.000,0.000,0.000
1605184803774436864,10.0.1.122,382,move_up,-0.750,-0.750,-0.750,0.000,0.000,0.000
1605184805204514048,10.0.1.122,370,move_up,-0.730,-0.730,-0.730,0.000,0.000,0.000
1605184806643759872,10.0.1.122,390,move_up,-0.710,-0.710,-0.710,0.000,0.000,0.000
1605184808085176832,10.0.1.122,391,move_up,-0.690,-0.690,-0.690,0.000,0.000,0.000
1605184809510603008,10.0.1.122,377,move_up,-0.670,-0.670,-0.670,0.000,0.000,0.000
1605184810951980032,10.0.1.122,395,move_up,-0.650,-0.650,-0.650,0.000,0.000,0.000
1605184812404176896,10.0.1.122,405,move_up,-0.630,-0.630,-0.630,0.000,0.000,0.000
1605184813835227904,10.0.1.122,359,move_up,-0.610,-0.610,-0.610,0.000,0.000,0.000
1605184815224751104,10.0.1.122,374,move_up,-0.590,-0.590,-0.590,0.000,0.000,0.000
1605184816596440064,10.0.1.122,371,move_up,-0.570,-0.570,-0.570,0.000,0.000,0.000
1605184818014276864,10.0.1.122,376,move_up,-0.550,-0.550,-0.550,0.000,0.000,0.000
1605184819425597952,10.0.1.122,362,move_up,-0.530,-0.530,-0.530,0.000,0.000,0.000
1605184820869730048,10.0.1.122,379,move_up,-0.510,-0.510,-0.510,0.000,0.000,0.000
1605184822274657024,10.0.1.122,354,move_up,-0.490,-0.490,-0.490,0.000,0.000,0.000
1605184823664488192,10.0.1.122,367,move_up,-0.470,-0.470,-0.470,0.000,0.000,0.000
1605184825104173056,10.0.1.122,390,move_up,-0.450,-0.450,-0.450,0.000,0.000,0.000
1605184826534585856,10.0.1.122,386,move_up,-0.430,-0.430,-0.430,0.000,0.000,0.000
1605184827944574976,10.0.1.122,358,move_up,-0.410,-0.410,-0.410,0.000,0.000,0.000
1605184829333988864,10.0.1.122,374,move_up,-0.390,-0.390,-0.390,0.000,0.000,0.000
1605184830764254208,10.0.1.122,378,move_up,-0.370,-0.370,-0.370,0.000,0.000,0.000
1605184832214487040,10.0.1.122,386,move_up,-0.350,-0.350,-0.350,0.000,0.000,0.000
1605184833657213952,10.0.1.122,385,move_up,-0.330,-0.330,-0.330,0.000,0.000,0.000
1605184835114664960,10.0.1.122,399,move_up,-0.310,-0.310,-0.310,0.000,0.000,0.000
1605184836545198080,10.0.1.122,388,move_up,-0.290,-0.290,-0.290,0.000,0.000,0.000
1605184837984810240,10.0.1.122,393,move_up,-0.270,-0.270,-0.270,0.000,0.000,0.000
1605184839424595200,10.0.1.122,390,move_up,-0.250,-0.250,-0.250,0.000,0.000,0.000
1605184840845058048,10.0.1.122,377,move_up,-0.230,-0.230,-0.230,0.000,0.000,0.000
1605184842275175936,10.0.1.122,391,move_up,-0.210,-0.210,-0.210,0.000,0.000,0.000
1605184843694482944,10.0.1.122,383,move_up,-0.190,-0.190,-0.190,0.000,0.000,0.000
1605184844774553088,10.0.1.122,34,place,-0.180,-0.180,-0.180,0.000,0.000,0.000
1605184845776515072,10.0.1.122,35,place,-0.170,-0.170,-0.170,0.000,0.000,0.000
1605184846774931968,10.0.1.122,32,place,-0.160,-0.160,-0.160,0.000,0.000,0.000
1605184847795803904,10.0.1.122,52,place,-0.150,-0.150,-0.150,0.000,0.000,0.000
1605184848797105152,10.0.1.122,52,place,-0.140,-0.140,-0.140,0.000,0.000,0.000
1605184849794460160,10.0.1.122,48,place,-0.130,-0.130,-0.130,0.000,0.000,0.000
1605184850794088960,10.0.1.122,46,place,-0.120,-0.120,-0.120,0.000,0.000,0.000
1605184851795131904,10.0.1.122,46,place,-0.110,-0.110,-0.110,0.000,0.000,0.000
1605184852798112000,10.0.1.122,48,place,-0.100,-0.100,-0.100,0.000,0.000,0.000
1605184853794409984,10.0.1.122,43,place,-0.090,-0.090,-0.090,0.000,0.000,0.000
1605184854794673920,10.0.1.122,43,place,-0.080,-0.080,-0.080,0.000,0.000,0.000
1605184855796199168,10.0.1.122,40,place,-0.070,-0.070,-0.070,0.000,0.000,0.000
1605184856795932160,10.0.1.122,39,place,-0.060,-0.060,-0.060,0.000,0.000,0.000
1605184857795531008,10.0.1.122,37,place,-0.050,-0.050,-0.050,0.000,0.000,0.000
1605184858795409920,10.0.1.122,36,place,-0.040,-0.040,-0.040,0.000,0.000,0.000
1605184859794720000,10.0.1.122,34,place,-0.030,-0.030,-0.030,0.000,0.000,0.000
1605184860795915008,10.0.1.122,34,place,-0.020,-0.020,-0.020,0.000,0.000,0.000
1605184861794727168,10.0.1.122,32,place,-0.010,-0.010,-0.010,0.000,0.000,0.000
1605184862814373120,10.0.1.122,50,place,0.000,0.000,0.000,0.000,0.000,0.000
1605184864144012032,10.0.1.122,379,move_down,-0.020,-0.020,-0.020,0.000,0.000,0.000
1605184865544027136,10.0.1.122,352,move_down,-0.040,-0.040,-0.040,0.000,0.000,0.000
1605184866974266880,10.0.1.122,372,move_down,-0.060,-0.060,-0.060,0.000,0.000,0.000
1605184868464824064,10.0.1.122,389,move_down,-0.080,-0.080,-0.080,0.000,0.000,0.000
1605184869894387968,10.0.1.122,377,move_down,-0.100,-0.100,-0.100,0.000,0.000,0.000
1605184871324448000,10.0.1.122,380,move_down,-0.120,-0.120,-0.120,0.000,0.000,0.000
1605184872754415872,10.0.1.122,384,move_down,-0.140,-0.140,-0.140,0.000,0.000,0.000
1605184874187993088,10.0.1.122,375,move_down,-0.160,-0.160,-0.160,0.000,0.000,0.000
1605184875614119168,10.0.1.122,376,move_down,-0.180,-0.180,-0.180,0.000,0.000,0.000
1605184877054619136,10.0.1.122,389,move_down,-0.200,-0.200,-0.200,0.000,0.000,0.000
1605184878484719104,10.0.1.122,393,move_down,-0.220,-0.220,-0.220,0.000,0.000,0.000
1605184879995259904,10.0.1.122,387,move_down,-0.240,-0.240,-0.240,0.000,0.000,0.000
1605184881445940992,10.0.1.122,389,move_down,-0.260,-0.260,-0.260,0.000,0.000,0.000
1605184882884960000,10.0.1.122,385,move_down,-0.280,-0.280,-0.280,0.000,0.000,0.000
1605184884335742976,10.0.1.122,383,move_down,-0.300,-0.300,-0.300,0.000,0.000,0.000
1605184885765036032,10.0.1.122,386,move_down,-0.320,-0.320,-0.320,0.000,0.000,0.000
1605184887185103872,10.0.1.122,392,move_down,-0.340,-0.340,-0.340,0.000,0.000,0.000
1605184888625171968,10.0.1.122,390,move_down,-0.360,-0.360,-0.360,0.000,0.000,0.000
1605184890074883840,10.0.1.122,399,move_down,-0.380,-0.380,-0.380,0.000,0.000,0.000
1605184891515098112,10.0.1.122,413,move_down,-0.400,-0.400,-0.400,0.000,0.000,0.000
1605184892931976192,10.0.1.122,392,move_down,-0.420,-0.420,-0.420,0.000,0.000,0.000
1605184894341001984,10.0.1.122,357,move_down,-0.440,-0.440,-0.440,0.000,0.000,0.000
1605184895765101056,10.0.1.122,364,move_down,-0.460,-0.460,-0.460,0.000,0.000,0.000
1605184897174674944,10.0.1.122,364,move_down,-0.480,-0.480,-0.480,0.000,0.000,0.000
1605184898605377024,10.0.1.122,379,move_down,-0.500,-0.500,-0.500,0.000,0.000,0.000
1605184900024192000,10.0.1.122,373,move_down,-0.520,-0.520,-0.520,0.000,0.000,0.000
1605184901476761088,10.0.1.122,400,move_down,-0.540,-0.540,-0.540,0.000,0.000,0.000
1605184902924654848,10.0.1.122,406,move_down,-0.560,-0.560,-0.560,0.000,0.000,0.000
1605184904375009024,10.0.1.122,374,move_down,-0.580,-0.580,-0.580,0.000,0.000,0.000
1605184905454323968,10.0.1.122,33,pick,-0.590,-0.590,-0.590,0.000,0.000,0.000
1605184906454902784,10.0.1.122,32,pick,-0.600,-0.600,-0.600,0.000,0.000,0.000
1605184907454430976,10.0.1.122,30,pick,-0.610,-0.610,-0.610,0.000,0.000,0.000
1605184908474971136,10.0.1.122,50,pick,-0.620,-0.620,-0.620,0.000,0.000,0.000
1605184909474864896,10.0.1.122,48,pick,-0.630,-0.630,-0.630,0.000,0.000,0.000
1605184910476953856,10.0.1.122,49,pick,-0.640,-0.640,-0.640,0.000,0.000,0.000
1605184911474791168,10.0.1.122,45,pick,-0.650,-0.650,-0.650,0.000,0.000,0.000
1605184912478609920,10.0.1.122,48,pick,-0.660,-0.660,-0.660,0.000,0.000,0.000
1605184913478724864,10.0.1.122,47,pick,-0.670,-0.670,-0.670,0.000,0.000,0.000
1605184914477360128,10.0.1.122,44,pick,-0.680,-0.680,-0.680,0.000,0.000,0.000
1605184915478404096,10.0.1.122,43,pick,-0.690,-0.690,-0.690,0.000,0.000,0.000
1605184916475013120,10.0.1.122,39,pick,-0.700,-0.700,-0.700,0.000,0.000,0.000
1605184917475392000,10.0.1.122,37,pick,-0.710,-0.710,-0.710,0.000,0.000,0.000
1605184918475482880,10.0.1.122,36,pick,-0.720,-0.720,-0.720,0.000,0.000,0.000
1605184919474923008,10.0.1.122,34,pick,-0.730,-0.730,-0.730,0.000,0.000,0.000
1605184920474733056,10.0.1.122,33,pick,-0.740,-0.740,-0.740,0.000,0.000,0.000
1605184921475092992,10.0.1.122,32,pick,-0.750,-0.750,-0.750,0.000,0.000,0.000
1605184922495144960,10.0.1.122,51,pick,-0.760,-0.760,-0.760,0.000,0.000,0.000
1605184923495008000,10.0.1.122,49,pick,-0.770,-0.770,-0.770,0.000,0.000,0.000
1605184924834899968,10.0.1.122,388,move_up,-0.750,-0.750,-0.750,0.000,0.000,0.000
1605184926244643072,10.0.1.122,367,move_up,-0.730,-0.730,-0.730,0.000,0.000,0.000
1605184927674562816,10.0.1.122,379,move_up,-0.710,-0.710,-0.710,0.000,0.000,0.000
1605184929084593920,10.0.1.122,348,move_up,-0.690,-0.690,-0.690,0.000,0.000,0.000
1605184930534611968,10.0.1.122,385,move_up,-0.670,-0.670,-0.670,0.000,0.000,0.000
1605184931944521984,10.0.1.122,362,move_up,-0.650,-0.650,-0.650,0.000,0.000,0.000
1605184933354182912,10.0.1.122,358,move_up,-0.630,-0.630,-0.630,0.000,0.000,0.000
1605184934785062912,10.0.1.122,364,move_up,-0.610,-0.610,-0.610,0.000,0.000,0.000
1605184936254573056,10.0.1.122,387,move_up,-0.590,-0.590,-0.590,0.000,0.000,0.000
1605184937674832128,10.0.1.122,359,move_up,-0.570,-0.570,-0.570,0.000,0.000,0.000
1605184939075115008,10.0.1.122,383,move_up,-0.550,-0.550,-0.550,0.000,0.000,0.000
1605184940524622848,10.0.1.122,413,move_up,-0.530,-0.530,-0.530,0.000,0.000,0.000
1605184941934593792,10.0.1.122,378,move_up,-0.510,-0.510,-0.510,0.000,0.000,0.000
1605184943303934976,10.0.1.122,374,move_up,-0.490,-0.490,-0.490,0.000,0.000,0.000
1605184944755156992,10.0.1.122,382,move_up,-0.470,-0.470,-0.470,0.000,0.000,0.000
1605184946184990976,10.0.1.122,383,move_up,-0.450,-0.450,-0.450,0.000,0.000,0.000
1605184947614432000,10.0.1.122,371,move_up,-0.430,-0.430,-0.430,0.000,0.000,0.000
1605184949045736960,10.0.1.122,378,move_up,-0.410,-0.410,-0.410,0.000,0.000,0.000
1605184950474867968,10.0.1.122,380,move_up,-0.390,-0.390,-0.390,0.000,0.000,0.000
1605184951903828992,10.0.1.122,379,move_up,-0.370,-0.370,-0.370,0.000,0.000,0.000
1605184953354269952,10.0.1.122,404,move_up,-0.350,-0.350,-0.350,0.000,0.000,0.000
1605184954754638848,10.0.1.122,359,move_up,-0.330,-0.330,-0.330,0.000,0.000,0.000
1605184956207572992,10.0.1.122,387,move_up,-0.310,-0.310,-0.310,0.000,0.000,0.000
1605184957623791104,10.0.1.122,375,move_up,-0.290,-0.290,-0.290,0.000,0.000,0.000
1605184959044059136,10.0.1.122,377,move_up,-0.270,-0.270,-0.270,0.000,0.000,0.000
1605184960474065920,10.0.1.122,387,move_up,-0.250,-0.250,-0.250,0.000,0.000,0.000
1605184961884820992,10.0.1.122,380,move_up,-0.230,-0.230,-0.230,0.000,0.000,0.000
1605184963314213120,10.0.1.122,370,move_up,-0.210,-0.210,-0.210,0.000,0.000,0.000
1605184964754331136,10.0.1.122,397,move_up,-0.190,-0.190,-0.190,0.000,0.000,0.000
1605184965835475968,10.0.1.122,37,place,-0.180,-0.180,-0.180,0.000,0.000,0.000
1605184966845412864,10.0.1.122,46,place,-0.170,-0.170,-0.170,0.000,0.000,0.000
1605184967834199808,10.0.1.122,33,place,-0.160,-0.160,-0.160,0.000,0.000,0.000
1605184968834598144,10.0.1.122,32,place,-0.150,-0.150,-0.150,0.000,0.000,0.000
1605184969834647040,10.0.1.122,31,place,-0.140,-0.140,-0.140,0.000,0.000,0.000
1605184970855083008,10.0.1.122,50,place,-0.130,-0.130,-0.130,0.000,0.000,0.000
1605184971854383104,10.0.1.122,48,place,-0.120,-0.120,-0.120,0.000,0.000,0.000
1605184972854366976,10.0.1.122,47,place,-0.110,-0.110,-0.110,0.000,0.000,0.000
1605184973855442944,10.0.1.122,47,place,-0.100,-0.100,-0.100,0.000,0.000,0.000
1605184974854213888,10.0.1.122,44,place,-0.090,-0.090,-0.090,0.000,0.000,0.000
1605184975854685952,10.0.1.122,43,place,-0.080,-0.080,-0.080,0.000,0.000,0.000
1605184976856136192,10.0.1.122,44,place,-0.070,-0.070,-0.070,0.000,0.000,0.000
1605184977854747136,10.0.1.122,41,place,-0.060,-0.060,-0.060,0.000,0.000,0.000
1605184978854607104,10.0.1.122,40,place,-0.050,-0.050,-0.050,0.000,0.000,0.000
1605184979857073920,10.0.1.122,41,place,-0.040,-0.040,-0.040,0.000,0.000,0.000
1605184980854779904,10.0.1.122,38,place,-0.030,-0.030,-0.030,0.000,0.000,0.000
1605184981857120000,10.0.1.122,40,place,-0.020,-0.020,-0.020,0.000,0.000,0.000
1605184982856064000,10.0.1.122,37,place,-0.010,-0.010,-0.010,0.000,0.000,0.000
1605184983854870016,10.0.1.122,35,place,0.000,0.000,0.000,0.000,0.000,0.000
1605184985204900096,10.0.1.122,383,move_down,-0.020,-0.020,-0.020,0.000,0.000,0.000
1605184986614743040,10.0.1.122,367,move_down,-0.040,-0.040,-0.040,0.000,0.000,0.000
1605184988064257024,10.0.1.122,404,move_down,-0.060,-0.060,-0.060,0.000,0.000,0.000
1605184989514753024,10.0.1.122,381,move_down,-0.080,-0.080,-0.080,0.000,0.000,0.000
1605184990925491968,10.0.1.122,367,move_down,-0.100,-0.100,-0.100,0.000,0.000,0.000
1605184992364685056,10.0.1.122,393,move_down,-0.120,-0.120,-0.120,0.000,0.000,0.000
1605184993774213120,10.0.1.122,363,move_down,-0.140,-0.140,-0.140,0.000,0.000,0.000
1605184995244851968,10.0.1.122,392,move_down,-0.160,-0.160,-0.160,0.000,0.000,0.000
1605184996664932096,10.0.1.122,386,move_down,-0.180,-0.180,-0.180,0.000,0.000,0.000
1605184998094935040,10.0.1.122,374,move_down,-0.200,-0.200,-0.200,0.000,0.000,0.000
1605184999524008960,10.0.1.122,380,move_down,-0.220,-0.220,-0.220,0.000,0.000,0.000
1605185000974893056,10.0.1.122,391,move_down,-0.240,-0.240,-0.240,0.000,0.000,0.000
1605185002405095936,10.0.1.122,400,move_down,-0.260,-0.260,-0.260,0.000,0.000,0.000
1605185003836205056,10.0.1.122,390,move_down,-0.280,-0.280,-0.280,0.000,0.000,0.000
1605185005224968960,10.0.1.122,353,move_down,-0.300,-0.300,-0.300,0.000,0.000,0.000
1605185006655289856,10.0.1.122,366,move_down,-0.320,-0.320,-0.320,0.000,0.000,0.000
1605185008105500928,10.0.1.122,398,move_down,-0.340,-0.340,-0.340,0.000,0.000,0.000
1605185009554880000,10.0.1.122,371,move_down,-0.360,-0.360,-0.360,0.000,0.000,0.000
1605185010925453824,10.0.1.122,368,move_down,-0.380,-0.380,-0.380,0.000,0.000,0.000
1605185012374560000,10.0.1.122,405,move_down,-0.400,-0.400,-0.400,0.000,0.000,0.000
1605185013795084032,10.0.1.122,393,move_down,-0.420,-0.420,-0.420,0.000,0.000,0.000
1605185015214589952,10.0.1.122,369,move_down,-0.440,-0.440,-0.440,0.000,0.000,0.000
1605185016705383936,10.0.1.122,431,move_down,-0.460,-0.460,-0.460,0.000,0.000,0.000
1605185018134571008,10.0.1.122,386,move_down,-0.480,-0.480,-0.480,0.000,0.000,0.000
1605185019573990144,10.0.1.122,383,move_down,-0.500,-0.500,-0.500,0.000,0.000,0.000
1605185020983886080,10.0.1.122,384,move_down,-0.520,-0.520,-0.520,0.000,0.000,0.000
1605185022414745088,10.0.1.122,369,move_down,-0.540,-0.540,-0.540,0.000,0.000,0.000
1605185023875351040,10.0.1.122,409,move_down,-0.560,-0.560,-0.560,0.000,0.000,0.000
1605185025274697984,10.0.1.122,383,move_down,-0.580,-0.580,-0.580,0.000,0.000,0.000
1605185026374369024,10.0.1.122,50,pick,-0.590,-0.590,-0.590,0.000,0.000,0.000
1605185027374643968,10.0.1.122,49,pick,-0.600,-0.600,-0.600,0.000,0.000,0.000
1605185028374321920,10.0.1.122,42,pick,-0.610,-0.610,-0.610,0.000,0.000,0.000
1605185029374470912,10.0.1.122,41,pick,-0.620,-0.620,-0.620,0.000,0.000,0.000
1605185030375308032,10.0.1.122,40,pick,-0.630,-0.630,-0.630,0.000,0.000,0.000
1605185031374680064,10.0.1.122,38,pick,-0.640,-0.640,-0.640,0.000,0.000,0.000
1605185032374660096,10.0.1.122,37,pick,-0.650,-0.650,-0.650,0.000,0.000,0.000
1605185033376792064,10.0.1.122,38,pick,-0.660,-0.660,-0.660,0.000,0.000,0.000
1605185034374296832,10.0.1.122,34,pick,-0.670,-0.670,-0.670,0.000,0.000,0.000
1605185035373827840,10.0.1.122,32,pick,-0.680,-0.680,-0.680,0.000,0.000,0.000
1605185036374298112,10.0.1.122,32,pick,-0.690,-0.690,-0.690,0.000,0.000,0.000
1605185037374546944,10.0.1.122,31,pick,-0.700,-0.700,-0.700,0.000,0.000,0.000
1605185038394469888,10.0.1.122,49,pick,-0.710,-0.710,-0.710,0.000,0.000,0.000
1605185039394262016,10.0.1.122,48,pick,-0.720,-0.720,-0.720,0.000,0.000,0.000
1605185040394589952,10.0.1.122,47,pick,-0.730,-0.730,-0.730,0.000,0.000,0.000
1605185041394159104,10.0.1.122,45,pick,-0.740,-0.740,-0.740,0.000,0.000,0.000
1605185042393938944,10.0.1.122,44,pick,-0.750,-0.750,-0.750,0.000,0.000,0.000
1605185043401918976,10.0.1.122,50,pick,-0.760,-0.760,-0.760,0.000,0.000,0.000
1605185044420118016,10.0.1.122,65,pick,-0.770,-0.770,-0.770,0.000,0.000,0.000
1605185045765377024,10.0.1.122,409,move_up,-0.750,-0.750,-0.750,0.000,0.000,0.000
1605185047245232128,10.0.1.122,409,move_up,-0.730,-0.730,-0.730,0.000,0.000,0.000
1605185048719767040,10.0.1.122,404,move_up,-0.710,-0.710,-0.710,0.000,0.000,0.000
1605185050169655040,10.0.1.122,382,move_up,-0.690,-0.690,-0.690,0.000,0.000,0.000
1605185051616879872,10.0.1.122,391,move_up,-0.670,-0.670,-0.670,0.000,0.000,0.000
1605185053036861952,10.0.1.122,385,move_up,-0.650,-0.650,-0.650,0.000,0.000,0.000
1605185054467073024,10.0.1.122,375,move_up,-0.630,-0.630,-0.630,0.000,0.000,0.000
1605185055896635904,10.0.1.122,381,move_up,-0.610,-0.610,-0.610,0.000,0.000,0.000
1605185057327343104,10.0.1.122,382,move_up,-0.590,-0.590,-0.590,0.000,0.000,0.000
1605185058787086080,10.0.1.122,395,move_up,-0.570,-0.570,-0.570,0.000,0.000,0.000
1605185060236685056,10.0.1.122,396,move_up,-0.550,-0.550,-0.550,0.000,0.000,0.000
1605185061656212992,10.0.1.122,368,move_up,-0.530,-0.530,-0.530,0.000,0.000,0.000
1605185063096627968,10.0.1.122,389,move_up,-0.510,-0.510,-0.510,0.000,0.000,0.000
1605185064516807168,10.0.1.122,377,move_up,-0.490,-0.490,-0.490,0.000,0.000,0.000
1605185065977058816,10.0.1.122,389,move_up,-0.470,-0.470,-0.470,0.000,0.000,0.000
1605185067415930112,10.0.1.122,399,move_up,-0.450,-0.450,-0.450,0.000,0.000,0.000
1605185068889506048,10.0.1.122,400,move_up,-0.430,-0.430,-0.430,0.000,0.000,0.000
1605185070357422080,10.0.1.122,416,move_up,-0.410,-0.410,-0.410,0.000,0.000,0.000
1605185071860583168,10.0.1.122,397,move_up,-0.390,-0.390,-0.390,0.000,0.000,0.000
1605185073316497152,10.0.1.122,405,move_up,-0.370,-0.370,-0.370,0.000,0.000,0.000
1605185074726651904,10.0.1.122,373,move_up,-0.350,-0.350,-0.350,0.000,0.000,0.000
1605185076175834880,10.0.1.122,395,move_up,-0.330,-0.330,-0.330,0.000,0.000,0.000
1605185077606363904,10.0.1.122,375,move_up,-0.310,-0.310,-0.310,0.000,0.000,0.000
1605185079057425920,10.0.1.122,397,move_up,-0.290,-0.290,-0.290,0.000,0.000,0.000
1605185080506681088,10.0.1.122,404,move_up,-0.270,-0.270,-0.270,0.000,0.000,0.000
1605185081917283072,10.0.1.122,368,move_up,-0.250,-0.250,-0.250,0.000,0.000,0.000
1605185083356122880,10.0.1.122,394,move_up,-0.230,-0.230,-0.230,0.000,0.000,0.000
1605185084806898944,10.0.1.122,403,move_up,-0.210,-0.210,-0.210,0.000,0.000,0.000
1605185086225867008,10.0.1.122,377,move_up,-0.190,-0.190,-0.190,0.000,0.000,0.000
1605185087329171968,10.0.1.122,34,place,-0.180,-0.180,-0.180,0.000,0.000,0.000
1605185088346262016,10.0.1.122,50,place,-0.170,-0.170,-0.170,0.000,0.000,0.000
1605185089346528000,10.0.1.122,49,place,-0.160,-0.160,-0.160,0.000,0.000,0.000
1605185090362183168,10.0.1.122,64,place,-0.150,-0.150,-0.150,0.000,0.000,0.000
1605185091350498816,10.0.1.122,51,place,-0.140,-0.140,-0.140,0.000,0.000,0.000
1605185092346158080,10.0.1.122,45,place,-0.130,-0.130,-0.130,0.000,0.000,0.000
1605185093347571968,10.0.1.122,46,place,-0.120,-0.120,-0.120,0.000,0.000,0.000
1605185094345266176,10.0.1.122,42,place,-0.110,-0.110,-0.110,0.000,0.000,0.000
1605185095346364928,10.0.1.122,42,place,-0.100,-0.100,-0.100,0.000,0.000,0.000
1605185096346493952,10.0.1.122,41,place,-0.090,-0.090,-0.090,0.000,0.000,0.000
1605185097348120832,10.0.1.122,41,place,-0.080,-0.080,-0.080,0.000,0.000,0.000
1605185098347096064,10.0.1.122,39,place,-0.070,-0.070,-0.070,0.000,0.000,0.000
1605185099346688000,10.0.1.122,37,place,-0.060,-0.060,-0.060,0.000,0.000,0.000
1605185100346560000,10.0.1.122,35,place,-0.050,-0.050,-0.050,0.000,0.000,0.000
1605185101347561984,10.0.1.122,35,place,-0.040,-0.040,-0.040,0.000,0.000,0.000
1605185102347862016,10.0.1.122,34,place,-0.030,-0.030,-0.030,0.000,0.000,0.000
1605185103346877952,10.0.1.122,32,place,-0.020,-0.020,-0.020,0.000,0.000,0.000
1605185104366936832,10.0.1.122,51,place,-0.010,-0.010,-0.010,0.000,0.000,0.000
1605185105366370816,10.0.1.122,49,place,0.000,0.000,0.000,0.000,0.000,0.000
1605185106731180032,10.0.1.122,413,move_down,-0.020,-0.020,-0.020,0.000,0.000,0.000
1605185108156059904,10.0.1.122,392,move_down,-0.040,-0.040,-0.040,0.000,0.000,0.000
1605185109599037952,10.0.1.122,423,move_down,-0.060,-0.060,-0.060,0.000,0.000,0.000
1605185111077395968,10.0.1.122,427,move_down,-0.080,-0.080,-0.080,0.000,0.000,0.000
1605185112566332160,10.0.1.122,448,move_down,-0.100,-0.100,-0.100,0.000,0.000,0.000
1605185114017134848,10.0.1.122,396,move_down,-0.120,-0.120,-0.120,0.000,0.000,0.000
1605185115457240064,10.0.1.122,380,move_down,-0.140,-0.140,-0.140,0.000,0.000,0.000
1605185116900843008,10.0.1.122,377,move_down,-0.160,-0.160,-0.160,0.000,0.000,0.000
1605185118367311872,10.0.1.122,395,move_down,-0.180,-0.180,-0.180,0.000,0.000,0.000
1605185119828500992,10.0.1.122,399,move_down,-0.200,-0.200,-0.200,0.000,0.000,0.000
1605185121257488128,10.0.1.122,382,move_down,-0.220,-0.220,-0.220,0.000,0.000,0.000
1605185122687683072,10.0.1.122,377,move_down,-0.240,-0.240,-0.240,0.000,0.000,0.000
1605185124147081984,10.0.1.122,412,move_down,-0.260,-0.260,-0.260,0.000,0.000,0.000
1605185125636708096,10.0.1.122,416,move_down,-0.280,-0.280,-0.280,0.000,0.000,0.000
1605185127076569088,10.0.1.122,381,move_down,-0.300,-0.300,-0.300,0.000,0.000,0.000
1605185128516380928,10.0.1.122,380,move_down,-0.320,-0.320,-0.320,0.000,0.000,0.000
1605185129989006080,10.0.1.122,408,move_down,-0.340,-0.340,-0.340,0.000,0.000,0.000
1605185131477852160,10.0.1.122,417,move_down,-0.360,-0.360,-0.360,0.000,0.000,0.000
1605185132926703872,10.0.1.122,387,move_down,-0.380,-0.380,-0.380,0.000,0.000,0.000
1605185134356480000,10.0.1.122,380,move_down,-0.400,-0.400,-0.400,0.000,0.000,0.000
1605185135866231040,10.0.1.122,427,move_down,-0.420,-0.420,-0.420,0.000,0.000,0.000
1605185137310959104,10.0.1.122,379,move_down,-0.440,-0.440,-0.440,0.000,0.000,0.000
1605185138786030080,10.0.1.122,405,move_down,-0.460,-0.460,-0.460,0.000,0.000,0.000
1605185140285660928,10.0.1.122,419,move_down,-0.480,-0.480,-0.480,0.000,0.000,0.000
1605185141756243968,10.0.1.122,415,move_down,-0.500,-0.500,-0.500,0.000,0.000,0.000
1605185143208280064,10.0.1.122,413,move_down,-0.520,-0.520,-0.520,0.000,0.000,0.000
1605185144682140160,10.0.1.122,405,move_down,-0.540,-0.540,-0.540,0.000,0.000,0.000
1605185146164474112,10.0.1.122,405,move_down,-0.560,-0.560,-0.560,0.000,0.000,0.000
1605185147606971904,10.0.1.122,431,move_down,-0.580,-0.580,-0.580,0.000,0.000,0.000
1605185148707290880,10.0.1.122,49,pick,-0.590,-0.590,-0.590,0.000,0.000,0.000
1605185149706563840,10.0.1.122,47,pick,-0.600,-0.600,-0.600,0.000,0.000,0.000
1605185150710306816,10.0.1.122,49,pick,-0.610,-0.610,-0.610,0.000,0.000,0.000
1605185151709036032,10.0.1.122,47,pick,-0.620,-0.620,-0.620,0.000,0.000,0.000
1605185152706270976,10.0.1.122,43,pick,-0.630,-0.630,-0.630,0.000,0.000,0.000
1605185153706466048,10.0.1.122,41,pick,-0.640,-0.640,-0.640,0.000,0.000,0.000
1605185154706706944,10.0.1.122,40,pick,-0.650,-0.650,-0.650,0.000,0.000,0.000
1605185155707730176,10.0.1.122,40,pick,-0.660,-0.660,-0.660,0.000,0.000,0.000
1605185156706931968,10.0.1.122,37,pick,-0.670,-0.670,-0.670,0.000,0.000,0.000
1605185157706376192,10.0.1.122,35,pick,-0.680,-0.680,-0.680,0.000,0.000,0.000
1605185158733527040,10.0.1.122,57,pick,-0.690,-0.690,-0.690,0.000,0.000,0.000
1605185159727220992,10.0.1.122,49,pick,-0.700,-0.700,-0.700,0.000,0.000,0.000
1605185160725577216,10.0.1.122,46,pick,-0.710,-0.710,-0.710,0.000,0.000,0.000
1605185161725903104,10.0.1.122,45,pick,-0.720,-0.720,-0.720,0.000,0.000,0.000
1605185162726849024,10.0.1.122,44,pick,-0.730,-0.730,-0.730,0.000,0.000,0.000
1605185163725572096,10.0.1.122,41,pick,-0.740,-0.740,-0.740,0.000,0.000,0.000
1605185164726775808,10.0.1.122,40,pick,-0.750,-0.750,-0.750,0.000,0.000,0.000
1605185165725970944,10.0.1.122,38,pick,-0.760,-0.760,-0.760,0.000,0.000,0.000
1605185166726761216,10.0.1.122,37,pick,-0.770,-0.770,-0.770,0.000,0.000,0.000
1605185168077881088,10.0.1.122,387,move_up,-0.750,-0.750,-0.750,0.000,0.000,0.000
1605185169530355968,10.0.1.122,392,move_up,-0.730,-0.730,-0.730,0.000,0.000,0.000
1605185170986539008,10.0.1.122,397,move_up,-0.710,-0.710,-0.710,0.000,0.000,0.000
1605185172451003136,10.0.1.122,382,move_up,-0.690,-0.690,-0.690,0.000,0.000,0.000
1605185173906703872,10.0.1.122,395,move_up,-0.670,-0.670,-0.670,0.000,0.000,0.000
1605185175416284160,10.0.1.122,455,move_up,-0.650,-0.650,-0.650,0.000,0.000,0.000
1605185176887878912,10.0.1.122,404,move_up,-0.630,-0.630,-0.630,0.000,0.000,0.000
1605185178336733952,10.0.1.122,403,move_up,-0.610,-0.610,-0.610,0.000,0.000,0.000
1605185179800206848,10.0.1.122,411,move_up,-0.590,-0.590,-0.590,0.000,0.000,0.000
1605185181176340992,10.0.1.122,371,move_up,-0.570,-0.570,-0.570,0.000,0.000,0.000
1605185182626899968,10.0.1.122,379,move_up,-0.550,-0.550,-0.550,0.000,0.000,0.000
1605185184117082112,10.0.1.122,439,move_up,-0.530,-0.530,-0.530,0.000,0.000,0.000
1605185185547655936,10.0.1.122,385,move_up,-0.510,-0.510,-0.510,0.000,0.000,0.000
1605185187019912960,10.0.1.122,382,move_up,-0.490,-0.490,-0.490,0.000,0.000,0.000
1605185188466770944,10.0.1.122,381,move_up,-0.470,-0.470,-0.470,0.000,0.000,0.000
1605185189906433024,10.0.1.122,375,move_up,-0.450,-0.450,-0.450,0.000,0.000,0.000
1605185191387020032,10.0.1.122,407,move_up,-0.430,-0.430,-0.430,0.000,0.000,0.000
1605185192847419904,10.0.1.122,390,move_up,-0.410,-0.410,-0.410,0.000,0.000,0.000
1605185194328099840,10.0.1.122,427,move_up,-0.390,-0.390,-0.390,0.000,0.000,0.000
1605185195787448832,10.0.1.122,403,move_up,-0.370,-0.370,-0.370,0.000,0.000,0.000
1605185197268041984,10.0.1.122,403,move_up,-0.350,-0.350,-0.350,0.000,0.000,0.000
1605185198737158144,10.0.1.122,382,move_up,-0.330,-0.330,-0.330,0.000,0.000,0.000
1605185200206674944,10.0.1.122,405,move_up,-0.310,-0.310,-0.310,0.000,0.000,0.000
1605185201637229056,10.0.1.122,383,move_up,-0.290,-0.290,-0.290,0.000,0.000,0.000
1605185203136817920,10.0.1.122,436,move_up,-0.270,-0.270,-0.270,0.000,0.000,0.000
1605185204576251904,10.0.1.122,388,move_up,-0.250,-0.250,-0.250,0.000,0.000,0.000
1605185206028423936,10.0.1.122,393,move_up,-0.230,-0.230,-0.230,0.000,0.000,0.000
1605185207456135936,10.0.1.122,373,move_up,-0.210,-0.210,-0.210,0.000,0.000,0.000
1605185208911619840,10.0.1.122,397,move_up,-0.190,-0.190,-0.190,0.000,0.000,0.000
1605185210006863104,10.0.1.122,48,place,-0.180,-0.180,-0.180,0.000,0.000,0.000
1605185211006470912,10.0.1.122,46,place,-0.170,-0.170,-0.170,0.000,0.000,0.000
1605185212007649024,10.0.1.122,46,place,-0.160,-0.160,-0.160,0.000,0.000,0.000
1605185213009783040,10.0.1.122,46,place,-0.150,-0.150,-0.150,0.000,0.000,0.000
1605185214004382976,10.0.1.122,40,place,-0.140,-0.140,-0.140,0.000,0.000,0.000
1605185215006169088,10.0.1.122,41,place,-0.130,-0.130,-0.130,0.000,0.000,0.000
1605185216011555840,10.0.1.122,45,place,-0.120,-0.120,-0.120,0.000,0.000,0.000
1605185217006580992,10.0.1.122,38,place,-0.110,-0.110,-0.110,0.000,0.000,0.000
1605185218006330112,10.0.1.122,36,place,-0.100,-0.100,-0.100,0.000,0.000,0.000
1605185219006257920,10.0.1.122,36,place,-0.090,-0.090,-0.090,0.000,0.000,0.000
1605185220006045184,10.0.1.122,33,place,-0.080,-0.080,-0.080,0.000,0.000,0.000
1605185221006797056,10.0.1.122,32,place,-0.070,-0.070,-0.070,0.000,0.000,0.000
1605185222025986048,10.0.1.122,50,place,-0.060,-0.060,-0.060,0.000,0.000,0.000
1605185223026238976,10.0.1.122,49,place,-0.050,-0.050,-0.050,0.000,0.000,0.000
1605185224026693120,10.0.1.122,48,place,-0.040,-0.040,-0.040,0.000,0.000,0.000
1605185225025934080,10.0.1.122,45,place,-0.030,-0.030,-0.030,0.000,0.000,0.000
1605185226026777088,10.0.1.122,45,place,-0.020,-0.020,-0.020,0.000,0.000,0.000
1605185227026082048,10.0.1.122,43,place,-0.010,-0.010,-0.010,0.000,0.000,0.000
1605185228026823936,10.0.1.122,43,place,0.000,0.000,0.000,0.000,0.000,0.000
1605185229375885056,10.0.1.122,385,move_down,-0.020,-0.020,-0.020,0.000,0.000,0.000
1605185230831163904,10.0.1.122,396,move_down,-0.040,-0.040,-0.040,0.000,0.000,0.000
1605185232257353984,10.0.1.122,382,move_down,-0.060,-0.060,-0.060,0.000,0.000,0.000
1605185233726072064,10.0.1.122,409,move_down,-0.080,-0.080,-0.080,0.000,0.000,0.000
1605185235146013952,10.0.1.122,355,move_down,-0.100,-0.100,-0.100,0.000,0.000,0.000
1605185236589658880,10.0.1.122,381,move_down,-0.120,-0.120,-0.120,0.000,0.000,0.000
1605185238036381952,10.0.1.122,384,move_down,-0.140,-0.140,-0.140,0.000,0.000,0.000
1605185239576273920,10.0.1.122,481,move_down,-0.160,-0.160,-0.160,0.000,0.000,0.000
1605185240961338112,10.0.1.122,389,move_down,-0.180,-0.180,-0.180,0.000,0.000,0.000
1605185242397961984,10.0.1.122,402,move_down,-0.200,-0.200,-0.200,0.000,0.000,0.000
1605185243846365952,10.0.1.122,375,move_down,-0.220,-0.220,-0.220,0.000,0.000,0.000
1605185245346774016,10.0.1.122,386,move_down,-0.240,-0.240,-0.240,0.000,0.000,0.000
1605185246801654016,10.0.1.122,409,move_down,-0.260,-0.260,-0.260,0.000,0.000,0.000
1605185248259734016,10.0.1.122,422,move_down,-0.280,-0.280,-0.280,0.000,0.000,0.000
1605185249705888000,10.0.1.122,398,move_down,-0.300,-0.300,-0.300,0.000,0.000,0.000
1605185251206368000,10.0.1.122,390,move_down,-0.320,-0.320,-0.320,0.000,0.000,0.000
1605185252669129984,10.0.1.122,402,move_down,-0.340,-0.340,-0.340,0.000,0.000,0.000
1605185254097932032,10.0.1.122,385,move_down,-0.360,-0.360,-0.360,0.000,0.000,0.000
1605185255518704896,10.0.1.122,358,move_down,-0.380,-0.380,-0.380,0.000,0.000,0.000
1605185257006493184,10.0.1.122,402,move_down,-0.400,-0.400,-0.400,0.000,0.000,0.000
1605185258457568768,10.0.1.122,404,move_down,-0.420,-0.420,-0.420,0.000,0.000,0.000
1605185259906297856,10.0.1.122,405,move_down,-0.440,-0.440,-0.440,0.000,0.000,0.000
1605185261356508928,10.0.1.122,373,move_down,-0.460,-0.460,-0.460,0.000,0.000,0.000
1605185262776400128,10.0.1.122,368,move_down,-0.480,-0.480,-0.480,0.000,0.000,0.000
1605185264238146048,10.0.1.122,385,move_down,-0.500,-0.500,-0.500,0.000,0.000,0.000
1605185265669022976,10.0.1.122,385,move_down,-0.520,-0.520,-0.520,0.000,0.000,0.000
1605185267157499136,10.0.1.122,399,move_down,-0.540,-0.540,-0.540,0.000,0.000,0.000
1605185268596301056,10.0.1.122,406,move_down,-0.560,-0.560,-0.560,0.000,0.000,0.000
1605185270048226048,10.0.1.122,411,move_down,-0.580,-0.580,-0.580,0.000,0.000,0.000
1605185271126619136,10.0.1.122,38,pick,-0.590,-0.590,-0.590,0.000,0.000,0.000
1605185272126914048,10.0.1.122,37,pick,-0.600,-0.600,-0.600,0.000,0.000,0.000
1605185273126440960,10.0.1.122,35,pick,-0.610,-0.610,-0.610,0.000,0.000,0.000
1605185274126321152,10.0.1.122,34,pick,-0.620,-0.620,-0.620,0.000,0.000,0.000
1605185275126450944,10.0.1.122,32,pick,-0.630,-0.630,-0.630,0.000,0.000,0.000
1605185277095570176,10.0.1.122,NaN,pick,-0.650,-0.650,-0.650,0.000,0.000,0.000
1605185277146627840,10.0.1.122,50,pick,-0.650,-0.650,-0.650,0.000,0.000,0.000
1605185278146630144,10.0.1.122,49,pick,-0.660,-0.660,-0.660,0.000,0.000,0.000
1605185279146529792,10.0.1.122,48,pick,-0.670,-0.670,-0.670,0.000,0.000,0.000
1605185280146935040,10.0.1.122,47,pick,-0.680,-0.680,-0.680,0.000,0.000,0.000
1605185281146647808,10.0.1.122,45,pick,-0.690,-0.690,-0.690,0.000,0.000,0.000
1605185282148500992,10.0.1.122,46,pick,-0.700,-0.700,-0.700,0.000,0.000,0.000
1605185283147145984,10.0.1.122,43,pick,-0.710,-0.710,-0.710,0.000,0.000,0.000
1605185284145721856,10.0.1.122,41,pick,-0.720,-0.720,-0.720,0.000,0.000,0.000
1605185285147119872,10.0.1.122,41,pick,-0.730,-0.730,-0.730,0.000,0.000,0.000
1605185286147154176,10.0.1.122,39,pick,-0.740,-0.740,-0.740,0.000,0.000,0.000
1605185287146169856,10.0.1.122,37,pick,-0.750,-0.750,-0.750,0.000,0.000,0.000
1605185288145793024,10.0.1.122,36,pick,-0.760,-0.760,-0.760,0.000,0.000,0.000
1605185289145903104,10.0.1.122,34,pick,-0.770,-0.770,-0.770,0.000,0.000,0.000
1605185290495997952,10.0.1.122,383,move_up,-0.750,-0.750,-0.750,0.000,0.000,0.000
1605185291945700864,10.0.1.122,388,move_up,-0.730,-0.730,-0.730,0.000,0.000,0.000
1605185293393492992,10.0.1.122,386,move_up,-0.710,-0.710,-0.710,0.000,0.000,0.000
1605185294807537920,10.0.1.122,387,move_up,-0.690,-0.690,-0.690,0.000,0.000,0.000
1605185296256467968,10.0.1.122,382,move_up,-0.670,-0.670,-0.670,0.000,0.000,0.000
1605185297686717952,10.0.1.122,377,move_up,-0.650,-0.650,-0.650,0.000,0.000,0.000
1605185299156627968,10.0.1.122,402,move_up,-0.630,-0.630,-0.630,0.000,0.000,0.000
1605185300600316160,10.0.1.122,392,move_up,-0.610,-0.610,-0.610,0.000,0.000,0.000
1605185302056685056,10.0.1.122,402,move_up,-0.590,-0.590,-0.590,0.000,0.000,0.000
1605185303516305920,10.0.1.122,387,move_up,-0.570,-0.570,-0.570,0.000,0.000,0.000
1605185304966251008,10.0.1.122,395,move_up,-0.550,-0.550,-0.550,0.000,0.000,0.000
1605185306417202944,10.0.1.122,399,move_up,-0.530,-0.530,-0.530,0.000,0.000,0.000
1605185307896697088,10.0.1.122,430,move_up,-0.510,-0.510,-0.510,0.000,0.000,0.000
1605185309389702912,10.0.1.122,401,move_up,-0.490,-0.490,-0.490,0.000,0.000,0.000
1605185310910629888,10.0.1.122,453,move_up,-0.470,-0.470,-0.470,0.000,0.000,0.000
1605185312388259840,10.0.1.122,417,move_up,-0.450,-0.450,-0.450,0.000,0.000,0.000
1605185313857347072,10.0.1.122,393,move_up,-0.430,-0.430,-0.430,0.000,0.000,0.000
1605185315309639936,10.0.1.122,413,move_up,-0.410,-0.410,-0.410,0.000,0.000,0.000
1605185316777487104,10.0.1.122,393,move_up,-0.390,-0.390,-0.390,0.000,0.000,0.000
1605185318208344832,10.0.1.122,373,move_up,-0.370,-0.370,-0.370,0.000,0.000,0.000
1605185319648083968,10.0.1.122,391,move_up,-0.350,-0.350,-0.350,0.000,0.000,0.000
1605185321100694016,10.0.1.122,400,move_up,-0.330,-0.330,-0.330,0.000,0.000,0.000
1605185322476467968,10.0.1.122,361,move_up,-0.310,-0.310,-0.310,0.000,0.000,0.000
1605185323936884992,10.0.1.122,392,move_up,-0.290,-0.290,-0.290,0.000,0.000,0.000
1605185325378948096,10.0.1.122,390,move_up,-0.270,-0.270,-0.270,0.000,0.000,0.000
1605185326851206144,10.0.1.122,383,move_up,-0.250,-0.250,-0.250,0.000,0.000,0.000
1605185328337666048,10.0.1.122,435,move_up,-0.230,-0.230,-0.230,0.000,0.000,0.000
1605185329769468160,10.0.1.122,382,move_up,-0.210,-0.210,-0.210,0.000,0.000,0.000
1605185331166560000,10.0.1.122,372,move_up,-0.190,-0.190,-0.190,0.000,0.000,0.000
1605185332284684032,10.0.1.122,46,place,-0.180,-0.180,-0.180,0.000,0.000,0.000
1605185333286468864,10.0.1.122,46,place,-0.170,-0.170,-0.170,0.000,0.000,0.000
1605185334287673088,10.0.1.122,46,place,-0.160,-0.160,-0.160,0.000,0.000,0.000
1605185335280785152,10.0.1.122,38,place,-0.150,-0.150,-0.150,0.000,0.000,0.000
1605185336289572864,10.0.1.122,45,place,-0.140,-0.140,-0.140,0.000,0.000,0.000
1605185337289197056,10.0.1.122,44,place,-0.130,-0.130,-0.130,0.000,0.000,0.000
1605185338286547968,10.0.1.122,40,place,-0.120,-0.120,-0.120,0.000,0.000,0.000
1605185339288392192,10.0.1.122,40,place,-0.110,-0.110,-0.110,0.000,0.000,0.000
1605185340287427840,10.0.1.122,38,place,-0.100,-0.100,-0.100,0.000,0.000,0.000
1605185341288221952,10.0.1.122,37,place,-0.090,-0.090,-0.090,0.000,0.000,0.000
1605185342288239104,10.0.1.122,36,place,-0.080,-0.080,-0.080,0.000,0.000,0.000
1605185343286145024,10.0.1.122,33,place,-0.070,-0.070,-0.070,0.000,0.000,0.000
1605185344287406080,10.0.1.122,34,place,-0.060,-0.060,-0.060,0.000,0.000,0.000
1605185345289416192,10.0.1.122,34,place,-0.050,-0.050,-0.050,0.000,0.000,0.000
1605185346306371072,10.0.1.122,50,place,-0.040,-0.040,-0.040,0.000,0.000,0.000
1605185347308206080,10.0.1.122,51,place,-0.030,-0.030,-0.030,0.000,0.000,0.000
1605185348307333120,10.0.1.122,49,place,-0.020,-0.020,-0.020,0.000,0.000,0.000
1605185349307292928,10.0.1.122,47,place,-0.010,-0.010,-0.010,0.000,0.000,0.000
1605185350307432960,10.0.1.122,46,place,0.000,0.000,0.000,0.000,0.000,0.000
1605185351679339776,10.0.1.122,417,move_down,-0.020,-0.020,-0.020,0.000,0.000,0.000
1605185353107388928,10.0.1.122,369,move_down,-0.040,-0.040,-0.040,0.000,0.000,0.000
1605185354558233088,10.0.1.122,385,move_down,-0.060,-0.060,-0.060,0.000,0.000,0.000
1605185356016443136,10.0.1.122,400,move_down,-0.080,-0.080,-0.080,0.000,0.000,0.000
1605185357487299072,10.0.1.122,393,move_down,-0.100,-0.100,-0.100,0.000,0.000,0.000
1605185358927022080,10.0.1.122,379,move_down,-0.120,-0.120,-0.120,0.000,0.000,0.000
1605185360440040960,10.0.1.122,449,move_down,-0.140,-0.140,-0.140,0.000,0.000,0.000
1605185361898080000,10.0.1.122,392,move_down,-0.160,-0.160,-0.160,0.000,0.000,0.000
1605185363336003072,10.0.1.122,385,move_down,-0.180,-0.180,-0.180,0.000,0.000,0.000
1605185364786891008,10.0.1.122,395,move_down,-0.200,-0.200,-0.200,0.000,0.000,0.000
1605185366238960128,10.0.1.122,407,move_down,-0.220,-0.220,-0.220,0.000,0.000,0.000
1605185367676968960,10.0.1.122,383,move_down,-0.240,-0.240,-0.240,0.000,0.000,0.000
1605185369099104000,10.0.1.122,375,move_down,-0.260,-0.260,-0.260,0.000,0.000,0.000
1605185370525971968,10.0.1.122,371,move_down,-0.280,-0.280,-0.280,0.000,0.000,0.000
1605185372016097024,10.0.1.122,380,move_down,-0.300,-0.300,-0.300,0.000,0.000,0.000
1605185373445125120,10.0.1.122,381,move_down,-0.320,-0.320,-0.320,0.000,0.000,0.000
1605185374876157952,10.0.1.122,401,move_down,-0.340,-0.340,-0.340,0.000,0.000,0.000
1605185376343151104,10.0.1.122,395,move_down,-0.360,-0.360,-0.360,0.000,0.000,0.000
1605185377770320896,10.0.1.122,389,move_down,-0.380,-0.380,-0.380,0.000,0.000,0.000
1605185379217081088,10.0.1.122,389,move_down,-0.400,-0.400,-0.400,0.000,0.000,0.000
1605185380695770880,10.0.1.122,386,move_down,-0.420,-0.420,-0.420,0.000,0.000,0.000
1605185382136558080,10.0.1.122,372,move_down,-0.440,-0.440,-0.440,0.000,0.000,0.000
1605185383595858944,10.0.1.122,413,move_down,-0.460,-0.460,-0.460,0.000,0.000,0.000
1605185385048933120,10.0.1.122,390,move_down,-0.480,-0.480,-0.480,0.000,0.000,0.000
1605185386506556928,10.0.1.122,393,move_down,-0.500,-0.500,-0.500,0.000,0.000,0.000
1605185387939599872,10.0.1.122,380,move_down,-0.520,-0.520,-0.520,0.000,0.000,0.000
1605185389326131200,10.0.1.122,393,move_down,-0.540,-0.540,-0.540,0.000,0.000,0.000
1605185390776029952,10.0.1.122,399,move_down,-0.560,-0.560,-0.560,0.000,0.000,0.000
1605185392226265856,10.0.1.122,388,move_down,-0.580,-0.580,-0.580,0.000,0.000,0.000
1605185393307950080,10.0.1.122,50,pick,-0.590,-0.590,-0.590,0.000,0.000,0.000
1605185394306451968,10.0.1.122,47,pick,-0.600,-0.600,-0.600,0.000,0.000,0.000
1605185395305979904,10.0.1.122,44,pick,-0.610,-0.610,-0.610,0.000,0.000,0.000
1605185396307976960,10.0.1.122,45,pick,-0.620,-0.620,-0.620,0.000,0.000,0.000
1605185397306464000,10.0.1.122,42,pick,-0.630,-0.630,-0.630,0.000,0.000,0.000
1605185398308506112,10.0.1.122,43,pick,-0.640,-0.640,-0.640,0.000,0.000,0.000
1605185399307081984,10.0.1.122,40,pick,-0.650,-0.650,-0.650,0.000,0.000,0.000
1605185400306635008,10.0.1.122,38,pick,-0.660,-0.660,-0.660,0.000,0.000,0.000
1605185401306440960,10.0.1.122,37,pick,-0.670,-0.670,-0.670,0.000,0.000,0.000
1605185402306350080,10.0.1.122,36,pick,-0.680,-0.680,-0.680,0.000,0.000,0.000
1605185403306340864,10.0.1.122,34,pick,-0.690,-0.690,-0.690,0.000,0.000,0.000
1605185404306180096,10.0.1.122,33,pick,-0.700,-0.700,-0.700,0.000,0.000,0.000
1605185405306720000,10.0.1.122,32,pick,-0.710,-0.710,-0.710,0.000,0.000,0.000
1605185406326612992,10.0.1.122,51,pick,-0.720,-0.720,-0.720,0.000,0.000,0.000
1605185407326034944,10.0.1.122,49,pick,-0.730,-0.730,-0.730,0.000,0.000,0.000
1605185408326114048,10.0.1.122,47,pick,-0.740,-0.740,-0.740,0.000,0.000,0.000
1605185409325888000,10.0.1.122,46,pick,-0.750,-0.750,-0.750,0.000,0.000,0.000
1605185410326232064,10.0.1.122,45,pick,-0.760,-0.760,-0.760,0.000,0.000,0.000
1605185411325743872,10.0.1.122,43,pick,-0.770,-0.770,-0.770,0.000,0.000,0.000
1605185412686328832,10.0.1.122,403,move_up,-0.750,-0.750,-0.750,0.000,0.000,0.000
1605185414197032960,10.0.1.122,436,move_up,-0.730,-0.730,-0.730,0.000,0.000,0.000
1605185415706352896,10.0.1.122,425,move_up,-0.710,-0.710,-0.710,0.000,0.000,0.000
1605185417190107136,10.0.1.122,411,move_up,-0.690,-0.690,-0.690,0.000,0.000,0.000
1605185418708311040,10.0.1.122,410,move_up,-0.670,-0.670,-0.670,0.000,0.000,0.000
1605185420243177984,10.0.1.122,457,move_up,-0.650,-0.650,-0.650,0.000,0.000,0.000
1605185421717211136,10.0.1.122,402,move_up,-0.630,-0.630,-0.630,0.000,0.000,0.000
1605185423188759040,10.0.1.122,379,move_up,-0.610,-0.610,-0.610,0.000,0.000,0.000
1605185424618181888,10.0.1.122,390,move_up,-0.590,-0.590,-0.590,0.000,0.000,0.000
1605185426067665152,10.0.1.122,382,move_up,-0.570,-0.570,-0.570,0.000,0.000,0.000
1605185427538258176,10.0.1.122,403,move_up,-0.550,-0.550,-0.550,0.000,0.000,0.000
1605185428927261952,10.0.1.122,356,move_up,-0.530,-0.530,-0.530,0.000,0.000,0.000
1605185430378216960,10.0.1.122,398,move_up,-0.510,-0.510,-0.510,0.000,0.000,0.000
1605185431867638016,10.0.1.122,415,move_up,-0.490,-0.490,-0.490,0.000,0.000,0.000
1605185433317914112,10.0.1.122,391,move_up,-0.470,-0.470,-0.470,0.000,0.000,0.000
1605185434783328000,10.0.1.122,414,move_up,-0.450,-0.450,-0.450,0.000,0.000,0.000
1605185436243151872,10.0.1.122,390,move_up,-0.430,-0.430,-0.430,0.000,0.000,0.000
1605185437897645824,10.0.1.122,530,move_up,-0.410,-0.410,-0.410,0.000,0.000,0.000
1605185439428556032,10.0.1.122,474,move_up,-0.390,-0.390,-0.390,0.000,0.000,0.000
1605185440927710976,10.0.1.122,452,move_up,-0.370,-0.370,-0.370,0.000,0.000,0.000
1605185442457967104,10.0.1.122,468,move_up,-0.350,-0.350,-0.350,0.000,0.000,0.000
1605185443920306944,10.0.1.122,414,move_up,-0.330,-0.330,-0.330,0.000,0.000,0.000
1605185445449174784,10.0.1.122,426,move_up,-0.310,-0.310,-0.310,0.000,0.000,0.000
1605185446870071040,10.0.1.122,406,move_up,-0.290,-0.290,-0.290,0.000,0.000,0.000
1605185448339276032,10.0.1.122,400,move_up,-0.270,-0.270,-0.270,0.000,0.000,0.000
1605185449797751040,10.0.1.122,406,move_up,-0.250,-0.250,-0.250,0.000,0.000,0.000
1605185451310529024,10.0.1.122,438,move_up,-0.230,-0.230,-0.230,0.000,0.000,0.000
1605185452777911040,10.0.1.122,419,move_up,-0.210,-0.210,-0.210,0.000,0.000,0.000
1605185454274343936,10.0.1.122,435,move_up,-0.190,-0.190,-0.190,0.000,0.000,0.000
1605185455390487040,10.0.1.122,39,place,-0.180,-0.180,-0.180,0.000,0.000,0.000
1605185456393559040,10.0.1.122,40,place,-0.170,-0.170,-0.170,0.000,0.000,0.000
1605185457391923968,10.0.1.122,37,place,-0.160,-0.160,-0.160,0.000,0.000,0.000
1605185458390739968,10.0.1.122,36,place,-0.150,-0.150,-0.150,0.000,0.000,0.000
1605185459391489024,10.0.1.122,35,place,-0.140,-0.140,-0.140,0.000,0.000,0.000
1605185460409682944,10.0.1.122,52,place,-0.130,-0.130,-0.130,0.000,0.000,0.000
1605185461396475136,10.0.1.122,38,place,-0.120,-0.120,-0.120,0.000,0.000,0.000
1605185462415386880,10.0.1.122,52,place,-0.110,-0.110,-0.110,0.000,0.000,0.000
1605185463414041088,10.0.1.122,49,place,-0.100,-0.100,-0.100,0.000,0.000,0.000
1605185464413271808,10.0.1.122,47,place,-0.090,-0.090,-0.090,0.000,0.000,0.000
1605185465413274880,10.0.1.122,46,place,-0.080,-0.080,-0.080,0.000,0.000,0.000
1605185466413960960,10.0.1.122,45,place,-0.070,-0.070,-0.070,0.000,0.000,0.000
1605185467415909888,10.0.1.122,46,place,-0.060,-0.060,-0.060,0.000,0.000,0.000
1605185468415291136,10.0.1.122,44,place,-0.050,-0.050,-0.050,0.000,0.000,0.000
1605185469471076096,10.0.1.122,99,place,-0.040,-0.040,-0.040,0.000,0.000,0.000
1605185470414569984,10.0.1.122,41,place,-0.030,-0.030,-0.030,0.000,0.000,0.000
1605185471418407936,10.0.1.122,44,place,-0.020,-0.020,-0.020,0.000,0.000,0.000
1605185472413358080,10.0.1.122,37,place,-0.010,-0.010,-0.010,0.000,0.000,0.000
1605185473418451968,10.0.1.122,41,place,0.000,0.000,0.000,0.000,0.000,0.000
1605185474772627200,10.0.1.122,394,move_down,-0.020,-0.020,-0.020,0.000,0.000,0.000
1605185476272499200,10.0.1.122,419,move_down,-0.040,-0.040,-0.040,0.000,0.000,0.000
1605185477752023040,10.0.1.122,384,move_down,-0.060,-0.060,-0.060,0.000,0.000,0.000
1605185479222265088,10.0.1.122,384,move_down,-0.080,-0.080,-0.080,0.000,0.000,0.000
1605185480682495232,10.0.1.122,399,move_down,-0.100,-0.100,-0.100,0.000,0.000,0.000
1605185482194082048,10.0.1.122,421,move_down,-0.120,-0.120,-0.120,0.000,0.000,0.000
1605185483752214784,10.0.1.122,438,move_down,-0.140,-0.140,-0.140,0.000,0.000,0.000
1605185485262137856,10.0.1.122,397,move_down,-0.160,-0.160,-0.160,0.000,0.000,0.000
1605185486704182016,10.0.1.122,403,move_down,-0.180,-0.180,-0.180,0.000,0.000,0.000
1605185488161447936,10.0.1.122,408,move_down,-0.200,-0.200,-0.200,0.000,0.000,0.000
1605185489612886016,10.0.1.122,407,move_down,-0.220,-0.220,-0.220,0.000,0.000,0.000
1605185491081376000,10.0.1.122,393,move_down,-0.240,-0.240,-0.240,0.000,0.000,0.000
1605185492552524032,10.0.1.122,411,move_down,-0.260,-0.260,-0.260,0.000,0.000,0.000
1605185494003011840,10.0.1.122,378,move_down,-0.280,-0.280,-0.280,0.000,0.000,0.000
1605185495461958912,10.0.1.122,403,move_down,-0.300,-0.300,-0.300,0.000,0.000,0.000
1605185496961352960,10.0.1.122,388,move_down,-0.320,-0.320,-0.320,0.000,0.000,0.000
1605185498444547840,10.0.1.122,428,move_down,-0.340,-0.340,-0.340,0.000,0.000,0.000
1605185499952892160,10.0.1.122,416,move_down,-0.360,-0.360,-0.360,0.000,0.000,0.000
1605185501426914048,10.0.1.122,399,move_down,-0.380,-0.380,-0.380,0.000,0.000,0.000
1605185502912978944,10.0.1.122,432,move_down,-0.400,-0.400,-0.400,0.000,0.000,0.000
1605185504342937088,10.0.1.122,380,move_down,-0.420,-0.420,-0.420,0.000,0.000,0.000
1605185505825123072,10.0.1.122,410,move_down,-0.440,-0.440,-0.440,0.000,0.000,0.000
1605185507347577088,10.0.1.122,437,move_down,-0.460,-0.460,-0.460,0.000,0.000,0.000
1605185508784236800,10.0.1.122,385,move_down,-0.480,-0.480,-0.480,0.000,0.000,0.000
1605185510218219008,10.0.1.122,373,move_down,-0.500,-0.500,-0.500,0.000,0.000,0.000
1605185511734176000,10.0.1.122,442,move_down,-0.520,-0.520,-0.520,0.000,0.000,0.000
1605185513166832896,10.0.1.122,362,move_down,-0.540,-0.540,-0.540,0.000,0.000,0.000
1605185514645541888,10.0.1.122,391,move_down,-0.560,-0.560,-0.560,0.000,0.000,0.000
1605185516083432960,10.0.1.122,385,move_down,-0.580,-0.580,-0.580,0.000,0.000,0.000
1605185517146014976,10.0.1.122,36,pick,-0.590,-0.590,-0.590,0.000,0.000,0.000
1605185518148642048,10.0.1.122,38,pick,-0.600,-0.600,-0.600,0.000,0.000,0.000
1605185519144489984,10.0.1.122,32,pick,-0.610,-0.610,-0.610,0.000,0.000,0.000
1605185520163801856,10.0.1.122,50,pick,-0.620,-0.620,-0.620,0.000,0.000,0.000
1605185521164450816,10.0.1.122,50,pick,-0.630,-0.630,-0.630,0.000,0.000,0.000
1605185522168420096,10.0.1.122,53,pick,-0.640,-0.640,-0.640,0.000,0.000,0.000
1605185523163906048,10.0.1.122,47,pick,-0.650,-0.650,-0.650,0.000,0.000,0.000
1605185524166340096,10.0.1.122,48,pick,-0.660,-0.660,-0.660,0.000,0.000,0.000
1605185525164918016,10.0.1.122,45,pick,-0.670,-0.670,-0.670,0.000,0.000,0.000
1605185526164896000,10.0.1.122,45,pick,-0.680,-0.680,-0.680,0.000,0.000,0.000
1605185527168199936,10.0.1.122,47,pick,-0.690,-0.690,-0.690,0.000,0.000,0.000
1605185528166014976,10.0.1.122,45,pick,-0.700,-0.700,-0.700,0.000,0.000,0.000
1605185529164154880,10.0.1.122,39,pick,-0.710,-0.710,-0.710,0.000,0.000,0.000
1605185530163995136,10.0.1.122,38,pick,-0.720,-0.720,-0.720,0.000,0.000,0.000
1605185531167390976,10.0.1.122,41,pick,-0.730,-0.730,-0.730,0.000,0.000,0.000
1605185532163657984,10.0.1.122,36,pick,-0.740,-0.740,-0.740,0.000,0.000,0.000
1605185533164822016,10.0.1.122,35,pick,-0.750,-0.750,-0.750,0.000,0.000,0.000
1605185534165370112,10.0.1.122,35,pick,-0.760,-0.760,-0.760,0.000,0.000,0.000
1605185535166835968,10.0.1.122,36,pick,-0.770,-0.770,-0.770,0.000,0.000,0.000
1605185536548815104,10.0.1.122,417,move_up,-0.750,-0.750,-0.750,0.000,0.000,0.000
1605185538061198848,10.0.1.122,434,move_up,-0.730,-0.730,-0.730,0.000,0.000,0.000
1605185539524648960,10.0.1.122,409,move_up,-0.710,-0.710,-0.710,0.000,0.000,0.000
1605185540993971968,10.0.1.122,401,move_up,-0.690,-0.690,-0.690,0.000,0.000,0.000
1605185542463293952,10.0.1.122,383,move_up,-0.670,-0.670,-0.670,0.000,0.000,0.000
1605185543957428992,10.0.1.122,415,move_up,-0.650,-0.650,-0.650,0.000,0.000,0.000
1605185545425584128,10.0.1.122,423,move_up,-0.630,-0.630,-0.630,0.000,0.000,0.000
1605185546928642048,10.0.1.122,404,move_up,-0.610,-0.610,-0.610,0.000,0.000,0.000
1605185548327616000,10.0.1.122,369,move_up,-0.590,-0.590,-0.590,0.000,0.000,0.000
1605185549834096896,10.0.1.122,390,move_up,-0.570,-0.570,-0.570,0.000,0.000,0.000
1605185551315366144,10.0.1.122,388,move_up,-0.550,-0.550,-0.550,0.000,0.000,0.000
1605185552786170112,10.0.1.122,407,move_up,-0.530,-0.530,-0.530,0.000,0.000,0.000
1605185554333803008,10.0.1.122,439,move_up,-0.510,-0.510,-0.510,0.000,0.000,0.000
1605185555817362176,10.0.1.122,408,move_up,-0.490,-0.490,-0.490,0.000,0.000,0.000
1605185557293161984,10.0.1.122,399,move_up,-0.470,-0.470,-0.470,0.000,0.000,0.000
1605185558760675840,10.0.1.122,391,move_up,-0.450,-0.450,-0.450,0.000,0.000,0.000
1605185560222810880,10.0.1.122,405,move_up,-0.430,-0.430,-0.430,0.000,0.000,0.000
1605185561696499200,10.0.1.122,388,move_up,-0.410,-0.410,-0.410,0.000,0.000,0.000
1605185563135632896,10.0.1.122,377,move_up,-0.390,-0.390,-0.390,0.000,0.000,0.000
1605185564616620032,10.0.1.122,429,move_up,-0.370,-0.370,-0.370,0.000,0.000,0.000
1605185566063030016,10.0.1.122,394,move_up,-0.350,-0.350,-0.350,0.000,0.000,0.000
1605185567550234112,10.0.1.122,405,move_up,-0.330,-0.330,-0.330,0.000,0.000,0.000
1605185569032879104,10.0.1.122,407,move_up,-0.310,-0.310,-0.310,0.000,0.000,0.000
1605185570544320000,10.0.1.122,425,move_up,-0.290,-0.290,-0.290,0.000,0.000,0.000
1605185571997352960,10.0.1.122,401,move_up,-0.270,-0.270,-0.270,0.000,0.000,0.000
1605185573453360128,10.0.1.122,379,move_up,-0.250,-0.250,-0.250,0.000,0.000,0.000
1605185574887897856,10.0.1.122,378,move_up,-0.230,-0.230,-0.230,0.000,0.000,0.000
1605185576384815872,10.0.1.122,394,move_up,-0.210,-0.210,-0.210,0.000,0.000,0.000
1605185577895397888,10.0.1.122,391,move_up,-0.190,-0.190,-0.190,0.000,0.000,0.000
1605185579041047040,10.0.1.122,55,place,-0.180,-0.180,-0.180,0.000,0.000,0.000
1605185580038285056,10.0.1.122,50,place,-0.170,-0.170,-0.170,0.000,0.000,0.000
1605185581039670016,10.0.1.122,50,place,-0.160,-0.160,-0.160,0.000,0.000,0.000
1605185582034338048,10.0.1.122,43,place,-0.150,-0.150,-0.150,0.000,0.000,0.000
1605185583035746048,10.0.1.122,38,place,-0.140,-0.140,-0.140,0.000,0.000,0.000
1605185584037812992,10.0.1.122,38,place,-0.130,-0.130,-0.130,0.000,0.000,0.000
1605185585033641216,10.0.1.122,33,place,-0.120,-0.120,-0.120,0.000,0.000,0.000
1605185586053709056,10.0.1.122,49,place,-0.110,-0.110,-0.110,0.000,0.000,0.000
1605185588005979904,10.0.1.122,NaN,place,-0.090,-0.090,-0.090,0.000,0.000,0.000
1605185588053046016,10.0.1.122,46,place,-0.090,-0.090,-0.090,0.000,0.000,0.000
1605185589054665216,10.0.1.122,45,place,-0.080,-0.080,-0.080,0.000,0.000,0.000
1605185590060173056,10.0.1.122,49,place,-0.070,-0.070,-0.070,0.000,0.000,0.000
1605185591052723968,10.0.1.122,40,place,-0.060,-0.060,-0.060,0.000,0.000,0.000
1605185592058945024,10.0.1.122,45,place,-0.050,-0.050,-0.050,0.000,0.000,0.000
1605185593055569920,10.0.1.122,41,place,-0.040,-0.040,-0.040,0.000,0.000,0.000
1605185594054786816,10.0.1.122,39,place,-0.030,-0.030,-0.030,0.000,0.000,0.000
1605185595056341760,10.0.1.122,39,place,-0.020,-0.020,-0.020,0.000,0.000,0.000
1605185596053842944,10.0.1.122,35,place,-0.010,-0.010,-0.010,0.000,0.000,0.000
1605185597059540992,10.0.1.122,40,place,0.000,0.000,0.000,0.000,0.000,0.000
1605185598413224960,10.0.1.122,392,move_down,-0.020,-0.020,-0.020,0.000,0.000,0.000
1605185599953421056,10.0.1.122,452,move_down,-0.040,-0.040,-0.040,0.000,0.000,0.000
1605185601414202880,10.0.1.122,423,move_down,-0.060,-0.060,-0.060,0.000,0.000,0.000
1605185602873159936,10.0.1.122,399,move_down,-0.080,-0.080,-0.080,0.000,0.000,0.000
1605185604364279040,10.0.1.122,414,move_down,-0.100,-0.100,-0.100,0.000,0.000,0.000
1605185605838903808,10.0.1.122,377,move_down,-0.120,-0.120,-0.120,0.000,0.000,0.000
1605185607277057024,10.0.1.122,370,move_down,-0.140,-0.140,-0.140,0.000,0.000,0.000
1605185608734963968,10.0.1.122,393,move_down,-0.160,-0.160,-0.160,0.000,0.000,0.000
1605185610247132928,10.0.1.122,407,move_down,-0.180,-0.180,-0.180,0.000,0.000,0.000
1605185611684487168,10.0.1.122,394,move_down,-0.200,-0.200,-0.200,0.000,0.000,0.000
1605185613157420032,10.0.1.122,393,move_down,-0.220,-0.220,-0.220,0.000,0.000,0.000
1605185614625540096,10.0.1.122,413,move_down,-0.240,-0.240,-0.240,0.000,0.000,0.000
1605185616167376128,10.0.1.122,429,move_down,-0.260,-0.260,-0.260,0.000,0.000,0.000
1605185617663995136,10.0.1.122,404,move_down,-0.280,-0.280,-0.280,0.000,0.000,0.000
1605185619275203072,10.0.1.122,448,move_down,-0.300,-0.300,-0.300,0.000,0.000,0.000
1605185620797693952,10.0.1.122,438,move_down,-0.320,-0.320,-0.320,0.000,0.000,0.000
1605185622339960064,10.0.1.122,458,move_down,-0.340,-0.340,-0.340,0.000,0.000,0.000
1605185623791971072,10.0.1.122,447,move_down,-0.360,-0.360,-0.360,0.000,0.000,0.000
1605185625277254144,10.0.1.122,397,move_down,-0.380,-0.380,-0.380,0.000,0.000,0.000
1605185626795356928,10.0.1.122,439,move_down,-0.400,-0.400,-0.400,0.000,0.000,0.000
1605185628333344000,10.0.1.122,447,move_down,-0.420,-0.420,-0.420,0.000,0.000,0.000
1605185629824898048,10.0.1.122,415,move_down,-0.440,-0.440,-0.440,0.000,0.000,0.000
1605185631399235072,10.0.1.122,451,move_down,-0.460,-0.460,-0.460,0.000,0.000,0.000
1605185632934811136,10.0.1.122,452,move_down,-0.480,-0.480,-0.480,0.000,0.000,0.000
1605185634457271040,10.0.1.122,455,move_down,-0.500,-0.500,-0.500,0.000,0.000,0.000
1605185635963824896,10.0.1.122,437,move_down,-0.520,-0.520,-0.520,0.000,0.000,0.000
1605185637456852992,10.0.1.122,389,move_down,-0.540,-0.540,-0.540,0.000,0.000,0.000
1605185638988367104,10.0.1.122,441,move_down,-0.560,-0.560,-0.560,0.000,0.000,0.000
1605185640437124864,10.0.1.122,406,move_down,-0.580,-0.580,-0.580,0.000,0.000,0.000
1605185641554418944,10.0.1.122,35,pick,-0.590,-0.590,-0.590,0.000,0.000,0.000
1605185642557041920,10.0.1.122,36,pick,-0.600,-0.600,-0.600,0.000,0.000,0.000
1605185643556591872,10.0.1.122,35,pick,-0.610,-0.610,-0.610,0.000,0.000,0.000
1605185644558834176,10.0.1.122,35,pick,-0.620,-0.620,-0.620,0.000,0.000,0.000
1605185645575057152,10.0.1.122,50,pick,-0.630,-0.630,-0.630,0.000,0.000,0.000
1605185646575067904,10.0.1.122,49,pick,-0.640,-0.640,-0.640,0.000,0.000,0.000
1605185647577434112,10.0.1.122,50,pick,-0.650,-0.650,-0.650,0.000,0.000,0.000
1605185648574755072,10.0.1.122,46,pick,-0.660,-0.660,-0.660,0.000,0.000,0.000
1605185649577323008,10.0.1.122,47,pick,-0.670,-0.670,-0.670,0.000,0.000,0.000
1605185650574243072,10.0.1.122,43,pick,-0.680,-0.680,-0.680,0.000,0.000,0.000
1605185651573736960,10.0.1.122,41,pick,-0.690,-0.690,-0.690,0.000,0.000,0.000
1605185652576558080,10.0.1.122,42,pick,-0.700,-0.700,-0.700,0.000,0.000,0.000
1605185653573626880,10.0.1.122,38,pick,-0.710,-0.710,-0.710,0.000,0.000,0.000
1605185654582972928,10.0.1.122,45,pick,-0.720,-0.720,-0.720,0.000,0.000,0.000
1605185655573876992,10.0.1.122,35,pick,-0.730,-0.730,-0.730,0.000,0.000,0.000
1605185656574150144,10.0.1.122,34,pick,-0.740,-0.740,-0.740,0.000,0.000,0.000
1605185657574521088,10.0.1.122,33,pick,-0.750,-0.750,-0.750,0.000,0.000,0.000
1605185658575009024,10.0.1.122,32,pick,-0.760,-0.760,-0.760,0.000,0.000,0.000
1605185659598766080,10.0.1.122,55,pick,-0.770,-0.770,-0.770,0.000,0.000,0.000
1605185660933843968,10.0.1.122,389,move_up,-0.750,-0.750,-0.750,0.000,0.000,0.000
1605185662405325824,10.0.1.122,406,move_up,-0.730,-0.730,-0.730,0.000,0.000,0.000
1605185663868196864,10.0.1.122,387,move_up,-0.710,-0.710,-0.710,0.000,0.000,0.000
1605185665289767936,10.0.1.122,377,move_up,-0.690,-0.690,-0.690,0.000,0.000,0.000
1605185666714117888,10.0.1.122,388,move_up,-0.670,-0.670,-0.670,0.000,0.000,0.000
1605185668190823168,10.0.1.122,419,move_up,-0.650,-0.650,-0.650,0.000,0.000,0.000
1605185669664439808,10.0.1.122,416,move_up,-0.630,-0.630,-0.630,0.000,0.000,0.000
1605185671085666048,10.0.1.122,366,move_up,-0.610,-0.610,-0.610,0.000,0.000,0.000
1605185672595091968,10.0.1.122,387,move_up,-0.590,-0.590,-0.590,0.000,0.000,0.000
1605185674064606976,10.0.1.122,406,move_up,-0.570,-0.570,-0.570,0.000,0.000,0.000
1605185675486078976,10.0.1.122,398,move_up,-0.550,-0.550,-0.550,0.000,0.000,0.000
1605185676947841024,10.0.1.122,380,move_up,-0.530,-0.530,-0.530,0.000,0.000,0.000
1605185678424498176,10.0.1.122,445,move_up,-0.510,-0.510,-0.510,0.000,0.000,0.000
1605185679925353984,10.0.1.122,428,move_up,-0.490,-0.490,-0.490,0.000,0.000,0.000
1605185681405872128,10.0.1.122,393,move_up,-0.470,-0.470,-0.470,0.000,0.000,0.000
1605185682906810880,10.0.1.122,413,move_up,-0.450,-0.450,-0.450,0.000,0.000,0.000
1605185684396835072,10.0.1.122,383,move_up,-0.430,-0.430,-0.430,0.000,0.000,0.000
1605185685925551872,10.0.1.122,400,move_up,-0.410,-0.410,-0.410,0.000,0.000,0.000
1605185687395248896,10.0.1.122,402,move_up,-0.390,-0.390,-0.390,0.000,0.000,0.000
1605185688893747200,10.0.1.122,421,move_up,-0.370,-0.370,-0.370,0.000,0.000,0.000
1605185690349773824,10.0.1.122,399,move_up,-0.350,-0.350,-0.350,0.000,0.000,0.000
1605185691904602880,10.0.1.122,459,move_up,-0.330,-0.330,-0.330,0.000,0.000,0.000
1605185693424824832,10.0.1.122,441,move_up,-0.310,-0.310,-0.310,0.000,0.000,0.000
1605185694964732928,10.0.1.122,410,move_up,-0.290,-0.290,-0.290,0.000,0.000,0.000
1605185696535438080,10.0.1.122,485,move_up,-0.270,-0.270,-0.270,0.000,0.000,0.000
1605185697977684992,10.0.1.122,400,move_up,-0.250,-0.250,-0.250,0.000,0.000,0.000
1605185699464765184,10.0.1.122,407,move_up,-0.230,-0.230,-0.230,0.000,0.000,0.000
1605185700941005824,10.0.1.122,406,move_up,-0.210,-0.210,-0.210,0.000,0.000,0.000
1605185702441095168,10.0.1.122,415,move_up,-0.190,-0.190,-0.190,0.000,0.000,0.000
1605185703540473088,10.0.1.122,43,place,-0.180,-0.180,-0.180,0.000,0.000,0.000
1605185704534182144,10.0.1.122,36,place,-0.170,-0.170,-0.170,0.000,0.000,0.000
1605185705534856192,10.0.1.122,35,place,-0.160,-0.160,-0.160,0.000,0.000,0.000
1605185706534661888,10.0.1.122,34,place,-0.150,-0.150,-0.150,0.000,0.000,0.000
1605185707534533888,10.0.1.122,32,place,-0.140,-0.140,-0.140,0.000,0.000,0.000
1605185708537415936,10.0.1.122,34,place,-0.130,-0.130,-0.130,0.000,0.000,0.000
1605185709553935104,10.0.1.122,50,place,-0.120,-0.120,-0.120,0.000,0.000,0.000
1605185710552494080,10.0.1.122,47,place,-0.110,-0.110,-0.110,0.000,0.000,0.000
1605185711558518016,10.0.1.122,52,place,-0.100,-0.100,-0.100,0.000,0.000,0.000
1605185712562880000,10.0.1.122,55,place,-0.090,-0.090,-0.090,0.000,0.000,0.000
1605185713553828864,10.0.1.122,45,place,-0.080,-0.080,-0.080,0.000,0.000,0.000
1605185714565784832,10.0.1.122,55,place,-0.070,-0.070,-0.070,0.000,0.000,0.000
1605185715553987072,10.0.1.122,42,place,-0.060,-0.060,-0.060,0.000,0.000,0.000
1605185716553849088,10.0.1.122,41,place,-0.050,-0.050,-0.050,0.000,0.000,0.000
1605185717556928000,10.0.1.122,42,place,-0.040,-0.040,-0.040,0.000,0.000,0.000
1605185718553585920,10.0.1.122,38,place,-0.030,-0.030,-0.030,0.000,0.000,0.000
1605185719555737856,10.0.1.122,38,place,-0.020,-0.020,-0.020,0.000,0.000,0.000
1605185720553828096,10.0.1.122,34,place,-0.010,-0.010,-0.010,0.000,0.000,0.000
1605185721554074112,10.0.1.122,34,place,0.000,0.000,0.000,0.000,0.000,0.000
1605185722919617792,10.0.1.122,398,move_down,-0.020,-0.020,-0.020,0.000,0.000,0.000
1605185724347727104,10.0.1.122,376,move_down,-0.040,-0.040,-0.040,0.000,0.000,0.000
1605185725785434880,10.0.1.122,396,move_down,-0.060,-0.060,-0.060,0.000,0.000,0.000
1605185727257787904,10.0.1.122,424,move_down,-0.080,-0.080,-0.080,0.000,0.000,0.000
1605185728723651840,10.0.1.122,432,move_down,-0.100,-0.100,-0.100,0.000,0.000,0.000
1605185730206609920,10.0.1.122,398,move_down,-0.120,-0.120,-0.120,0.000,0.000,0.000
1605185731667723776,10.0.1.122,385,move_down,-0.140,-0.140,-0.140,0.000,0.000,0.000
1605185733145394176,10.0.1.122,415,move_down,-0.160,-0.160,-0.160,0.000,0.000,0.000
1605185734695449088,10.0.1.122,469,move_down,-0.180,-0.180,-0.180,0.000,0.000,0.000
1605185736205417984,10.0.1.122,429,move_down,-0.200,-0.200,-0.200,0.000,0.000,0.000
1605185737734023936,10.0.1.122,434,move_down,-0.220,-0.220,-0.220,0.000,0.000,0.000
1605185739205530880,10.0.1.122,390,move_down,-0.240,-0.240,-0.240,0.000,0.000,0.000
1605185740746167040,10.0.1.122,448,move_down,-0.260,-0.260,-0.260,0.000,0.000,0.000
1605185742206366976,10.0.1.122,397,move_down,-0.280,-0.280,-0.280,0.000,0.000,0.000
1605185743685998848,10.0.1.122,391,move_down,-0.300,-0.300,-0.300,0.000,0.000,0.000
1605185745160673024,10.0.1.122,384,move_down,-0.320,-0.320,-0.320,0.000,0.000,0.000
1605185746615973120,10.0.1.122,403,move_down,-0.340,-0.340,-0.340,0.000,0.000,0.000
1605185748085302016,10.0.1.122,393,move_down,-0.360,-0.360,-0.360,0.000,0.000,0.000
1605185749559912960,10.0.1.122,388,move_down,-0.380,-0.380,-0.380,0.000,0.000,0.000
1605185751045124096,10.0.1.122,415,move_down,-0.400,-0.400,-0.400,0.000,0.000,0.000
1605185752504967936,10.0.1.122,383,move_down,-0.420,-0.420,-0.420,0.000,0.000,0.000
1605185754041202944,10.0.1.122,457,move_down,-0.440,-0.440,-0.440,0.000,0.000,0.000
1605185755475909120,10.0.1.122,410,move_down,-0.460,-0.460,-0.460,0.000,0.000,0.000
1605185756905113856,10.0.1.122,388,move_down,-0.480,-0.480,-0.480,0.000,0.000,0.000
1605185758321487872,10.0.1.122,381,move_down,-0.500,-0.500,-0.500,0.000,0.000,0.000
1605185759796154112,10.0.1.122,444,move_down,-0.520,-0.520,-0.520,0.000,0.000,0.000
1605185761247154944,10.0.1.122,401,move_down,-0.540,-0.540,-0.540,0.000,0.000,0.000
1605185762735922944,10.0.1.122,464,move_down,-0.560,-0.560,-0.560,0.000,0.000,0.000
1605185764218501120,10.0.1.122,425,move_down,-0.580,-0.580,-0.580,0.000,0.000,0.000
1605185765325297152,10.0.1.122,49,pick,-0.590,-0.590,-0.590,0.000,0.000,0.000
1605185766328047104,10.0.1.122,51,pick,-0.600,-0.600,-0.600,0.000,0.000,0.000
1605185767326256896,10.0.1.122,47,pick,-0.610,-0.610,-0.610,0.000,0.000,0.000
1605185768324548096,10.0.1.122,44,pick,-0.620,-0.620,-0.620,0.000,0.000,0.000
1605185769324503808,10.0.1.122,43,pick,-0.630,-0.630,-0.630,0.000,0.000,0.000
1605185770325854976,10.0.1.122,43,pick,-0.640,-0.640,-0.640,0.000,0.000,0.000
1605185771325862912,10.0.1.122,42,pick,-0.650,-0.650,-0.650,0.000,0.000,0.000
1605185772325712896,10.0.1.122,40,pick,-0.660,-0.660,-0.660,0.000,0.000,0.000
1605185773325506816,10.0.1.122,39,pick,-0.670,-0.670,-0.670,0.000,0.000,0.000
1605185774349664000,10.0.1.122,62,pick,-0.680,-0.680,-0.680,0.000,0.000,0.000
1605185775325223936,10.0.1.122,36,pick,-0.690,-0.690,-0.690,0.000,0.000,0.000
1605185776326618880,10.0.1.122,36,pick,-0.700,-0.700,-0.700,0.000,0.000,0.000
1605185777328305920,10.0.1.122,36,pick,-0.710,-0.710,-0.710,0.000,0.000,0.000
1605185778328023040,10.0.1.122,35,pick,-0.720,-0.720,-0.720,0.000,0.000,0.000
1605185779345251072,10.0.1.122,51,pick,-0.730,-0.730,-0.730,0.000,0.000,0.000
1605185780344840960,10.0.1.122,49,pick,-0.740,-0.740,-0.740,0.000,0.000,0.000
1605185781343980032,10.0.1.122,47,pick,-0.750,-0.750,-0.750,0.000,0.000,0.000
1605185782345193984,10.0.1.122,47,pick,-0.760,-0.760,-0.760,0.000,0.000,0.000
1605185783354183936,10.0.1.122,54,pick,-0.770,-0.770,-0.770,0.000,0.000,0.000
1605185784766529024,10.0.1.122,465,move_up,-0.750,-0.750,-0.750,0.000,0.000,0.000
1605185786288206080,10.0.1.122,462,move_up,-0.730,-0.730,-0.730,0.000,0.000,0.000
1605185787851928832,10.0.1.122,472,move_up,-0.710,-0.710,-0.710,0.000,0.000,0.000
1605185789368254976,10.0.1.122,434,move_up,-0.690,-0.690,-0.690,0.000,0.000,0.000
1605185790857454080,10.0.1.122,403,move_up,-0.670,-0.670,-0.670,0.000,0.000,0.000
1605185792378644992,10.0.1.122,442,move_up,-0.650,-0.650,-0.650,0.000,0.000,0.000
1605185793795120128,10.0.1.122,399,move_up,-0.630,-0.630,-0.630,0.000,0.000,0.000
1605185795280968960,10.0.1.122,397,move_up,-0.610,-0.610,-0.610,0.000,0.000,0.000
1605185796815340032,10.0.1.122,453,move_up,-0.590,-0.590,-0.590,0.000,0.000,0.000
1605185798350956800,10.0.1.122,464,move_up,-0.570,-0.570,-0.570,0.000,0.000,0.000
1605185799795527936,10.0.1.122,436,move_up,-0.550,-0.550,-0.550,0.000,0.000,0.000
1605185801255748096,10.0.1.122,373,move_up,-0.530,-0.530,-0.530,0.000,0.000,0.000
1605185802728118016,10.0.1.122,408,move_up,-0.510,-0.510,-0.510,0.000,0.000,0.000
1605185804178611968,10.0.1.122,374,move_up,-0.490,-0.490,-0.490,0.000,0.000,0.000
1605185805698735104,10.0.1.122,409,move_up,-0.470,-0.470,-0.470,0.000,0.000,0.000
1605185807215696128,10.0.1.122,432,move_up,-0.450,-0.450,-0.450,0.000,0.000,0.000
1605185808713372928,10.0.1.122,422,move_up,-0.430,-0.430,-0.430,0.000,0.000,0.000
1605185810180955904,10.0.1.122,389,move_up,-0.410,-0.410,-0.410,0.000,0.000,0.000
1605185811669952000,10.0.1.122,397,move_up,-0.390,-0.390,-0.390,0.000,0.000,0.000
1605185813192002048,10.0.1.122,405,move_up,-0.370,-0.370,-0.370,0.000,0.000,0.000
1605185814718568960,10.0.1.122,425,move_up,-0.350,-0.350,-0.350,0.000,0.000,0.000
1605185816234226944,10.0.1.122,425,move_up,-0.330,-0.330,-0.330,0.000,0.000,0.000
1605185817708591872,10.0.1.122,416,move_up,-0.310,-0.310,-0.310,0.000,0.000,0.000
1605185819249156864,10.0.1.122,482,move_up,-0.290,-0.290,-0.290,0.000,0.000,0.000
1605185820712683008,10.0.1.122,411,move_up,-0.270,-0.270,-0.270,0.000,0.000,0.000
1605185822148300800,10.0.1.122,402,move_up,-0.250,-0.250,-0.250,0.000,0.000,0.000
1605185823636466944,10.0.1.122,441,move_up,-0.230,-0.230,-0.230,0.000,0.000,0.000
1605185825110758144,10.0.1.122,429,move_up,-0.210,-0.210,-0.210,0.000,0.000,0.000
1605185826610157056,10.0.1.122,409,move_up,-0.190,-0.190,-0.190,0.000,0.000,0.000
1605185827745529856,10.0.1.122,57,place,-0.180,-0.180,-0.180,0.000,0.000,0.000
1605185828745750784,10.0.1.122,56,place,-0.170,-0.170,-0.170,0.000,0.000,0.000
1605185829733221888,10.0.1.122,43,place,-0.160,-0.160,-0.160,0.000,0.000,0.000
1605185830729830912,10.0.1.122,38,place,-0.150,-0.150,-0.150,0.000,0.000,0.000
1605185831738735872,10.0.1.122,45,place,-0.140,-0.140,-0.140,0.000,0.000,0.000
1605185832732012032,10.0.1.122,38,place,-0.130,-0.130,-0.130,0.000,0.000,0.000
1605185833756046080,10.0.1.122,61,place,-0.120,-0.120,-0.120,0.000,0.000,0.000
1605185834728410112,10.0.1.122,31,place,-0.110,-0.110,-0.110,0.000,0.000,0.000
1605185835757320960,10.0.1.122,59,place,-0.100,-0.100,-0.100,0.000,0.000,0.000
1605185836746160896,10.0.1.122,46,place,-0.090,-0.090,-0.090,0.000,0.000,0.000
1605185837745701120,10.0.1.122,44,place,-0.080,-0.080,-0.080,0.000,0.000,0.000
1605185838752721920,10.0.1.122,50,place,-0.070,-0.070,-0.070,0.000,0.000,0.000
1605185839752670976,10.0.1.122,49,place,-0.060,-0.060,-0.060,0.000,0.000,0.000
1605185840744560896,10.0.1.122,39,place,-0.050,-0.050,-0.050,0.000,0.000,0.000
1605185841752480000,10.0.1.122,46,place,-0.040,-0.040,-0.040,0.000,0.000,0.000
1605185842745491968,10.0.1.122,38,place,-0.030,-0.030,-0.030,0.000,0.000,0.000
1605185843754544896,10.0.1.122,45,place,-0.020,-0.020,-0.020,0.000,0.000,0.000
1605185844761889024,10.0.1.122,51,place,-0.010,-0.010,-0.010,0.000,0.000,0.000
1605185845755450880,10.0.1.122,43,place,0.000,0.000,0.000,0.000,0.000,0.000
1605185847105825024,10.0.1.122,393,move_down,-0.020,-0.020,-0.020,0.000,0.000,0.000
1605185848639152896,10.0.1.122,460,move_down,-0.040,-0.040,-0.040,0.000,0.000,0.000
1605185850121165056,10.0.1.122,411,move_down,-0.060,-0.060,-0.060,0.000,0.000,0.000
1605185851554086912,10.0.1.122,390,move_down,-0.080,-0.080,-0.080,0.000,0.000,0.000
1605185853075268864,10.0.1.122,425,move_down,-0.100,-0.100,-0.100,0.000,0.000,0.000
1605185854659785984,10.0.1.122,480,move_down,-0.120,-0.120,-0.120,0.000,0.000,0.000
1605185856196544768,10.0.1.122,471,move_down,-0.140,-0.140,-0.140,0.000,0.000,0.000
1605185857698776064,10.0.1.122,401,move_down,-0.160,-0.160,-0.160,0.000,0.000,0.000
1605185859163863808,10.0.1.122,379,move_down,-0.180,-0.180,-0.180,0.000,0.000,0.000
1605185860694226944,10.0.1.122,426,move_down,-0.200,-0.200,-0.200,0.000,0.000,0.000
1605185862153945856,10.0.1.122,409,move_down,-0.220,-0.220,-0.220,0.000,0.000,0.000
1605185863674905088,10.0.1.122,427,move_down,-0.240,-0.240,-0.240,0.000,0.000,0.000
1605185865096997120,10.0.1.122,407,move_down,-0.260,-0.260,-0.260,0.000,0.000,0.000
1605185866640350976,10.0.1.122,466,move_down,-0.280,-0.280,-0.280,0.000,0.000,0.000
1605185868135245056,10.0.1.122,437,move_down,-0.300,-0.300,-0.300,0.000,0.000,0.000
1605185869642999808,10.0.1.122,415,move_down,-0.320,-0.320,-0.320,0.000,0.000,0.000
1605185871141283072,10.0.1.122,427,move_down,-0.340,-0.340,-0.340,0.000,0.000,0.000
1605185872642647040,10.0.1.122,411,move_down,-0.360,-0.360,-0.360,0.000,0.000,0.000
1605185874164561152,10.0.1.122,428,move_down,-0.380,-0.380,-0.380,0.000,0.000,0.000
1605185875764563200,10.0.1.122,467,move_down,-0.400,-0.400,-0.400,0.000,0.000,0.000
1605185877290957056,10.0.1.122,427,move_down,-0.420,-0.420,-0.420,0.000,0.000,0.000
1605185878854959872,10.0.1.122,491,move_down,-0.440,-0.440,-0.440,0.000,0.000,0.000
1605185880363843840,10.0.1.122,394,move_down,-0.460,-0.460,-0.460,0.000,0.000,0.000
1605185881877479168,10.0.1.122,409,move_down,-0.480,-0.480,-0.480,0.000,0.000,0.000
1605185883420382976,10.0.1.122,461,move_down,-0.500,-0.500,-0.500,0.000,0.000,0.000
1605185884893539840,10.0.1.122,390,move_down,-0.520,-0.520,-0.520,0.000,0.000,0.000
1605185886330388992,10.0.1.122,404,move_down,-0.540,-0.540,-0.540,0.000,0.000,0.000
1605185887797810944,10.0.1.122,426,move_down,-0.560,-0.560,-0.560,0.000,0.000,0.000
1605185889301285120,10.0.1.122,416,move_down,-0.580,-0.580,-0.580,0.000,0.000,0.000
1605185890447544064,10.0.1.122,67,pick,-0.590,-0.590,-0.590,0.000,0.000,0.000
1605185891430174208,10.0.1.122,47,pick,-0.600,-0.600,-0.600,0.000,0.000,0.000
1605185892418590976,10.0.1.122,34,pick,-0.610,-0.610,-0.610,0.000,0.000,0.000
1605185893418062080,10.0.1.122,33,pick,-0.620,-0.620,-0.620,0.000,0.000,0.000
1605185894419392000,10.0.1.122,28,pick,-0.630,-0.630,-0.630,0.000,0.000,0.000
1605185895442953216,10.0.1.122,51,pick,-0.640,-0.640,-0.640,0.000,0.000,0.000
1605185896438981120,10.0.1.122,45,pick,-0.650,-0.650,-0.650,0.000,0.000,0.000
1605185897457494016,10.0.1.122,62,pick,-0.660,-0.660,-0.660,0.000,0.000,0.000
1605185898441705984,10.0.1.122,45,pick,-0.670,-0.670,-0.670,0.000,0.000,0.000
1605185900398660864,10.0.1.122,NaN,pick,-0.690,-0.690,-0.690,0.000,0.000,0.000
1605185900443092224,10.0.1.122,44,pick,-0.690,-0.690,-0.690,0.000,0.000,0.000
1605185901443442944,10.0.1.122,43,pick,-0.700,-0.700,-0.700,0.000,0.000,0.000
1605185902445268992,10.0.1.122,43,pick,-0.710,-0.710,-0.710,0.000,0.000,0.000
1605185903449345024,10.0.1.122,46,pick,-0.720,-0.720,-0.720,0.000,0.000,0.000
1605185904459410944,10.0.1.122,51,pick,-0.730,-0.730,-0.730,0.000,0.000,0.000
1605185905462294016,10.0.1.122,52,pick,-0.740,-0.740,-0.740,0.000,0.000,0.000
1605185906461291008,10.0.1.122,50,pick,-0.750,-0.750,-0.750,0.000,0.000,0.000
1605185907465984000,10.0.1.122,54,pick,-0.760,-0.760,-0.760,0.000,0.000,0.000
1605185908461915136,10.0.1.122,49,pick,-0.770,-0.770,-0.770,0.000,0.000,0.000
1605185909838351104,10.0.1.122,425,move_up,-0.750,-0.750,-0.750,0.000,0.000,0.000
1605185911290076928,10.0.1.122,398,move_up,-0.730,-0.730,-0.730,0.000,0.000,0.000
1605185912767965952,10.0.1.122,382,move_up,-0.710,-0.710,-0.710,0.000,0.000,0.000
1605185914348881920,10.0.1.122,450,move_up,-0.690,-0.690,-0.690,0.000,0.000,0.000
1605185915768685056,10.0.1.122,412,move_up,-0.670,-0.670,-0.670,0.000,0.000,0.000
1605185917269035008,10.0.1.122,420,move_up,-0.650,-0.650,-0.650,0.000,0.000,0.000
1605185918751667968,10.0.1.122,416,move_up,-0.630,-0.630,-0.630,0.000,0.000,0.000
1605185920258598144,10.0.1.122,426,move_up,-0.610,-0.610,-0.610,0.000,0.000,0.000
1605185921738859776,10.0.1.122,383,move_up,-0.590,-0.590,-0.590,0.000,0.000,0.000
1605185923204862208,10.0.1.122,422,move_up,-0.570,-0.570,-0.570,0.000,0.000,0.000
1605185924683092224,10.0.1.122,412,move_up,-0.550,-0.550,-0.550,0.000,0.000,0.000
1605185926181901824,10.0.1.122,407,move_up,-0.530,-0.530,-0.530,0.000,0.000,0.000
1605185927659020032,10.0.1.122,400,move_up,-0.510,-0.510,-0.510,0.000,0.000,0.000
