milangroshev/digital-twin-scalability/logs/run4-300s-nan/10.0.1.152.csv
timestamp,node,latency,action,joint_1,joint_2,joint_3,joint_4,joint_5,joint_6
1605188130666136064,10.0.1.152,NaN,,0.000,0.000,0.000,0.000,0.000,0.000
1605188132699631872,10.0.1.152,2033,,0.000,0.000,0.000,0.000,0.000,0.000
1605188137365711872,10.0.1.152,NaN,move_down,-0.040,-0.040,-0.040,0.000,0.000,0.000
1605188139442970112,10.0.1.152,NaN,move_down,-0.060,-0.060,-0.060,0.000,0.000,0.000
1605188141541569024,10.0.1.152,NaN,move_down,-0.080,-0.080,-0.080,0.000,0.000,0.000
1605188143612646144,10.0.1.152,NaN,move_down,-0.100,-0.100,-0.100,0.000,0.000,0.000
1605188145684434944,10.0.1.152,NaN,move_down,-0.120,-0.120,-0.120,0.000,0.000,0.000
1605188147757975040,10.0.1.152,NaN,move_down,-0.140,-0.140,-0.140,0.000,0.000,0.000
1605188149878146816,10.0.1.152,NaN,move_down,-0.160,-0.160,-0.160,0.000,0.000,0.000
1605188151997960192,10.0.1.152,NaN,move_down,-0.180,-0.180,-0.180,0.000,0.000,0.000
1605188154050791936,10.0.1.152,NaN,move_down,-0.200,-0.200,-0.200,0.000,0.000,0.000
1605188156238449152,10.0.1.152,NaN,move_down,-0.220,-0.220,-0.220,0.000,0.000,0.000
1605188158307086080,10.0.1.152,NaN,move_down,-0.240,-0.240,-0.240,0.000,0.000,0.000
1605188160377172992,10.0.1.152,NaN,move_down,-0.260,-0.260,-0.260,0.000,0.000,0.000
1605188162491100928,10.0.1.152,NaN,move_down,-0.280,-0.280,-0.280,0.000,0.000,0.000
1605188164575848192,10.0.1.152,NaN,move_down,-0.300,-0.300,-0.300,0.000,0.000,0.000
1605188166662112000,10.0.1.152,NaN,move_down,-0.320,-0.320,-0.320,0.000,0.000,0.000
1605188168826891008,10.0.1.152,NaN,move_down,-0.340,-0.340,-0.340,0.000,0.000,0.000
1605188170886797056,10.0.1.152,NaN,move_down,-0.360,-0.360,-0.360,0.000,0.000,0.000
1605188173037970944,10.0.1.152,NaN,move_down,-0.380,-0.380,-0.380,0.000,0.000,0.000
1605188175105588992,10.0.1.152,NaN,move_down,-0.400,-0.400,-0.400,0.000,0.000,0.000
1605188177230257152,10.0.1.152,NaN,move_down,-0.420,-0.420,-0.420,0.000,0.000,0.000
1605188179296163072,10.0.1.152,NaN,move_down,-0.440,-0.440,-0.440,0.000,0.000,0.000
1605188181471921920,10.0.1.152,NaN,move_down,-0.460,-0.460,-0.460,0.000,0.000,0.000
1605188183612942848,10.0.1.152,NaN,move_down,-0.480,-0.480,-0.480,0.000,0.000,0.000
1605188185704372992,10.0.1.152,NaN,move_down,-0.500,-0.500,-0.500,0.000,0.000,0.000
1605188187789230080,10.0.1.152,NaN,move_down,-0.520,-0.520,-0.520,0.000,0.000,0.000
1605188189900059904,10.0.1.152,NaN,move_down,-0.540,-0.540,-0.540,0.000,0.000,0.000
1605188191967077888,10.0.1.152,NaN,move_down,-0.560,-0.560,-0.560,0.000,0.000,0.000
1605188194095704064,10.0.1.152,NaN,move_down,-0.580,-0.580,-0.580,0.000,0.000,0.000
1605188196164891904,10.0.1.152,NaN,move_down,-0.600,-0.600,-0.600,0.000,0.000,0.000
1605188198355766016,10.0.1.152,NaN,move_down,-0.620,-0.620,-0.620,0.000,0.000,0.000
1605188200459738112,10.0.1.152,NaN,move_down,-0.640,-0.640,-0.640,0.000,0.000,0.000
1605188202593044992,10.0.1.152,NaN,move_down,-0.660,-0.660,-0.660,0.000,0.000,0.000
1605188204721754112,10.0.1.152,NaN,move_down,-0.680,-0.680,-0.680,0.000,0.000,0.000
1605188206831835904,10.0.1.152,NaN,move_down,-0.700,-0.700,-0.700,0.000,0.000,0.000
1605188208901597952,10.0.1.152,NaN,move_down,-0.720,-0.720,-0.720,0.000,0.000,0.000
1605188210960019200,10.0.1.152,NaN,move_down,-0.740,-0.740,-0.740,0.000,0.000,0.000
1605188213047761920,10.0.1.152,NaN,move_down,-0.760,-0.760,-0.760,0.000,0.000,0.000
1605188215185893120,10.0.1.152,NaN,move_down,-0.780,-0.780,-0.780,0.000,0.000,0.000
1605188217278135040,10.0.1.152,NaN,move_down,-0.800,-0.800,-0.800,0.000,0.000,0.000
1605188219389785088,10.0.1.152,NaN,move_down,-0.820,-0.820,-0.820,0.000,0.000,0.000
1605188221535810048,10.0.1.152,NaN,move_down,-0.840,-0.840,-0.840,0.000,0.000,0.000
1605188223643846912,10.0.1.152,NaN,move_down,-0.860,-0.860,-0.860,0.000,0.000,0.000
1605188225790963968,10.0.1.152,NaN,move_down,-0.880,-0.880,-0.880,0.000,0.000,0.000
1605188228000273920,10.0.1.152,NaN,move_down,-0.900,-0.900,-0.900,0.000,0.000,0.000
1605188230158191872,10.0.1.152,NaN,move_down,-0.920,-0.920,-0.920,0.000,0.000,0.000
1605188232232558848,10.0.1.152,NaN,move_down,-0.940,-0.940,-0.940,0.000,0.000,0.000
1605188234335612928,10.0.1.152,NaN,move_down,-0.960,-0.960,-0.960,0.000,0.000,0.000
1605188237776207872,10.0.1.152,NaN,move_down,-0.980,-0.980,-0.980,0.000,0.000,0.000
1605188239359412992,10.0.1.152,NaN,move_down,-1.000,-1.000,-1.000,0.000,0.000,0.000
1605188240291708928,10.0.1.152,NaN,move_down,-1.020,-1.020,-1.020,0.000,0.000,0.000
1605188240967206912,10.0.1.152,NaN,move_down,-1.040,-1.040,-1.040,0.000,0.000,0.000
1605188241791632896,10.0.1.152,NaN,move_down,-1.060,-1.060,-1.060,0.000,0.000,0.000
1605188242718267904,10.0.1.152,NaN,move_down,-1.080,-1.080,-1.080,0.000,0.000,0.000
1605188243347415808,10.0.1.152,NaN,move_down,-1.100,-1.100,-1.100,0.000,0.000,0.000
1605188243834841856,10.0.1.152,NaN,move_down,-1.120,-1.120,-1.120,0.000,0.000,0.000
1605188245240009984,10.0.1.152,NaN,move_down,-1.140,-1.140,-1.140,0.000,0.000,0.000
1605188245689933056,10.0.1.152,NaN,move_down,-1.160,-1.160,-1.160,0.000,0.000,0.000
1605188245968386816,10.0.1.152,NaN,move_down,-1.180,-1.180,-1.180,0.000,0.000,0.000
1605188246872845056,10.0.1.152,NaN,move_down,-1.200,-1.200,-1.200,0.000,0.000,0.000
1605188247809124864,10.0.1.152,NaN,move_down,-1.220,-1.220,-1.220,0.000,0.000,0.000
1605188248931703040,10.0.1.152,NaN,move_down,-1.240,-1.240,-1.240,0.000,0.000,0.000
1605188249537831168,10.0.1.152,NaN,move_down,-1.260,-1.260,-1.260,0.000,0.000,0.000
1605188250525547008,10.0.1.152,NaN,move_down,-1.280,-1.280,-1.280,0.000,0.000,0.000
1605188251116688896,10.0.1.152,NaN,move_down,-1.300,-1.300,-1.300,0.000,0.000,0.000
1605188252152528128,10.0.1.152,NaN,move_down,-1.320,-1.320,-1.320,0.000,0.000,0.000
1605188253802076928,10.0.1.152,NaN,move_down,-1.340,-1.340,-1.340,0.000,0.000,0.000
1605188254518373120,10.0.1.152,NaN,move_down,-1.360,-1.360,-1.360,0.000,0.000,0.000
1605188255142936064,10.0.1.152,NaN,move_down,-1.380,-1.380,-1.380,0.000,0.000,0.000
1605188255287846144,10.0.1.152,NaN,move_down,-1.400,-1.400,-1.400,0.000,0.000,0.000
1605188256015953152,10.0.1.152,NaN,move_down,-1.420,-1.420,-1.420,0.000,0.000,0.000
1605188256376014848,10.0.1.152,NaN,move_down,-1.440,-1.440,-1.440,0.000,0.000,0.000
1605188256767862016,10.0.1.152,NaN,move_down,-1.460,-1.460,-1.460,0.000,0.000,0.000
1605188256926508032,10.0.1.152,NaN,move_down,-1.480,-1.480,-1.480,0.000,0.000,0.000
1605188257088030208,10.0.1.152,NaN,move_down,-1.500,-1.500,-1.500,0.000,0.000,0.000
1605188257241542144,10.0.1.152,NaN,move_down,-1.520,-1.520,-1.520,0.000,0.000,0.000
1605188257589363968,10.0.1.152,NaN,move_down,-1.540,-1.540,-1.540,0.000,0.000,0.000
1605188257690481920,10.0.1.152,NaN,move_down,-1.560,-1.560,-1.560,0.000,0.000,0.000
1605188257851586048,10.0.1.152,NaN,move_down,-1.580,-1.580,-1.580,0.000,0.000,0.000
1605188258251218944,10.0.1.152,NaN,move_down,-1.600,-1.600,-1.600,0.000,0.000,0.000
1605188258532468992,10.0.1.152,NaN,move_down,-1.620,-1.620,-1.620,0.000,0.000,0.000
1605188258950758912,10.0.1.152,NaN,move_down,-1.640,-1.640,-1.640,0.000,0.000,0.000
1605188259108825856,10.0.1.152,NaN,move_down,-1.660,-1.660,-1.660,0.000,0.000,0.000
1605188259391438080,10.0.1.152,NaN,move_down,-1.680,-1.680,-1.680,0.000,0.000,0.000
1605188259774318848,10.0.1.152,NaN,move_down,-1.700,-1.700,-1.700,0.000,0.000,0.000
1605188260009639936,10.0.1.152,NaN,move_down,-1.720,-1.720,-1.720,0.000,0.000,0.000
1605188260184703232,10.0.1.152,NaN,move_down,-1.740,-1.740,-1.740,0.000,0.000,0.000
1605188260371522048,10.0.1.152,NaN,move_down,-1.760,-1.760,-1.760,0.000,0.000,0.000
1605188261264348928,10.0.1.152,NaN,move_down,-1.780,-1.780,-1.780,0.000,0.000,0.000
1605188261453849088,10.0.1.152,NaN,move_down,-1.800,-1.800,-1.800,0.000,0.000,0.000
1605188261780088064,10.0.1.152,NaN,move_down,-1.820,-1.820,-1.820,0.000,0.000,0.000
1605188262192775936,10.0.1.152,NaN,move_down,-1.840,-1.840,-1.840,0.000,0.000,0.000
1605188262435219968,10.0.1.152,NaN,move_down,-1.860,-1.860,-1.860,0.000,0.000,0.000
1605188262968268032,10.0.1.152,NaN,move_down,-1.880,-1.880,-1.880,0.000,0.000,0.000
1605188263589713152,10.0.1.152,NaN,move_down,-1.900,-1.900,-1.900,0.000,0.000,0.000
1605188263989000192,10.0.1.152,NaN,move_down,-1.920,-1.920,-1.920,0.000,0.000,0.000
1605188265306291968,10.0.1.152,NaN,move_down,-1.940,-1.940,-1.940,0.000,0.000,0.000
1605188265554892032,10.0.1.152,NaN,move_down,-1.960,-1.960,-1.960,0.000,0.000,0.000
1605188265908942080,10.0.1.152,NaN,move_down,-1.980,-1.980,-1.980,0.000,0.000,0.000
1605188266016756992,10.0.1.152,NaN,move_down,-2.000,-2.000,-2.000,0.000,0.000,0.000
1605188266302438912,10.0.1.152,NaN,move_down,-2.020,-2.020,-2.020,0.000,0.000,0.000
1605188266803614976,10.0.1.152,NaN,move_down,-2.040,-2.040,-2.040,0.000,0.000,0.000
1605188267132381952,10.0.1.152,NaN,move_down,-2.060,-2.060,-2.060,0.000,0.000,0.000
1605188267491324928,10.0.1.152,NaN,move_down,-2.080,-2.080,-2.080,0.000,0.000,0.000
1605188267688400896,10.0.1.152,NaN,move_down,-2.100,-2.100,-2.100,0.000,0.000,0.000
1605188267994824960,10.0.1.152,NaN,move_down,-2.120,-2.120,-2.120,0.000,0.000,0.000
1605188268358412032,10.0.1.152,NaN,move_down,-2.140,-2.140,-2.140,0.000,0.000,0.000
1605188268839793920,10.0.1.152,NaN,move_down,-2.160,-2.160,-2.160,0.000,0.000,0.000
1605188269020525056,10.0.1.152,NaN,move_down,-2.180,-2.180,-2.180,0.000,0.000,0.000
1605188269298024960,10.0.1.152,NaN,move_down,-2.200,-2.200,-2.200,0.000,0.000,0.000
1605188269541937152,10.0.1.152,NaN,move_down,-2.220,-2.220,-2.220,0.000,0.000,0.000
1605188269913021184,10.0.1.152,NaN,move_down,-2.240,-2.240,-2.240,0.000,0.000,0.000
1605188270153440000,10.0.1.152,NaN,move_down,-2.260,-2.260,-2.260,0.000,0.000,0.000
1605188270892232960,10.0.1.152,NaN,move_down,-2.280,-2.280,-2.280,0.000,0.000,0.000
1605188271144832000,10.0.1.152,NaN,move_down,-2.300,-2.300,-2.300,0.000,0.000,0.000
1605188271613965056,10.0.1.152,NaN,move_down,-2.320,-2.320,-2.320,0.000,0.000,0.000
1605188272006778880,10.0.1.152,NaN,move_down,-2.340,-2.340,-2.340,0.000,0.000,0.000
1605188272586004992,10.0.1.152,NaN,move_down,-2.360,-2.360,-2.360,0.000,0.000,0.000
1605188273012417024,10.0.1.152,NaN,move_down,-2.380,-2.380,-2.380,0.000,0.000,0.000
1605188273593987840,10.0.1.152,NaN,move_down,-2.400,-2.400,-2.400,0.000,0.000,0.000
1605188273847880960,10.0.1.152,NaN,move_down,-2.420,-2.420,-2.420,0.000,0.000,0.000
1605188274381885952,10.0.1.152,NaN,move_down,-2.440,-2.440,-2.440,0.000,0.000,0.000
1605188274633465088,10.0.1.152,NaN,move_down,-2.460,-2.460,-2.460,0.000,0.000,0.000
1605188275009398016,10.0.1.152,NaN,move_down,-2.480,-2.480,-2.480,0.000,0.000,0.000
1605188275475055104,10.0.1.152,NaN,move_down,-2.500,-2.500,-2.500,0.000,0.000,0.000
1605188275750454784,10.0.1.152,NaN,move_down,-2.520,-2.520,-2.520,0.000,0.000,0.000
1605188275886817024,10.0.1.152,NaN,move_down,-2.540,-2.540,-2.540,0.000,0.000,0.000
1605188276135983104,10.0.1.152,NaN,move_down,-2.560,-2.560,-2.560,0.000,0.000,0.000
1605188276320719872,10.0.1.152,NaN,move_down,-2.580,-2.580,-2.580,0.000,0.000,0.000
1605188276863676928,10.0.1.152,NaN,move_down,-2.600,-2.600,-2.600,0.000,0.000,0.000
1605188277206306048,10.0.1.152,NaN,move_down,-2.620,-2.620,-2.620,0.000,0.000,0.000
1605188277846851072,10.0.1.152,NaN,move_down,-2.640,-2.640,-2.640,0.000,0.000,0.000
1605188278218208000,10.0.1.152,NaN,move_down,-2.660,-2.660,-2.660,0.000,0.000,0.000
1605188278788433152,10.0.1.152,NaN,move_down,-2.680,-2.680,-2.680,0.000,0.000,0.000
1605188279373640960,10.0.1.152,NaN,move_down,-2.700,-2.700,-2.700,0.000,0.000,0.000
1605188279790160896,10.0.1.152,NaN,move_down,-2.720,-2.720,-2.720,0.000,0.000,0.000
1605188279977752832,10.0.1.152,NaN,move_down,-2.740,-2.740,-2.740,0.000,0.000,0.000
1605188280523778048,10.0.1.152,NaN,move_down,-2.760,-2.760,-2.760,0.000,0.000,0.000
1605188281187175936,10.0.1.152,NaN,move_down,-2.780,-2.780,-2.780,0.000,0.000,0.000
1605188281438523904,10.0.1.152,NaN,move_down,-2.800,-2.800,-2.800,0.000,0.000,0.000
1605188281698801920,10.0.1.152,NaN,move_down,-2.820,-2.820,-2.820,0.000,0.000,0.000
1605188282056536064,10.0.1.152,NaN,move_down,-2.840,-2.840,-2.840,0.000,0.000,0.000
1605188282220557056,10.0.1.152,NaN,move_down,-2.860,-2.860,-2.860,0.000,0.000,0.000
1605188282447909120,10.0.1.152,NaN,move_down,-2.880,-2.880,-2.880,0.000,0.000,0.000
1605188282860132096,10.0.1.152,NaN,move_down,-2.900,-2.900,-2.900,0.000,0.000,0.000
1605188283551876096,10.0.1.152,NaN,move_down,-2.920,-2.920,-2.920,0.000,0.000,0.000
1605188284076737024,10.0.1.152,NaN,move_down,-2.940,-2.940,-2.940,0.000,0.000,0.000
1605188284224414208,10.0.1.152,NaN,move_down,-2.960,-2.960,-2.960,0.000,0.000,0.000
1605188284751976960,10.0.1.152,NaN,move_down,-2.980,-2.980,-2.980,0.000,0.000,0.000
1605188284918978048,10.0.1.152,NaN,move_down,-3.000,-3.000,-3.000,0.000,0.000,0.000
1605188285103096064,10.0.1.152,NaN,move_down,-3.020,-3.020,-3.020,0.000,0.000,0.000
1605188285470566912,10.0.1.152,NaN,move_down,-3.040,-3.040,-3.040,0.000,0.000,0.000
1605188286883797760,10.0.1.152,NaN,move_down,-3.060,-3.060,-3.060,0.000,0.000,0.000
1605188287186494976,10.0.1.152,NaN,move_down,-3.080,-3.080,-3.080,0.000,0.000,0.000
1605188287536519936,10.0.1.152,NaN,move_down,-3.100,-3.100,-3.100,0.000,0.000,0.000
1605188288209497856,10.0.1.152,NaN,move_down,-3.120,-3.120,-3.120,0.000,0.000,0.000
1605188288873747968,10.0.1.152,NaN,move_down,-3.140,-3.140,-3.140,0.000,0.000,0.000
1605188289196744960,10.0.1.152,NaN,move_down,-3.160,-3.160,-3.160,0.000,0.000,0.000
1605188289406299136,10.0.1.152,NaN,move_down,-3.180,-3.180,-3.180,0.000,0.000,0.000
1605188289955090944,10.0.1.152,NaN,move_down,-3.200,-3.200,-3.200,0.000,0.000,0.000
1605188290393809920,10.0.1.152,NaN,move_down,-3.220,-3.220,-3.220,0.000,0.000,0.000
1605188291193222912,10.0.1.152,NaN,move_down,-3.240,-3.240,-3.240,0.000,0.000,0.000
1605188291352067072,10.0.1.152,NaN,move_down,-3.260,-3.260,-3.260,0.000,0.000,0.000
1605188291608030208,10.0.1.152,NaN,move_down,-3.280,-3.280,-3.280,0.000,0.000,0.000
1605188291887685120,10.0.1.152,NaN,move_down,-3.300,-3.300,-3.300,0.000,0.000,0.000
1605188292086273024,10.0.1.152,NaN,move_down,-3.320,-3.320,-3.320,0.000,0.000,0.000
1605188292412205056,10.0.1.152,NaN,move_down,-3.340,-3.340,-3.340,0.000,0.000,0.000
1605188293410065920,10.0.1.152,NaN,move_down,-3.360,-3.360,-3.360,0.000,0.000,0.000
1605188293634030080,10.0.1.152,NaN,move_down,-3.380,-3.380,-3.380,0.000,0.000,0.000
1605188293963102976,10.0.1.152,NaN,move_down,-3.400,-3.400,-3.400,0.000,0.000,0.000
1605188294075685888,10.0.1.152,NaN,move_down,-3.420,-3.420,-3.420,0.000,0.000,0.000
1605188294305775872,10.0.1.152,NaN,move_down,-3.440,-3.440,-3.440,0.000,0.000,0.000
1605188294469214976,10.0.1.152,NaN,move_down,-3.460,-3.460,-3.460,0.000,0.000,0.000
1605188294926652928,10.0.1.152,NaN,move_down,-3.480,-3.480,-3.480,0.000,0.000,0.000
1605188295004861952,10.0.1.152,NaN,move_down,-3.500,-3.500,-3.500,0.000,0.000,0.000
1605188295113914112,10.0.1.152,NaN,move_down,-3.520,-3.520,-3.520,0.000,0.000,0.000
1605188295903333888,10.0.1.152,NaN,move_down,-3.540,-3.540,-3.540,0.000,0.000,0.000
1605188296224066048,10.0.1.152,NaN,move_down,-3.560,-3.560,-3.560,0.000,0.000,0.000
1605188296489298176,10.0.1.152,NaN,move_down,-3.580,-3.580,-3.580,0.000,0.000,0.000
1605188296864891136,10.0.1.152,NaN,move_down,-3.600,-3.600,-3.600,0.000,0.000,0.000
1605188297048677888,10.0.1.152,NaN,move_down,-3.620,-3.620,-3.620,0.000,0.000,0.000
1605188297139432960,10.0.1.152,NaN,move_down,-3.640,-3.640,-3.640,0.000,0.000,0.000
1605188297367933952,10.0.1.152,NaN,move_down,-3.660,-3.660,-3.660,0.000,0.000,0.000
1605188297719937024,10.0.1.152,NaN,move_down,-3.680,-3.680,-3.680,0.000,0.000,0.000
1605188297946414080,10.0.1.152,NaN,move_down,-3.700,-3.700,-3.700,0.000,0.000,0.000
1605188298293171968,10.0.1.152,NaN,move_down,-3.720,-3.720,-3.720,0.000,0.000,0.000
1605188298480081920,10.0.1.152,NaN,move_down,-3.740,-3.740,-3.740,0.000,0.000,0.000
1605188299143805952,10.0.1.152,NaN,move_down,-3.760,-3.760,-3.760,0.000,0.000,0.000
1605188299480483072,10.0.1.152,NaN,move_down,-3.780,-3.780,-3.780,0.000,0.000,0.000
1605188299998738944,10.0.1.152,NaN,move_down,-3.800,-3.800,-3.800,0.000,0.000,0.000
1605188300484667136,10.0.1.152,NaN,move_down,-3.820,-3.820,-3.820,0.000,0.000,0.000
1605188300649414144,10.0.1.152,NaN,move_down,-3.840,-3.840,-3.840,0.000,0.000,0.000
1605188300857705984,10.0.1.152,NaN,move_down,-3.860,-3.860,-3.860,0.000,0.000,0.000
1605188301115917056,10.0.1.152,NaN,move_down,-3.880,-3.880,-3.880,0.000,0.000,0.000
1605188302516295936,10.0.1.152,NaN,move_down,-3.900,-3.900,-3.900,0.000,0.000,0.000
1605188302795396096,10.0.1.152,NaN,move_down,-3.920,-3.920,-3.920,0.000,0.000,0.000
1605188303189698048,10.0.1.152,NaN,move_down,-3.940,-3.940,-3.940,0.000,0.000,0.000
1605188303512322048,10.0.1.152,NaN,move_down,-3.960,-3.960,-3.960,0.000,0.000,0.000
1605188303803741952,10.0.1.152,NaN,move_down,-3.980,-3.980,-3.980,0.000,0.000,0.000
1605188303983549184,10.0.1.152,NaN,move_down,-4.000,-4.000,-4.000,0.000,0.000,0.000
1605188304547708928,10.0.1.152,NaN,move_down,-4.020,-4.020,-4.020,0.000,0.000,0.000
1605188304837806080,10.0.1.152,NaN,move_down,-4.040,-4.040,-4.040,0.000,0.000,0.000
1605188305121586944,10.0.1.152,NaN,move_down,-4.060,-4.060,-4.060,0.000,0.000,0.000
1605188305624232960,10.0.1.152,NaN,move_down,-4.080,-4.080,-4.080,0.000,0.000,0.000
1605188306274380800,10.0.1.152,NaN,move_down,-4.100,-4.100,-4.100,0.000,0.000,0.000
1605188306481494784,10.0.1.152,NaN,move_down,-4.120,-4.120,-4.120,0.000,0.000,0.000
1605188306911237888,10.0.1.152,NaN,move_down,-4.140,-4.140,-4.140,0.000,0.000,0.000
1605188307166928896,10.0.1.152,NaN,move_down,-4.160,-4.160,-4.160,0.000,0.000,0.000
1605188308198502912,10.0.1.152,NaN,move_down,-4.180,-4.180,-4.180,0.000,0.000,0.000
1605188308549938944,10.0.1.152,NaN,move_down,-4.200,-4.200,-4.200,0.000,0.000,0.000
1605188308694407936,10.0.1.152,NaN,move_down,-4.220,-4.220,-4.220,0.000,0.000,0.000
1605188308799164928,10.0.1.152,NaN,move_down,-4.240,-4.240,-4.240,0.000,0.000,0.000
1605188308980596992,10.0.1.152,NaN,move_down,-4.260,-4.260,-4.260,0.000,0.000,0.000
1605188309207726848,10.0.1.152,NaN,move_down,-4.280,-4.280,-4.280,0.000,0.000,0.000
1605188309348540160,10.0.1.152,NaN,move_down,-4.300,-4.300,-4.300,0.000,0.000,0.000
1605188309543416064,10.0.1.152,NaN,move_down,-4.320,-4.320,-4.320,0.000,0.000,0.000
1605188310005377024,10.0.1.152,NaN,move_down,-4.340,-4.340,-4.340,0.000,0.000,0.000
1605188310248807936,10.0.1.152,NaN,move_down,-4.360,-4.360,-4.360,0.000,0.000,0.000
1605188311175552000,10.0.1.152,NaN,move_down,-4.380,-4.380,-4.380,0.000,0.000,0.000
1605188311438201856,10.0.1.152,NaN,move_down,-4.400,-4.400,-4.400,0.000,0.000,0.000
1605188311660463104,10.0.1.152,NaN,move_down,-4.420,-4.420,-4.420,0.000,0.000,0.000
1605188312294573056,10.0.1.152,NaN,move_down,-4.440,-4.440,-4.440,0.000,0.000,0.000
1605188312794809088,10.0.1.152,NaN,move_down,-4.460,-4.460,-4.460,0.000,0.000,0.000
1605188313187674880,10.0.1.152,NaN,move_down,-4.480,-4.480,-4.480,0.000,0.000,0.000
1605188313487257088,10.0.1.152,NaN,move_down,-4.500,-4.500,-4.500,0.000,0.000,0.000
1605188313784910080,10.0.1.152,NaN,move_down,-4.520,-4.520,-4.520,0.000,0.000,0.000
1605188314158845952,10.0.1.152,NaN,move_down,-4.540,-4.540,-4.540,0.000,0.000,0.000
1605188314355581952,10.0.1.152,NaN,move_down,-4.560,-4.560,-4.560,0.000,0.000,0.000
1605188315191309056,10.0.1.152,NaN,move_down,-4.580,-4.580,-4.580,0.000,0.000,0.000
1605188315375526912,10.0.1.152,NaN,move_down,-4.600,-4.600,-4.600,0.000,0.000,0.000
1605188315734718208,10.0.1.152,NaN,move_down,-4.620,-4.620,-4.620,0.000,0.000,0.000
1605188316238850048,10.0.1.152,NaN,move_down,-4.640,-4.640,-4.640,0.000,0.000,0.000
1605188316508457984,10.0.1.152,NaN,move_down,-4.660,-4.660,-4.660,0.000,0.000,0.000
1605188316778778112,10.0.1.152,NaN,move_down,-4.680,-4.680,-4.680,0.000,0.000,0.000
1605188316942136064,10.0.1.152,NaN,move_down,-4.700,-4.700,-4.700,0.000,0.000,0.000
1605188317063116032,10.0.1.152,NaN,move_down,-4.720,-4.720,-4.720,0.000,0.000,0.000
1605188317310048000,10.0.1.152,NaN,move_down,-4.740,-4.740,-4.740,0.000,0.000,0.000
1605188317480803072,10.0.1.152,NaN,move_down,-4.760,-4.760,-4.760,0.000,0.000,0.000
1605188317636111872,10.0.1.152,NaN,move_down,-4.780,-4.780,-4.780,0.000,0.000,0.000
1605188317880651008,10.0.1.152,NaN,move_down,-4.800,-4.800,-4.800,0.000,0.000,0.000
1605188318181709056,10.0.1.152,NaN,move_down,-4.820,-4.820,-4.820,0.000,0.000,0.000
1605188318422196992,10.0.1.152,NaN,move_down,-4.840,-4.840,-4.840,0.000,0.000,0.000
1605188318676788992,10.0.1.152,NaN,move_down,-4.860,-4.860,-4.860,0.000,0.000,0.000
1605188319229873920,10.0.1.152,NaN,move_down,-4.880,-4.880,-4.880,0.000,0.000,0.000
1605188319538990080,10.0.1.152,NaN,move_down,-4.900,-4.900,-4.900,0.000,0.000,0.000
1605188319757095936,10.0.1.152,NaN,move_down,-4.920,-4.920,-4.920,0.000,0.000,0.000
1605188319996758016,10.0.1.152,NaN,move_down,-4.940,-4.940,-4.940,0.000,0.000,0.000
1605188320537355008,10.0.1.152,NaN,move_down,-4.960,-4.960,-4.960,0.000,0.000,0.000
1605188321010600960,10.0.1.152,NaN,move_down,-4.980,-4.980,-4.980,0.000,0.000,0.000
1605188321153762048,10.0.1.152,NaN,move_down,-5.000,-5.000,-5.000,0.000,0.000,0.000
1605188321464015104,10.0.1.152,NaN,move_down,-5.020,-5.020,-5.020,0.000,0.000,0.000
1605188321733505024,10.0.1.152,NaN,move_down,-5.040,-5.040,-5.040,0.000,0.000,0.000
1605188321910872832,10.0.1.152,NaN,move_down,-5.060,-5.060,-5.060,0.000,0.000,0.000
1605188322218953984,10.0.1.152,NaN,move_down,-5.080,-5.080,-5.080,0.000,0.000,0.000
1605188322473862912,10.0.1.152,NaN,move_down,-5.100,-5.100,-5.100,0.000,0.000,0.000
1605188322931577856,10.0.1.152,NaN,move_down,-5.120,-5.120,-5.120,0.000,0.000,0.000
1605188323144464128,10.0.1.152,NaN,move_down,-5.140,-5.140,-5.140,0.000,0.000,0.000
1605188323315918080,10.0.1.152,NaN,move_down,-5.160,-5.160,-5.160,0.000,0.000,0.000
1605188323500699136,10.0.1.152,NaN,move_down,-5.180,-5.180,-5.180,0.000,0.000,0.000
1605188323736710912,10.0.1.152,NaN,move_down,-5.200,-5.200,-5.200,0.000,0.000,0.000
1605188323929185024,10.0.1.152,NaN,move_down,-5.220,-5.220,-5.220,0.000,0.000,0.000
1605188324086825984,10.0.1.152,NaN,move_down,-5.240,-5.240,-5.240,0.000,0.000,0.000
1605188324423237120,10.0.1.152,NaN,move_down,-5.260,-5.260,-5.260,0.000,0.000,0.000
1605188324946316032,10.0.1.152,NaN,move_down,-5.280,-5.280,-5.280,0.000,0.000,0.000
1605188325236866048,10.0.1.152,NaN,move_down,-5.300,-5.300,-5.300,0.000,0.000,0.000
1605188325442336000,10.0.1.152,NaN,move_down,-5.320,-5.320,-5.320,0.000,0.000,0.000
1605188325702536192,10.0.1.152,NaN,move_down,-5.340,-5.340,-5.340,0.000,0.000,0.000
1605188326455603968,10.0.1.152,NaN,move_down,-5.360,-5.360,-5.360,0.000,0.000,0.000
1605188327064354048,10.0.1.152,NaN,move_down,-5.380,-5.380,-5.380,0.000,0.000,0.000
1605188327440359168,10.0.1.152,NaN,move_down,-5.400,-5.400,-5.400,0.000,0.000,0.000
1605188327920691968,10.0.1.152,NaN,move_down,-5.420,-5.420,-5.420,0.000,0.000,0.000
1605188328170034944,10.0.1.152,NaN,move_down,-5.440,-5.440,-5.440,0.000,0.000,0.000
1605188329002546176,10.0.1.152,NaN,move_down,-5.460,-5.460,-5.460,0.000,0.000,0.000
1605188329143998976,10.0.1.152,NaN,move_down,-5.480,-5.480,-5.480,0.000,0.000,0.000
1605188329253552896,10.0.1.152,NaN,move_down,-5.500,-5.500,-5.500,0.000,0.000,0.000
1605188329467900160,10.0.1.152,NaN,move_down,-5.520,-5.520,-5.520,0.000,0.000,0.000
1605188329783122944,10.0.1.152,NaN,move_down,-5.540,-5.540,-5.540,0.000,0.000,0.000
1605188330002505984,10.0.1.152,NaN,move_down,-5.560,-5.560,-5.560,0.000,0.000,0.000
1605188330159100928,10.0.1.152,NaN,move_down,-5.580,-5.580,-5.580,0.000,0.000,0.000
1605188330396267008,10.0.1.152,NaN,move_down,-5.600,-5.600,-5.600,0.000,0.000,0.000
1605188330733725952,10.0.1.152,NaN,move_down,-5.620,-5.620,-5.620,0.000,0.000,0.000
1605188330912235008,10.0.1.152,NaN,move_down,-5.640,-5.640,-5.640,0.000,0.000,0.000
1605188331137601024,10.0.1.152,NaN,move_down,-5.660,-5.660,-5.660,0.000,0.000,0.000
1605188331324507904,10.0.1.152,NaN,move_down,-5.680,-5.680,-5.680,0.000,0.000,0.000
1605188331977257984,10.0.1.152,NaN,move_down,-5.700,-5.700,-5.700,0.000,0.000,0.000
1605188332227165952,10.0.1.152,NaN,move_down,-5.720,-5.720,-5.720,0.000,0.000,0.000
1605188332470252032,10.0.1.152,NaN,move_down,-5.740,-5.740,-5.740,0.000,0.000,0.000
1605188332720634880,10.0.1.152,NaN,move_down,-5.760,-5.760,-5.760,0.000,0.000,0.000
1605188333312025088,10.0.1.152,NaN,move_down,-5.780,-5.780,-5.780,0.000,0.000,0.000
1605188333588488960,10.0.1.152,NaN,move_down,-5.800,-5.800,-5.800,0.000,0.000,0.000
1605188333845030912,10.0.1.152,NaN,move_down,-5.820,-5.820,-5.820,0.000,0.000,0.000
1605188334028186112,10.0.1.152,NaN,move_down,-5.840,-5.840,-5.840,0.000,0.000,0.000
1605188334768474112,10.0.1.152,NaN,move_down,-5.860,-5.860,-5.860,0.000,0.000,0.000
1605188335075388928,10.0.1.152,NaN,move_down,-5.880,-5.880,-5.880,0.000,0.000,0.000
1605188335331185152,10.0.1.152,NaN,move_down,-5.900,-5.900,-5.900,0.000,0.000,0.000
1605188335597970944,10.0.1.152,NaN,move_down,-5.920,-5.920,-5.920,0.000,0.000,0.000
1605188335867158784,10.0.1.152,NaN,move_down,-5.940,-5.940,-5.940,0.000,0.000,0.000
1605188336372627968,10.0.1.152,NaN,move_down,-5.960,-5.960,-5.960,0.000,0.000,0.000
1605188336795181056,10.0.1.152,NaN,move_down,-5.980,-5.980,-5.980,0.000,0.000,0.000
1605188337124268032,10.0.1.152,NaN,move_down,-6.000,-6.000,-6.000,0.000,0.000,0.000
1605188337307862016,10.0.1.152,NaN,move_down,-6.020,-6.020,-6.020,0.000,0.000,0.000
1605188338031037952,10.0.1.152,NaN,move_down,-6.040,-6.040,-6.040,0.000,0.000,0.000
1605188338278880000,10.0.1.152,NaN,move_down,-6.060,-6.060,-6.060,0.000,0.000,0.000
1605188338593498880,10.0.1.152,NaN,move_down,-6.080,-6.080,-6.080,0.000,0.000,0.000
1605188338913521920,10.0.1.152,NaN,move_down,-6.100,-6.100,-6.100,0.000,0.000,0.000
1605188339133387008,10.0.1.152,NaN,move_down,-6.120,-6.120,-6.120,0.000,0.000,0.000
1605188339669164800,10.0.1.152,NaN,move_down,-6.140,-6.140,-6.140,0.000,0.000,0.000
1605188339992291840,10.0.1.152,NaN,move_down,-6.160,-6.160,-6.160,0.000,0.000,0.000
1605188340226336000,10.0.1.152,NaN,move_down,-6.180,-6.180,-6.180,0.000,0.000,0.000
1605188340727878144,10.0.1.152,NaN,move_down,-6.200,-6.200,-6.200,0.000,0.000,0.000
1605188340963161088,10.0.1.152,NaN,move_down,-6.220,-6.220,-6.220,0.000,0.000,0.000
1605188341881666816,10.0.1.152,NaN,move_down,-6.240,-6.240,-6.240,0.000,0.000,0.000
1605188342187788032,10.0.1.152,NaN,move_down,-6.260,-6.260,-6.260,0.000,0.000,0.000
1605188342846827008,10.0.1.152,NaN,move_down,-6.280,-6.280,-6.280,0.000,0.000,0.000
1605188343327255040,10.0.1.152,NaN,move_down,-6.300,-6.300,-6.300,0.000,0.000,0.000
1605188343630763008,10.0.1.152,NaN,move_down,-6.320,-6.320,-6.320,0.000,0.000,0.000
1605188344025643008,10.0.1.152,NaN,move_down,-6.340,-6.340,-6.340,0.000,0.000,0.000
1605188344761136896,10.0.1.152,NaN,move_down,-6.360,-6.360,-6.360,0.000,0.000,0.000
1605188345857486080,10.0.1.152,NaN,move_down,-6.380,-6.380,-6.380,0.000,0.000,0.000
1605188346267676160,10.0.1.152,NaN,move_down,-6.400,-6.400,-6.400,0.000,0.000,0.000
1605188346672542976,10.0.1.152,NaN,move_down,-6.420,-6.420,-6.420,0.000,0.000,0.000
1605188347068779008,10.0.1.152,NaN,move_down,-6.440,-6.440,-6.440,0.000,0.000,0.000
1605188347176232192,10.0.1.152,NaN,move_down,-6.460,-6.460,-6.460,0.000,0.000,0.000
1605188347253086208,10.0.1.152,NaN,move_down,-6.480,-6.480,-6.480,0.000,0.000,0.000
1605188347646606848,10.0.1.152,NaN,move_down,-6.500,-6.500,-6.500,0.000,0.000,0.000
1605188348032183040,10.0.1.152,NaN,move_down,-6.520,-6.520,-6.520,0.000,0.000,0.000
1605188348393754880,10.0.1.152,NaN,move_down,-6.540,-6.540,-6.540,0.000,0.000,0.000
1605188348697304064,10.0.1.152,NaN,move_down,-6.560,-6.560,-6.560,0.000,0.000,0.000
1605188348972763136,10.0.1.152,NaN,move_down,-6.580,-6.580,-6.580,0.000,0.000,0.000
1605188349273787904,10.0.1.152,NaN,move_down,-6.600,-6.600,-6.600,0.000,0.000,0.000
1605188349490447872,10.0.1.152,NaN,move_down,-6.620,-6.620,-6.620,0.000,0.000,0.000
1605188350128392960,10.0.1.152,NaN,move_down,-6.640,-6.640,-6.640,0.000,0.000,0.000
1605188350576739072,10.0.1.152,NaN,move_down,-6.660,-6.660,-6.660,0.000,0.000,0.000
1605188350868532992,10.0.1.152,NaN,move_down,-6.680,-6.680,-6.680,0.000,0.000,0.000
1605188351323398144,10.0.1.152,NaN,move_down,-6.700,-6.700,-6.700,0.000,0.000,0.000
1605188351450371072,10.0.1.152,NaN,move_down,-6.720,-6.720,-6.720,0.000,0.000,0.000
1605188352377084928,10.0.1.152,NaN,move_down,-6.740,-6.740,-6.740,0.000,0.000,0.000
1605188352935756800,10.0.1.152,NaN,move_down,-6.760,-6.760,-6.760,0.000,0.000,0.000
1605188353193453056,10.0.1.152,NaN,move_down,-6.780,-6.780,-6.780,0.000,0.000,0.000
1605188354011537920,10.0.1.152,NaN,move_down,-6.800,-6.800,-6.800,0.000,0.000,0.000
1605188354386372096,10.0.1.152,NaN,move_down,-6.820,-6.820,-6.820,0.000,0.000,0.000
1605188355363766784,10.0.1.152,NaN,move_down,-6.840,-6.840,-6.840,0.000,0.000,0.000
1605188355626467840,10.0.1.152,NaN,move_down,-6.860,-6.860,-6.860,0.000,0.000,0.000
1605188355908793088,10.0.1.152,NaN,move_down,-6.880,-6.880,-6.880,0.000,0.000,0.000
1605188356355076096,10.0.1.152,NaN,move_down,-6.900,-6.900,-6.900,0.000,0.000,0.000
1605188356723383040,10.0.1.152,NaN,move_down,-6.920,-6.920,-6.920,0.000,0.000,0.000
1605188357323002112,10.0.1.152,NaN,move_down,-6.940,-6.940,-6.940,0.000,0.000,0.000
1605188358094299904,10.0.1.152,NaN,move_down,-6.960,-6.960,-6.960,0.000,0.000,0.000
1605188358284403968,10.0.1.152,NaN,move_down,-6.980,-6.980,-6.980,0.000,0.000,0.000
1605188358871998976,10.0.1.152,NaN,move_down,-7.000,-7.000,-7.000,0.000,0.000,0.000
1605188359098320896,10.0.1.152,NaN,move_down,-7.020,-7.020,-7.020,0.000,0.000,0.000
1605188359675094016,10.0.1.152,NaN,move_down,-7.040,-7.040,-7.040,0.000,0.000,0.000
1605188360388783104,10.0.1.152,NaN,move_down,-7.060,-7.060,-7.060,0.000,0.000,0.000
1605188360757404160,10.0.1.152,NaN,move_down,-7.080,-7.080,-7.080,0.000,0.000,0.000
1605188361519740160,10.0.1.152,NaN,move_down,-7.100,-7.100,-7.100,0.000,0.000,0.000
1605188361788363008,10.0.1.152,NaN,move_down,-7.120,-7.120,-7.120,0.000,0.000,0.000
1605188361972695040,10.0.1.152,NaN,move_down,-7.140,-7.140,-7.140,0.000,0.000,0.000
1605188362700261120,10.0.1.152,NaN,move_down,-7.160,-7.160,-7.160,0.000,0.000,0.000
1605188363658477056,10.0.1.152,NaN,move_down,-7.180,-7.180,-7.180,0.000,0.000,0.000
1605188363821274880,10.0.1.152,NaN,move_down,-7.200,-7.200,-7.200,0.000,0.000,0.000
1605188364082366976,10.0.1.152,NaN,move_down,-7.220,-7.220,-7.220,0.000,0.000,0.000
1605188364459718912,10.0.1.152,NaN,move_down,-7.240,-7.240,-7.240,0.000,0.000,0.000
1605188364854777088,10.0.1.152,NaN,move_down,-7.260,-7.260,-7.260,0.000,0.000,0.000
1605188365273060096,10.0.1.152,NaN,move_down,-7.280,-7.280,-7.280,0.000,0.000,0.000
1605188365437484032,10.0.1.152,NaN,move_down,-7.300,-7.300,-7.300,0.000,0.000,0.000
1605188365734510848,10.0.1.152,NaN,move_down,-7.320,-7.320,-7.320,0.000,0.000,0.000
1605188366562438912,10.0.1.152,NaN,move_down,-7.340,-7.340,-7.340,0.000,0.000,0.000
1605188366943756032,10.0.1.152,NaN,move_down,-7.360,-7.360,-7.360,0.000,0.000,0.000
1605188367234364160,10.0.1.152,NaN,move_down,-7.380,-7.380,-7.380,0.000,0.000,0.000
1605188367508274176,10.0.1.152,NaN,move_down,-7.400,-7.400,-7.400,0.000,0.000,0.000
1605188367775162880,10.0.1.152,NaN,move_down,-7.420,-7.420,-7.420,0.000,0.000,0.000
1605188368574481920,10.0.1.152,NaN,move_down,-7.440,-7.440,-7.440,0.000,0.000,0.000
1605188368776988928,10.0.1.152,NaN,move_down,-7.460,-7.460,-7.460,0.000,0.000,0.000
1605188368950701824,10.0.1.152,NaN,move_down,-7.480,-7.480,-7.480,0.000,0.000,0.000
1605188369085097984,10.0.1.152,NaN,move_down,-7.500,-7.500,-7.500,0.000,0.000,0.000
1605188369733529088,10.0.1.152,NaN,move_down,-7.520,-7.520,-7.520,0.000,0.000,0.000
1605188370036033024,10.0.1.152,NaN,move_down,-7.540,-7.540,-7.540,0.000,0.000,0.000
1605188370551307008,10.0.1.152,NaN,move_down,-7.560,-7.560,-7.560,0.000,0.000,0.000
1605188371231420160,10.0.1.152,NaN,move_down,-7.580,-7.580,-7.580,0.000,0.000,0.000
1605188371401434880,10.0.1.152,NaN,move_down,-7.600,-7.600,-7.600,0.000,0.000,0.000
1605188371803483904,10.0.1.152,NaN,move_down,-7.620,-7.620,-7.620,0.000,0.000,0.000
1605188372008795136,10.0.1.152,NaN,move_down,-7.640,-7.640,-7.640,0.000,0.000,0.000
1605188372396126976,10.0.1.152,NaN,move_down,-7.660,-7.660,-7.660,0.000,0.000,0.000
1605188373445617920,10.0.1.152,NaN,move_down,-7.680,-7.680,-7.680,0.000,0.000,0.000
1605188373857316864,10.0.1.152,NaN,move_down,-7.700,-7.700,-7.700,0.000,0.000,0.000
1605188374079006976,10.0.1.152,NaN,move_down,-7.720,-7.720,-7.720,0.000,0.000,0.000
1605188374820244992,10.0.1.152,NaN,move_down,-7.740,-7.740,-7.740,0.000,0.000,0.000
1605188375396832000,10.0.1.152,NaN,move_down,-7.760,-7.760,-7.760,0.000,0.000,0.000
1605188376044637952,10.0.1.152,NaN,move_down,-7.780,-7.780,-7.780,0.000,0.000,0.000
1605188376619823872,10.0.1.152,NaN,move_down,-7.800,-7.800,-7.800,0.000,0.000,0.000
1605188376791749888,10.0.1.152,NaN,move_down,-7.820,-7.820,-7.820,0.000,0.000,0.000
1605188377010579968,10.0.1.152,NaN,move_down,-7.840,-7.840,-7.840,0.000,0.000,0.000
1605188377166323968,10.0.1.152,NaN,move_down,-7.860,-7.860,-7.860,0.000,0.000,0.000
1605188377767623936,10.0.1.152,NaN,move_down,-7.880,-7.880,-7.880,0.000,0.000,0.000
1605188377918617856,10.0.1.152,NaN,move_down,-7.900,-7.900,-7.900,0.000,0.000,0.000
1605188378253380096,10.0.1.152,NaN,move_down,-7.920,-7.920,-7.920,0.000,0.000,0.000
1605188378729285120,10.0.1.152,NaN,move_down,-7.940,-7.940,-7.940,0.000,0.000,0.000
1605188378918364160,10.0.1.152,NaN,move_down,-7.960,-7.960,-7.960,0.000,0.000,0.000
1605188379143808000,10.0.1.152,NaN,move_down,-7.980,-7.980,-7.980,0.000,0.000,0.000
1605188379399440128,10.0.1.152,NaN,move_down,-8.000,-8.000,-8.000,0.000,0.000,0.000
1605188379661686784,10.0.1.152,NaN,move_down,-8.020,-8.020,-8.020,0.000,0.000,0.000
1605188380161505024,10.0.1.152,NaN,move_down,-8.040,-8.040,-8.040,0.000,0.000,0.000
1605188380280428032,10.0.1.152,NaN,move_down,-8.060,-8.060,-8.060,0.000,0.000,0.000
1605188380451919104,10.0.1.152,NaN,move_down,-8.080,-8.080,-8.080,0.000,0.000,0.000
1605188381136020992,10.0.1.152,NaN,move_down,-8.100,-8.100,-8.100,0.000,0.000,0.000
1605188381566860032,10.0.1.152,NaN,move_down,-8.120,-8.120,-8.120,0.000,0.000,0.000
1605188381755597056,10.0.1.152,NaN,move_down,-8.140,-8.140,-8.140,0.000,0.000,0.000
1605188382278233088,10.0.1.152,NaN,move_down,-8.160,-8.160,-8.160,0.000,0.000,0.000
1605188382810435072,10.0.1.152,NaN,move_down,-8.180,-8.180,-8.180,0.000,0.000,0.000
1605188383191144960,10.0.1.152,NaN,move_down,-8.200,-8.200,-8.200,0.000,0.000,0.000
1605188383460449024,10.0.1.152,NaN,move_down,-8.220,-8.220,-8.220,0.000,0.000,0.000
1605188383918593024,10.0.1.152,NaN,move_down,-8.240,-8.240,-8.240,0.000,0.000,0.000
1605188384190706944,10.0.1.152,NaN,move_down,-8.260,-8.260,-8.260,0.000,0.000,0.000
1605188384332263936,10.0.1.152,NaN,move_down,-8.280,-8.280,-8.280,0.000,0.000,0.000
1605188384936007936,10.0.1.152,NaN,move_down,-8.300,-8.300,-8.300,0.000,0.000,0.000
1605188385373394944,10.0.1.152,NaN,move_down,-8.320,-8.320,-8.320,0.000,0.000,0.000
1605188385786241024,10.0.1.152,NaN,move_down,-8.340,-8.340,-8.340,0.000,0.000,0.000
1605188385985992960,10.0.1.152,NaN,move_down,-8.360,-8.360,-8.360,0.000,0.000,0.000
1605188386337558016,10.0.1.152,NaN,move_down,-8.380,-8.380,-8.380,0.000,0.000,0.000
1605188386411478016,10.0.1.152,NaN,move_down,-8.400,-8.400,-8.400,0.000,0.000,0.000
1605188386521634048,10.0.1.152,NaN,move_down,-8.420,-8.420,-8.420,0.000,0.000,0.000
1605188387136769024,10.0.1.152,NaN,move_down,-8.440,-8.440,-8.440,0.000,0.000,0.000
1605188388058509056,10.0.1.152,NaN,move_down,-8.460,-8.460,-8.460,0.000,0.000,0.000
1605188388476589056,10.0.1.152,NaN,move_down,-8.480,-8.480,-8.480,0.000,0.000,0.000
1605188388719557120,10.0.1.152,NaN,move_down,-8.500,-8.500,-8.500,0.000,0.000,0.000
1605188389204422912,10.0.1.152,NaN,move_down,-8.520,-8.520,-8.520,0.000,0.000,0.000
1605188389362128896,10.0.1.152,NaN,move_down,-8.540,-8.540,-8.540,0.000,0.000,0.000
1605188389610479104,10.0.1.152,NaN,move_down,-8.560,-8.560,-8.560,0.000,0.000,0.000
1605188389804105984,10.0.1.152,NaN,move_down,-8.580,-8.580,-8.580,0.000,0.000,0.000
1605188390116029952,10.0.1.152,NaN,move_down,-8.600,-8.600,-8.600,0.000,0.000,0.000
1605188390301843968,10.0.1.152,NaN,move_down,-8.620,-8.620,-8.620,0.000,0.000,0.000
1605188390493135872,10.0.1.152,NaN,move_down,-8.640,-8.640,-8.640,0.000,0.000,0.000
1605188390787635200,10.0.1.152,NaN,move_down,-8.660,-8.660,-8.660,0.000,0.000,0.000
1605188390920633088,10.0.1.152,NaN,move_down,-8.680,-8.680,-8.680,0.000,0.000,0.000
1605188391193337856,10.0.1.152,NaN,move_down,-8.700,-8.700,-8.700,0.000,0.000,0.000
1605188391700380160,10.0.1.152,NaN,move_down,-8.720,-8.720,-8.720,0.000,0.000,0.000
1605188391986543872,10.0.1.152,NaN,move_down,-8.740,-8.740,-8.740,0.000,0.000,0.000
1605188392834686976,10.0.1.152,NaN,move_down,-8.760,-8.760,-8.760,0.000,0.000,0.000
1605188393278411008,10.0.1.152,NaN,move_down,-8.780,-8.780,-8.780,0.000,0.000,0.000
1605188393551776000,10.0.1.152,NaN,move_down,-8.800,-8.800,-8.800,0.000,0.000,0.000
1605188394220114944,10.0.1.152,NaN,move_down,-8.820,-8.820,-8.820,0.000,0.000,0.000
1605188394524090112,10.0.1.152,NaN,move_down,-8.840,-8.840,-8.840,0.000,0.000,0.000
1605188394899694848,10.0.1.152,NaN,move_down,-8.860,-8.860,-8.860,0.000,0.000,0.000
1605188395139017984,10.0.1.152,NaN,move_down,-8.880,-8.880,-8.880,0.000,0.000,0.000
1605188396328717824,10.0.1.152,NaN,move_down,-8.900,-8.900,-8.900,0.000,0.000,0.000
1605188397004674048,10.0.1.152,NaN,move_down,-8.920,-8.920,-8.920,0.000,0.000,0.000
1605188397475336960,10.0.1.152,NaN,move_down,-8.940,-8.940,-8.940,0.000,0.000,0.000
1605188398037383936,10.0.1.152,NaN,move_down,-8.960,-8.960,-8.960,0.000,0.000,0.000
1605188398260375040,10.0.1.152,NaN,move_down,-8.980,-8.980,-8.980,0.000,0.000,0.000
1605188398553850880,10.0.1.152,NaN,move_down,-9.000,-9.000,-9.000,0.000,0.000,0.000
1605188399158366976,10.0.1.152,NaN,move_down,-9.020,-9.020,-9.020,0.000,0.000,0.000
1605188399336200960,10.0.1.152,NaN,move_down,-9.040,-9.040,-9.040,0.000,0.000,0.000
1605188399459371008,10.0.1.152,NaN,move_down,-9.060,-9.060,-9.060,0.000,0.000,0.000
1605188399800502016,10.0.1.152,NaN,move_down,-9.080,-9.080,-9.080,0.000,0.000,0.000
1605188400344433920,10.0.1.152,NaN,move_down,-9.100,-9.100,-9.100,0.000,0.000,0.000
1605188400959800064,10.0.1.152,NaN,move_down,-9.120,-9.120,-9.120,0.000,0.000,0.000
1605188401780646144,10.0.1.152,NaN,move_down,-9.140,-9.140,-9.140,0.000,0.000,0.000
1605188402097389056,10.0.1.152,NaN,move_down,-9.160,-9.160,-9.160,0.000,0.000,0.000
1605188402361006080,10.0.1.152,NaN,move_down,-9.180,-9.180,-9.180,0.000,0.000,0.000
1605188402589795072,10.0.1.152,NaN,move_down,-9.200,-9.200,-9.200,0.000,0.000,0.000
1605188402929732096,10.0.1.152,NaN,move_down,-9.220,-9.220,-9.220,0.000,0.000,0.000
1605188403692365056,10.0.1.152,NaN,move_down,-9.240,-9.240,-9.240,0.000,0.000,0.000
1605188404460583936,10.0.1.152,NaN,move_down,-9.260,-9.260,-9.260,0.000,0.000,0.000
1605188405420345088,10.0.1.152,NaN,move_down,-9.280,-9.280,-9.280,0.000,0.000,0.000
1605188405805906944,10.0.1.152,NaN,move_down,-9.300,-9.300,-9.300,0.000,0.000,0.000
1605188406399360000,10.0.1.152,NaN,move_down,-9.320,-9.320,-9.320,0.000,0.000,0.000
1605188406824259072,10.0.1.152,NaN,move_down,-9.340,-9.340,-9.340,0.000,0.000,0.000
1605188407169531136,10.0.1.152,NaN,move_down,-9.360,-9.360,-9.360,0.000,0.000,0.000
1605188407503747840,10.0.1.152,NaN,move_down,-9.380,-9.380,-9.380,0.000,0.000,0.000
1605188408091196160,10.0.1.152,NaN,move_down,-9.400,-9.400,-9.400,0.000,0.000,0.000
1605188408400384000,10.0.1.152,NaN,move_down,-9.420,-9.420,-9.420,0.000,0.000,0.000
1605188408564947968,10.0.1.152,NaN,move_down,-9.440,-9.440,-9.440,0.000,0.000,0.000
1605188408907778048,10.0.1.152,NaN,move_down,-9.460,-9.460,-9.460,0.000,0.000,0.000
1605188409471688960,10.0.1.152,NaN,move_down,-9.480,-9.480,-9.480,0.000,0.000,0.000
1605188409891771136,10.0.1.152,NaN,move_down,-9.500,-9.500,-9.500,0.000,0.000,0.000
1605188410053492992,10.0.1.152,NaN,move_down,-9.520,-9.520,-9.520,0.000,0.000,0.000
1605188410299781120,10.0.1.152,NaN,move_down,-9.540,-9.540,-9.540,0.000,0.000,0.000
1605188410694370048,10.0.1.152,NaN,move_down,-9.560,-9.560,-9.560,0.000,0.000,0.000
1605188411028892928,10.0.1.152,NaN,move_down,-9.580,-9.580,-9.580,0.000,0.000,0.000
1605188411439779072,10.0.1.152,NaN,move_down,-9.600,-9.600,-9.600,0.000,0.000,0.000
