milangroshev/digital-twin-scalability/logs/run4-300s-nan/10.0.1.131.csv
timestamp,node,latency,action,joint_1,joint_2,joint_3,joint_4,joint_5,joint_6
1605185487734821120,10.0.1.131,NaN,,0.000,0.000,0.000,0.000,0.000,0.000
1605185489760708096,10.0.1.131,2025,,0.000,0.000,0.000,0.000,0.000,0.000
1605185492416267008,10.0.1.131,675,move_down,-0.020,-0.020,-0.020,0.000,0.000,0.000
1605185493909214976,10.0.1.131,384,move_down,-0.040,-0.040,-0.040,0.000,0.000,0.000
1605185495424022016,10.0.1.131,423,move_down,-0.060,-0.060,-0.060,0.000,0.000,0.000
1605185496889203968,10.0.1.131,396,move_down,-0.080,-0.080,-0.080,0.000,0.000,0.000
1605185498363843840,10.0.1.131,397,move_down,-0.100,-0.100,-0.100,0.000,0.000,0.000
1605185499787315968,10.0.1.131,404,move_down,-0.120,-0.120,-0.120,0.000,0.000,0.000
1605185501223045120,10.0.1.131,425,move_down,-0.140,-0.140,-0.140,0.000,0.000,0.000
1605185502690080768,10.0.1.131,397,move_down,-0.160,-0.160,-0.160,0.000,0.000,0.000
1605185504107553024,10.0.1.131,402,move_down,-0.180,-0.180,-0.180,0.000,0.000,0.000
1605185505514074112,10.0.1.131,398,move_down,-0.200,-0.200,-0.200,0.000,0.000,0.000
1605185506988670976,10.0.1.131,398,move_down,-0.220,-0.220,-0.220,0.000,0.000,0.000
1605185508439060992,10.0.1.131,397,move_down,-0.240,-0.240,-0.240,0.000,0.000,0.000
1605185509934806016,10.0.1.131,409,move_down,-0.260,-0.260,-0.260,0.000,0.000,0.000
1605185511420512000,10.0.1.131,409,move_down,-0.280,-0.280,-0.280,0.000,0.000,0.000
1605185512834994176,10.0.1.131,379,move_down,-0.300,-0.300,-0.300,0.000,0.000,0.000
1605185514288523008,10.0.1.131,409,move_down,-0.320,-0.320,-0.320,0.000,0.000,0.000
1605185515719140096,10.0.1.131,396,move_down,-0.340,-0.340,-0.340,0.000,0.000,0.000
1605185517223431168,10.0.1.131,419,move_down,-0.360,-0.360,-0.360,0.000,0.000,0.000
1605185518676655104,10.0.1.131,412,move_down,-0.380,-0.380,-0.380,0.000,0.000,0.000
1605185520115761152,10.0.1.131,400,move_down,-0.400,-0.400,-0.400,0.000,0.000,0.000
1605185521630984192,10.0.1.131,395,move_down,-0.420,-0.420,-0.420,0.000,0.000,0.000
1605185523105714944,10.0.1.131,414,move_down,-0.440,-0.440,-0.440,0.000,0.000,0.000
1605185524534710016,10.0.1.131,395,move_down,-0.460,-0.460,-0.460,0.000,0.000,0.000
1605185526024897024,10.0.1.131,389,move_down,-0.480,-0.480,-0.480,0.000,0.000,0.000
1605185527476926208,10.0.1.131,389,move_down,-0.500,-0.500,-0.500,0.000,0.000,0.000
1605185529008601856,10.0.1.131,437,move_down,-0.520,-0.520,-0.520,0.000,0.000,0.000
1605185530485240832,10.0.1.131,391,move_down,-0.540,-0.540,-0.540,0.000,0.000,0.000
1605185531966036992,10.0.1.131,400,move_down,-0.560,-0.560,-0.560,0.000,0.000,0.000
1605185533405849088,10.0.1.131,381,move_down,-0.580,-0.580,-0.580,0.000,0.000,0.000
1605185534484497920,10.0.1.131,40,pick,-0.590,-0.590,-0.590,0.000,0.000,0.000
1605185535486834944,10.0.1.131,41,pick,-0.600,-0.600,-0.600,0.000,0.000,0.000
1605185536483913984,10.0.1.131,37,pick,-0.610,-0.610,-0.610,0.000,0.000,0.000
1605185537489142784,10.0.1.131,41,pick,-0.620,-0.620,-0.620,0.000,0.000,0.000
1605185538484203008,10.0.1.131,35,pick,-0.630,-0.630,-0.630,0.000,0.000,0.000
1605185539504811008,10.0.1.131,50,pick,-0.640,-0.640,-0.640,0.000,0.000,0.000
1605185540504704000,10.0.1.131,48,pick,-0.650,-0.650,-0.650,0.000,0.000,0.000
1605185541504920832,10.0.1.131,47,pick,-0.660,-0.660,-0.660,0.000,0.000,0.000
1605185542503261184,10.0.1.131,44,pick,-0.670,-0.670,-0.670,0.000,0.000,0.000
1605185543506889984,10.0.1.131,47,pick,-0.680,-0.680,-0.680,0.000,0.000,0.000
1605185544506212864,10.0.1.131,45,pick,-0.690,-0.690,-0.690,0.000,0.000,0.000
1605185545507447040,10.0.1.131,44,pick,-0.700,-0.700,-0.700,0.000,0.000,0.000
1605185546513432064,10.0.1.131,47,pick,-0.710,-0.710,-0.710,0.000,0.000,0.000
1605185547507049984,10.0.1.131,40,pick,-0.720,-0.720,-0.720,0.000,0.000,0.000
1605185548512988160,10.0.1.131,44,pick,-0.730,-0.730,-0.730,0.000,0.000,0.000
1605185549506627072,10.0.1.131,37,pick,-0.740,-0.740,-0.740,0.000,0.000,0.000
1605185550505222912,10.0.1.131,34,pick,-0.750,-0.750,-0.750,0.000,0.000,0.000
1605185551505160192,10.0.1.131,33,pick,-0.760,-0.760,-0.760,0.000,0.000,0.000
1605185552524925952,10.0.1.131,52,pick,-0.770,-0.770,-0.770,0.000,0.000,0.000
1605185553864660992,10.0.1.131,390,move_up,-0.750,-0.750,-0.750,0.000,0.000,0.000
1605185555314497024,10.0.1.131,391,move_up,-0.730,-0.730,-0.730,0.000,0.000,0.000
1605185556760428800,10.0.1.131,383,move_up,-0.710,-0.710,-0.710,0.000,0.000,0.000
1605185558241892096,10.0.1.131,420,move_up,-0.690,-0.690,-0.690,0.000,0.000,0.000
1605185559683159040,10.0.1.131,371,move_up,-0.670,-0.670,-0.670,0.000,0.000,0.000
1605185561154915072,10.0.1.131,408,move_up,-0.650,-0.650,-0.650,0.000,0.000,0.000
1605185562555607040,10.0.1.131,393,move_up,-0.630,-0.630,-0.630,0.000,0.000,0.000
1605185564024945920,10.0.1.131,420,move_up,-0.610,-0.610,-0.610,0.000,0.000,0.000
1605185565456403968,10.0.1.131,378,move_up,-0.590,-0.590,-0.590,0.000,0.000,0.000
1605185566927179008,10.0.1.131,427,move_up,-0.570,-0.570,-0.570,0.000,0.000,0.000
1605185568376750848,10.0.1.131,398,move_up,-0.550,-0.550,-0.550,0.000,0.000,0.000
1605185569879493888,10.0.1.131,457,move_up,-0.530,-0.530,-0.530,0.000,0.000,0.000
1605185571334878976,10.0.1.131,396,move_up,-0.510,-0.510,-0.510,0.000,0.000,0.000
1605185572844396032,10.0.1.131,412,move_up,-0.490,-0.490,-0.490,0.000,0.000,0.000
1605185574313436928,10.0.1.131,398,move_up,-0.470,-0.470,-0.470,0.000,0.000,0.000
1605185575764977920,10.0.1.131,407,move_up,-0.450,-0.450,-0.450,0.000,0.000,0.000
1605185577254105088,10.0.1.131,406,move_up,-0.430,-0.430,-0.430,0.000,0.000,0.000
1605185578693136896,10.0.1.131,392,move_up,-0.410,-0.410,-0.410,0.000,0.000,0.000
1605185580193927168,10.0.1.131,416,move_up,-0.390,-0.390,-0.390,0.000,0.000,0.000
1605185581679662080,10.0.1.131,418,move_up,-0.370,-0.370,-0.370,0.000,0.000,0.000
1605185583163074048,10.0.1.131,415,move_up,-0.350,-0.350,-0.350,0.000,0.000,0.000
1605185584645843968,10.0.1.131,422,move_up,-0.330,-0.330,-0.330,0.000,0.000,0.000
1605185586125742080,10.0.1.131,399,move_up,-0.310,-0.310,-0.310,0.000,0.000,0.000
1605185587588713984,10.0.1.131,410,move_up,-0.290,-0.290,-0.290,0.000,0.000,0.000
1605185589026187008,10.0.1.131,397,move_up,-0.270,-0.270,-0.270,0.000,0.000,0.000
1605185590446598144,10.0.1.131,382,move_up,-0.250,-0.250,-0.250,0.000,0.000,0.000
1605185591898135040,10.0.1.131,390,move_up,-0.230,-0.230,-0.230,0.000,0.000,0.000
1605185593405967104,10.0.1.131,421,move_up,-0.210,-0.210,-0.210,0.000,0.000,0.000
1605185594885268992,10.0.1.131,386,move_up,-0.190,-0.190,-0.190,0.000,0.000,0.000
1605185595965385984,10.0.1.131,36,place,-0.180,-0.180,-0.180,0.000,0.000,0.000
1605185596965125120,10.0.1.131,35,place,-0.170,-0.170,-0.170,0.000,0.000,0.000
1605185597966452992,10.0.1.131,35,place,-0.160,-0.160,-0.160,0.000,0.000,0.000
1605185598966212096,10.0.1.131,33,place,-0.150,-0.150,-0.150,0.000,0.000,0.000
1605185599967531008,10.0.1.131,33,place,-0.140,-0.140,-0.140,0.000,0.000,0.000
1605185600990633984,10.0.1.131,55,place,-0.130,-0.130,-0.130,0.000,0.000,0.000
1605185601988160000,10.0.1.131,51,place,-0.120,-0.120,-0.120,0.000,0.000,0.000
1605185602987032832,10.0.1.131,49,place,-0.110,-0.110,-0.110,0.000,0.000,0.000
1605185603999140096,10.0.1.131,60,place,-0.100,-0.100,-0.100,0.000,0.000,0.000
1605185604986118912,10.0.1.131,46,place,-0.090,-0.090,-0.090,0.000,0.000,0.000
1605185605985655040,10.0.1.131,44,place,-0.080,-0.080,-0.080,0.000,0.000,0.000
1605185606986736896,10.0.1.131,42,place,-0.070,-0.070,-0.070,0.000,0.000,0.000
1605185607987399168,10.0.1.131,42,place,-0.060,-0.060,-0.060,0.000,0.000,0.000
1605185608988285952,10.0.1.131,41,place,-0.050,-0.050,-0.050,0.000,0.000,0.000
1605185609989995008,10.0.1.131,42,place,-0.040,-0.040,-0.040,0.000,0.000,0.000
1605185610995305984,10.0.1.131,46,place,-0.030,-0.030,-0.030,0.000,0.000,0.000
1605185611990324992,10.0.1.131,39,place,-0.020,-0.020,-0.020,0.000,0.000,0.000
1605185612988493056,10.0.1.131,36,place,-0.010,-0.010,-0.010,0.000,0.000,0.000
1605185613988562944,10.0.1.131,35,place,0.000,0.000,0.000,0.000,0.000,0.000
1605185615355858944,10.0.1.131,401,move_down,-0.020,-0.020,-0.020,0.000,0.000,0.000
1605185616808549888,10.0.1.131,410,move_down,-0.040,-0.040,-0.040,0.000,0.000,0.000
1605185618287000064,10.0.1.131,405,move_down,-0.060,-0.060,-0.060,0.000,0.000,0.000
1605185619805590016,10.0.1.131,432,move_down,-0.080,-0.080,-0.080,0.000,0.000,0.000
1605185621247659008,10.0.1.131,377,move_down,-0.100,-0.100,-0.100,0.000,0.000,0.000
1605185622698507008,10.0.1.131,395,move_down,-0.120,-0.120,-0.120,0.000,0.000,0.000
1605185624150012928,10.0.1.131,394,move_down,-0.140,-0.140,-0.140,0.000,0.000,0.000
1605185625586749184,10.0.1.131,385,move_down,-0.160,-0.160,-0.160,0.000,0.000,0.000
1605185627026878976,10.0.1.131,406,move_down,-0.180,-0.180,-0.180,0.000,0.000,0.000
1605185628489819136,10.0.1.131,394,move_down,-0.200,-0.200,-0.200,0.000,0.000,0.000
1605185629935965184,10.0.1.131,365,move_down,-0.220,-0.220,-0.220,0.000,0.000,0.000
1605185631445363968,10.0.1.131,427,move_down,-0.240,-0.240,-0.240,0.000,0.000,0.000
1605185632918320896,10.0.1.131,391,move_down,-0.260,-0.260,-0.260,0.000,0.000,0.000
1605185634451452928,10.0.1.131,450,move_down,-0.280,-0.280,-0.280,0.000,0.000,0.000
1605185635908182016,10.0.1.131,392,move_down,-0.300,-0.300,-0.300,0.000,0.000,0.000
1605185637409477888,10.0.1.131,415,move_down,-0.320,-0.320,-0.320,0.000,0.000,0.000
1605185638917217024,10.0.1.131,405,move_down,-0.340,-0.340,-0.340,0.000,0.000,0.000
1605185640417285888,10.0.1.131,419,move_down,-0.360,-0.360,-0.360,0.000,0.000,0.000
1605185641859962112,10.0.1.131,389,move_down,-0.380,-0.380,-0.380,0.000,0.000,0.000
1605185643336741888,10.0.1.131,387,move_down,-0.400,-0.400,-0.400,0.000,0.000,0.000
1605185644819350016,10.0.1.131,433,move_down,-0.420,-0.420,-0.420,0.000,0.000,0.000
1605185646277628928,10.0.1.131,394,move_down,-0.440,-0.440,-0.440,0.000,0.000,0.000
1605185647717363200,10.0.1.131,390,move_down,-0.460,-0.460,-0.460,0.000,0.000,0.000
1605185649167350016,10.0.1.131,397,move_down,-0.480,-0.480,-0.480,0.000,0.000,0.000
1605185650617454080,10.0.1.131,372,move_down,-0.500,-0.500,-0.500,0.000,0.000,0.000
1605185652058056192,10.0.1.131,388,move_down,-0.520,-0.520,-0.520,0.000,0.000,0.000
1605185653479877888,10.0.1.131,375,move_down,-0.540,-0.540,-0.540,0.000,0.000,0.000
1605185654946760960,10.0.1.131,395,move_down,-0.560,-0.560,-0.560,0.000,0.000,0.000
1605185656418364160,10.0.1.131,386,move_down,-0.580,-0.580,-0.580,0.000,0.000,0.000
1605185657518758912,10.0.1.131,39,pick,-0.590,-0.590,-0.590,0.000,0.000,0.000
1605185658516700928,10.0.1.131,35,pick,-0.600,-0.600,-0.600,0.000,0.000,0.000
1605185659518323968,10.0.1.131,35,pick,-0.610,-0.610,-0.610,0.000,0.000,0.000
1605185660515974912,10.0.1.131,32,pick,-0.620,-0.620,-0.620,0.000,0.000,0.000
1605185661516768000,10.0.1.131,31,pick,-0.630,-0.630,-0.630,0.000,0.000,0.000
1605185662540761856,10.0.1.131,50,pick,-0.640,-0.640,-0.640,0.000,0.000,0.000
1605185663538479104,10.0.1.131,46,pick,-0.650,-0.650,-0.650,0.000,0.000,0.000
1605185664537394944,10.0.1.131,44,pick,-0.660,-0.660,-0.660,0.000,0.000,0.000
1605185665536719104,10.0.1.131,43,pick,-0.670,-0.670,-0.670,0.000,0.000,0.000
1605185666547386880,10.0.1.131,49,pick,-0.680,-0.680,-0.680,0.000,0.000,0.000
1605185667536726016,10.0.1.131,37,pick,-0.690,-0.690,-0.690,0.000,0.000,0.000
1605185668538674944,10.0.1.131,38,pick,-0.700,-0.700,-0.700,0.000,0.000,0.000
1605185669536900096,10.0.1.131,32,pick,-0.710,-0.710,-0.710,0.000,0.000,0.000
1605185670570373120,10.0.1.131,64,pick,-0.720,-0.720,-0.720,0.000,0.000,0.000
1605185671557668096,10.0.1.131,50,pick,-0.730,-0.730,-0.730,0.000,0.000,0.000
1605185672559160064,10.0.1.131,50,pick,-0.740,-0.740,-0.740,0.000,0.000,0.000
1605185673554315008,10.0.1.131,44,pick,-0.750,-0.750,-0.750,0.000,0.000,0.000
1605185674564685056,10.0.1.131,53,pick,-0.760,-0.760,-0.760,0.000,0.000,0.000
1605185675557900800,10.0.1.131,45,pick,-0.770,-0.770,-0.770,0.000,0.000,0.000
1605185676925997056,10.0.1.131,412,move_up,-0.750,-0.750,-0.750,0.000,0.000,0.000
1605185678482317056,10.0.1.131,455,move_up,-0.730,-0.730,-0.730,0.000,0.000,0.000
1605185680016285952,10.0.1.131,457,move_up,-0.710,-0.710,-0.710,0.000,0.000,0.000
1605185681506844928,10.0.1.131,412,move_up,-0.690,-0.690,-0.690,0.000,0.000,0.000
1605185683036694016,10.0.1.131,424,move_up,-0.670,-0.670,-0.670,0.000,0.000,0.000
1605185684576616960,10.0.1.131,449,move_up,-0.650,-0.650,-0.650,0.000,0.000,0.000
1605185686048268032,10.0.1.131,425,move_up,-0.630,-0.630,-0.630,0.000,0.000,0.000
1605185687487855872,10.0.1.131,374,move_up,-0.610,-0.610,-0.610,0.000,0.000,0.000
1605185689017782016,10.0.1.131,424,move_up,-0.590,-0.590,-0.590,0.000,0.000,0.000
1605185690443442176,10.0.1.131,426,move_up,-0.570,-0.570,-0.570,0.000,0.000,0.000
1605185691967053056,10.0.1.131,457,move_up,-0.550,-0.550,-0.550,0.000,0.000,0.000
1605185693457020928,10.0.1.131,420,move_up,-0.530,-0.530,-0.530,0.000,0.000,0.000
1605185694949011200,10.0.1.131,411,move_up,-0.510,-0.510,-0.510,0.000,0.000,0.000
1605185696377295872,10.0.1.131,380,move_up,-0.490,-0.490,-0.490,0.000,0.000,0.000
1605185697856976128,10.0.1.131,428,move_up,-0.470,-0.470,-0.470,0.000,0.000,0.000
1605185699297112064,10.0.1.131,407,move_up,-0.450,-0.450,-0.450,0.000,0.000,0.000
1605185700769308160,10.0.1.131,400,move_up,-0.430,-0.430,-0.430,0.000,0.000,0.000
1605185702202185984,10.0.1.131,389,move_up,-0.410,-0.410,-0.410,0.000,0.000,0.000
1605185703677596928,10.0.1.131,401,move_up,-0.390,-0.390,-0.390,0.000,0.000,0.000
1605185705127227136,10.0.1.131,374,move_up,-0.370,-0.370,-0.370,0.000,0.000,0.000
1605185706616465920,10.0.1.131,435,move_up,-0.350,-0.350,-0.350,0.000,0.000,0.000
1605185708076711936,10.0.1.131,414,move_up,-0.330,-0.330,-0.330,0.000,0.000,0.000
1605185709529206016,10.0.1.131,379,move_up,-0.310,-0.310,-0.310,0.000,0.000,0.000
1605185710977569024,10.0.1.131,419,move_up,-0.290,-0.290,-0.290,0.000,0.000,0.000
1605185712421369088,10.0.1.131,377,move_up,-0.270,-0.270,-0.270,0.000,0.000,0.000
1605185713857465856,10.0.1.131,400,move_up,-0.250,-0.250,-0.250,0.000,0.000,0.000
1605185715358604800,10.0.1.131,424,move_up,-0.230,-0.230,-0.230,0.000,0.000,0.000
1605185716837497088,10.0.1.131,421,move_up,-0.210,-0.210,-0.210,0.000,0.000,0.000
1605185718287691008,10.0.1.131,386,move_up,-0.190,-0.190,-0.190,0.000,0.000,0.000
1605185719387819008,10.0.1.131,37,place,-0.180,-0.180,-0.180,0.000,0.000,0.000
1605185720389451008,10.0.1.131,38,place,-0.170,-0.170,-0.170,0.000,0.000,0.000
1605185721388147968,10.0.1.131,35,place,-0.160,-0.160,-0.160,0.000,0.000,0.000
1605185722386352128,10.0.1.131,32,place,-0.150,-0.150,-0.150,0.000,0.000,0.000
1605185723387572992,10.0.1.131,31,place,-0.140,-0.140,-0.140,0.000,0.000,0.000
1605185724389478912,10.0.1.131,31,place,-0.130,-0.130,-0.130,0.000,0.000,0.000
1605185725407905024,10.0.1.131,49,place,-0.120,-0.120,-0.120,0.000,0.000,0.000
1605185726409883136,10.0.1.131,49,place,-0.110,-0.110,-0.110,0.000,0.000,0.000
1605185727405783808,10.0.1.131,44,place,-0.100,-0.100,-0.100,0.000,0.000,0.000
1605185728406511104,10.0.1.131,43,place,-0.090,-0.090,-0.090,0.000,0.000,0.000
1605185729415350016,10.0.1.131,51,place,-0.080,-0.080,-0.080,0.000,0.000,0.000
1605185730410761984,10.0.1.131,46,place,-0.070,-0.070,-0.070,0.000,0.000,0.000
1605185731406429952,10.0.1.131,40,place,-0.060,-0.060,-0.060,0.000,0.000,0.000
1605185732407008000,10.0.1.131,39,place,-0.050,-0.050,-0.050,0.000,0.000,0.000
1605185733408749056,10.0.1.131,40,place,-0.040,-0.040,-0.040,0.000,0.000,0.000
1605185734409776896,10.0.1.131,40,place,-0.030,-0.030,-0.030,0.000,0.000,0.000
1605185735414115072,10.0.1.131,43,place,-0.020,-0.020,-0.020,0.000,0.000,0.000
1605185736407078912,10.0.1.131,35,place,-0.010,-0.010,-0.010,0.000,0.000,0.000
1605185737410362880,10.0.1.131,37,place,0.000,0.000,0.000,0.000,0.000,0.000
1605185738779730176,10.0.1.131,406,move_down,-0.020,-0.020,-0.020,0.000,0.000,0.000
1605185740240567040,10.0.1.131,388,move_down,-0.040,-0.040,-0.040,0.000,0.000,0.000
1605185741689521152,10.0.1.131,390,move_down,-0.060,-0.060,-0.060,0.000,0.000,0.000
1605185743146394112,10.0.1.131,402,move_down,-0.080,-0.080,-0.080,0.000,0.000,0.000
1605185744653619968,10.0.1.131,428,move_down,-0.100,-0.100,-0.100,0.000,0.000,0.000
1605185746039284992,10.0.1.131,377,move_down,-0.120,-0.120,-0.120,0.000,0.000,0.000
1605185747480022016,10.0.1.131,389,move_down,-0.140,-0.140,-0.140,0.000,0.000,0.000
1605185749006680064,10.0.1.131,398,move_down,-0.160,-0.160,-0.160,0.000,0.000,0.000
1605185750483938048,10.0.1.131,397,move_down,-0.180,-0.180,-0.180,0.000,0.000,0.000
1605185751900433920,10.0.1.131,400,move_down,-0.200,-0.200,-0.200,0.000,0.000,0.000
1605185753368108032,10.0.1.131,389,move_down,-0.220,-0.220,-0.220,0.000,0.000,0.000
1605185754816987136,10.0.1.131,389,move_down,-0.240,-0.240,-0.240,0.000,0.000,0.000
1605185756293692160,10.0.1.131,389,move_down,-0.260,-0.260,-0.260,0.000,0.000,0.000
1605185757757108992,10.0.1.131,399,move_down,-0.280,-0.280,-0.280,0.000,0.000,0.000
1605185759247549952,10.0.1.131,404,move_down,-0.300,-0.300,-0.300,0.000,0.000,0.000
1605185760659110144,10.0.1.131,402,move_down,-0.320,-0.320,-0.320,0.000,0.000,0.000
1605185762128238080,10.0.1.131,379,move_down,-0.340,-0.340,-0.340,0.000,0.000,0.000
1605185763554328064,10.0.1.131,394,move_down,-0.360,-0.360,-0.360,0.000,0.000,0.000
1605185765064528896,10.0.1.131,417,move_down,-0.380,-0.380,-0.380,0.000,0.000,0.000
1605185766528570880,10.0.1.131,393,move_down,-0.400,-0.400,-0.400,0.000,0.000,0.000
1605185767987870976,10.0.1.131,404,move_down,-0.420,-0.420,-0.420,0.000,0.000,0.000
1605185769448747008,10.0.1.131,382,move_down,-0.440,-0.440,-0.440,0.000,0.000,0.000
1605185770897860096,10.0.1.131,388,move_down,-0.460,-0.460,-0.460,0.000,0.000,0.000
1605185772320764928,10.0.1.131,368,move_down,-0.480,-0.480,-0.480,0.000,0.000,0.000
1605185773789323008,10.0.1.131,394,move_down,-0.500,-0.500,-0.500,0.000,0.000,0.000
1605185775267555072,10.0.1.131,386,move_down,-0.520,-0.520,-0.520,0.000,0.000,0.000
1605185776710797056,10.0.1.131,388,move_down,-0.540,-0.540,-0.540,0.000,0.000,0.000
1605185778138350080,10.0.1.131,399,move_down,-0.560,-0.560,-0.560,0.000,0.000,0.000
1605185779607424000,10.0.1.131,390,move_down,-0.580,-0.580,-0.580,0.000,0.000,0.000
1605185780707446016,10.0.1.131,33,pick,-0.590,-0.590,-0.590,0.000,0.000,0.000
1605185781711288832,10.0.1.131,36,pick,-0.600,-0.600,-0.600,0.000,0.000,0.000
1605185782715262976,10.0.1.131,39,pick,-0.610,-0.610,-0.610,0.000,0.000,0.000
1605185783727330048,10.0.1.131,50,pick,-0.620,-0.620,-0.620,0.000,0.000,0.000
1605185784727624960,10.0.1.131,49,pick,-0.630,-0.630,-0.630,0.000,0.000,0.000
1605185785725882880,10.0.1.131,46,pick,-0.640,-0.640,-0.640,0.000,0.000,0.000
1605185786727806976,10.0.1.131,47,pick,-0.650,-0.650,-0.650,0.000,0.000,0.000
1605185787728163840,10.0.1.131,46,pick,-0.660,-0.660,-0.660,0.000,0.000,0.000
1605185788727077120,10.0.1.131,43,pick,-0.670,-0.670,-0.670,0.000,0.000,0.000
1605185789728236032,10.0.1.131,44,pick,-0.680,-0.680,-0.680,0.000,0.000,0.000
1605185790744833024,10.0.1.131,59,pick,-0.690,-0.690,-0.690,0.000,0.000,0.000
1605185791729167104,10.0.1.131,42,pick,-0.700,-0.700,-0.700,0.000,0.000,0.000
1605185792731993856,10.0.1.131,44,pick,-0.710,-0.710,-0.710,0.000,0.000,0.000
1605185793726386944,10.0.1.131,36,pick,-0.720,-0.720,-0.720,0.000,0.000,0.000
1605185794726321920,10.0.1.131,36,pick,-0.730,-0.730,-0.730,0.000,0.000,0.000
1605185795730254848,10.0.1.131,39,pick,-0.740,-0.740,-0.740,0.000,0.000,0.000
1605185796726247168,10.0.1.131,34,pick,-0.750,-0.750,-0.750,0.000,0.000,0.000
1605185797725939968,10.0.1.131,33,pick,-0.760,-0.760,-0.760,0.000,0.000,0.000
1605185798726545152,10.0.1.131,32,pick,-0.770,-0.770,-0.770,0.000,0.000,0.000
1605185800076670976,10.0.1.131,381,move_up,-0.750,-0.750,-0.750,0.000,0.000,0.000
1605185801523670784,10.0.1.131,379,move_up,-0.730,-0.730,-0.730,0.000,0.000,0.000
1605185802911680000,10.0.1.131,386,move_up,-0.710,-0.710,-0.710,0.000,0.000,0.000
1605185804378232064,10.0.1.131,408,move_up,-0.690,-0.690,-0.690,0.000,0.000,0.000
1605185805850182912,10.0.1.131,405,move_up,-0.670,-0.670,-0.670,0.000,0.000,0.000
1605185807348792064,10.0.1.131,421,move_up,-0.650,-0.650,-0.650,0.000,0.000,0.000
1605185808829751040,10.0.1.131,413,move_up,-0.630,-0.630,-0.630,0.000,0.000,0.000
1605185810330283008,10.0.1.131,426,move_up,-0.610,-0.610,-0.610,0.000,0.000,0.000
1605185811890600960,10.0.1.131,463,move_up,-0.590,-0.590,-0.590,0.000,0.000,0.000
1605185813362046976,10.0.1.131,402,move_up,-0.570,-0.570,-0.570,0.000,0.000,0.000
1605185814855346944,10.0.1.131,452,move_up,-0.550,-0.550,-0.550,0.000,0.000,0.000
1605185816286077952,10.0.1.131,448,move_up,-0.530,-0.530,-0.530,0.000,0.000,0.000
1605185817798810112,10.0.1.131,422,move_up,-0.510,-0.510,-0.510,0.000,0.000,0.000
1605185819298531072,10.0.1.131,436,move_up,-0.490,-0.490,-0.490,0.000,0.000,0.000
1605185820860008960,10.0.1.131,475,move_up,-0.470,-0.470,-0.470,0.000,0.000,0.000
1605185822320707072,10.0.1.131,411,move_up,-0.450,-0.450,-0.450,0.000,0.000,0.000
1605185823739131904,10.0.1.131,396,move_up,-0.430,-0.430,-0.430,0.000,0.000,0.000
1605185825211816192,10.0.1.131,422,move_up,-0.410,-0.410,-0.410,0.000,0.000,0.000
1605185826693767936,10.0.1.131,419,move_up,-0.390,-0.390,-0.390,0.000,0.000,0.000
1605185828189441792,10.0.1.131,433,move_up,-0.370,-0.370,-0.370,0.000,0.000,0.000
1605185829700457216,10.0.1.131,423,move_up,-0.350,-0.350,-0.350,0.000,0.000,0.000
1605185831234255104,10.0.1.131,426,move_up,-0.330,-0.330,-0.330,0.000,0.000,0.000
1605185832768638976,10.0.1.131,448,move_up,-0.310,-0.310,-0.310,0.000,0.000,0.000
1605185834232510208,10.0.1.131,431,move_up,-0.290,-0.290,-0.290,0.000,0.000,0.000
1605185835747483136,10.0.1.131,416,move_up,-0.270,-0.270,-0.270,0.000,0.000,0.000
1605185837191760896,10.0.1.131,377,move_up,-0.250,-0.250,-0.250,0.000,0.000,0.000
1605185838654136832,10.0.1.131,426,move_up,-0.230,-0.230,-0.230,0.000,0.000,0.000
1605185840116556032,10.0.1.131,409,move_up,-0.210,-0.210,-0.210,0.000,0.000,0.000
1605185841641532928,10.0.1.131,410,move_up,-0.190,-0.190,-0.190,0.000,0.000,0.000
1605185842710726912,10.0.1.131,44,place,-0.180,-0.180,-0.180,0.000,0.000,0.000
1605185843712616960,10.0.1.131,36,place,-0.170,-0.170,-0.170,0.000,0.000,0.000
1605185844738711040,10.0.1.131,61,place,-0.160,-0.160,-0.160,0.000,0.000,0.000
1605185845734663936,10.0.1.131,56,place,-0.150,-0.150,-0.150,0.000,0.000,0.000
1605185846722255104,10.0.1.131,42,place,-0.140,-0.140,-0.140,0.000,0.000,0.000
1605185847734200832,10.0.1.131,53,place,-0.130,-0.130,-0.130,0.000,0.000,0.000
1605185848729500160,10.0.1.131,47,place,-0.120,-0.120,-0.120,0.000,0.000,0.000
1605185849734159104,10.0.1.131,50,place,-0.110,-0.110,-0.110,0.000,0.000,0.000
1605185850738545920,10.0.1.131,53,place,-0.100,-0.100,-0.100,0.000,0.000,0.000
1605185851735945984,10.0.1.131,49,place,-0.090,-0.090,-0.090,0.000,0.000,0.000
1605185852726448128,10.0.1.131,38,place,-0.080,-0.080,-0.080,0.000,0.000,0.000
1605185853752952064,10.0.1.131,44,place,-0.070,-0.070,-0.070,0.000,0.000,0.000
1605185854773396992,10.0.1.131,44,place,-0.060,-0.060,-0.060,0.000,0.000,0.000
1605185855783643904,10.0.1.131,52,place,-0.050,-0.050,-0.050,0.000,0.000,0.000
1605185856765032960,10.0.1.131,33,place,-0.040,-0.040,-0.040,0.000,0.000,0.000
1605185857775995136,10.0.1.131,43,place,-0.030,-0.030,-0.030,0.000,0.000,0.000
1605185858772243968,10.0.1.131,38,place,-0.020,-0.020,-0.020,0.000,0.000,0.000
1605185859773164032,10.0.1.131,36,place,-0.010,-0.010,-0.010,0.000,0.000,0.000
1605185860791832832,10.0.1.131,54,place,0.000,0.000,0.000,0.000,0.000,0.000
1605185862152514048,10.0.1.131,414,move_down,-0.020,-0.020,-0.020,0.000,0.000,0.000
1605185863703550208,10.0.1.131,470,move_down,-0.040,-0.040,-0.040,0.000,0.000,0.000
1605185865191382784,10.0.1.131,431,move_down,-0.060,-0.060,-0.060,0.000,0.000,0.000
1605185866702624000,10.0.1.131,403,move_down,-0.080,-0.080,-0.080,0.000,0.000,0.000
1605185868254337024,10.0.1.131,470,move_down,-0.100,-0.100,-0.100,0.000,0.000,0.000
1605185869750839040,10.0.1.131,421,move_down,-0.120,-0.120,-0.120,0.000,0.000,0.000
1605185871276001024,10.0.1.131,449,move_down,-0.140,-0.140,-0.140,0.000,0.000,0.000
1605185872773593856,10.0.1.131,405,move_down,-0.160,-0.160,-0.160,0.000,0.000,0.000
1605185874254528000,10.0.1.131,454,move_down,-0.180,-0.180,-0.180,0.000,0.000,0.000
1605185875760324864,10.0.1.131,476,move_down,-0.200,-0.200,-0.200,0.000,0.000,0.000
1605185877242758144,10.0.1.131,433,move_down,-0.220,-0.220,-0.220,0.000,0.000,0.000
1605185878778660096,10.0.1.131,439,move_down,-0.240,-0.240,-0.240,0.000,0.000,0.000
1605185880243597056,10.0.1.131,413,move_down,-0.260,-0.260,-0.260,0.000,0.000,0.000
1605185881772727040,10.0.1.131,485,move_down,-0.280,-0.280,-0.280,0.000,0.000,0.000
1605185883252023808,10.0.1.131,425,move_down,-0.300,-0.300,-0.300,0.000,0.000,0.000
1605185884741491968,10.0.1.131,462,move_down,-0.320,-0.320,-0.320,0.000,0.000,0.000
1605185886262731008,10.0.1.131,441,move_down,-0.340,-0.340,-0.340,0.000,0.000,0.000
1605185887723265024,10.0.1.131,422,move_down,-0.360,-0.360,-0.360,0.000,0.000,0.000
1605185889173646848,10.0.1.131,397,move_down,-0.380,-0.380,-0.380,0.000,0.000,0.000
1605185890701283840,10.0.1.131,449,move_down,-0.400,-0.400,-0.400,0.000,0.000,0.000
1605185892244602880,10.0.1.131,452,move_down,-0.420,-0.420,-0.420,0.000,0.000,0.000
1605185893677316864,10.0.1.131,401,move_down,-0.440,-0.440,-0.440,0.000,0.000,0.000
1605185895211781888,10.0.1.131,452,move_down,-0.460,-0.460,-0.460,0.000,0.000,0.000
1605185896666201088,10.0.1.131,387,move_down,-0.480,-0.480,-0.480,0.000,0.000,0.000
1605185898148578816,10.0.1.131,389,move_down,-0.500,-0.500,-0.500,0.000,0.000,0.000
1605185899600516096,10.0.1.131,392,move_down,-0.520,-0.520,-0.520,0.000,0.000,0.000
1605185901072474112,10.0.1.131,385,move_down,-0.540,-0.540,-0.540,0.000,0.000,0.000
1605185902521147904,10.0.1.131,390,move_down,-0.560,-0.560,-0.560,0.000,0.000,0.000
1605185903991286016,10.0.1.131,406,move_down,-0.580,-0.580,-0.580,0.000,0.000,0.000
1605185905116136960,10.0.1.131,43,pick,-0.590,-0.590,-0.590,0.000,0.000,0.000
1605185906123001088,10.0.1.131,48,pick,-0.600,-0.600,-0.600,0.000,0.000,0.000
1605185907111809024,10.0.1.131,35,pick,-0.610,-0.610,-0.610,0.000,0.000,0.000
1605185908120479232,10.0.1.131,42,pick,-0.620,-0.620,-0.620,0.000,0.000,0.000
1605185909131772928,10.0.1.131,50,pick,-0.630,-0.630,-0.630,0.000,0.000,0.000
1605185910132619008,10.0.1.131,48,pick,-0.640,-0.640,-0.640,0.000,0.000,0.000
1605185911132673024,10.0.1.131,47,pick,-0.650,-0.650,-0.650,0.000,0.000,0.000
1605185912131397888,10.0.1.131,45,pick,-0.660,-0.660,-0.660,0.000,0.000,0.000
1605185913134898944,10.0.1.131,47,pick,-0.670,-0.670,-0.670,0.000,0.000,0.000
1605185914133799936,10.0.1.131,46,pick,-0.680,-0.680,-0.680,0.000,0.000,0.000
1605185915135688960,10.0.1.131,46,pick,-0.690,-0.690,-0.690,0.000,0.000,0.000
1605185916135351808,10.0.1.131,45,pick,-0.700,-0.700,-0.700,0.000,0.000,0.000
1605185917132980224,10.0.1.131,41,pick,-0.710,-0.710,-0.710,0.000,0.000,0.000
1605185918134077952,10.0.1.131,41,pick,-0.720,-0.720,-0.720,0.000,0.000,0.000
1605185919132164096,10.0.1.131,38,pick,-0.730,-0.730,-0.730,0.000,0.000,0.000
1605185920131632128,10.0.1.131,36,pick,-0.740,-0.740,-0.740,0.000,0.000,0.000
1605185921132605184,10.0.1.131,36,pick,-0.750,-0.750,-0.750,0.000,0.000,0.000
1605185922134946048,10.0.1.131,38,pick,-0.760,-0.760,-0.760,0.000,0.000,0.000
1605185923134180096,10.0.1.131,36,pick,-0.770,-0.770,-0.770,0.000,0.000,0.000
1605185924538103040,10.0.1.131,439,move_up,-0.750,-0.750,-0.750,0.000,0.000,0.000
1605185926092142080,10.0.1.131,474,move_up,-0.730,-0.730,-0.730,0.000,0.000,0.000
1605185927550947840,10.0.1.131,405,move_up,-0.710,-0.710,-0.710,0.000,0.000,0.000
1605185929062615040,10.0.1.131,419,move_up,-0.690,-0.690,-0.690,0.000,0.000,0.000
1605185930562117120,10.0.1.131,391,move_up,-0.670,-0.670,-0.670,0.000,0.000,0.000
1605185932102458112,10.0.1.131,448,move_up,-0.650,-0.650,-0.650,0.000,0.000,0.000
1605185933640072960,10.0.1.131,459,move_up,-0.630,-0.630,-0.630,0.000,0.000,0.000
1605185935169871104,10.0.1.131,463,move_up,-0.610,-0.610,-0.610,0.000,0.000,0.000
1605185936628969984,10.0.1.131,409,move_up,-0.590,-0.590,-0.590,0.000,0.000,0.000
1605185938098603008,10.0.1.131,411,move_up,-0.570,-0.570,-0.570,0.000,0.000,0.000
1605185939636826880,10.0.1.131,436,move_up,-0.550,-0.550,-0.550,0.000,0.000,0.000
1605185941119004928,10.0.1.131,394,move_up,-0.530,-0.530,-0.530,0.000,0.000,0.000
1605185942558270976,10.0.1.131,388,move_up,-0.510,-0.510,-0.510,0.000,0.000,0.000
1605185944042134016,10.0.1.131,425,move_up,-0.490,-0.490,-0.490,0.000,0.000,0.000
1605185945527668992,10.0.1.131,421,move_up,-0.470,-0.470,-0.470,0.000,0.000,0.000
1605185946959311872,10.0.1.131,430,move_up,-0.450,-0.450,-0.450,0.000,0.000,0.000
1605185948486243840,10.0.1.131,455,move_up,-0.430,-0.430,-0.430,0.000,0.000,0.000
1605185949956494080,10.0.1.131,387,move_up,-0.410,-0.410,-0.410,0.000,0.000,0.000
1605185951466948864,10.0.1.131,448,move_up,-0.390,-0.390,-0.390,0.000,0.000,0.000
1605185952927143936,10.0.1.131,421,move_up,-0.370,-0.370,-0.370,0.000,0.000,0.000
1605185954467941888,10.0.1.131,476,move_up,-0.350,-0.350,-0.350,0.000,0.000,0.000
1605185955972392960,10.0.1.131,466,move_up,-0.330,-0.330,-0.330,0.000,0.000,0.000
1605185957448259072,10.0.1.131,426,move_up,-0.310,-0.310,-0.310,0.000,0.000,0.000
1605185958968611072,10.0.1.131,447,move_up,-0.290,-0.290,-0.290,0.000,0.000,0.000
1605185960491319040,10.0.1.131,445,move_up,-0.270,-0.270,-0.270,0.000,0.000,0.000
1605185962020622848,10.0.1.131,432,move_up,-0.250,-0.250,-0.250,0.000,0.000,0.000
1605185963507606016,10.0.1.131,434,move_up,-0.230,-0.230,-0.230,0.000,0.000,0.000
1605185964978251008,10.0.1.131,417,move_up,-0.210,-0.210,-0.210,0.000,0.000,0.000
1605185966431664896,10.0.1.131,388,move_up,-0.190,-0.190,-0.190,0.000,0.000,0.000
1605185967552891136,10.0.1.131,56,place,-0.180,-0.180,-0.180,0.000,0.000,0.000
1605185968548765952,10.0.1.131,50,place,-0.170,-0.170,-0.170,0.000,0.000,0.000
1605185969547836928,10.0.1.131,48,place,-0.160,-0.160,-0.160,0.000,0.000,0.000
1605185970549384192,10.0.1.131,48,place,-0.150,-0.150,-0.150,0.000,0.000,0.000
1605185971549861888,10.0.1.131,47,place,-0.140,-0.140,-0.140,0.000,0.000,0.000
1605185972551580928,10.0.1.131,48,place,-0.130,-0.130,-0.130,0.000,0.000,0.000
1605185973550405888,10.0.1.131,45,place,-0.120,-0.120,-0.120,0.000,0.000,0.000
1605185974548614912,10.0.1.131,42,place,-0.110,-0.110,-0.110,0.000,0.000,0.000
1605185975554748928,10.0.1.131,47,place,-0.100,-0.100,-0.100,0.000,0.000,0.000
1605185976551565824,10.0.1.131,43,place,-0.090,-0.090,-0.090,0.000,0.000,0.000
1605185977547110912,10.0.1.131,37,place,-0.080,-0.080,-0.080,0.000,0.000,0.000
1605185978548583936,10.0.1.131,38,place,-0.070,-0.070,-0.070,0.000,0.000,0.000
1605185979547281152,10.0.1.131,35,place,-0.060,-0.060,-0.060,0.000,0.000,0.000
1605185980546567936,10.0.1.131,33,place,-0.050,-0.050,-0.050,0.000,0.000,0.000
1605185981561004032,10.0.1.131,46,place,-0.040,-0.040,-0.040,0.000,0.000,0.000
1605185982547058944,10.0.1.131,31,place,-0.030,-0.030,-0.030,0.000,0.000,0.000
1605185983576811008,10.0.1.131,59,place,-0.020,-0.020,-0.020,0.000,0.000,0.000
1605185984567956992,10.0.1.131,49,place,-0.010,-0.010,-0.010,0.000,0.000,0.000
1605185985566696960,10.0.1.131,47,place,0.000,0.000,0.000,0.000,0.000,0.000
1605185986926956032,10.0.1.131,405,move_down,-0.020,-0.020,-0.020,0.000,0.000,0.000
1605185988454621952,10.0.1.131,445,move_down,-0.040,-0.040,-0.040,0.000,0.000,0.000
1605185989933325056,10.0.1.131,410,move_down,-0.060,-0.060,-0.060,0.000,0.000,0.000
1605185991418249984,10.0.1.131,410,move_down,-0.080,-0.080,-0.080,0.000,0.000,0.000
1605185992934590208,10.0.1.131,407,move_down,-0.100,-0.100,-0.100,0.000,0.000,0.000
1605185994423485952,10.0.1.131,397,move_down,-0.120,-0.120,-0.120,0.000,0.000,0.000
1605185995881298176,10.0.1.131,434,move_down,-0.140,-0.140,-0.140,0.000,0.000,0.000
1605185997374697984,10.0.1.131,439,move_down,-0.160,-0.160,-0.160,0.000,0.000,0.000
1605185998876102912,10.0.1.131,434,move_down,-0.180,-0.180,-0.180,0.000,0.000,0.000
1605186000368678144,10.0.1.131,415,move_down,-0.200,-0.200,-0.200,0.000,0.000,0.000
1605186001911664896,10.0.1.131,488,move_down,-0.220,-0.220,-0.220,0.000,0.000,0.000
1605186003390202880,10.0.1.131,402,move_down,-0.240,-0.240,-0.240,0.000,0.000,0.000
1605186004927356928,10.0.1.131,459,move_down,-0.260,-0.260,-0.260,0.000,0.000,0.000
1605186006430636800,10.0.1.131,437,move_down,-0.280,-0.280,-0.280,0.000,0.000,0.000
1605186007916482048,10.0.1.131,441,move_down,-0.300,-0.300,-0.300,0.000,0.000,0.000
1605186009349705984,10.0.1.131,394,move_down,-0.320,-0.320,-0.320,0.000,0.000,0.000
1605186010790931968,10.0.1.131,407,move_down,-0.340,-0.340,-0.340,0.000,0.000,0.000
1605186012281261824,10.0.1.131,405,move_down,-0.360,-0.360,-0.360,0.000,0.000,0.000
1605186013777942016,10.0.1.131,411,move_down,-0.380,-0.380,-0.380,0.000,0.000,0.000
1605186015298242048,10.0.1.131,419,move_down,-0.400,-0.400,-0.400,0.000,0.000,0.000
1605186016803456000,10.0.1.131,406,move_down,-0.420,-0.420,-0.420,0.000,0.000,0.000
1605186018302011136,10.0.1.131,419,move_down,-0.440,-0.440,-0.440,0.000,0.000,0.000
1605186019818701056,10.0.1.131,450,move_down,-0.460,-0.460,-0.460,0.000,0.000,0.000
1605186021214190848,10.0.1.131,366,move_down,-0.480,-0.480,-0.480,0.000,0.000,0.000
1605186022658976000,10.0.1.131,398,move_down,-0.500,-0.500,-0.500,0.000,0.000,0.000
1605186024058077952,10.0.1.131,374,move_down,-0.520,-0.520,-0.520,0.000,0.000,0.000
1605186025538820096,10.0.1.131,411,move_down,-0.540,-0.540,-0.540,0.000,0.000,0.000
1605186027027572992,10.0.1.131,418,move_down,-0.560,-0.560,-0.560,0.000,0.000,0.000
1605186028464175104,10.0.1.131,378,move_down,-0.580,-0.580,-0.580,0.000,0.000,0.000
1605186029558818048,10.0.1.131,48,pick,-0.590,-0.590,-0.590,0.000,0.000,0.000
1605186030558844928,10.0.1.131,47,pick,-0.600,-0.600,-0.600,0.000,0.000,0.000
1605186031559566080,10.0.1.131,46,pick,-0.610,-0.610,-0.610,0.000,0.000,0.000
1605186032563232000,10.0.1.131,49,pick,-0.620,-0.620,-0.620,0.000,0.000,0.000
1605186033559731968,10.0.1.131,44,pick,-0.630,-0.630,-0.630,0.000,0.000,0.000
1605186034558254848,10.0.1.131,42,pick,-0.640,-0.640,-0.640,0.000,0.000,0.000
1605186035558483968,10.0.1.131,41,pick,-0.650,-0.650,-0.650,0.000,0.000,0.000
1605186036559841024,10.0.1.131,40,pick,-0.660,-0.660,-0.660,0.000,0.000,0.000
1605186037561974016,10.0.1.131,41,pick,-0.670,-0.670,-0.670,0.000,0.000,0.000
1605186038579351808,10.0.1.131,57,pick,-0.680,-0.680,-0.680,0.000,0.000,0.000
1605186039558983168,10.0.1.131,35,pick,-0.690,-0.690,-0.690,0.000,0.000,0.000
1605186040558605056,10.0.1.131,33,pick,-0.700,-0.700,-0.700,0.000,0.000,0.000
1605186041559823872,10.0.1.131,33,pick,-0.710,-0.710,-0.710,0.000,0.000,0.000
1605186042591845120,10.0.1.131,63,pick,-0.720,-0.720,-0.720,0.000,0.000,0.000
1605186043582222080,10.0.1.131,51,pick,-0.730,-0.730,-0.730,0.000,0.000,0.000
1605186044592608000,10.0.1.131,60,pick,-0.740,-0.740,-0.740,0.000,0.000,0.000
1605186045579816960,10.0.1.131,45,pick,-0.750,-0.750,-0.750,0.000,0.000,0.000
1605186046580163072,10.0.1.131,45,pick,-0.760,-0.760,-0.760,0.000,0.000,0.000
1605186047580257792,10.0.1.131,44,pick,-0.770,-0.770,-0.770,0.000,0.000,0.000
1605186048962664960,10.0.1.131,425,move_up,-0.750,-0.750,-0.750,0.000,0.000,0.000
1605186050448012032,10.0.1.131,410,move_up,-0.730,-0.730,-0.730,0.000,0.000,0.000
1605186051957041920,10.0.1.131,439,move_up,-0.710,-0.710,-0.710,0.000,0.000,0.000
1605186053459141120,10.0.1.131,417,move_up,-0.690,-0.690,-0.690,0.000,0.000,0.000
1605186054938894080,10.0.1.131,413,move_up,-0.670,-0.670,-0.670,0.000,0.000,0.000
1605186056392945152,10.0.1.131,415,move_up,-0.650,-0.650,-0.650,0.000,0.000,0.000
1605186057931868160,10.0.1.131,432,move_up,-0.630,-0.630,-0.630,0.000,0.000,0.000
1605186059467016960,10.0.1.131,439,move_up,-0.610,-0.610,-0.610,0.000,0.000,0.000
1605186060909431808,10.0.1.131,383,move_up,-0.590,-0.590,-0.590,0.000,0.000,0.000
1605186062389626112,10.0.1.131,400,move_up,-0.570,-0.570,-0.570,0.000,0.000,0.000
1605186063889565952,10.0.1.131,421,move_up,-0.550,-0.550,-0.550,0.000,0.000,0.000
1605186065353374976,10.0.1.131,404,move_up,-0.530,-0.530,-0.530,0.000,0.000,0.000
1605186066855407872,10.0.1.131,425,move_up,-0.510,-0.510,-0.510,0.000,0.000,0.000
1605186068329179136,10.0.1.131,401,move_up,-0.490,-0.490,-0.490,0.000,0.000,0.000
1605186069855535104,10.0.1.131,448,move_up,-0.470,-0.470,-0.470,0.000,0.000,0.000
1605186071290014976,10.0.1.131,390,move_up,-0.450,-0.450,-0.450,0.000,0.000,0.000
1605186072792696832,10.0.1.131,417,move_up,-0.430,-0.430,-0.430,0.000,0.000,0.000
1605186074260790016,10.0.1.131,401,move_up,-0.410,-0.410,-0.410,0.000,0.000,0.000
1605186075744641024,10.0.1.131,442,move_up,-0.390,-0.390,-0.390,0.000,0.000,0.000
1605186077308704000,10.0.1.131,484,move_up,-0.370,-0.370,-0.370,0.000,0.000,0.000
1605186078801029888,10.0.1.131,424,move_up,-0.350,-0.350,-0.350,0.000,0.000,0.000
1605186080330674944,10.0.1.131,431,move_up,-0.330,-0.330,-0.330,0.000,0.000,0.000
1605186081825478912,10.0.1.131,431,move_up,-0.310,-0.310,-0.310,0.000,0.000,0.000
1605186083344952064,10.0.1.131,418,move_up,-0.290,-0.290,-0.290,0.000,0.000,0.000
1605186084883912960,10.0.1.131,456,move_up,-0.270,-0.270,-0.270,0.000,0.000,0.000
1605186086388515840,10.0.1.131,402,move_up,-0.250,-0.250,-0.250,0.000,0.000,0.000
1605186087891667968,10.0.1.131,432,move_up,-0.230,-0.230,-0.230,0.000,0.000,0.000
1605186089381190912,10.0.1.131,407,move_up,-0.210,-0.210,-0.210,0.000,0.000,0.000
1605186090860459008,10.0.1.131,395,move_up,-0.190,-0.190,-0.190,0.000,0.000,0.000
1605186092940943104,10.0.1.131,NaN,place,-0.170,-0.170,-0.170,0.000,0.000,0.000
1605186092981539072,10.0.1.131,40,place,-0.170,-0.170,-0.170,0.000,0.000,0.000
1605186093980314880,10.0.1.131,37,place,-0.160,-0.160,-0.160,0.000,0.000,0.000
1605186094981885952,10.0.1.131,38,place,-0.150,-0.150,-0.150,0.000,0.000,0.000
1605186095981875968,10.0.1.131,36,place,-0.140,-0.140,-0.140,0.000,0.000,0.000
1605186096980560896,10.0.1.131,34,place,-0.130,-0.130,-0.130,0.000,0.000,0.000
1605186097981576960,10.0.1.131,34,place,-0.120,-0.120,-0.120,0.000,0.000,0.000
1605186099000945152,10.0.1.131,48,place,-0.110,-0.110,-0.110,0.000,0.000,0.000
1605186100000977920,10.0.1.131,47,place,-0.100,-0.100,-0.100,0.000,0.000,0.000
1605186101000451072,10.0.1.131,45,place,-0.090,-0.090,-0.090,0.000,0.000,0.000
1605186102001753088,10.0.1.131,45,place,-0.080,-0.080,-0.080,0.000,0.000,0.000
1605186103005209856,10.0.1.131,46,place,-0.070,-0.070,-0.070,0.000,0.000,0.000
1605186103994525952,10.0.1.131,34,place,-0.060,-0.060,-0.060,0.000,0.000,0.000
1605186105007083008,10.0.1.131,45,place,-0.050,-0.050,-0.050,0.000,0.000,0.000
1605186106005371136,10.0.1.131,41,place,-0.040,-0.040,-0.040,0.000,0.000,0.000
1605186107019853056,10.0.1.131,54,place,-0.030,-0.030,-0.030,0.000,0.000,0.000
1605186108002693888,10.0.1.131,36,place,-0.020,-0.020,-0.020,0.000,0.000,0.000
1605186109001580032,10.0.1.131,34,place,-0.010,-0.010,-0.010,0.000,0.000,0.000
1605186109999443968,10.0.1.131,30,place,0.000,0.000,0.000,0.000,0.000,0.000
1605186111390449920,10.0.1.131,420,move_down,-0.020,-0.020,-0.020,0.000,0.000,0.000
1605186112900188928,10.0.1.131,420,move_down,-0.040,-0.040,-0.040,0.000,0.000,0.000
1605186114430108928,10.0.1.131,461,move_down,-0.060,-0.060,-0.060,0.000,0.000,0.000
1605186115971766016,10.0.1.131,407,move_down,-0.080,-0.080,-0.080,0.000,0.000,0.000
1605186117510158080,10.0.1.131,431,move_down,-0.100,-0.100,-0.100,0.000,0.000,0.000
1605186119003188992,10.0.1.131,444,move_down,-0.120,-0.120,-0.120,0.000,0.000,0.000
1605186120491908096,10.0.1.131,407,move_down,-0.140,-0.140,-0.140,0.000,0.000,0.000
1605186122052160000,10.0.1.131,455,move_down,-0.160,-0.160,-0.160,0.000,0.000,0.000
1605186123579740928,10.0.1.131,467,move_down,-0.180,-0.180,-0.180,0.000,0.000,0.000
1605186125062406912,10.0.1.131,437,move_down,-0.200,-0.200,-0.200,0.000,0.000,0.000
1605186126572346880,10.0.1.131,413,move_down,-0.220,-0.220,-0.220,0.000,0.000,0.000
1605186128065232128,10.0.1.131,423,move_down,-0.240,-0.240,-0.240,0.000,0.000,0.000
1605186129548482816,10.0.1.131,427,move_down,-0.260,-0.260,-0.260,0.000,0.000,0.000
1605186130993225216,10.0.1.131,424,move_down,-0.280,-0.280,-0.280,0.000,0.000,0.000
1605186132501349888,10.0.1.131,421,move_down,-0.300,-0.300,-0.300,0.000,0.000,0.000
1605186133991744000,10.0.1.131,397,move_down,-0.320,-0.320,-0.320,0.000,0.000,0.000
1605186135490375936,10.0.1.131,411,move_down,-0.340,-0.340,-0.340,0.000,0.000,0.000
1605186136985744896,10.0.1.131,416,move_down,-0.360,-0.360,-0.360,0.000,0.000,0.000
1605186138450824960,10.0.1.131,395,move_down,-0.380,-0.380,-0.380,0.000,0.000,0.000
1605186140009211904,10.0.1.131,473,move_down,-0.400,-0.400,-0.400,0.000,0.000,0.000
1605186141501286144,10.0.1.131,427,move_down,-0.420,-0.420,-0.420,0.000,0.000,0.000
1605186142999983104,10.0.1.131,407,move_down,-0.440,-0.440,-0.440,0.000,0.000,0.000
1605186144511252992,10.0.1.131,430,move_down,-0.460,-0.460,-0.460,0.000,0.000,0.000
1605186145976928000,10.0.1.131,415,move_down,-0.480,-0.480,-0.480,0.000,0.000,0.000
1605186147481123840,10.0.1.131,422,move_down,-0.500,-0.500,-0.500,0.000,0.000,0.000
1605186148971687936,10.0.1.131,429,move_down,-0.520,-0.520,-0.520,0.000,0.000,0.000
1605186150470243072,10.0.1.131,428,move_down,-0.540,-0.540,-0.540,0.000,0.000,0.000
1605186151980314112,10.0.1.131,419,move_down,-0.560,-0.560,-0.560,0.000,0.000,0.000
1605186153500820992,10.0.1.131,460,move_down,-0.580,-0.580,-0.580,0.000,0.000,0.000
1605186154581974016,10.0.1.131,32,pick,-0.590,-0.590,-0.590,0.000,0.000,0.000
1605186155601550080,10.0.1.131,47,pick,-0.600,-0.600,-0.600,0.000,0.000,0.000
1605186156599970048,10.0.1.131,44,pick,-0.610,-0.610,-0.610,0.000,0.000,0.000
1605186157602603008,10.0.1.131,46,pick,-0.620,-0.620,-0.620,0.000,0.000,0.000
1605186158619796992,10.0.1.131,59,pick,-0.630,-0.630,-0.630,0.000,0.000,0.000
1605186159601197056,10.0.1.131,39,pick,-0.640,-0.640,-0.640,0.000,0.000,0.000
1605186160599787008,10.0.1.131,36,pick,-0.650,-0.650,-0.650,0.000,0.000,0.000
1605186161602375936,10.0.1.131,34,pick,-0.660,-0.660,-0.660,0.000,0.000,0.000
1605186162619881984,10.0.1.131,49,pick,-0.670,-0.670,-0.670,0.000,0.000,0.000
1605186163612786176,10.0.1.131,40,pick,-0.680,-0.680,-0.680,0.000,0.000,0.000
1605186164627271936,10.0.1.131,53,pick,-0.690,-0.690,-0.690,0.000,0.000,0.000
1605186165625549056,10.0.1.131,50,pick,-0.700,-0.700,-0.700,0.000,0.000,0.000
1605186166615950080,10.0.1.131,40,pick,-0.710,-0.710,-0.710,0.000,0.000,0.000
1605186167613091840,10.0.1.131,36,pick,-0.720,-0.720,-0.720,0.000,0.000,0.000
1605186168615547904,10.0.1.131,38,pick,-0.730,-0.730,-0.730,0.000,0.000,0.000
1605186169649275136,10.0.1.131,67,pick,-0.740,-0.740,-0.740,0.000,0.000,0.000
1605186170633006080,10.0.1.131,49,pick,-0.750,-0.750,-0.750,0.000,0.000,0.000
1605186171651851008,10.0.1.131,67,pick,-0.760,-0.760,-0.760,0.000,0.000,0.000
1605186172643096064,10.0.1.131,57,pick,-0.770,-0.770,-0.770,0.000,0.000,0.000
1605186174002799104,10.0.1.131,415,move_up,-0.750,-0.750,-0.750,0.000,0.000,0.000
1605186175508462848,10.0.1.131,407,move_up,-0.730,-0.730,-0.730,0.000,0.000,0.000
1605186176983234816,10.0.1.131,405,move_up,-0.710,-0.710,-0.710,0.000,0.000,0.000
1605186178557789184,10.0.1.131,490,move_up,-0.690,-0.690,-0.690,0.000,0.000,0.000
1605186180051874048,10.0.1.131,472,move_up,-0.670,-0.670,-0.670,0.000,0.000,0.000
1605186181588203008,10.0.1.131,466,move_up,-0.650,-0.650,-0.650,0.000,0.000,0.000
1605186183072952064,10.0.1.131,473,move_up,-0.630,-0.630,-0.630,0.000,0.000,0.000
1605186184609190912,10.0.1.131,458,move_up,-0.610,-0.610,-0.610,0.000,0.000,0.000
1605186186165178112,10.0.1.131,459,move_up,-0.590,-0.590,-0.590,0.000,0.000,0.000
1605186187755494144,10.0.1.131,499,move_up,-0.570,-0.570,-0.570,0.000,0.000,0.000
1605186189212915968,10.0.1.131,408,move_up,-0.550,-0.550,-0.550,0.000,0.000,0.000
1605186190816715008,10.0.1.131,489,move_up,-0.530,-0.530,-0.530,0.000,0.000,0.000
1605186192370354944,10.0.1.131,414,move_up,-0.510,-0.510,-0.510,0.000,0.000,0.000
1605186193841690112,10.0.1.131,418,move_up,-0.490,-0.490,-0.490,0.000,0.000,0.000
1605186195275956992,10.0.1.131,390,move_up,-0.470,-0.470,-0.470,0.000,0.000,0.000
1605186196733388032,10.0.1.131,397,move_up,-0.450,-0.450,-0.450,0.000,0.000,0.000
1605186198233246208,10.0.1.131,410,move_up,-0.430,-0.430,-0.430,0.000,0.000,0.000
1605186199735443968,10.0.1.131,433,move_up,-0.410,-0.410,-0.410,0.000,0.000,0.000
1605186201216279040,10.0.1.131,399,move_up,-0.390,-0.390,-0.390,0.000,0.000,0.000
1605186202701800192,10.0.1.131,402,move_up,-0.370,-0.370,-0.370,0.000,0.000,0.000
1605186204304724992,10.0.1.131,508,move_up,-0.350,-0.350,-0.350,0.000,0.000,0.000
1605186205781274112,10.0.1.131,401,move_up,-0.330,-0.330,-0.330,0.000,0.000,0.000
1605186207331415040,10.0.1.131,467,move_up,-0.310,-0.310,-0.310,0.000,0.000,0.000
1605186208869520896,10.0.1.131,474,move_up,-0.290,-0.290,-0.290,0.000,0.000,0.000
1605186210365837056,10.0.1.131,434,move_up,-0.270,-0.270,-0.270,0.000,0.000,0.000
1605186211899079168,10.0.1.131,471,move_up,-0.250,-0.250,-0.250,0.000,0.000,0.000
1605186213351741184,10.0.1.131,420,move_up,-0.230,-0.230,-0.230,0.000,0.000,0.000
1605186214825437952,10.0.1.131,413,move_up,-0.210,-0.210,-0.210,0.000,0.000,0.000
1605186216260691968,10.0.1.131,400,move_up,-0.190,-0.190,-0.190,0.000,0.000,0.000
1605186217350009856,10.0.1.131,46,place,-0.180,-0.180,-0.180,0.000,0.000,0.000
1605186218352587008,10.0.1.131,47,place,-0.170,-0.170,-0.170,0.000,0.000,0.000
1605186219344633088,10.0.1.131,38,place,-0.160,-0.160,-0.160,0.000,0.000,0.000
1605186220354938880,10.0.1.131,47,place,-0.150,-0.150,-0.150,0.000,0.000,0.000
1605186221348391936,10.0.1.131,38,place,-0.140,-0.140,-0.140,0.000,0.000,0.000
1605186222362643968,10.0.1.131,51,place,-0.130,-0.130,-0.130,0.000,0.000,0.000
1605186223343661056,10.0.1.131,31,place,-0.120,-0.120,-0.120,0.000,0.000,0.000
1605186224361850112,10.0.1.131,47,place,-0.110,-0.110,-0.110,0.000,0.000,0.000
1605186225371796992,10.0.1.131,54,place,-0.100,-0.100,-0.100,0.000,0.000,0.000
1605186226374567936,10.0.1.131,55,place,-0.090,-0.090,-0.090,0.000,0.000,0.000
1605186227364183040,10.0.1.131,42,place,-0.080,-0.080,-0.080,0.000,0.000,0.000
1605186228366060032,10.0.1.131,42,place,-0.070,-0.070,-0.070,0.000,0.000,0.000
1605186229363425024,10.0.1.131,38,place,-0.060,-0.060,-0.060,0.000,0.000,0.000
1605186230366759168,10.0.1.131,40,place,-0.050,-0.050,-0.050,0.000,0.000,0.000
1605186231363152896,10.0.1.131,35,place,-0.040,-0.040,-0.040,0.000,0.000,0.000
1605186232369074944,10.0.1.131,39,place,-0.030,-0.030,-0.030,0.000,0.000,0.000
1605186233386480128,10.0.1.131,39,place,-0.020,-0.020,-0.020,0.000,0.000,0.000
1605186234384155904,10.0.1.131,35,place,-0.010,-0.010,-0.010,0.000,0.000,0.000
1605186235396180992,10.0.1.131,41,place,0.000,0.000,0.000,0.000,0.000,0.000
1605186236847870208,10.0.1.131,490,move_down,-0.020,-0.020,-0.020,0.000,0.000,0.000
1605186238571443200,10.0.1.131,624,move_down,-0.040,-0.040,-0.040,0.000,0.000,0.000
1605186240128217856,10.0.1.131,483,move_down,-0.060,-0.060,-0.060,0.000,0.000,0.000
1605186241711481088,10.0.1.131,449,move_down,-0.080,-0.080,-0.080,0.000,0.000,0.000
1605186243316652032,10.0.1.131,509,move_down,-0.100,-0.100,-0.100,0.000,0.000,0.000
1605186244927283968,10.0.1.131,532,move_down,-0.120,-0.120,-0.120,0.000,0.000,0.000
1605186246341810944,10.0.1.131,397,move_down,-0.140,-0.140,-0.140,0.000,0.000,0.000
1605186247818464000,10.0.1.131,411,move_down,-0.160,-0.160,-0.160,0.000,0.000,0.000
1605186249322753024,10.0.1.131,422,move_down,-0.180,-0.180,-0.180,0.000,0.000,0.000
1605186250837812992,10.0.1.131,418,move_down,-0.200,-0.200,-0.200,0.000,0.000,0.000
1605186252321722112,10.0.1.131,443,move_down,-0.220,-0.220,-0.220,0.000,0.000,0.000
1605186253862489856,10.0.1.131,447,move_down,-0.240,-0.240,-0.240,0.000,0.000,0.000
1605186255412611840,10.0.1.131,458,move_down,-0.260,-0.260,-0.260,0.000,0.000,0.000
1605186256941310976,10.0.1.131,421,move_down,-0.280,-0.280,-0.280,0.000,0.000,0.000
1605186258544867072,10.0.1.131,509,move_down,-0.300,-0.300,-0.300,0.000,0.000,0.000
1605186260046499840,10.0.1.131,461,move_down,-0.320,-0.320,-0.320,0.000,0.000,0.000
1605186261530725120,10.0.1.131,417,move_down,-0.340,-0.340,-0.340,0.000,0.000,0.000
1605186263007166976,10.0.1.131,407,move_down,-0.360,-0.360,-0.360,0.000,0.000,0.000
1605186264520194048,10.0.1.131,442,move_down,-0.380,-0.380,-0.380,0.000,0.000,0.000
1605186266048144128,10.0.1.131,453,move_down,-0.400,-0.400,-0.400,0.000,0.000,0.000
1605186267495839232,10.0.1.131,388,move_down,-0.420,-0.420,-0.420,0.000,0.000,0.000
1605186269026545920,10.0.1.131,478,move_down,-0.440,-0.440,-0.440,0.000,0.000,0.000
1605186270574976000,10.0.1.131,492,move_down,-0.460,-0.460,-0.460,0.000,0.000,0.000
1605186272065961984,10.0.1.131,414,move_down,-0.480,-0.480,-0.480,0.000,0.000,0.000
1605186273591118080,10.0.1.131,449,move_down,-0.500,-0.500,-0.500,0.000,0.000,0.000
1605186275084041216,10.0.1.131,415,move_down,-0.520,-0.520,-0.520,0.000,0.000,0.000
1605186276507469056,10.0.1.131,401,move_down,-0.540,-0.540,-0.540,0.000,0.000,0.000
1605186278119488000,10.0.1.131,470,move_down,-0.560,-0.560,-0.560,0.000,0.000,0.000
1605186279659328000,10.0.1.131,483,move_down,-0.580,-0.580,-0.580,0.000,0.000,0.000
1605186280741727232,10.0.1.131,49,pick,-0.590,-0.590,-0.590,0.000,0.000,0.000
1605186281749371904,10.0.1.131,54,pick,-0.600,-0.600,-0.600,0.000,0.000,0.000
1605186282753900032,10.0.1.131,58,pick,-0.610,-0.610,-0.610,0.000,0.000,0.000
1605186283745623040,10.0.1.131,48,pick,-0.620,-0.620,-0.620,0.000,0.000,0.000
1605186284748579072,10.0.1.131,50,pick,-0.630,-0.630,-0.630,0.000,0.000,0.000
1605186285752675072,10.0.1.131,53,pick,-0.640,-0.640,-0.640,0.000,0.000,0.000
1605186286742977024,10.0.1.131,42,pick,-0.650,-0.650,-0.650,0.000,0.000,0.000
1605186287745636096,10.0.1.131,41,pick,-0.660,-0.660,-0.660,0.000,0.000,0.000
1605186288746704128,10.0.1.131,42,pick,-0.670,-0.670,-0.670,0.000,0.000,0.000
1605186289742126080,10.0.1.131,36,pick,-0.680,-0.680,-0.680,0.000,0.000,0.000
1605186290757093888,10.0.1.131,47,pick,-0.690,-0.690,-0.690,0.000,0.000,0.000
1605186291766424064,10.0.1.131,55,pick,-0.700,-0.700,-0.700,0.000,0.000,0.000
1605186292764561920,10.0.1.131,52,pick,-0.710,-0.710,-0.710,0.000,0.000,0.000
1605186293768397056,10.0.1.131,53,pick,-0.720,-0.720,-0.720,0.000,0.000,0.000
1605186294762966016,10.0.1.131,46,pick,-0.730,-0.730,-0.730,0.000,0.000,0.000
1605186295767739904,10.0.1.131,50,pick,-0.740,-0.740,-0.740,0.000,0.000,0.000
1605186296771220992,10.0.1.131,52,pick,-0.750,-0.750,-0.750,0.000,0.000,0.000
1605186297764982016,10.0.1.131,44,pick,-0.760,-0.760,-0.760,0.000,0.000,0.000
1605186298762584064,10.0.1.131,41,pick,-0.770,-0.770,-0.770,0.000,0.000,0.000
1605186300192212224,10.0.1.131,468,move_up,-0.750,-0.750,-0.750,0.000,0.000,0.000
1605186301764595968,10.0.1.131,495,move_up,-0.730,-0.730,-0.730,0.000,0.000,0.000
1605186303312884992,10.0.1.131,471,move_up,-0.710,-0.710,-0.710,0.000,0.000,0.000
1605186304851564800,10.0.1.131,487,move_up,-0.690,-0.690,-0.690,0.000,0.000,0.000
1605186306390743040,10.0.1.131,448,move_up,-0.670,-0.670,-0.670,0.000,0.000,0.000
1605186307890683904,10.0.1.131,435,move_up,-0.650,-0.650,-0.650,0.000,0.000,0.000
1605186309402304000,10.0.1.131,418,move_up,-0.630,-0.630,-0.630,0.000,0.000,0.000
1605186310954040064,10.0.1.131,453,move_up,-0.610,-0.610,-0.610,0.000,0.000,0.000
1605186312476474880,10.0.1.131,488,move_up,-0.590,-0.590,-0.590,0.000,0.000,0.000
1605186313948592896,10.0.1.131,411,move_up,-0.570,-0.570,-0.570,0.000,0.000,0.000
1605186315492224000,10.0.1.131,430,move_up,-0.550,-0.550,-0.550,0.000,0.000,0.000
1605186317041696000,10.0.1.131,458,move_up,-0.530,-0.530,-0.530,0.000,0.000,0.000
1605186318566550016,10.0.1.131,460,move_up,-0.510,-0.510,-0.510,0.000,0.000,0.000
1605186320003313152,10.0.1.131,410,move_up,-0.490,-0.490,-0.490,0.000,0.000,0.000
1605186321587004928,10.0.1.131,404,move_up,-0.470,-0.470,-0.470,0.000,0.000,0.000
1605186323118396928,10.0.1.131,445,move_up,-0.450,-0.450,-0.450,0.000,0.000,0.000
1605186324728034048,10.0.1.131,426,move_up,-0.430,-0.430,-0.430,0.000,0.000,0.000
1605186326224296192,10.0.1.131,412,move_up,-0.410,-0.410,-0.410,0.000,0.000,0.000
1605186327677996032,10.0.1.131,401,move_up,-0.390,-0.390,-0.390,0.000,0.000,0.000
1605186329265142016,10.0.1.131,465,move_up,-0.370,-0.370,-0.370,0.000,0.000,0.000
1605186330766729984,10.0.1.131,415,move_up,-0.350,-0.350,-0.350,0.000,0.000,0.000
1605186332282219776,10.0.1.131,438,move_up,-0.330,-0.330,-0.330,0.000,0.000,0.000
1605186333839703040,10.0.1.131,450,move_up,-0.310,-0.310,-0.310,0.000,0.000,0.000
1605186335357741056,10.0.1.131,451,move_up,-0.290,-0.290,-0.290,0.000,0.000,0.000
1605186336870240000,10.0.1.131,454,move_up,-0.270,-0.270,-0.270,0.000,0.000,0.000
1605186338320401920,10.0.1.131,386,move_up,-0.250,-0.250,-0.250,0.000,0.000,0.000
1605186339859110144,10.0.1.131,434,move_up,-0.230,-0.230,-0.230,0.000,0.000,0.000
1605186341370152960,10.0.1.131,436,move_up,-0.210,-0.210,-0.210,0.000,0.000,0.000
1605186342929084928,10.0.1.131,474,move_up,-0.190,-0.190,-0.190,0.000,0.000,0.000
1605186344036142080,10.0.1.131,38,place,-0.180,-0.180,-0.180,0.000,0.000,0.000
1605186345056396032,10.0.1.131,57,place,-0.170,-0.170,-0.170,0.000,0.000,0.000
1605186346042299136,10.0.1.131,37,place,-0.160,-0.160,-0.160,0.000,0.000,0.000
1605186347041337088,10.0.1.131,34,place,-0.150,-0.150,-0.150,0.000,0.000,0.000
1605186348067730944,10.0.1.131,54,place,-0.140,-0.140,-0.140,0.000,0.000,0.000
1605186349049604864,10.0.1.131,36,place,-0.130,-0.130,-0.130,0.000,0.000,0.000
1605186350048657920,10.0.1.131,33,place,-0.120,-0.120,-0.120,0.000,0.000,0.000
1605186351061373952,10.0.1.131,45,place,-0.110,-0.110,-0.110,0.000,0.000,0.000
1605186352068082944,10.0.1.131,50,place,-0.100,-0.100,-0.100,0.000,0.000,0.000
1605186353065126912,10.0.1.131,43,place,-0.090,-0.090,-0.090,0.000,0.000,0.000
1605186354073761024,10.0.1.131,50,place,-0.080,-0.080,-0.080,0.000,0.000,0.000
1605186355066185984,10.0.1.131,40,place,-0.070,-0.070,-0.070,0.000,0.000,0.000
1605186356066504960,10.0.1.131,39,place,-0.060,-0.060,-0.060,0.000,0.000,0.000
1605186357069216000,10.0.1.131,41,place,-0.050,-0.050,-0.050,0.000,0.000,0.000
1605186358065982208,10.0.1.131,37,place,-0.040,-0.040,-0.040,0.000,0.000,0.000
1605186359066274816,10.0.1.131,33,place,-0.030,-0.030,-0.030,0.000,0.000,0.000
1605186360087949056,10.0.1.131,54,place,-0.020,-0.020,-0.020,0.000,0.000,0.000
1605186361064975872,10.0.1.131,29,place,-0.010,-0.010,-0.010,0.000,0.000,0.000
1605186362089998848,10.0.1.131,54,place,0.000,0.000,0.000,0.000,0.000,0.000
1605186363468274944,10.0.1.131,431,move_down,-0.020,-0.020,-0.020,0.000,0.000,0.000
1605186365023529984,10.0.1.131,451,move_down,-0.040,-0.040,-0.040,0.000,0.000,0.000
1605186366555354112,10.0.1.131,465,move_down,-0.060,-0.060,-0.060,0.000,0.000,0.000
1605186368058104064,10.0.1.131,444,move_down,-0.080,-0.080,-0.080,0.000,0.000,0.000
1605186369532349952,10.0.1.131,432,move_down,-0.100,-0.100,-0.100,0.000,0.000,0.000
1605186371084603904,10.0.1.131,466,move_down,-0.120,-0.120,-0.120,0.000,0.000,0.000
1605186372671729152,10.0.1.131,508,move_down,-0.140,-0.140,-0.140,0.000,0.000,0.000
1605186374261102080,10.0.1.131,496,move_down,-0.160,-0.160,-0.160,0.000,0.000,0.000
1605186375847398912,10.0.1.131,547,move_down,-0.180,-0.180,-0.180,0.000,0.000,0.000
1605186377450504192,10.0.1.131,493,move_down,-0.200,-0.200,-0.200,0.000,0.000,0.000
1605186378999176960,10.0.1.131,443,move_down,-0.220,-0.220,-0.220,0.000,0.000,0.000
1605186380553970176,10.0.1.131,486,move_down,-0.240,-0.240,-0.240,0.000,0.000,0.000
1605186382118760960,10.0.1.131,489,move_down,-0.260,-0.260,-0.260,0.000,0.000,0.000
1605186383597990144,10.0.1.131,386,move_down,-0.280,-0.280,-0.280,0.000,0.000,0.000
1605186385123302912,10.0.1.131,478,move_down,-0.300,-0.300,-0.300,0.000,0.000,0.000
1605186386653980928,10.0.1.131,459,move_down,-0.320,-0.320,-0.320,0.000,0.000,0.000
1605186388183394048,10.0.1.131,464,move_down,-0.340,-0.340,-0.340,0.000,0.000,0.000
1605186389785975040,10.0.1.131,470,move_down,-0.360,-0.360,-0.360,0.000,0.000,0.000
1605186391349992960,10.0.1.131,486,move_down,-0.380,-0.380,-0.380,0.000,0.000,0.000
1605186392851123968,10.0.1.131,406,move_down,-0.400,-0.400,-0.400,0.000,0.000,0.000
1605186394482999040,10.0.1.131,524,move_down,-0.420,-0.420,-0.420,0.000,0.000,0.000
1605186395875860992,10.0.1.131,417,move_down,-0.440,-0.440,-0.440,0.000,0.000,0.000
1605186397358782976,10.0.1.131,420,move_down,-0.460,-0.460,-0.460,0.000,0.000,0.000
1605186398903805952,10.0.1.131,460,move_down,-0.480,-0.480,-0.480,0.000,0.000,0.000
1605186400365547776,10.0.1.131,408,move_down,-0.500,-0.500,-0.500,0.000,0.000,0.000
1605186401884944896,10.0.1.131,439,move_down,-0.520,-0.520,-0.520,0.000,0.000,0.000
1605186403428579072,10.0.1.131,449,move_down,-0.540,-0.540,-0.540,0.000,0.000,0.000
1605186404937596928,10.0.1.131,426,move_down,-0.560,-0.560,-0.560,0.000,0.000,0.000
1605186406478676992,10.0.1.131,443,move_down,-0.580,-0.580,-0.580,0.000,0.000,0.000
1605186407577740032,10.0.1.131,50,pick,-0.590,-0.590,-0.590,0.000,0.000,0.000
1605186408574155008,10.0.1.131,45,pick,-0.600,-0.600,-0.600,0.000,0.000,0.000
1605186409574635008,10.0.1.131,44,pick,-0.610,-0.610,-0.610,0.000,0.000,0.000
1605186410573775104,10.0.1.131,42,pick,-0.620,-0.620,-0.620,0.000,0.000,0.000
1605186411574145024,10.0.1.131,42,pick,-0.630,-0.630,-0.630,0.000,0.000,0.000
1605186412576647936,10.0.1.131,44,pick,-0.640,-0.640,-0.640,0.000,0.000,0.000
1605186413577609984,10.0.1.131,44,pick,-0.650,-0.650,-0.650,0.000,0.000,0.000
1605186414574978048,10.0.1.131,40,pick,-0.660,-0.660,-0.660,0.000,0.000,0.000
1605186415574136064,10.0.1.131,39,pick,-0.670,-0.670,-0.670,0.000,0.000,0.000
1605186416577083136,10.0.1.131,40,pick,-0.680,-0.680,-0.680,0.000,0.000,0.000
1605186417576345856,10.0.1.131,38,pick,-0.690,-0.690,-0.690,0.000,0.000,0.000
1605186418575942912,10.0.1.131,34,pick,-0.700,-0.700,-0.700,0.000,0.000,0.000
1605186419576233984,10.0.1.131,33,pick,-0.710,-0.710,-0.710,0.000,0.000,0.000
1605186420595264000,10.0.1.131,48,pick,-0.720,-0.720,-0.720,0.000,0.000,0.000
1605186421604072192,10.0.1.131,56,pick,-0.730,-0.730,-0.730,0.000,0.000,0.000
1605186422599670016,10.0.1.131,50,pick,-0.740,-0.740,-0.740,0.000,0.000,0.000
1605186423595737088,10.0.1.131,44,pick,-0.750,-0.750,-0.750,0.000,0.000,0.000
1605186424592628992,10.0.1.131,40,pick,-0.760,-0.760,-0.760,0.000,0.000,0.000
1605186425601434112,10.0.1.131,47,pick,-0.770,-0.770,-0.770,0.000,0.000,0.000
1605186426959837952,10.0.1.131,404,move_up,-0.750,-0.750,-0.750,0.000,0.000,0.000
1605186428558859008,10.0.1.131,509,move_up,-0.730,-0.730,-0.730,0.000,0.000,0.000
1605186430103921920,10.0.1.131,496,move_up,-0.710,-0.710,-0.710,0.000,0.000,0.000
1605186431664283136,10.0.1.131,425,move_up,-0.690,-0.690,-0.690,0.000,0.000,0.000
1605186433185105920,10.0.1.131,436,move_up,-0.670,-0.670,-0.670,0.000,0.000,0.000
1605186434692807936,10.0.1.131,450,move_up,-0.650,-0.650,-0.650,0.000,0.000,0.000
1605186436225202176,10.0.1.131,456,move_up,-0.630,-0.630,-0.630,0.000,0.000,0.000
1605186437761924864,10.0.1.131,415,move_up,-0.610,-0.610,-0.610,0.000,0.000,0.000
1605186439263832064,10.0.1.131,484,move_up,-0.590,-0.590,-0.590,0.000,0.000,0.000
1605186440948151040,10.0.1.131,609,move_up,-0.570,-0.570,-0.570,0.000,0.000,0.000
1605186442490232064,10.0.1.131,410,move_up,-0.550,-0.550,-0.550,0.000,0.000,0.000
1605186443957952000,10.0.1.131,428,move_up,-0.530,-0.530,-0.530,0.000,0.000,0.000
1605186445452049920,10.0.1.131,458,move_up,-0.510,-0.510,-0.510,0.000,0.000,0.000
1605186446947587840,10.0.1.131,430,move_up,-0.490,-0.490,-0.490,0.000,0.000,0.000
1605186448463769856,10.0.1.131,464,move_up,-0.470,-0.470,-0.470,0.000,0.000,0.000
1605186450009892096,10.0.1.131,516,move_up,-0.450,-0.450,-0.450,0.000,0.000,0.000
1605186451682437888,10.0.1.131,612,move_up,-0.430,-0.430,-0.430,0.000,0.000,0.000
1605186453254402048,10.0.1.131,468,move_up,-0.410,-0.410,-0.410,0.000,0.000,0.000
1605186454804781056,10.0.1.131,489,move_up,-0.390,-0.390,-0.390,0.000,0.000,0.000
1605186456365645056,10.0.1.131,481,move_up,-0.370,-0.370,-0.370,0.000,0.000,0.000
1605186457947444992,10.0.1.131,432,move_up,-0.350,-0.350,-0.350,0.000,0.000,0.000
1605186459478920960,10.0.1.131,447,move_up,-0.330,-0.330,-0.330,0.000,0.000,0.000
1605186461027597824,10.0.1.131,413,move_up,-0.310,-0.310,-0.310,0.000,0.000,0.000
1605186462635672064,10.0.1.131,472,move_up,-0.290,-0.290,-0.290,0.000,0.000,0.000
1605186464170491904,10.0.1.131,434,move_up,-0.270,-0.270,-0.270,0.000,0.000,0.000
1605186465920252160,10.0.1.131,489,move_up,-0.250,-0.250,-0.250,0.000,0.000,0.000
1605186467426136064,10.0.1.131,429,move_up,-0.230,-0.230,-0.230,0.000,0.000,0.000
1605186468958457088,10.0.1.131,445,move_up,-0.210,-0.210,-0.210,0.000,0.000,0.000
1605186470492631040,10.0.1.131,458,move_up,-0.190,-0.190,-0.190,0.000,0.000,0.000
1605186471630397952,10.0.1.131,44,place,-0.180,-0.180,-0.180,0.000,0.000,0.000
1605186472631874048,10.0.1.131,34,place,-0.170,-0.170,-0.170,0.000,0.000,0.000
1605186473656087040,10.0.1.131,57,place,-0.160,-0.160,-0.160,0.000,0.000,0.000
1605186474651217920,10.0.1.131,51,place,-0.150,-0.150,-0.150,0.000,0.000,0.000
1605186475649017088,10.0.1.131,47,place,-0.140,-0.140,-0.140,0.000,0.000,0.000
1605186476648642048,10.0.1.131,46,place,-0.130,-0.130,-0.130,0.000,0.000,0.000
1605186477648207872,10.0.1.131,43,place,-0.120,-0.120,-0.120,0.000,0.000,0.000
1605186478676904960,10.0.1.131,68,place,-0.110,-0.110,-0.110,0.000,0.000,0.000
1605186479662806016,10.0.1.131,53,place,-0.100,-0.100,-0.100,0.000,0.000,0.000
1605186480673998080,10.0.1.131,58,place,-0.090,-0.090,-0.090,0.000,0.000,0.000
1605186481667478016,10.0.1.131,49,place,-0.080,-0.080,-0.080,0.000,0.000,0.000
1605186482665648896,10.0.1.131,45,place,-0.070,-0.070,-0.070,0.000,0.000,0.000
1605186483668629760,10.0.1.131,47,place,-0.060,-0.060,-0.060,0.000,0.000,0.000
1605186484662349824,10.0.1.131,39,place,-0.050,-0.050,-0.050,0.000,0.000,0.000
1605186485671345920,10.0.1.131,42,place,-0.040,-0.040,-0.040,0.000,0.000,0.000
1605186487630984192,10.0.1.131,NaN,place,-0.020,-0.020,-0.020,0.000,0.000,0.000
1605186487670424832,10.0.1.131,39,place,-0.020,-0.020,-0.020,0.000,0.000,0.000
1605186488667758848,10.0.1.131,36,place,-0.010,-0.010,-0.010,0.000,0.000,0.000
1605186489691315968,10.0.1.131,52,place,0.000,0.000,0.000,0.000,0.000,0.000
1605186491057164800,10.0.1.131,415,move_down,-0.020,-0.020,-0.020,0.000,0.000,0.000
1605186492518480896,10.0.1.131,414,move_down,-0.040,-0.040,-0.040,0.000,0.000,0.000
1605186494111866112,10.0.1.131,466,move_down,-0.060,-0.060,-0.060,0.000,0.000,0.000
1605186495682227968,10.0.1.131,452,move_down,-0.080,-0.080,-0.080,0.000,0.000,0.000
1605186497180687872,10.0.1.131,439,move_down,-0.100,-0.100,-0.100,0.000,0.000,0.000
1605186498709879040,10.0.1.131,434,move_down,-0.120,-0.120,-0.120,0.000,0.000,0.000
1605186500256999936,10.0.1.131,485,move_down,-0.140,-0.140,-0.140,0.000,0.000,0.000
1605186501820142080,10.0.1.131,452,move_down,-0.160,-0.160,-0.160,0.000,0.000,0.000
1605186503353996032,10.0.1.131,449,move_down,-0.180,-0.180,-0.180,0.000,0.000,0.000
1605186504969409024,10.0.1.131,512,move_down,-0.200,-0.200,-0.200,0.000,0.000,0.000
1605186506488073216,10.0.1.131,485,move_down,-0.220,-0.220,-0.220,0.000,0.000,0.000
1605186507997346048,10.0.1.131,467,move_down,-0.240,-0.240,-0.240,0.000,0.000,0.000
1605186509464760064,10.0.1.131,455,move_down,-0.260,-0.260,-0.260,0.000,0.000,0.000
1605186510974992128,10.0.1.131,438,move_down,-0.280,-0.280,-0.280,0.000,0.000,0.000
1605186512486124032,10.0.1.131,447,move_down,-0.300,-0.300,-0.300,0.000,0.000,0.000
1605186513977204992,10.0.1.131,434,move_down,-0.320,-0.320,-0.320,0.000,0.000,0.000
1605186515549936896,10.0.1.131,517,move_down,-0.340,-0.340,-0.340,0.000,0.000,0.000
1605186517066350848,10.0.1.131,433,move_down,-0.360,-0.360,-0.360,0.000,0.000,0.000
1605186518673566208,10.0.1.131,501,move_down,-0.380,-0.380,-0.380,0.000,0.000,0.000
1605186520227176960,10.0.1.131,449,move_down,-0.400,-0.400,-0.400,0.000,0.000,0.000
1605186521825831936,10.0.1.131,488,move_down,-0.420,-0.420,-0.420,0.000,0.000,0.000
1605186523367638016,10.0.1.131,453,move_down,-0.440,-0.440,-0.440,0.000,0.000,0.000
1605186524898648064,10.0.1.131,453,move_down,-0.460,-0.460,-0.460,0.000,0.000,0.000
1605186526421537024,10.0.1.131,425,move_down,-0.480,-0.480,-0.480,0.000,0.000,0.000
1605186527974475008,10.0.1.131,481,move_down,-0.500,-0.500,-0.500,0.000,0.000,0.000
1605186529567638016,10.0.1.131,541,move_down,-0.520,-0.520,-0.520,0.000,0.000,0.000
1605186531103562240,10.0.1.131,455,move_down,-0.540,-0.540,-0.540,0.000,0.000,0.000
1605186532678868992,10.0.1.131,492,move_down,-0.560,-0.560,-0.560,0.000,0.000,0.000
1605186534400274944,10.0.1.131,632,move_down,-0.580,-0.580,-0.580,0.000,0.000,0.000
1605186535620342016,10.0.1.131,45,pick,-0.590,-0.590,-0.590,0.000,0.000,0.000
1605186536635706880,10.0.1.131,53,pick,-0.600,-0.600,-0.600,0.000,0.000,0.000
1605186537622766080,10.0.1.131,38,pick,-0.610,-0.610,-0.610,0.000,0.000,0.000
1605186538650181120,10.0.1.131,64,pick,-0.620,-0.620,-0.620,0.000,0.000,0.000
1605186539658706944,10.0.1.131,68,pick,-0.630,-0.630,-0.630,0.000,0.000,0.000
1605186540644900096,10.0.1.131,48,pick,-0.640,-0.640,-0.640,0.000,0.000,0.000
1605186541656471040,10.0.1.131,58,pick,-0.650,-0.650,-0.650,0.000,0.000,0.000
1605186542637885952,10.0.1.131,39,pick,-0.660,-0.660,-0.660,0.000,0.000,0.000
1605186543636907008,10.0.1.131,36,pick,-0.670,-0.670,-0.670,0.000,0.000,0.000
1605186544639601920,10.0.1.131,38,pick,-0.680,-0.680,-0.680,0.000,0.000,0.000
1605186545640587008,10.0.1.131,38,pick,-0.690,-0.690,-0.690,0.000,0.000,0.000
1605186546646505216,10.0.1.131,42,pick,-0.700,-0.700,-0.700,0.000,0.000,0.000
1605186547657118976,10.0.1.131,52,pick,-0.710,-0.710,-0.710,0.000,0.000,0.000
1605186548663606784,10.0.1.131,56,pick,-0.720,-0.720,-0.720,0.000,0.000,0.000
1605186549660258048,10.0.1.131,50,pick,-0.730,-0.730,-0.730,0.000,0.000,0.000
1605186550656316160,10.0.1.131,45,pick,-0.740,-0.740,-0.740,0.000,0.000,0.000
1605186551661254912,10.0.1.131,47,pick,-0.750,-0.750,-0.750,0.000,0.000,0.000
1605186552672967936,10.0.1.131,55,pick,-0.760,-0.760,-0.760,0.000,0.000,0.000
1605186553668244992,10.0.1.131,48,pick,-0.770,-0.770,-0.770,0.000,0.000,0.000
1605186555321594880,10.0.1.131,695,move_up,-0.750,-0.750,-0.750,0.000,0.000,0.000
1605186556830252032,10.0.1.131,446,move_up,-0.730,-0.730,-0.730,0.000,0.000,0.000
1605186558361944064,10.0.1.131,449,move_up,-0.710,-0.710,-0.710,0.000,0.000,0.000
1605186560023433984,10.0.1.131,594,move_up,-0.690,-0.690,-0.690,0.000,0.000,0.000
1605186561669521152,10.0.1.131,534,move_up,-0.670,-0.670,-0.670,0.000,0.000,0.000
1605186563262007040,10.0.1.131,462,move_up,-0.650,-0.650,-0.650,0.000,0.000,0.000
1605186564851894016,10.0.1.131,503,move_up,-0.630,-0.630,-0.630,0.000,0.000,0.000
1605186566437171968,10.0.1.131,457,move_up,-0.610,-0.610,-0.610,0.000,0.000,0.000
1605186567959877888,10.0.1.131,439,move_up,-0.590,-0.590,-0.590,0.000,0.000,0.000
1605186569562278912,10.0.1.131,497,move_up,-0.570,-0.570,-0.570,0.000,0.000,0.000
1605186571059362048,10.0.1.131,453,move_up,-0.550,-0.550,-0.550,0.000,0.000,0.000
1605186572534938112,10.0.1.131,446,move_up,-0.530,-0.530,-0.530,0.000,0.000,0.000
1605186574210306048,10.0.1.131,565,move_up,-0.510,-0.510,-0.510,0.000,0.000,0.000
1605186575770792960,10.0.1.131,463,move_up,-0.490,-0.490,-0.490,0.000,0.000,0.000
1605186577297986048,10.0.1.131,480,move_up,-0.470,-0.470,-0.470,0.000,0.000,0.000
1605186578853168896,10.0.1.131,448,move_up,-0.450,-0.450,-0.450,0.000,0.000,0.000
1605186580414259968,10.0.1.131,514,move_up,-0.430,-0.430,-0.430,0.000,0.000,0.000
1605186581974228992,10.0.1.131,460,move_up,-0.410,-0.410,-0.410,0.000,0.000,0.000
1605186583555819008,10.0.1.131,502,move_up,-0.390,-0.390,-0.390,0.000,0.000,0.000
1605186585082625024,10.0.1.131,434,move_up,-0.370,-0.370,-0.370,0.000,0.000,0.000
1605186586595393792,10.0.1.131,499,move_up,-0.350,-0.350,-0.350,0.000,0.000,0.000
1605186588178024960,10.0.1.131,490,move_up,-0.330,-0.330,-0.330,0.000,0.000,0.000
1605186589828311040,10.0.1.131,516,move_up,-0.310,-0.310,-0.310,0.000,0.000,0.000
1605186591369619968,10.0.1.131,501,move_up,-0.290,-0.290,-0.290,0.000,0.000,0.000
1605186592981154816,10.0.1.131,553,move_up,-0.270,-0.270,-0.270,0.000,0.000,0.000
1605186594512336896,10.0.1.131,449,move_up,-0.250,-0.250,-0.250,0.000,0.000,0.000
1605186596104600064,10.0.1.131,512,move_up,-0.230,-0.230,-0.230,0.000,0.000,0.000
1605186597578319104,10.0.1.131,443,move_up,-0.210,-0.210,-0.210,0.000,0.000,0.000
1605186599297964032,10.0.1.131,568,move_up,-0.190,-0.190,-0.190,0.000,0.000,0.000
1605186600485908992,10.0.1.131,75,place,-0.180,-0.180,-0.180,0.000,0.000,0.000
1605186602417368832,10.0.1.131,NaN,place,-0.160,-0.160,-0.160,0.000,0.000,0.000
1605186602474387968,10.0.1.131,56,place,-0.160,-0.160,-0.160,0.000,0.000,0.000
1605186603476006912,10.0.1.131,57,place,-0.150,-0.150,-0.150,0.000,0.000,0.000
1605186604465838848,10.0.1.131,37,place,-0.140,-0.140,-0.140,0.000,0.000,0.000
1605186605493385984,10.0.1.131,62,place,-0.130,-0.130,-0.130,0.000,0.000,0.000
1605186606490937856,10.0.1.131,59,place,-0.120,-0.120,-0.120,0.000,0.000,0.000
1605186607469897984,10.0.1.131,36,place,-0.110,-0.110,-0.110,0.000,0.000,0.000
1605186608489765888,10.0.1.131,55,place,-0.100,-0.100,-0.100,0.000,0.000,0.000
1605186609490774016,10.0.1.131,55,place,-0.090,-0.090,-0.090,0.000,0.000,0.000
1605186610484844800,10.0.1.131,47,place,-0.080,-0.080,-0.080,0.000,0.000,0.000
1605186611498828800,10.0.1.131,60,place,-0.070,-0.070,-0.070,0.000,0.000,0.000
1605186612482911232,10.0.1.131,43,place,-0.060,-0.060,-0.060,0.000,0.000,0.000
1605186613491803904,10.0.1.131,46,place,-0.050,-0.050,-0.050,0.000,0.000,0.000
1605186614527854848,10.0.1.131,81,place,-0.040,-0.040,-0.040,0.000,0.000,0.000
1605186615490819840,10.0.1.131,43,place,-0.030,-0.030,-0.030,0.000,0.000,0.000
1605186617452791808,10.0.1.131,NaN,place,-0.010,-0.010,-0.010,0.000,0.000,0.000
1605186617504726016,10.0.1.131,51,place,-0.010,-0.010,-0.010,0.000,0.000,0.000
1605186618503719168,10.0.1.131,48,place,0.000,0.000,0.000,0.000,0.000,0.000
1605186620085582080,10.0.1.131,629,move_down,-0.020,-0.020,-0.020,0.000,0.000,0.000
1605186621684007936,10.0.1.131,524,move_down,-0.040,-0.040,-0.040,0.000,0.000,0.000
1605186623262867968,10.0.1.131,530,move_down,-0.060,-0.060,-0.060,0.000,0.000,0.000
1605186624954850048,10.0.1.131,581,move_down,-0.080,-0.080,-0.080,0.000,0.000,0.000
1605186626620295936,10.0.1.131,563,move_down,-0.100,-0.100,-0.100,0.000,0.000,0.000
1605186628293581056,10.0.1.131,594,move_down,-0.120,-0.120,-0.120,0.000,0.000,0.000
1605186629776771072,10.0.1.131,457,move_down,-0.140,-0.140,-0.140,0.000,0.000,0.000
1605186631350735872,10.0.1.131,490,move_down,-0.160,-0.160,-0.160,0.000,0.000,0.000
1605186633041564928,10.0.1.131,542,move_down,-0.180,-0.180,-0.180,0.000,0.000,0.000
1605186634682439168,10.0.1.131,495,move_down,-0.200,-0.200,-0.200,0.000,0.000,0.000
1605186636339246080,10.0.1.131,554,move_down,-0.220,-0.220,-0.220,0.000,0.000,0.000
1605186638070395904,10.0.1.131,585,move_down,-0.240,-0.240,-0.240,0.000,0.000,0.000
1605186639696492800,10.0.1.131,540,move_down,-0.260,-0.260,-0.260,0.000,0.000,0.000
1605186641409730048,10.0.1.131,618,move_down,-0.280,-0.280,-0.280,0.000,0.000,0.000
1605186643011957760,10.0.1.131,456,move_down,-0.300,-0.300,-0.300,0.000,0.000,0.000
1605186644651928832,10.0.1.131,563,move_down,-0.320,-0.320,-0.320,0.000,0.000,0.000
1605186646225454080,10.0.1.131,481,move_down,-0.340,-0.340,-0.340,0.000,0.000,0.000
1605186647752463104,10.0.1.131,441,move_down,-0.360,-0.360,-0.360,0.000,0.000,0.000
1605186649392034048,10.0.1.131,499,move_down,-0.380,-0.380,-0.380,0.000,0.000,0.000
1605186650923666944,10.0.1.131,452,move_down,-0.400,-0.400,-0.400,0.000,0.000,0.000
1605186652459094016,10.0.1.131,455,move_down,-0.420,-0.420,-0.420,0.000,0.000,0.000
1605186654033451008,10.0.1.131,502,move_down,-0.440,-0.440,-0.440,0.000,0.000,0.000
1605186655542277120,10.0.1.131,469,move_down,-0.460,-0.460,-0.460,0.000,0.000,0.000
1605186657098242048,10.0.1.131,473,move_down,-0.480,-0.480,-0.480,0.000,0.000,0.000
1605186658639912960,10.0.1.131,486,move_down,-0.500,-0.500,-0.500,0.000,0.000,0.000
1605186660260685824,10.0.1.131,501,move_down,-0.520,-0.520,-0.520,0.000,0.000,0.000
1605186661801626880,10.0.1.131,435,move_down,-0.540,-0.540,-0.540,0.000,0.000,0.000
1605186663309540096,10.0.1.131,452,move_down,-0.560,-0.560,-0.560,0.000,0.000,0.000
1605186664881508096,10.0.1.131,487,move_down,-0.580,-0.580,-0.580,0.000,0.000,0.000
1605186665955249152,10.0.1.131,40,pick,-0.590,-0.590,-0.590,0.000,0.000,0.000
1605186666962006016,10.0.1.131,47,pick,-0.600,-0.600,-0.600,0.000,0.000,0.000
1605186667959104000,10.0.1.131,43,pick,-0.610,-0.610,-0.610,0.000,0.000,0.000
1605186668964817920,10.0.1.131,47,pick,-0.620,-0.620,-0.620,0.000,0.000,0.000
1605186669981431040,10.0.1.131,63,pick,-0.630,-0.630,-0.630,0.000,0.000,0.000
1605186670973540096,10.0.1.131,54,pick,-0.640,-0.640,-0.640,0.000,0.000,0.000
1605186671980269056,10.0.1.131,59,pick,-0.650,-0.650,-0.650,0.000,0.000,0.000
1605186672963918848,10.0.1.131,41,pick,-0.660,-0.660,-0.660,0.000,0.000,0.000
1605186673971975168,10.0.1.131,48,pick,-0.670,-0.670,-0.670,0.000,0.000,0.000
1605186674964504064,10.0.1.131,39,pick,-0.680,-0.680,-0.680,0.000,0.000,0.000
1605186675960352000,10.0.1.131,34,pick,-0.690,-0.690,-0.690,0.000,0.000,0.000
1605186676990909952,10.0.1.131,63,pick,-0.700,-0.700,-0.700,0.000,0.000,0.000
1605186677986471936,10.0.1.131,57,pick,-0.710,-0.710,-0.710,0.000,0.000,0.000
1605186678986039040,10.0.1.131,55,pick,-0.720,-0.720,-0.720,0.000,0.000,0.000
1605186679983073024,10.0.1.131,51,pick,-0.730,-0.730,-0.730,0.000,0.000,0.000
1605186680992110080,10.0.1.131,58,pick,-0.740,-0.740,-0.740,0.000,0.000,0.000
1605186681972315904,10.0.1.131,37,pick,-0.750,-0.750,-0.750,0.000,0.000,0.000
1605186682984898048,10.0.1.131,48,pick,-0.760,-0.760,-0.760,0.000,0.000,0.000
1605186683974973952,10.0.1.131,37,pick,-0.770,-0.770,-0.770,0.000,0.000,0.000
1605186685467436032,10.0.1.131,528,move_up,-0.750,-0.750,-0.750,0.000,0.000,0.000
1605186687060344064,10.0.1.131,514,move_up,-0.730,-0.730,-0.730,0.000,0.000,0.000
1605186688630383872,10.0.1.131,496,move_up,-0.710,-0.710,-0.710,0.000,0.000,0.000
1605186690246115072,10.0.1.131,511,move_up,-0.690,-0.690,-0.690,0.000,0.000,0.000
1605186691766408960,10.0.1.131,465,move_up,-0.670,-0.670,-0.670,0.000,0.000,0.000
1605186693333302016,10.0.1.131,509,move_up,-0.650,-0.650,-0.650,0.000,0.000,0.000
1605186694828547840,10.0.1.131,440,move_up,-0.630,-0.630,-0.630,0.000,0.000,0.000
1605186696321655040,10.0.1.131,426,move_up,-0.610,-0.610,-0.610,0.000,0.000,0.000
1605186697924173056,10.0.1.131,549,move_up,-0.590,-0.590,-0.590,0.000,0.000,0.000
1605186699591458048,10.0.1.131,577,move_up,-0.570,-0.570,-0.570,0.000,0.000,0.000
1605186701121180160,10.0.1.131,460,move_up,-0.550,-0.550,-0.550,0.000,0.000,0.000
1605186702627963136,10.0.1.131,430,move_up,-0.530,-0.530,-0.530,0.000,0.000,0.000
1605186704230514944,10.0.1.131,512,move_up,-0.510,-0.510,-0.510,0.000,0.000,0.000
1605186705870565888,10.0.1.131,503,move_up,-0.490,-0.490,-0.490,0.000,0.000,0.000
1605186707380696064,10.0.1.131,485,move_up,-0.470,-0.470,-0.470,0.000,0.000,0.000
1605186709107100928,10.0.1.131,581,move_up,-0.450,-0.450,-0.450,0.000,0.000,0.000
1605186710780091136,10.0.1.131,610,move_up,-0.430,-0.430,-0.430,0.000,0.000,0.000
1605186712327096064,10.0.1.131,457,move_up,-0.410,-0.410,-0.410,0.000,0.000,0.000
1605186713955400960,10.0.1.131,530,move_up,-0.390,-0.390,-0.390,0.000,0.000,0.000
1605186715472249088,10.0.1.131,489,move_up,-0.370,-0.370,-0.370,0.000,0.000,0.000
1605186716972366080,10.0.1.131,458,move_up,-0.350,-0.350,-0.350,0.000,0.000,0.000
1605186718569271040,10.0.1.131,515,move_up,-0.330,-0.330,-0.330,0.000,0.000,0.000
1605186720287859968,10.0.1.131,503,move_up,-0.310,-0.310,-0.310,0.000,0.000,0.000
1605186721928886784,10.0.1.131,473,move_up,-0.290,-0.290,-0.290,0.000,0.000,0.000
1605186723551899904,10.0.1.131,557,move_up,-0.270,-0.270,-0.270,0.000,0.000,0.000
1605186725125617920,10.0.1.131,549,move_up,-0.250,-0.250,-0.250,0.000,0.000,0.000
1605186726637382144,10.0.1.131,502,move_up,-0.230,-0.230,-0.230,0.000,0.000,0.000
1605186728170103040,10.0.1.131,446,move_up,-0.210,-0.210,-0.210,0.000,0.000,0.000
1605186729695620096,10.0.1.131,474,move_up,-0.190,-0.190,-0.190,0.000,0.000,0.000
1605186730811915008,10.0.1.131,41,place,-0.180,-0.180,-0.180,0.000,0.000,0.000
1605186731818530048,10.0.1.131,45,place,-0.170,-0.170,-0.170,0.000,0.000,0.000
1605186732816626944,10.0.1.131,42,place,-0.160,-0.160,-0.160,0.000,0.000,0.000
1605186733822232064,10.0.1.131,46,place,-0.150,-0.150,-0.150,0.000,0.000,0.000
1605186734813276160,10.0.1.131,36,place,-0.140,-0.140,-0.140,0.000,0.000,0.000
1605186735813755904,10.0.1.131,36,place,-0.130,-0.130,-0.130,0.000,0.000,0.000
1605186736830648832,10.0.1.131,51,place,-0.120,-0.120,-0.120,0.000,0.000,0.000
1605186737846482944,10.0.1.131,65,place,-0.110,-0.110,-0.110,0.000,0.000,0.000
1605186738830498048,10.0.1.131,47,place,-0.100,-0.100,-0.100,0.000,0.000,0.000
1605186739838614016,10.0.1.131,53,place,-0.090,-0.090,-0.090,0.000,0.000,0.000
1605186740836652032,10.0.1.131,49,place,-0.080,-0.080,-0.080,0.000,0.000,0.000
1605186741843822080,10.0.1.131,53,place,-0.070,-0.070,-0.070,0.000,0.000,0.000
1605186742831814912,10.0.1.131,37,place,-0.060,-0.060,-0.060,0.000,0.000,0.000
1605186743828839168,10.0.1.131,30,place,-0.050,-0.050,-0.050,0.000,0.000,0.000
1605186744885746944,10.0.1.131,86,place,-0.040,-0.040,-0.040,0.000,0.000,0.000
1605186745863739136,10.0.1.131,62,place,-0.030,-0.030,-0.030,0.000,0.000,0.000
1605186746854022144,10.0.1.131,51,place,-0.020,-0.020,-0.020,0.000,0.000,0.000
1605186747870526976,10.0.1.131,66,place,-0.010,-0.010,-0.010,0.000,0.000,0.000
1605186748869498112,10.0.1.131,64,place,0.000,0.000,0.000,0.000,0.000,0.000
1605186750209793024,10.0.1.131,401,move_down,-0.020,-0.020,-0.020,0.000,0.000,0.000
1605186751876695040,10.0.1.131,543,move_down,-0.040,-0.040,-0.040,0.000,0.000,0.000
1605186753396873984,10.0.1.131,489,move_down,-0.060,-0.060,-0.060,0.000,0.000,0.000
1605186754939830016,10.0.1.131,462,move_down,-0.080,-0.080,-0.080,0.000,0.000,0.000
1605186756535814912,10.0.1.131,494,move_down,-0.100,-0.100,-0.100,0.000,0.000,0.000
1605186758126752000,10.0.1.131,463,move_down,-0.120,-0.120,-0.120,0.000,0.000,0.000
1605186759730542848,10.0.1.131,530,move_down,-0.140,-0.140,-0.140,0.000,0.000,0.000
1605186761297480960,10.0.1.131,465,move_down,-0.160,-0.160,-0.160,0.000,0.000,0.000
1605186762854769920,10.0.1.131,443,move_down,-0.180,-0.180,-0.180,0.000,0.000,0.000
1605186764467369984,10.0.1.131,538,move_down,-0.200,-0.200,-0.200,0.000,0.000,0.000
1605186766304795136,10.0.1.131,635,move_down,-0.220,-0.220,-0.220,0.000,0.000,0.000
1605186768000602880,10.0.1.131,597,move_down,-0.240,-0.240,-0.240,0.000,0.000,0.000
1605186769596398080,10.0.1.131,514,move_down,-0.260,-0.260,-0.260,0.000,0.000,0.000
1605186771153987840,10.0.1.131,470,move_down,-0.280,-0.280,-0.280,0.000,0.000,0.000
1605186772752541952,10.0.1.131,470,move_down,-0.300,-0.300,-0.300,0.000,0.000,0.000
1605186774490102016,10.0.1.131,609,move_down,-0.320,-0.320,-0.320,0.000,0.000,0.000
1605186775998233088,10.0.1.131,474,move_down,-0.340,-0.340,-0.340,0.000,0.000,0.000
1605186777534609152,10.0.1.131,411,move_down,-0.360,-0.360,-0.360,0.000,0.000,0.000
1605186779113565952,10.0.1.131,481,move_down,-0.380,-0.380,-0.380,0.000,0.000,0.000
1605186780754790144,10.0.1.131,565,move_down,-0.400,-0.400,-0.400,0.000,0.000,0.000
1605186782489017088,10.0.1.131,574,move_down,-0.420,-0.420,-0.420,0.000,0.000,0.000
1605186784086010880,10.0.1.131,502,move_down,-0.440,-0.440,-0.440,0.000,0.000,0.000
1605186785700375040,10.0.1.131,525,move_down,-0.460,-0.460,-0.460,0.000,0.000,0.000
1605186787240207872,10.0.1.131,458,move_down,-0.480,-0.480,-0.480,0.000,0.000,0.000
1605186788802509056,10.0.1.131,545,move_down,-0.500,-0.500,-0.500,0.000,0.000,0.000
1605186790505987840,10.0.1.131,658,move_down,-0.520,-0.520,-0.520,0.000,0.000,0.000
1605186792073721856,10.0.1.131,504,move_down,-0.540,-0.540,-0.540,0.000,0.000,0.000
1605186793664851968,10.0.1.131,500,move_down,-0.560,-0.560,-0.560,0.000,0.000,0.000
1605186795224744192,10.0.1.131,455,move_down,-0.580,-0.580,-0.580,0.000,0.000,0.000
1605186796387088128,10.0.1.131,69,pick,-0.590,-0.590,-0.590,0.000,0.000,0.000
1605186797362833920,10.0.1.131,44,pick,-0.600,-0.600,-0.600,0.000,0.000,0.000
1605186798363456000,10.0.1.131,44,pick,-0.610,-0.610,-0.610,0.000,0.000,0.000
1605186799370512128,10.0.1.131,50,pick,-0.620,-0.620,-0.620,0.000,0.000,0.000
1605186800363168000,10.0.1.131,41,pick,-0.630,-0.630,-0.630,0.000,0.000,0.000
1605186801363133952,10.0.1.131,41,pick,-0.640,-0.640,-0.640,0.000,0.000,0.000
1605186802370244864,10.0.1.131,47,pick,-0.650,-0.650,-0.650,0.000,0.000,0.000
1605186803363132928,10.0.1.131,38,pick,-0.660,-0.660,-0.660,0.000,0.000,0.000
1605186804362707968,10.0.1.131,36,pick,-0.670,-0.670,-0.670,0.000,0.000,0.000
1605186805369366016,10.0.1.131,41,pick,-0.680,-0.680,-0.680,0.000,0.000,0.000
1605186806365391872,10.0.1.131,36,pick,-0.690,-0.690,-0.690,0.000,0.000,0.000
1605186807368474112,10.0.1.131,37,pick,-0.700,-0.700,-0.700,0.000,0.000,0.000
1605186808366149888,10.0.1.131,34,pick,-0.710,-0.710,-0.710,0.000,0.000,0.000
1605186809383021056,10.0.1.131,49,pick,-0.720,-0.720,-0.720,0.000,0.000,0.000
1605186810382855936,10.0.1.131,38,pick,-0.730,-0.730,-0.730,0.000,0.000,0.000
1605186811390129920,10.0.1.131,44,pick,-0.740,-0.740,-0.740,0.000,0.000,0.000
1605186812385060096,10.0.1.131,32,pick,-0.750,-0.750,-0.750,0.000,0.000,0.000
1605186813405726976,10.0.1.131,49,pick,-0.760,-0.760,-0.760,0.000,0.000,0.000
1605186814404936960,10.0.1.131,45,pick,-0.770,-0.770,-0.770,0.000,0.000,0.000
1605186815962174976,10.0.1.131,599,move_up,-0.750,-0.750,-0.750,0.000,0.000,0.000
1605186817541181184,10.0.1.131,514,move_up,-0.730,-0.730,-0.730,0.000,0.000,0.000
1605186819295151104,10.0.1.131,598,move_up,-0.710,-0.710,-0.710,0.000,0.000,0.000
1605186820866255872,10.0.1.131,498,move_up,-0.690,-0.690,-0.690,0.000,0.000,0.000
1605186822503112960,10.0.1.131,575,move_up,-0.670,-0.670,-0.670,0.000,0.000,0.000
1605186824188556800,10.0.1.131,534,move_up,-0.650,-0.650,-0.650,0.000,0.000,0.000
1605186825884424960,10.0.1.131,654,move_up,-0.630,-0.630,-0.630,0.000,0.000,0.000
1605186827462937088,10.0.1.131,501,move_up,-0.610,-0.610,-0.610,0.000,0.000,0.000
1605186829069037824,10.0.1.131,560,move_up,-0.590,-0.590,-0.590,0.000,0.000,0.000
1605186830709884928,10.0.1.131,541,move_up,-0.570,-0.570,-0.570,0.000,0.000,0.000
1605186832315227136,10.0.1.131,560,move_up,-0.550,-0.550,-0.550,0.000,0.000,0.000
1605186833990407936,10.0.1.131,588,move_up,-0.530,-0.530,-0.530,0.000,0.000,0.000
1605186835650268160,10.0.1.131,541,move_up,-0.510,-0.510,-0.510,0.000,0.000,0.000
1605186837294977792,10.0.1.131,534,move_up,-0.490,-0.490,-0.490,0.000,0.000,0.000
1605186838866486016,10.0.1.131,533,move_up,-0.470,-0.470,-0.470,0.000,0.000,0.000
1605186840512829952,10.0.1.131,531,move_up,-0.450,-0.450,-0.450,0.000,0.000,0.000
1605186842060713984,10.0.1.131,460,move_up,-0.430,-0.430,-0.430,0.000,0.000,0.000
1605186843595688960,10.0.1.131,465,move_up,-0.410,-0.410,-0.410,0.000,0.000,0.000
1605186845193662976,10.0.1.131,487,move_up,-0.390,-0.390,-0.390,0.000,0.000,0.000
1605186846854990080,10.0.1.131,581,move_up,-0.370,-0.370,-0.370,0.000,0.000,0.000
1605186848361964032,10.0.1.131,451,move_up,-0.350,-0.350,-0.350,0.000,0.000,0.000
1605186850104207872,10.0.1.131,567,move_up,-0.330,-0.330,-0.330,0.000,0.000,0.000
1605186851730628096,10.0.1.131,525,move_up,-0.310,-0.310,-0.310,0.000,0.000,0.000
1605186853395013120,10.0.1.131,473,move_up,-0.290,-0.290,-0.290,0.000,0.000,0.000
1605186854928364032,10.0.1.131,484,move_up,-0.270,-0.270,-0.270,0.000,0.000,0.000
1605186856511600128,10.0.1.131,495,move_up,-0.250,-0.250,-0.250,0.000,0.000,0.000
1605186858120837888,10.0.1.131,504,move_up,-0.230,-0.230,-0.230,0.000,0.000,0.000
1605186859785476864,10.0.1.131,558,move_up,-0.210,-0.210,-0.210,0.000,0.000,0.000
1605186861425057024,10.0.1.131,528,move_up,-0.190,-0.190,-0.190,0.000,0.000,0.000
1605186862520932864,10.0.1.131,41,place,-0.180,-0.180,-0.180,0.000,0.000,0.000
1605186863549042944,10.0.1.131,52,place,-0.170,-0.170,-0.170,0.000,0.000,0.000
1605186864547888896,10.0.1.131,50,place,-0.160,-0.160,-0.160,0.000,0.000,0.000
1605186865556996096,10.0.1.131,58,place,-0.150,-0.150,-0.150,0.000,0.000,0.000
1605186866547524864,10.0.1.131,47,place,-0.140,-0.140,-0.140,0.000,0.000,0.000
1605186867540923136,10.0.1.131,40,place,-0.130,-0.130,-0.130,0.000,0.000,0.000
1605186868540026880,10.0.1.131,33,place,-0.120,-0.120,-0.120,0.000,0.000,0.000
1605186869542087168,10.0.1.131,34,place,-0.110,-0.110,-0.110,0.000,0.000,0.000
1605186870562856960,10.0.1.131,53,place,-0.100,-0.100,-0.100,0.000,0.000,0.000
1605186871544928000,10.0.1.131,34,place,-0.090,-0.090,-0.090,0.000,0.000,0.000
1605186872564297984,10.0.1.131,50,place,-0.080,-0.080,-0.080,0.000,0.000,0.000
1605186873571186176,10.0.1.131,55,place,-0.070,-0.070,-0.070,0.000,0.000,0.000
1605186874566905856,10.0.1.131,50,place,-0.060,-0.060,-0.060,0.000,0.000,0.000
1605186875566354944,10.0.1.131,48,place,-0.050,-0.050,-0.050,0.000,0.000,0.000
1605186876564004864,10.0.1.131,45,place,-0.040,-0.040,-0.040,0.000,0.000,0.000
1605186877576083968,10.0.1.131,56,place,-0.030,-0.030,-0.030,0.000,0.000,0.000
1605186879521712128,10.0.1.131,NaN,place,-0.010,-0.010,-0.010,0.000,0.000,0.000
1605186879570717952,10.0.1.131,48,place,-0.010,-0.010,-0.010,0.000,0.000,0.000
1605186880566853120,10.0.1.131,43,place,0.000,0.000,0.000,0.000,0.000,0.000
1605186882045347072,10.0.1.131,511,move_down,-0.020,-0.020,-0.020,0.000,0.000,0.000
1605186883605773824,10.0.1.131,483,move_down,-0.040,-0.040,-0.040,0.000,0.000,0.000
1605186885253554944,10.0.1.131,546,move_down,-0.060,-0.060,-0.060,0.000,0.000,0.000
1605186886836940032,10.0.1.131,495,move_down,-0.080,-0.080,-0.080,0.000,0.000,0.000
1605186888560003072,10.0.1.131,562,move_down,-0.100,-0.100,-0.100,0.000,0.000,0.000
1605186890107618048,10.0.1.131,457,move_down,-0.120,-0.120,-0.120,0.000,0.000,0.000
1605186891801436928,10.0.1.131,598,move_down,-0.140,-0.140,-0.140,0.000,0.000,0.000
1605186893486896896,10.0.1.131,539,move_down,-0.160,-0.160,-0.160,0.000,0.000,0.000
1605186895100683008,10.0.1.131,560,move_down,-0.180,-0.180,-0.180,0.000,0.000,0.000
1605186896711364864,10.0.1.131,524,move_down,-0.200,-0.200,-0.200,0.000,0.000,0.000
1605186898291279104,10.0.1.131,475,move_down,-0.220,-0.220,-0.220,0.000,0.000,0.000
1605186899857444096,10.0.1.131,494,move_down,-0.240,-0.240,-0.240,0.000,0.000,0.000
1605186901457432064,10.0.1.131,477,move_down,-0.260,-0.260,-0.260,0.000,0.000,0.000
1605186903060813824,10.0.1.131,497,move_down,-0.280,-0.280,-0.280,0.000,0.000,0.000
1605186904697558016,10.0.1.131,560,move_down,-0.300,-0.300,-0.300,0.000,0.000,0.000
1605186906306077952,10.0.1.131,490,move_down,-0.320,-0.320,-0.320,0.000,0.000,0.000
1605186907907494144,10.0.1.131,506,move_down,-0.340,-0.340,-0.340,0.000,0.000,0.000
1605186909745834240,10.0.1.131,667,move_down,-0.360,-0.360,-0.360,0.000,0.000,0.000
1605186911308988160,10.0.1.131,499,move_down,-0.380,-0.380,-0.380,0.000,0.000,0.000
1605186912974693888,10.0.1.131,580,move_down,-0.400,-0.400,-0.400,0.000,0.000,0.000
1605186914704701952,10.0.1.131,608,move_down,-0.420,-0.420,-0.420,0.000,0.000,0.000
1605186916586409216,10.0.1.131,660,move_down,-0.440,-0.440,-0.440,0.000,0.000,0.000
1605186918166682112,10.0.1.131,551,move_down,-0.460,-0.460,-0.460,0.000,0.000,0.000
1605186919724144896,10.0.1.131,420,move_down,-0.480,-0.480,-0.480,0.000,0.000,0.000
1605186921297452800,10.0.1.131,515,move_down,-0.500,-0.500,-0.500,0.000,0.000,0.000
1605186922915074048,10.0.1.131,499,move_down,-0.520,-0.520,-0.520,0.000,0.000,0.000
1605186924514062848,10.0.1.131,497,move_down,-0.540,-0.540,-0.540,0.000,0.000,0.000
1605186926075418880,10.0.1.131,482,move_down,-0.560,-0.560,-0.560,0.000,0.000,0.000
1605186927617142016,10.0.1.131,483,move_down,-0.580,-0.580,-0.580,0.000,0.000,0.000
1605186928736929024,10.0.1.131,33,pick,-0.590,-0.590,-0.590,0.000,0.000,0.000
1605186929742216192,10.0.1.131,37,pick,-0.600,-0.600,-0.600,0.000,0.000,0.000
1605186930770100992,10.0.1.131,53,pick,-0.610,-0.610,-0.610,0.000,0.000,0.000
1605186931783874048,10.0.1.131,58,pick,-0.620,-0.620,-0.620,0.000,0.000,0.000
1605186932761069056,10.0.1.131,34,pick,-0.630,-0.630,-0.630,0.000,0.000,0.000
1605186934737788928,10.0.1.131,NaN,pick,-0.650,-0.650,-0.650,0.000,0.000,0.000
1605186935739158016,10.0.1.131,NaN,pick,-0.660,-0.660,-0.660,0.000,0.000,0.000
1605186935798862080,10.0.1.131,59,pick,-0.660,-0.660,-0.660,0.000,0.000,0.000
1605186936789359104,10.0.1.131,49,pick,-0.670,-0.670,-0.670,0.000,0.000,0.000
1605186937795106048,10.0.1.131,53,pick,-0.680,-0.680,-0.680,0.000,0.000,0.000
1605186938780977920,10.0.1.131,37,pick,-0.690,-0.690,-0.690,0.000,0.000,0.000
1605186940746094080,10.0.1.131,NaN,pick,-0.710,-0.710,-0.710,0.000,0.000,0.000
1605186940787614976,10.0.1.131,41,pick,-0.710,-0.710,-0.710,0.000,0.000,0.000
1605186941810309888,10.0.1.131,62,pick,-0.720,-0.720,-0.720,0.000,0.000,0.000
1605186942805184000,10.0.1.131,56,pick,-0.730,-0.730,-0.730,0.000,0.000,0.000
1605186943812197888,10.0.1.131,61,pick,-0.740,-0.740,-0.740,0.000,0.000,0.000
1605186944801042176,10.0.1.131,45,pick,-0.750,-0.750,-0.750,0.000,0.000,0.000
1605186945816937984,10.0.1.131,59,pick,-0.760,-0.760,-0.760,0.000,0.000,0.000
1605186946819764992,10.0.1.131,54,pick,-0.770,-0.770,-0.770,0.000,0.000,0.000
1605186948270401024,10.0.1.131,503,move_up,-0.750,-0.750,-0.750,0.000,0.000,0.000
1605186949961035008,10.0.1.131,617,move_up,-0.730,-0.730,-0.730,0.000,0.000,0.000
1605186951604440064,10.0.1.131,507,move_up,-0.710,-0.710,-0.710,0.000,0.000,0.000
1605186953094597120,10.0.1.131,420,move_up,-0.690,-0.690,-0.690,0.000,0.000,0.000
1605186954776195072,10.0.1.131,600,move_up,-0.670,-0.670,-0.670,0.000,0.000,0.000
1605186956616224000,10.0.1.131,677,move_up,-0.650,-0.650,-0.650,0.000,0.000,0.000
1605186958137147904,10.0.1.131,496,move_up,-0.630,-0.630,-0.630,0.000,0.000,0.000
1605186959742233088,10.0.1.131,524,move_up,-0.610,-0.610,-0.610,0.000,0.000,0.000
1605186961417785856,10.0.1.131,586,move_up,-0.590,-0.590,-0.590,0.000,0.000,0.000
1605186963083163136,10.0.1.131,559,move_up,-0.570,-0.570,-0.570,0.000,0.000,0.000
1605186964744214016,10.0.1.131,609,move_up,-0.550,-0.550,-0.550,0.000,0.000,0.000
1605186966267319040,10.0.1.131,487,move_up,-0.530,-0.530,-0.530,0.000,0.000,0.000
1605186967827318016,10.0.1.131,470,move_up,-0.510,-0.510,-0.510,0.000,0.000,0.000
1605186969577209088,10.0.1.131,638,move_up,-0.490,-0.490,-0.490,0.000,0.000,0.000
1605186971253967104,10.0.1.131,578,move_up,-0.470,-0.470,-0.470,0.000,0.000,0.000
1605186972852732928,10.0.1.131,516,move_up,-0.450,-0.450,-0.450,0.000,0.000,0.000
1605186974542524160,10.0.1.131,604,move_up,-0.430,-0.430,-0.430,0.000,0.000,0.000
1605186976130152960,10.0.1.131,509,move_up,-0.410,-0.410,-0.410,0.000,0.000,0.000
1605186977855827968,10.0.1.131,618,move_up,-0.390,-0.390,-0.390,0.000,0.000,0.000
1605186979586860800,10.0.1.131,665,move_up,-0.370,-0.370,-0.370,0.000,0.000,0.000
1605186981546200064,10.0.1.131,898,move_up,-0.350,-0.350,-0.350,0.000,0.000,0.000
1605186983268371968,10.0.1.131,618,move_up,-0.330,-0.330,-0.330,0.000,0.000,0.000
1605186984879859968,10.0.1.131,644,move_up,-0.310,-0.310,-0.310,0.000,0.000,0.000
1605186986521786880,10.0.1.131,529,move_up,-0.290,-0.290,-0.290,0.000,0.000,0.000
1605186988099836160,10.0.1.131,504,move_up,-0.270,-0.270,-0.270,0.000,0.000,0.000
1605186989683949056,10.0.1.131,482,move_up,-0.250,-0.250,-0.250,0.000,0.000,0.000
1605186991309107968,10.0.1.131,515,move_up,-0.230,-0.230,-0.230,0.000,0.000,0.000
1605186992975798016,10.0.1.131,511,move_up,-0.210,-0.210,-0.210,0.000,0.000,0.000
1605186994597565952,10.0.1.131,479,move_up,-0.190,-0.190,-0.190,0.000,0.000,0.000
1605186995809312000,10.0.1.131,84,place,-0.180,-0.180,-0.180,0.000,0.000,0.000
1605186996776057088,10.0.1.131,49,place,-0.170,-0.170,-0.170,0.000,0.000,0.000
1605186997769506048,10.0.1.131,41,place,-0.160,-0.160,-0.160,0.000,0.000,0.000
1605186998776858112,10.0.1.131,47,place,-0.150,-0.150,-0.150,0.000,0.000,0.000
1605186999774878976,10.0.1.131,44,place,-0.140,-0.140,-0.140,0.000,0.000,0.000
1605187001740958976,10.0.1.131,NaN,place,-0.120,-0.120,-0.120,0.000,0.000,0.000
1605187001796578816,10.0.1.131,55,place,-0.120,-0.120,-0.120,0.000,0.000,0.000
1605187002790585088,10.0.1.131,40,place,-0.110,-0.110,-0.110,0.000,0.000,0.000
1605187003792075008,10.0.1.131,38,place,-0.100,-0.100,-0.100,0.000,0.000,0.000
1605187004796026112,10.0.1.131,37,place,-0.090,-0.090,-0.090,0.000,0.000,0.000
1605187005814348032,10.0.1.131,54,place,-0.080,-0.080,-0.080,0.000,0.000,0.000
1605187006822995968,10.0.1.131,61,place,-0.070,-0.070,-0.070,0.000,0.000,0.000
1605187007814494976,10.0.1.131,46,place,-0.060,-0.060,-0.060,0.000,0.000,0.000
1605187008812715008,10.0.1.131,43,place,-0.050,-0.050,-0.050,0.000,0.000,0.000
1605187009816210944,10.0.1.131,40,place,-0.040,-0.040,-0.040,0.000,0.000,0.000
1605187010822371072,10.0.1.131,46,place,-0.030,-0.030,-0.030,0.000,0.000,0.000
1605187011816424960,10.0.1.131,39,place,-0.020,-0.020,-0.020,0.000,0.000,0.000
1605187012818294016,10.0.1.131,41,place,-0.010,-0.010,-0.010,0.000,0.000,0.000
1605187013844620032,10.0.1.131,65,place,0.000,0.000,0.000,0.000,0.000,0.000
1605187015338756096,10.0.1.131,557,move_down,-0.020,-0.020,-0.020,0.000,0.000,0.000
1605187017035738880,10.0.1.131,590,move_down,-0.040,-0.040,-0.040,0.000,0.000,0.000
1605187018693154048,10.0.1.131,542,move_down,-0.060,-0.060,-0.060,0.000,0.000,0.000
1605187020533051904,10.0.1.131,677,move_down,-0.080,-0.080,-0.080,0.000,0.000,0.000
1605187022165858048,10.0.1.131,565,move_down,-0.100,-0.100,-0.100,0.000,0.000,0.000
1605187023906723072,10.0.1.131,576,move_down,-0.120,-0.120,-0.120,0.000,0.000,0.000
1605187025817011968,10.0.1.131,503,move_down,-0.140,-0.140,-0.140,0.000,0.000,0.000
1605187027437700096,10.0.1.131,549,move_down,-0.160,-0.160,-0.160,0.000,0.000,0.000
1605187029001925888,10.0.1.131,487,move_down,-0.180,-0.180,-0.180,0.000,0.000,0.000
1605187030606132992,10.0.1.131,526,move_down,-0.200,-0.200,-0.200,0.000,0.000,0.000
1605187032193846016,10.0.1.131,434,move_down,-0.220,-0.220,-0.220,0.000,0.000,0.000
1605187033795421952,10.0.1.131,504,move_down,-0.240,-0.240,-0.240,0.000,0.000,0.000
1605187035414479872,10.0.1.131,490,move_down,-0.260,-0.260,-0.260,0.000,0.000,0.000
1605187037021369856,10.0.1.131,532,move_down,-0.280,-0.280,-0.280,0.000,0.000,0.000
1605187038678355968,10.0.1.131,562,move_down,-0.300,-0.300,-0.300,0.000,0.000,0.000
1605187040351908096,10.0.1.131,622,move_down,-0.320,-0.320,-0.320,0.000,0.000,0.000
1605187042244553984,10.0.1.131,789,move_down,-0.340,-0.340,-0.340,0.000,0.000,0.000
1605187043980797952,10.0.1.131,607,move_down,-0.360,-0.360,-0.360,0.000,0.000,0.000
1605187045695241984,10.0.1.131,699,move_down,-0.380,-0.380,-0.380,0.000,0.000,0.000
1605187047551297024,10.0.1.131,784,move_down,-0.400,-0.400,-0.400,0.000,0.000,0.000
1605187049323131136,10.0.1.131,619,move_down,-0.420,-0.420,-0.420,0.000,0.000,0.000
1605187051130094080,10.0.1.131,727,move_down,-0.440,-0.440,-0.440,0.000,0.000,0.000
1605187052882910976,10.0.1.131,654,move_down,-0.460,-0.460,-0.460,0.000,0.000,0.000
1605187054619916800,10.0.1.131,647,move_down,-0.480,-0.480,-0.480,0.000,0.000,0.000
1605187056386867968,10.0.1.131,647,move_down,-0.500,-0.500,-0.500,0.000,0.000,0.000
1605187058140136960,10.0.1.131,690,move_down,-0.520,-0.520,-0.520,0.000,0.000,0.000
1605187059770204160,10.0.1.131,495,move_down,-0.540,-0.540,-0.540,0.000,0.000,0.000
1605187061498434048,10.0.1.131,594,move_down,-0.560,-0.560,-0.560,0.000,0.000,0.000
1605187063194309888,10.0.1.131,596,move_down,-0.580,-0.580,-0.580,0.000,0.000,0.000
1605187065345548032,10.0.1.131,NaN,pick,-0.600,-0.600,-0.600,0.000,0.000,0.000
1605187065383943168,10.0.1.131,38,pick,-0.600,-0.600,-0.600,0.000,0.000,0.000
1605187066413771008,10.0.1.131,52,pick,-0.610,-0.610,-0.610,0.000,0.000,0.000
1605187067421955072,10.0.1.131,58,pick,-0.620,-0.620,-0.620,0.000,0.000,0.000
1605187068405849856,10.0.1.131,42,pick,-0.630,-0.630,-0.630,0.000,0.000,0.000
1605187069407928832,10.0.1.131,42,pick,-0.640,-0.640,-0.640,0.000,0.000,0.000
1605187070409534976,10.0.1.131,43,pick,-0.650,-0.650,-0.650,0.000,0.000,0.000
1605187071406225920,10.0.1.131,38,pick,-0.660,-0.660,-0.660,0.000,0.000,0.000
1605187072415591936,10.0.1.131,45,pick,-0.670,-0.670,-0.670,0.000,0.000,0.000
1605187073405949184,10.0.1.131,34,pick,-0.680,-0.680,-0.680,0.000,0.000,0.000
1605187074440634880,10.0.1.131,66,pick,-0.690,-0.690,-0.690,0.000,0.000,0.000
1605187075425437952,10.0.1.131,48,pick,-0.700,-0.700,-0.700,0.000,0.000,0.000
1605187076450324992,10.0.1.131,72,pick,-0.710,-0.710,-0.710,0.000,0.000,0.000
1605187077427726080,10.0.1.131,47,pick,-0.720,-0.720,-0.720,0.000,0.000,0.000
1605187078427983872,10.0.1.131,43,pick,-0.730,-0.730,-0.730,0.000,0.000,0.000
1605187079434233856,10.0.1.131,48,pick,-0.740,-0.740,-0.740,0.000,0.000,0.000
1605187081387558912,10.0.1.131,NaN,pick,-0.760,-0.760,-0.760,0.000,0.000,0.000
1605187081425551872,10.0.1.131,37,pick,-0.760,-0.760,-0.760,0.000,0.000,0.000
1605187082428929024,10.0.1.131,39,pick,-0.770,-0.770,-0.770,0.000,0.000,0.000
1605187083972858880,10.0.1.131,581,move_up,-0.750,-0.750,-0.750,0.000,0.000,0.000
1605187085532839168,10.0.1.131,496,move_up,-0.730,-0.730,-0.730,0.000,0.000,0.000
1605187087109036800,10.0.1.131,487,move_up,-0.710,-0.710,-0.710,0.000,0.000,0.000
1605187088662084096,10.0.1.131,474,move_up,-0.690,-0.690,-0.690,0.000,0.000,0.000
1605187090300928000,10.0.1.131,566,move_up,-0.670,-0.670,-0.670,0.000,0.000,0.000
1605187091978854912,10.0.1.131,588,move_up,-0.650,-0.650,-0.650,0.000,0.000,0.000
1605187093627200000,10.0.1.131,549,move_up,-0.630,-0.630,-0.630,0.000,0.000,0.000
1605187095395042048,10.0.1.131,639,move_up,-0.610,-0.610,-0.610,0.000,0.000,0.000
1605187097147339008,10.0.1.131,554,move_up,-0.590,-0.590,-0.590,0.000,0.000,0.000
1605187098910001920,10.0.1.131,682,move_up,-0.570,-0.570,-0.570,0.000,0.000,0.000
1605187100610546944,10.0.1.131,683,move_up,-0.550,-0.550,-0.550,0.000,0.000,0.000
1605187102330630912,10.0.1.131,647,move_up,-0.530,-0.530,-0.530,0.000,0.000,0.000
1605187104029486848,10.0.1.131,610,move_up,-0.510,-0.510,-0.510,0.000,0.000,0.000
