milangroshev/digital-twin-scalability/logs/run4-300s-nan/10.0.1.146.csv
timestamp,node,latency,action,joint_1,joint_2,joint_3,joint_4,joint_5,joint_6
1605187367273108992,10.0.1.146,NaN,,0.000,0.000,0.000,0.000,0.000,0.000
1605187369280608000,10.0.1.146,2007,,0.000,0.000,0.000,0.000,0.000,0.000
1605187374107651072,10.0.1.146,2825,move_down,-0.020,-0.020,-0.020,0.000,0.000,0.000
1605187375983355904,10.0.1.146,779,move_down,-0.040,-0.040,-0.040,0.000,0.000,0.000
1605187377765892096,10.0.1.146,653,move_down,-0.060,-0.060,-0.060,0.000,0.000,0.000
1605187379438315008,10.0.1.146,555,move_down,-0.080,-0.080,-0.080,0.000,0.000,0.000
1605187381153729024,10.0.1.146,630,move_down,-0.100,-0.100,-0.100,0.000,0.000,0.000
1605187383010752000,10.0.1.146,743,move_down,-0.120,-0.120,-0.120,0.000,0.000,0.000
1605187384724022016,10.0.1.146,686,move_down,-0.140,-0.140,-0.140,0.000,0.000,0.000
1605187386518405888,10.0.1.146,697,move_down,-0.160,-0.160,-0.160,0.000,0.000,0.000
1605187388265571072,10.0.1.146,638,move_down,-0.180,-0.180,-0.180,0.000,0.000,0.000
1605187390139269120,10.0.1.146,765,move_down,-0.200,-0.200,-0.200,0.000,0.000,0.000
1605187391945060864,10.0.1.146,713,move_down,-0.220,-0.220,-0.220,0.000,0.000,0.000
1605187393599208192,10.0.1.146,596,move_down,-0.240,-0.240,-0.240,0.000,0.000,0.000
1605187395369406976,10.0.1.146,619,move_down,-0.260,-0.260,-0.260,0.000,0.000,0.000
1605187397164599040,10.0.1.146,733,move_down,-0.280,-0.280,-0.280,0.000,0.000,0.000
1605187398919970048,10.0.1.146,686,move_down,-0.300,-0.300,-0.300,0.000,0.000,0.000
1605187400642257920,10.0.1.146,661,move_down,-0.320,-0.320,-0.320,0.000,0.000,0.000
1605187402410002944,10.0.1.146,786,move_down,-0.340,-0.340,-0.340,0.000,0.000,0.000
1605187404133358080,10.0.1.146,673,move_down,-0.360,-0.360,-0.360,0.000,0.000,0.000
1605187405783670784,10.0.1.146,559,move_down,-0.380,-0.380,-0.380,0.000,0.000,0.000
1605187407539928064,10.0.1.146,719,move_down,-0.400,-0.400,-0.400,0.000,0.000,0.000
1605187409139152128,10.0.1.146,603,move_down,-0.420,-0.420,-0.420,0.000,0.000,0.000
1605187410791384832,10.0.1.146,547,move_down,-0.440,-0.440,-0.440,0.000,0.000,0.000
1605187412577339904,10.0.1.146,676,move_down,-0.460,-0.460,-0.460,0.000,0.000,0.000
1605187414312252160,10.0.1.146,665,move_down,-0.480,-0.480,-0.480,0.000,0.000,0.000
1605187416010296064,10.0.1.146,661,move_down,-0.500,-0.500,-0.500,0.000,0.000,0.000
1605187417613484032,10.0.1.146,535,move_down,-0.520,-0.520,-0.520,0.000,0.000,0.000
1605187419344147968,10.0.1.146,644,move_down,-0.540,-0.540,-0.540,0.000,0.000,0.000
1605187420960489984,10.0.1.146,490,move_down,-0.560,-0.560,-0.560,0.000,0.000,0.000
1605187422598931200,10.0.1.146,572,move_down,-0.580,-0.580,-0.580,0.000,0.000,0.000
1605187423723251968,10.0.1.146,56,pick,-0.590,-0.590,-0.590,0.000,0.000,0.000
1605187425668867072,10.0.1.146,NaN,pick,-0.610,-0.610,-0.610,0.000,0.000,0.000
1605187425725512960,10.0.1.146,56,pick,-0.610,-0.610,-0.610,0.000,0.000,0.000
1605187426721725952,10.0.1.146,51,pick,-0.620,-0.620,-0.620,0.000,0.000,0.000
1605187427743877888,10.0.1.146,48,pick,-0.630,-0.630,-0.630,0.000,0.000,0.000
1605187428760055040,10.0.1.146,62,pick,-0.640,-0.640,-0.640,0.000,0.000,0.000
1605187430700678144,10.0.1.146,NaN,pick,-0.660,-0.660,-0.660,0.000,0.000,0.000
1605187431702728960,10.0.1.146,NaN,pick,-0.670,-0.670,-0.670,0.000,0.000,0.000
1605187432727649024,10.0.1.146,NaN,pick,-0.680,-0.680,-0.680,0.000,0.000,0.000
1605187432773963008,10.0.1.146,46,pick,-0.680,-0.680,-0.680,0.000,0.000,0.000
1605187433801678848,10.0.1.146,68,pick,-0.690,-0.690,-0.690,0.000,0.000,0.000
1605187434803250944,10.0.1.146,68,pick,-0.700,-0.700,-0.700,0.000,0.000,0.000
1605187436744233984,10.0.1.146,NaN,pick,-0.720,-0.720,-0.720,0.000,0.000,0.000
1605187436816531968,10.0.1.146,72,pick,-0.720,-0.720,-0.720,0.000,0.000,0.000
1605187437831335936,10.0.1.146,80,pick,-0.730,-0.730,-0.730,0.000,0.000,0.000
1605187439759094016,10.0.1.146,NaN,pick,-0.750,-0.750,-0.750,0.000,0.000,0.000
1605187439818661888,10.0.1.146,59,pick,-0.750,-0.750,-0.750,0.000,0.000,0.000
1605187440809627904,10.0.1.146,49,pick,-0.760,-0.760,-0.760,0.000,0.000,0.000
1605187441833179904,10.0.1.146,69,pick,-0.770,-0.770,-0.770,0.000,0.000,0.000
1605187443528945920,10.0.1.146,762,move_up,-0.750,-0.750,-0.750,0.000,0.000,0.000
1605187445377976832,10.0.1.146,788,move_up,-0.730,-0.730,-0.730,0.000,0.000,0.000
1605187447125581056,10.0.1.146,628,move_up,-0.710,-0.710,-0.710,0.000,0.000,0.000
1605187448888022784,10.0.1.146,760,move_up,-0.690,-0.690,-0.690,0.000,0.000,0.000
1605187450519033856,10.0.1.146,595,move_up,-0.670,-0.670,-0.670,0.000,0.000,0.000
1605187452223038976,10.0.1.146,615,move_up,-0.650,-0.650,-0.650,0.000,0.000,0.000
1605187453937454080,10.0.1.146,614,move_up,-0.630,-0.630,-0.630,0.000,0.000,0.000
1605187455808568064,10.0.1.146,778,move_up,-0.610,-0.610,-0.610,0.000,0.000,0.000
1605187457532427008,10.0.1.146,621,move_up,-0.590,-0.590,-0.590,0.000,0.000,0.000
1605187459309120000,10.0.1.146,652,move_up,-0.570,-0.570,-0.570,0.000,0.000,0.000
1605187461143682048,10.0.1.146,805,move_up,-0.550,-0.550,-0.550,0.000,0.000,0.000
1605187463024146176,10.0.1.146,803,move_up,-0.530,-0.530,-0.530,0.000,0.000,0.000
1605187464913084928,10.0.1.146,652,move_up,-0.510,-0.510,-0.510,0.000,0.000,0.000
1605187466662665984,10.0.1.146,675,move_up,-0.490,-0.490,-0.490,0.000,0.000,0.000
1605187468230011904,10.0.1.146,570,move_up,-0.470,-0.470,-0.470,0.000,0.000,0.000
1605187469822151936,10.0.1.146,480,move_up,-0.450,-0.450,-0.450,0.000,0.000,0.000
1605187471476617216,10.0.1.146,604,move_up,-0.430,-0.430,-0.430,0.000,0.000,0.000
1605187473328872960,10.0.1.146,735,move_up,-0.410,-0.410,-0.410,0.000,0.000,0.000
1605187475007992064,10.0.1.146,610,move_up,-0.390,-0.390,-0.390,0.000,0.000,0.000
1605187477023907840,10.0.1.146,875,move_up,-0.370,-0.370,-0.370,0.000,0.000,0.000
1605187478995811840,10.0.1.146,705,move_up,-0.350,-0.350,-0.350,0.000,0.000,0.000
1605187480986742016,10.0.1.146,863,move_up,-0.330,-0.330,-0.330,0.000,0.000,0.000
1605187482933981952,10.0.1.146,895,move_up,-0.310,-0.310,-0.310,0.000,0.000,0.000
1605187484770040064,10.0.1.146,758,move_up,-0.290,-0.290,-0.290,0.000,0.000,0.000
1605187486335380992,10.0.1.146,513,move_up,-0.270,-0.270,-0.270,0.000,0.000,0.000
1605187487911763968,10.0.1.146,534,move_up,-0.250,-0.250,-0.250,0.000,0.000,0.000
1605187489732041984,10.0.1.146,810,move_up,-0.230,-0.230,-0.230,0.000,0.000,0.000
1605187491438533120,10.0.1.146,616,move_up,-0.210,-0.210,-0.210,0.000,0.000,0.000
1605187493054032128,10.0.1.146,506,move_up,-0.190,-0.190,-0.190,0.000,0.000,0.000
1605187494308933120,10.0.1.146,39,place,-0.180,-0.180,-0.180,0.000,0.000,0.000
1605187495323840000,10.0.1.146,53,place,-0.170,-0.170,-0.170,0.000,0.000,0.000
1605187496335517952,10.0.1.146,60,place,-0.160,-0.160,-0.160,0.000,0.000,0.000
1605187497342916096,10.0.1.146,59,place,-0.150,-0.150,-0.150,0.000,0.000,0.000
1605187498348329984,10.0.1.146,60,place,-0.140,-0.140,-0.140,0.000,0.000,0.000
1605187499347469056,10.0.1.146,50,place,-0.130,-0.130,-0.130,0.000,0.000,0.000
1605187500354260992,10.0.1.146,55,place,-0.120,-0.120,-0.120,0.000,0.000,0.000
1605187502314618112,10.0.1.146,NaN,place,-0.100,-0.100,-0.100,0.000,0.000,0.000
1605187503315565056,10.0.1.146,NaN,place,-0.090,-0.090,-0.090,0.000,0.000,0.000
1605187503349939200,10.0.1.146,34,place,-0.090,-0.090,-0.090,0.000,0.000,0.000
1605187505339133952,10.0.1.146,NaN,place,-0.070,-0.070,-0.070,0.000,0.000,0.000
1605187505374460928,10.0.1.146,35,place,-0.070,-0.070,-0.070,0.000,0.000,0.000
1605187506399034880,10.0.1.146,59,place,-0.060,-0.060,-0.060,0.000,0.000,0.000
1605187507415524864,10.0.1.146,64,place,-0.050,-0.050,-0.050,0.000,0.000,0.000
1605187508422205952,10.0.1.146,68,place,-0.040,-0.040,-0.040,0.000,0.000,0.000
1605187509399867904,10.0.1.146,44,place,-0.030,-0.030,-0.030,0.000,0.000,0.000
1605187510450512896,10.0.1.146,93,place,-0.020,-0.020,-0.020,0.000,0.000,0.000
1605187511446050816,10.0.1.146,83,place,-0.010,-0.010,-0.010,0.000,0.000,0.000
1605187512441623040,10.0.1.146,78,place,0.000,0.000,0.000,0.000,0.000,0.000
1605187513954818048,10.0.1.146,590,move_down,-0.020,-0.020,-0.020,0.000,0.000,0.000
1605187515683390976,10.0.1.146,672,move_down,-0.040,-0.040,-0.040,0.000,0.000,0.000
1605187517663526144,10.0.1.146,829,move_down,-0.060,-0.060,-0.060,0.000,0.000,0.000
1605187519338252032,10.0.1.146,621,move_down,-0.080,-0.080,-0.080,0.000,0.000,0.000
1605187520990940160,10.0.1.146,505,move_down,-0.100,-0.100,-0.100,0.000,0.000,0.000
1605187522799545088,10.0.1.146,671,move_down,-0.120,-0.120,-0.120,0.000,0.000,0.000
1605187525002044928,10.0.1.146,1075,move_down,-0.140,-0.140,-0.140,0.000,0.000,0.000
1605187526651830016,10.0.1.146,504,move_down,-0.160,-0.160,-0.160,0.000,0.000,0.000
1605187528282511872,10.0.1.146,554,move_down,-0.180,-0.180,-0.180,0.000,0.000,0.000
1605187529858161920,10.0.1.146,549,move_down,-0.200,-0.200,-0.200,0.000,0.000,0.000
1605187531522723840,10.0.1.146,608,move_down,-0.220,-0.220,-0.220,0.000,0.000,0.000
1605187533273203968,10.0.1.146,657,move_down,-0.240,-0.240,-0.240,0.000,0.000,0.000
1605187535232443136,10.0.1.146,909,move_down,-0.260,-0.260,-0.260,0.000,0.000,0.000
1605187536883481088,10.0.1.146,585,move_down,-0.280,-0.280,-0.280,0.000,0.000,0.000
1605187538439554816,10.0.1.146,516,move_down,-0.300,-0.300,-0.300,0.000,0.000,0.000
1605187540202909952,10.0.1.146,648,move_down,-0.320,-0.320,-0.320,0.000,0.000,0.000
1605187541970795008,10.0.1.146,672,move_down,-0.340,-0.340,-0.340,0.000,0.000,0.000
1605187543768329984,10.0.1.146,698,move_down,-0.360,-0.360,-0.360,0.000,0.000,0.000
1605187545400135936,10.0.1.146,551,move_down,-0.380,-0.380,-0.380,0.000,0.000,0.000
1605187547250561024,10.0.1.146,792,move_down,-0.400,-0.400,-0.400,0.000,0.000,0.000
1605187549109739008,10.0.1.146,790,move_down,-0.420,-0.420,-0.420,0.000,0.000,0.000
1605187550915806976,10.0.1.146,700,move_down,-0.440,-0.440,-0.440,0.000,0.000,0.000
1605187552507857152,10.0.1.146,552,move_down,-0.460,-0.460,-0.460,0.000,0.000,0.000
1605187554297529856,10.0.1.146,689,move_down,-0.480,-0.480,-0.480,0.000,0.000,0.000
1605187556320403200,10.0.1.146,885,move_down,-0.500,-0.500,-0.500,0.000,0.000,0.000
1605187558093125120,10.0.1.146,664,move_down,-0.520,-0.520,-0.520,0.000,0.000,0.000
1605187559891144960,10.0.1.146,681,move_down,-0.540,-0.540,-0.540,0.000,0.000,0.000
1605187561772306944,10.0.1.146,818,move_down,-0.560,-0.560,-0.560,0.000,0.000,0.000
1605187563673327872,10.0.1.146,730,move_down,-0.580,-0.580,-0.580,0.000,0.000,0.000
1605187564901679872,10.0.1.146,104,pick,-0.590,-0.590,-0.590,0.000,0.000,0.000
1605187565881520896,10.0.1.146,82,pick,-0.600,-0.600,-0.600,0.000,0.000,0.000
1605187566854152960,10.0.1.146,54,pick,-0.610,-0.610,-0.610,0.000,0.000,0.000
1605187567859271936,10.0.1.146,58,pick,-0.620,-0.620,-0.620,0.000,0.000,0.000
1605187569859954176,10.0.1.146,NaN,pick,-0.640,-0.640,-0.640,0.000,0.000,0.000
1605187570861620992,10.0.1.146,NaN,pick,-0.650,-0.650,-0.650,0.000,0.000,0.000
1605187570928751872,10.0.1.146,67,pick,-0.650,-0.650,-0.650,0.000,0.000,0.000
1605187571920325888,10.0.1.146,50,pick,-0.660,-0.660,-0.660,0.000,0.000,0.000
1605187572902749952,10.0.1.146,31,pick,-0.670,-0.670,-0.670,0.000,0.000,0.000
1605187574883585024,10.0.1.146,NaN,pick,-0.690,-0.690,-0.690,0.000,0.000,0.000
1605187575885027840,10.0.1.146,NaN,pick,-0.700,-0.700,-0.700,0.000,0.000,0.000
1605187575949121024,10.0.1.146,64,pick,-0.700,-0.700,-0.700,0.000,0.000,0.000
1605187576941868032,10.0.1.146,53,pick,-0.710,-0.710,-0.710,0.000,0.000,0.000
1605187577944210944,10.0.1.146,50,pick,-0.720,-0.720,-0.720,0.000,0.000,0.000
1605187579902740992,10.0.1.146,NaN,pick,-0.740,-0.740,-0.740,0.000,0.000,0.000
1605187580906178048,10.0.1.146,NaN,pick,-0.750,-0.750,-0.750,0.000,0.000,0.000
1605187580971996160,10.0.1.146,65,pick,-0.750,-0.750,-0.750,0.000,0.000,0.000
1605187581956930048,10.0.1.146,48,pick,-0.760,-0.760,-0.760,0.000,0.000,0.000
1605187582949294080,10.0.1.146,33,pick,-0.770,-0.770,-0.770,0.000,0.000,0.000
1605187584619491072,10.0.1.146,698,move_up,-0.750,-0.750,-0.750,0.000,0.000,0.000
1605187586545732864,10.0.1.146,751,move_up,-0.730,-0.730,-0.730,0.000,0.000,0.000
1605187588432642816,10.0.1.146,778,move_up,-0.710,-0.710,-0.710,0.000,0.000,0.000
1605187590427102976,10.0.1.146,860,move_up,-0.690,-0.690,-0.690,0.000,0.000,0.000
1605187592264788992,10.0.1.146,784,move_up,-0.670,-0.670,-0.670,0.000,0.000,0.000
1605187594100475904,10.0.1.146,696,move_up,-0.650,-0.650,-0.650,0.000,0.000,0.000
1605187595780930048,10.0.1.146,657,move_up,-0.630,-0.630,-0.630,0.000,0.000,0.000
1605187597478702080,10.0.1.146,584,move_up,-0.610,-0.610,-0.610,0.000,0.000,0.000
1605187599347596032,10.0.1.146,679,move_up,-0.590,-0.590,-0.590,0.000,0.000,0.000
1605187601217895936,10.0.1.146,778,move_up,-0.570,-0.570,-0.570,0.000,0.000,0.000
1605187602735835136,10.0.1.146,458,move_up,-0.550,-0.550,-0.550,0.000,0.000,0.000
1605187604549211136,10.0.1.146,752,move_up,-0.530,-0.530,-0.530,0.000,0.000,0.000
1605187606209804032,10.0.1.146,480,move_up,-0.510,-0.510,-0.510,0.000,0.000,0.000
1605187607894679040,10.0.1.146,623,move_up,-0.490,-0.490,-0.490,0.000,0.000,0.000
1605187609795741184,10.0.1.146,732,move_up,-0.470,-0.470,-0.470,0.000,0.000,0.000
1605187611615752960,10.0.1.146,574,move_up,-0.450,-0.450,-0.450,0.000,0.000,0.000
1605187613372818944,10.0.1.146,714,move_up,-0.430,-0.430,-0.430,0.000,0.000,0.000
1605187615570771968,10.0.1.146,1033,move_up,-0.410,-0.410,-0.410,0.000,0.000,0.000
1605187617246822144,10.0.1.146,582,move_up,-0.390,-0.390,-0.390,0.000,0.000,0.000
1605187619000365056,10.0.1.146,681,move_up,-0.370,-0.370,-0.370,0.000,0.000,0.000
1605187620622201856,10.0.1.146,506,move_up,-0.350,-0.350,-0.350,0.000,0.000,0.000
1605187622754822912,10.0.1.146,771,move_up,-0.330,-0.330,-0.330,0.000,0.000,0.000
1605187624499365120,10.0.1.146,654,move_up,-0.310,-0.310,-0.310,0.000,0.000,0.000
1605187626423723008,10.0.1.146,713,move_up,-0.290,-0.290,-0.290,0.000,0.000,0.000
1605187628305246208,10.0.1.146,715,move_up,-0.270,-0.270,-0.270,0.000,0.000,0.000
1605187630298502912,10.0.1.146,860,move_up,-0.250,-0.250,-0.250,0.000,0.000,0.000
1605187632184115968,10.0.1.146,657,move_up,-0.230,-0.230,-0.230,0.000,0.000,0.000
1605187634001046784,10.0.1.146,740,move_up,-0.210,-0.210,-0.210,0.000,0.000,0.000
1605187635651269888,10.0.1.146,545,move_up,-0.190,-0.190,-0.190,0.000,0.000,0.000
1605187637840802048,10.0.1.146,NaN,place,-0.170,-0.170,-0.170,0.000,0.000,0.000
1605187637903804160,10.0.1.146,62,place,-0.170,-0.170,-0.170,0.000,0.000,0.000
1605187638890256896,10.0.1.146,48,place,-0.160,-0.160,-0.160,0.000,0.000,0.000
1605187639925159936,10.0.1.146,81,place,-0.150,-0.150,-0.150,0.000,0.000,0.000
1605187640910201088,10.0.1.146,63,place,-0.140,-0.140,-0.140,0.000,0.000,0.000
1605187641913431040,10.0.1.146,62,place,-0.130,-0.130,-0.130,0.000,0.000,0.000
1605187642937875968,10.0.1.146,55,place,-0.120,-0.120,-0.120,0.000,0.000,0.000
1605187643953571072,10.0.1.146,70,place,-0.110,-0.110,-0.110,0.000,0.000,0.000
1605187644935128064,10.0.1.146,50,place,-0.100,-0.100,-0.100,0.000,0.000,0.000
1605187645932559104,10.0.1.146,46,place,-0.090,-0.090,-0.090,0.000,0.000,0.000
1605187646942614016,10.0.1.146,55,place,-0.080,-0.080,-0.080,0.000,0.000,0.000
1605187647934555904,10.0.1.146,46,place,-0.070,-0.070,-0.070,0.000,0.000,0.000
1605187649899557120,10.0.1.146,NaN,place,-0.050,-0.050,-0.050,0.000,0.000,0.000
1605187649951458816,10.0.1.146,51,place,-0.050,-0.050,-0.050,0.000,0.000,0.000
1605187650952493056,10.0.1.146,51,place,-0.040,-0.040,-0.040,0.000,0.000,0.000
1605187651977736960,10.0.1.146,70,place,-0.030,-0.030,-0.030,0.000,0.000,0.000
1605187652970521088,10.0.1.146,62,place,-0.020,-0.020,-0.020,0.000,0.000,0.000
1605187653984102912,10.0.1.146,60,place,-0.010,-0.010,-0.010,0.000,0.000,0.000
1605187654988576768,10.0.1.146,61,place,0.000,0.000,0.000,0.000,0.000,0.000
1605187656582443008,10.0.1.146,652,move_down,-0.020,-0.020,-0.020,0.000,0.000,0.000
1605187658589767936,10.0.1.146,964,move_down,-0.040,-0.040,-0.040,0.000,0.000,0.000
1605187660408341760,10.0.1.146,698,move_down,-0.060,-0.060,-0.060,0.000,0.000,0.000
1605187662162193920,10.0.1.146,624,move_down,-0.080,-0.080,-0.080,0.000,0.000,0.000
1605187664049179136,10.0.1.146,884,move_down,-0.100,-0.100,-0.100,0.000,0.000,0.000
1605187665885133056,10.0.1.146,707,move_down,-0.120,-0.120,-0.120,0.000,0.000,0.000
1605187667736001024,10.0.1.146,800,move_down,-0.140,-0.140,-0.140,0.000,0.000,0.000
1605187669874887936,10.0.1.146,828,move_down,-0.160,-0.160,-0.160,0.000,0.000,0.000
1605187671821822976,10.0.1.146,728,move_down,-0.180,-0.180,-0.180,0.000,0.000,0.000
1605187673497575936,10.0.1.146,668,move_down,-0.200,-0.200,-0.200,0.000,0.000,0.000
1605187675781218048,10.0.1.146,1182,move_down,-0.220,-0.220,-0.220,0.000,0.000,0.000
1605187677894519040,10.0.1.146,959,move_down,-0.240,-0.240,-0.240,0.000,0.000,0.000
1605187679876178944,10.0.1.146,867,move_down,-0.260,-0.260,-0.260,0.000,0.000,0.000
1605187681771625984,10.0.1.146,818,move_down,-0.280,-0.280,-0.280,0.000,0.000,0.000
1605187683649595904,10.0.1.146,797,move_down,-0.300,-0.300,-0.300,0.000,0.000,0.000
1605187685350647040,10.0.1.146,570,move_down,-0.320,-0.320,-0.320,0.000,0.000,0.000
1605187687434468096,10.0.1.146,1021,move_down,-0.340,-0.340,-0.340,0.000,0.000,0.000
1605187689247639808,10.0.1.146,724,move_down,-0.360,-0.360,-0.360,0.000,0.000,0.000
1605187690890222080,10.0.1.146,615,move_down,-0.380,-0.380,-0.380,0.000,0.000,0.000
1605187692679297024,10.0.1.146,657,move_down,-0.400,-0.400,-0.400,0.000,0.000,0.000
1605187694499084032,10.0.1.146,680,move_down,-0.420,-0.420,-0.420,0.000,0.000,0.000
1605187696481884928,10.0.1.146,890,move_down,-0.440,-0.440,-0.440,0.000,0.000,0.000
1605187698426564864,10.0.1.146,883,move_down,-0.460,-0.460,-0.460,0.000,0.000,0.000
1605187700435812096,10.0.1.146,932,move_down,-0.480,-0.480,-0.480,0.000,0.000,0.000
1605187702184128000,10.0.1.146,681,move_down,-0.500,-0.500,-0.500,0.000,0.000,0.000
1605187704129081088,10.0.1.146,855,move_down,-0.520,-0.520,-0.520,0.000,0.000,0.000
1605187706100482816,10.0.1.146,941,move_down,-0.540,-0.540,-0.540,0.000,0.000,0.000
1605187708121395200,10.0.1.146,747,move_down,-0.560,-0.560,-0.560,0.000,0.000,0.000
1605187710363436032,10.0.1.146,797,move_down,-0.580,-0.580,-0.580,0.000,0.000,0.000
1605187712505758976,10.0.1.146,NaN,pick,-0.600,-0.600,-0.600,0.000,0.000,0.000
1605187712614060032,10.0.1.146,108,pick,-0.600,-0.600,-0.600,0.000,0.000,0.000
1605187713548768000,10.0.1.146,41,pick,-0.610,-0.610,-0.610,0.000,0.000,0.000
1605187715509169152,10.0.1.146,NaN,pick,-0.630,-0.630,-0.630,0.000,0.000,0.000
1605187716510683136,10.0.1.146,NaN,pick,-0.640,-0.640,-0.640,0.000,0.000,0.000
1605187717518137856,10.0.1.146,NaN,pick,-0.650,-0.650,-0.650,0.000,0.000,0.000
1605187717573401856,10.0.1.146,55,pick,-0.650,-0.650,-0.650,0.000,0.000,0.000
1605187719520532992,10.0.1.146,NaN,pick,-0.670,-0.670,-0.670,0.000,0.000,0.000
1605187719594056960,10.0.1.146,73,pick,-0.670,-0.670,-0.670,0.000,0.000,0.000
1605187720577981952,10.0.1.146,53,pick,-0.680,-0.680,-0.680,0.000,0.000,0.000
1605187721572762880,10.0.1.146,45,pick,-0.690,-0.690,-0.690,0.000,0.000,0.000
1605187722609196800,10.0.1.146,79,pick,-0.700,-0.700,-0.700,0.000,0.000,0.000
1605187724539515136,10.0.1.146,NaN,pick,-0.720,-0.720,-0.720,0.000,0.000,0.000
1605187724666324992,10.0.1.146,126,pick,-0.720,-0.720,-0.720,0.000,0.000,0.000
1605187725622509056,10.0.1.146,75,pick,-0.730,-0.730,-0.730,0.000,0.000,0.000
1605187726605494016,10.0.1.146,56,pick,-0.740,-0.740,-0.740,0.000,0.000,0.000
1605187727626105088,10.0.1.146,75,pick,-0.750,-0.750,-0.750,0.000,0.000,0.000
1605187728609828864,10.0.1.146,58,pick,-0.760,-0.760,-0.760,0.000,0.000,0.000
1605187729661186048,10.0.1.146,97,pick,-0.770,-0.770,-0.770,0.000,0.000,0.000
1605187731295305984,10.0.1.146,725,move_up,-0.750,-0.750,-0.750,0.000,0.000,0.000
1605187732947556096,10.0.1.146,637,move_up,-0.730,-0.730,-0.730,0.000,0.000,0.000
1605187734713833216,10.0.1.146,663,move_up,-0.710,-0.710,-0.710,0.000,0.000,0.000
1605187736481192960,10.0.1.146,705,move_up,-0.690,-0.690,-0.690,0.000,0.000,0.000
1605187738515708928,10.0.1.146,983,move_up,-0.670,-0.670,-0.670,0.000,0.000,0.000
1605187740202617856,10.0.1.146,621,move_up,-0.650,-0.650,-0.650,0.000,0.000,0.000
1605187742218044928,10.0.1.146,668,move_up,-0.630,-0.630,-0.630,0.000,0.000,0.000
1605187744336659968,10.0.1.146,989,move_up,-0.610,-0.610,-0.610,0.000,0.000,0.000
1605187746251624192,10.0.1.146,884,move_up,-0.590,-0.590,-0.590,0.000,0.000,0.000
1605187748376625152,10.0.1.146,1007,move_up,-0.570,-0.570,-0.570,0.000,0.000,0.000
1605187750006196992,10.0.1.146,538,move_up,-0.550,-0.550,-0.550,0.000,0.000,0.000
1605187751701409024,10.0.1.146,631,move_up,-0.530,-0.530,-0.530,0.000,0.000,0.000
1605187753664633088,10.0.1.146,733,move_up,-0.510,-0.510,-0.510,0.000,0.000,0.000
1605187755288279040,10.0.1.146,603,move_up,-0.490,-0.490,-0.490,0.000,0.000,0.000
1605187757349276928,10.0.1.146,834,move_up,-0.470,-0.470,-0.470,0.000,0.000,0.000
1605187759212022016,10.0.1.146,836,move_up,-0.450,-0.450,-0.450,0.000,0.000,0.000
1605187760955800064,10.0.1.146,673,move_up,-0.430,-0.430,-0.430,0.000,0.000,0.000
1605187763012491008,10.0.1.146,910,move_up,-0.410,-0.410,-0.410,0.000,0.000,0.000
1605187764675215872,10.0.1.146,601,move_up,-0.390,-0.390,-0.390,0.000,0.000,0.000
1605187766514887936,10.0.1.146,769,move_up,-0.370,-0.370,-0.370,0.000,0.000,0.000
1605187768512089088,10.0.1.146,776,move_up,-0.350,-0.350,-0.350,0.000,0.000,0.000
1605187770350536960,10.0.1.146,770,move_up,-0.330,-0.330,-0.330,0.000,0.000,0.000
1605187772342084864,10.0.1.146,627,move_up,-0.310,-0.310,-0.310,0.000,0.000,0.000
1605187774194230016,10.0.1.146,790,move_up,-0.290,-0.290,-0.290,0.000,0.000,0.000
1605187776094947072,10.0.1.146,784,move_up,-0.270,-0.270,-0.270,0.000,0.000,0.000
1605187778052408832,10.0.1.146,885,move_up,-0.250,-0.250,-0.250,0.000,0.000,0.000
1605187779831172096,10.0.1.146,709,move_up,-0.230,-0.230,-0.230,0.000,0.000,0.000
1605187781534382080,10.0.1.146,618,move_up,-0.210,-0.210,-0.210,0.000,0.000,0.000
1605187783343977984,10.0.1.146,772,move_up,-0.190,-0.190,-0.190,0.000,0.000,0.000
1605187785533099776,10.0.1.146,NaN,place,-0.170,-0.170,-0.170,0.000,0.000,0.000
1605187786534244096,10.0.1.146,NaN,place,-0.160,-0.160,-0.160,0.000,0.000,0.000
1605187786599889152,10.0.1.146,65,place,-0.160,-0.160,-0.160,0.000,0.000,0.000
1605187787588557056,10.0.1.146,45,place,-0.150,-0.150,-0.150,0.000,0.000,0.000
1605187788637057024,10.0.1.146,83,place,-0.140,-0.140,-0.140,0.000,0.000,0.000
1605187790555844096,10.0.1.146,NaN,place,-0.120,-0.120,-0.120,0.000,0.000,0.000
1605187791562458112,10.0.1.146,NaN,place,-0.110,-0.110,-0.110,0.000,0.000,0.000
1605187791605382912,10.0.1.146,42,place,-0.110,-0.110,-0.110,0.000,0.000,0.000
1605187792607177984,10.0.1.146,43,place,-0.100,-0.100,-0.100,0.000,0.000,0.000
1605187793632303872,10.0.1.146,58,place,-0.090,-0.090,-0.090,0.000,0.000,0.000
1605187795621829888,10.0.1.146,NaN,place,-0.070,-0.070,-0.070,0.000,0.000,0.000
1605187796628935936,10.0.1.146,NaN,place,-0.060,-0.060,-0.060,0.000,0.000,0.000
1605187796695277056,10.0.1.146,66,place,-0.060,-0.060,-0.060,0.000,0.000,0.000
1605187797727758848,10.0.1.146,97,place,-0.050,-0.050,-0.050,0.000,0.000,0.000
1605187799633374976,10.0.1.146,NaN,place,-0.030,-0.030,-0.030,0.000,0.000,0.000
1605187799685017088,10.0.1.146,51,place,-0.030,-0.030,-0.030,0.000,0.000,0.000
1605187801639138048,10.0.1.146,NaN,place,-0.010,-0.010,-0.010,0.000,0.000,0.000
1605187801707835904,10.0.1.146,68,place,-0.010,-0.010,-0.010,0.000,0.000,0.000
1605187803641725184,10.0.1.146,NaN,move_down,-0.020,-0.020,-0.020,0.000,0.000,0.000
1605187804184176896,10.0.1.146,542,move_down,-0.020,-0.020,-0.020,0.000,0.000,0.000
1605187806277442048,10.0.1.146,775,move_down,-0.040,-0.040,-0.040,0.000,0.000,0.000
1605187808106188032,10.0.1.146,794,move_down,-0.060,-0.060,-0.060,0.000,0.000,0.000
1605187810107211008,10.0.1.146,940,move_down,-0.080,-0.080,-0.080,0.000,0.000,0.000
1605187812022080000,10.0.1.146,814,move_down,-0.100,-0.100,-0.100,0.000,0.000,0.000
1605187814161573888,10.0.1.146,1003,move_down,-0.120,-0.120,-0.120,0.000,0.000,0.000
1605187816413786880,10.0.1.146,1085,move_down,-0.140,-0.140,-0.140,0.000,0.000,0.000
1605187818212815104,10.0.1.146,702,move_down,-0.160,-0.160,-0.160,0.000,0.000,0.000
1605187820236759040,10.0.1.146,958,move_down,-0.180,-0.180,-0.180,0.000,0.000,0.000
1605187822137316864,10.0.1.146,815,move_down,-0.200,-0.200,-0.200,0.000,0.000,0.000
1605187824429320192,10.0.1.146,1173,move_down,-0.220,-0.220,-0.220,0.000,0.000,0.000
1605187826184221952,10.0.1.146,730,move_down,-0.240,-0.240,-0.240,0.000,0.000,0.000
1605187828183341056,10.0.1.146,919,move_down,-0.260,-0.260,-0.260,0.000,0.000,0.000
1605187829818738944,10.0.1.146,552,move_down,-0.280,-0.280,-0.280,0.000,0.000,0.000
1605187831796052992,10.0.1.146,782,move_down,-0.300,-0.300,-0.300,0.000,0.000,0.000
1605187833465260032,10.0.1.146,562,move_down,-0.320,-0.320,-0.320,0.000,0.000,0.000
1605187835767680000,10.0.1.146,1097,move_down,-0.340,-0.340,-0.340,0.000,0.000,0.000
1605187837642484992,10.0.1.146,750,move_down,-0.360,-0.360,-0.360,0.000,0.000,0.000
1605187839644243968,10.0.1.146,959,move_down,-0.380,-0.380,-0.380,0.000,0.000,0.000
1605187841505126912,10.0.1.146,789,move_down,-0.400,-0.400,-0.400,0.000,0.000,0.000
1605187843339360000,10.0.1.146,812,move_down,-0.420,-0.420,-0.420,0.000,0.000,0.000
1605187845437131008,10.0.1.146,926,move_down,-0.440,-0.440,-0.440,0.000,0.000,0.000
1605187847184884992,10.0.1.146,669,move_down,-0.460,-0.460,-0.460,0.000,0.000,0.000
1605187849125467904,10.0.1.146,778,move_down,-0.480,-0.480,-0.480,0.000,0.000,0.000
1605187851151514880,10.0.1.146,879,move_down,-0.500,-0.500,-0.500,0.000,0.000,0.000
1605187853242640896,10.0.1.146,946,move_down,-0.520,-0.520,-0.520,0.000,0.000,0.000
1605187855270183936,10.0.1.146,911,move_down,-0.540,-0.540,-0.540,0.000,0.000,0.000
1605187857200592128,10.0.1.146,803,move_down,-0.560,-0.560,-0.560,0.000,0.000,0.000
1605187859286168064,10.0.1.146,1004,move_down,-0.580,-0.580,-0.580,0.000,0.000,0.000
1605187861467866880,10.0.1.146,NaN,pick,-0.600,-0.600,-0.600,0.000,0.000,0.000
1605187862473308160,10.0.1.146,NaN,pick,-0.610,-0.610,-0.610,0.000,0.000,0.000
1605187862536446208,10.0.1.146,63,pick,-0.610,-0.610,-0.610,0.000,0.000,0.000
1605187863590269184,10.0.1.146,115,pick,-0.620,-0.620,-0.620,0.000,0.000,0.000
1605187864535265024,10.0.1.146,48,pick,-0.630,-0.630,-0.630,0.000,0.000,0.000
1605187865620037120,10.0.1.146,126,pick,-0.640,-0.640,-0.640,0.000,0.000,0.000
1605187867497335040,10.0.1.146,NaN,pick,-0.660,-0.660,-0.660,0.000,0.000,0.000
1605187868505681920,10.0.1.146,NaN,pick,-0.670,-0.670,-0.670,0.000,0.000,0.000
1605187868572896000,10.0.1.146,67,pick,-0.670,-0.670,-0.670,0.000,0.000,0.000
1605187869670887936,10.0.1.146,157,pick,-0.680,-0.680,-0.680,0.000,0.000,0.000
1605187870562865920,10.0.1.146,48,pick,-0.690,-0.690,-0.690,0.000,0.000,0.000
1605187872523469056,10.0.1.146,NaN,pick,-0.710,-0.710,-0.710,0.000,0.000,0.000
1605187872656632832,10.0.1.146,133,pick,-0.710,-0.710,-0.710,0.000,0.000,0.000
1605187873576283904,10.0.1.146,50,pick,-0.720,-0.720,-0.720,0.000,0.000,0.000
1605187875531613952,10.0.1.146,NaN,pick,-0.740,-0.740,-0.740,0.000,0.000,0.000
1605187875657030144,10.0.1.146,125,pick,-0.740,-0.740,-0.740,0.000,0.000,0.000
1605187876591592960,10.0.1.146,54,pick,-0.750,-0.750,-0.750,0.000,0.000,0.000
1605187877592717056,10.0.1.146,53,pick,-0.760,-0.760,-0.760,0.000,0.000,0.000
1605187879541821952,10.0.1.146,NaN,move_up,-0.750,-0.750,-0.750,0.000,0.000,0.000
1605187880160937984,10.0.1.146,619,move_up,-0.750,-0.750,-0.750,0.000,0.000,0.000
1605187882073477120,10.0.1.146,736,move_up,-0.730,-0.730,-0.730,0.000,0.000,0.000
1605187884114849024,10.0.1.146,954,move_up,-0.710,-0.710,-0.710,0.000,0.000,0.000
1605187885870810112,10.0.1.146,754,move_up,-0.690,-0.690,-0.690,0.000,0.000,0.000
1605187887981703168,10.0.1.146,987,move_up,-0.670,-0.670,-0.670,0.000,0.000,0.000
1605187890137259008,10.0.1.146,840,move_up,-0.650,-0.650,-0.650,0.000,0.000,0.000
1605187891834702848,10.0.1.146,636,move_up,-0.630,-0.630,-0.630,0.000,0.000,0.000
1605187893711546880,10.0.1.146,764,move_up,-0.610,-0.610,-0.610,0.000,0.000,0.000
1605187895846432000,10.0.1.146,754,move_up,-0.590,-0.590,-0.590,0.000,0.000,0.000
1605187897757703168,10.0.1.146,833,move_up,-0.570,-0.570,-0.570,0.000,0.000,0.000
1605187899800199936,10.0.1.146,930,move_up,-0.550,-0.550,-0.550,0.000,0.000,0.000
1605187901524560896,10.0.1.146,664,move_up,-0.530,-0.530,-0.530,0.000,0.000,0.000
1605187903126077952,10.0.1.146,543,move_up,-0.510,-0.510,-0.510,0.000,0.000,0.000
1605187905287350784,10.0.1.146,1076,move_up,-0.490,-0.490,-0.490,0.000,0.000,0.000
1605187907003067904,10.0.1.146,690,move_up,-0.470,-0.470,-0.470,0.000,0.000,0.000
1605187908868333056,10.0.1.146,746,move_up,-0.450,-0.450,-0.450,0.000,0.000,0.000
1605187911000258816,10.0.1.146,1072,move_up,-0.430,-0.430,-0.430,0.000,0.000,0.000
1605187912912193024,10.0.1.146,833,move_up,-0.410,-0.410,-0.410,0.000,0.000,0.000
1605187914733870080,10.0.1.146,750,move_up,-0.390,-0.390,-0.390,0.000,0.000,0.000
1605187916669112832,10.0.1.146,824,move_up,-0.370,-0.370,-0.370,0.000,0.000,0.000
1605187918734183936,10.0.1.146,971,move_up,-0.350,-0.350,-0.350,0.000,0.000,0.000
1605187920849349888,10.0.1.146,878,move_up,-0.330,-0.330,-0.330,0.000,0.000,0.000
1605187922903691008,10.0.1.146,926,move_up,-0.310,-0.310,-0.310,0.000,0.000,0.000
1605187924839081984,10.0.1.146,1020,move_up,-0.290,-0.290,-0.290,0.000,0.000,0.000
1605187926577411840,10.0.1.146,654,move_up,-0.270,-0.270,-0.270,0.000,0.000,0.000
1605187928459387136,10.0.1.146,794,move_up,-0.250,-0.250,-0.250,0.000,0.000,0.000
1605187931178153984,10.0.1.146,1444,move_up,-0.230,-0.230,-0.230,0.000,0.000,0.000
1605187933499949056,10.0.1.146,1160,move_up,-0.210,-0.210,-0.210,0.000,0.000,0.000
1605187935753879040,10.0.1.146,1123,move_up,-0.190,-0.190,-0.190,0.000,0.000,0.000
1605187937767611904,10.0.1.146,NaN,place,-0.170,-0.170,-0.170,0.000,0.000,0.000
1605187937810647040,10.0.1.146,42,place,-0.170,-0.170,-0.170,0.000,0.000,0.000
1605187938916715008,10.0.1.146,142,place,-0.160,-0.160,-0.160,0.000,0.000,0.000
1605187939830970112,10.0.1.146,53,place,-0.150,-0.150,-0.150,0.000,0.000,0.000
1605187940887825920,10.0.1.146,106,place,-0.140,-0.140,-0.140,0.000,0.000,0.000
1605187941833459968,10.0.1.146,49,place,-0.130,-0.130,-0.130,0.000,0.000,0.000
1605187942851459072,10.0.1.146,65,place,-0.120,-0.120,-0.120,0.000,0.000,0.000
1605187943846628864,10.0.1.146,59,place,-0.110,-0.110,-0.110,0.000,0.000,0.000
1605187944828454912,10.0.1.146,32,place,-0.100,-0.100,-0.100,0.000,0.000,0.000
1605187945867795968,10.0.1.146,69,place,-0.090,-0.090,-0.090,0.000,0.000,0.000
1605187947802532864,10.0.1.146,NaN,place,-0.070,-0.070,-0.070,0.000,0.000,0.000
1605187947872629760,10.0.1.146,70,place,-0.070,-0.070,-0.070,0.000,0.000,0.000
1605187948876627968,10.0.1.146,71,place,-0.060,-0.060,-0.060,0.000,0.000,0.000
1605187949928929024,10.0.1.146,112,place,-0.050,-0.050,-0.050,0.000,0.000,0.000
1605187950875250176,10.0.1.146,57,place,-0.040,-0.040,-0.040,0.000,0.000,0.000
1605187951916527104,10.0.1.146,66,place,-0.030,-0.030,-0.030,0.000,0.000,0.000
1605187952910032896,10.0.1.146,58,place,-0.020,-0.020,-0.020,0.000,0.000,0.000
1605187953892359936,10.0.1.146,39,place,-0.010,-0.010,-0.010,0.000,0.000,0.000
1605187954910908928,10.0.1.146,35,place,0.000,0.000,0.000,0.000,0.000,0.000
1605187956467952896,10.0.1.146,590,move_down,-0.020,-0.020,-0.020,0.000,0.000,0.000
1605187958379745024,10.0.1.146,816,move_down,-0.040,-0.040,-0.040,0.000,0.000,0.000
1605187960224240896,10.0.1.146,752,move_down,-0.060,-0.060,-0.060,0.000,0.000,0.000
1605187962293644032,10.0.1.146,1003,move_down,-0.080,-0.080,-0.080,0.000,0.000,0.000
1605187964204289024,10.0.1.146,NaN,move_down,-0.120,-0.120,-0.120,0.000,0.000,0.000
1605187965249447936,10.0.1.146,1045,move_down,-0.120,-0.120,-0.120,0.000,0.000,0.000
1605187968004916992,10.0.1.146,1463,move_down,-0.140,-0.140,-0.140,0.000,0.000,0.000
1605187970284281856,10.0.1.146,1131,move_down,-0.160,-0.160,-0.160,0.000,0.000,0.000
1605187972407440896,10.0.1.146,994,move_down,-0.180,-0.180,-0.180,0.000,0.000,0.000
1605187974571099904,10.0.1.146,1024,move_down,-0.200,-0.200,-0.200,0.000,0.000,0.000
1605187976447962880,10.0.1.146,709,move_down,-0.220,-0.220,-0.220,0.000,0.000,0.000
1605187978143759104,10.0.1.146,639,move_down,-0.240,-0.240,-0.240,0.000,0.000,0.000
1605187980244190976,10.0.1.146,1015,move_down,-0.260,-0.260,-0.260,0.000,0.000,0.000
1605187982497720832,10.0.1.146,1146,move_down,-0.280,-0.280,-0.280,0.000,0.000,0.000
1605187984432418048,10.0.1.146,767,move_down,-0.300,-0.300,-0.300,0.000,0.000,0.000
1605187986192349952,10.0.1.146,755,move_down,-0.320,-0.320,-0.320,0.000,0.000,0.000
1605187987954875904,10.0.1.146,638,move_down,-0.340,-0.340,-0.340,0.000,0.000,0.000
1605187989789305856,10.0.1.146,773,move_down,-0.360,-0.360,-0.360,0.000,0.000,0.000
1605187991767524096,10.0.1.146,707,move_down,-0.380,-0.380,-0.380,0.000,0.000,0.000
1605187993734327040,10.0.1.146,942,move_down,-0.400,-0.400,-0.400,0.000,0.000,0.000
1605187995615729152,10.0.1.146,860,move_down,-0.420,-0.420,-0.420,0.000,0.000,0.000
1605187997948956928,10.0.1.146,1208,move_down,-0.440,-0.440,-0.440,0.000,0.000,0.000
1605187999715044096,10.0.1.146,698,move_down,-0.460,-0.460,-0.460,0.000,0.000,0.000
1605188002033759232,10.0.1.146,878,move_down,-0.480,-0.480,-0.480,0.000,0.000,0.000
1605188003747838976,10.0.1.146,674,move_down,-0.500,-0.500,-0.500,0.000,0.000,0.000
1605188005709424896,10.0.1.146,874,move_down,-0.520,-0.520,-0.520,0.000,0.000,0.000
1605188007813291008,10.0.1.146,817,move_down,-0.540,-0.540,-0.540,0.000,0.000,0.000
1605188009771308032,10.0.1.146,797,move_down,-0.560,-0.560,-0.560,0.000,0.000,0.000
1605188011880263936,10.0.1.146,888,move_down,-0.580,-0.580,-0.580,0.000,0.000,0.000
1605188014121292032,10.0.1.146,1168,move_down,-0.600,-0.600,-0.600,0.000,0.000,0.000
1605188016469839104,10.0.1.146,1287,move_down,-0.620,-0.620,-0.620,0.000,0.000,0.000
1605188018327032064,10.0.1.146,842,move_down,-0.640,-0.640,-0.640,0.000,0.000,0.000
1605188020549963008,10.0.1.146,1035,move_down,-0.660,-0.660,-0.660,0.000,0.000,0.000
1605188022121815040,10.0.1.146,511,move_down,-0.680,-0.680,-0.680,0.000,0.000,0.000
1605188024228476928,10.0.1.146,NaN,pick,-0.700,-0.700,-0.700,0.000,0.000,0.000
1605188025230347008,10.0.1.146,NaN,pick,-0.710,-0.710,-0.710,0.000,0.000,0.000
1605188025322457088,10.0.1.146,92,pick,-0.710,-0.710,-0.710,0.000,0.000,0.000
1605188027236658944,10.0.1.146,NaN,pick,-0.730,-0.730,-0.730,0.000,0.000,0.000
1605188027312057856,10.0.1.146,75,pick,-0.730,-0.730,-0.730,0.000,0.000,0.000
1605188028295779840,10.0.1.146,50,pick,-0.740,-0.740,-0.740,0.000,0.000,0.000
1605188029332456960,10.0.1.146,86,pick,-0.750,-0.750,-0.750,0.000,0.000,0.000
1605188030302247936,10.0.1.146,42,pick,-0.760,-0.760,-0.760,0.000,0.000,0.000
1605188031342170880,10.0.1.146,80,pick,-0.770,-0.770,-0.770,0.000,0.000,0.000
1605188032344596992,10.0.1.146,81,pick,-0.780,-0.780,-0.780,0.000,0.000,0.000
1605188034292622080,10.0.1.146,NaN,pick,-0.800,-0.800,-0.800,0.000,0.000,0.000
1605188034463800832,10.0.1.146,171,pick,-0.800,-0.800,-0.800,0.000,0.000,0.000
1605188035367141120,10.0.1.146,63,pick,-0.810,-0.810,-0.810,0.000,0.000,0.000
1605188036384176128,10.0.1.146,77,pick,-0.820,-0.820,-0.820,0.000,0.000,0.000
1605188037354718976,10.0.1.146,47,pick,-0.830,-0.830,-0.830,0.000,0.000,0.000
1605188038357518848,10.0.1.146,48,pick,-0.840,-0.840,-0.840,0.000,0.000,0.000
1605188039369683968,10.0.1.146,59,pick,-0.850,-0.850,-0.850,0.000,0.000,0.000
1605188040387425024,10.0.1.146,76,pick,-0.860,-0.860,-0.860,0.000,0.000,0.000
1605188041397581056,10.0.1.146,76,pick,-0.870,-0.870,-0.870,0.000,0.000,0.000
1605188043362492928,10.0.1.146,1039,move_up,-0.850,-0.850,-0.850,0.000,0.000,0.000
1605188045441508096,10.0.1.146,997,move_up,-0.830,-0.830,-0.830,0.000,0.000,0.000
1605188047589040128,10.0.1.146,1144,move_up,-0.810,-0.810,-0.810,0.000,0.000,0.000
1605188049536361984,10.0.1.146,1002,move_up,-0.790,-0.790,-0.790,0.000,0.000,0.000
1605188051698153984,10.0.1.146,1111,move_up,-0.770,-0.770,-0.770,0.000,0.000,0.000
1605188053638333952,10.0.1.146,772,move_up,-0.750,-0.750,-0.750,0.000,0.000,0.000
1605188055229106944,10.0.1.146,549,move_up,-0.730,-0.730,-0.730,0.000,0.000,0.000
1605188057253110016,10.0.1.146,1000,move_up,-0.710,-0.710,-0.710,0.000,0.000,0.000
1605188059476922880,10.0.1.146,1101,move_up,-0.690,-0.690,-0.690,0.000,0.000,0.000
1605188061827127040,10.0.1.146,1272,move_up,-0.670,-0.670,-0.670,0.000,0.000,0.000
1605188064204868096,10.0.1.146,1155,move_up,-0.650,-0.650,-0.650,0.000,0.000,0.000
1605188066385068800,10.0.1.146,1024,move_up,-0.630,-0.630,-0.630,0.000,0.000,0.000
1605188068790447104,10.0.1.146,1256,move_up,-0.610,-0.610,-0.610,0.000,0.000,0.000
1605188071238907136,10.0.1.146,1279,move_up,-0.590,-0.590,-0.590,0.000,0.000,0.000
1605188073327421952,10.0.1.146,927,move_up,-0.570,-0.570,-0.570,0.000,0.000,0.000
1605188075008903936,10.0.1.146,583,move_up,-0.550,-0.550,-0.550,0.000,0.000,0.000
1605188076870556160,10.0.1.146,682,move_up,-0.530,-0.530,-0.530,0.000,0.000,0.000
1605188078679791872,10.0.1.146,759,move_up,-0.510,-0.510,-0.510,0.000,0.000,0.000
1605188080823730944,10.0.1.146,1077,move_up,-0.490,-0.490,-0.490,0.000,0.000,0.000
1605188083126542080,10.0.1.146,1226,move_up,-0.470,-0.470,-0.470,0.000,0.000,0.000
1605188085080796928,10.0.1.146,852,move_up,-0.450,-0.450,-0.450,0.000,0.000,0.000
1605188087551043072,10.0.1.146,1369,move_up,-0.430,-0.430,-0.430,0.000,0.000,0.000
1605188089731628032,10.0.1.146,1088,move_up,-0.410,-0.410,-0.410,0.000,0.000,0.000
1605188091616764928,10.0.1.146,802,move_up,-0.390,-0.390,-0.390,0.000,0.000,0.000
1605188094160989952,10.0.1.146,1400,move_up,-0.370,-0.370,-0.370,0.000,0.000,0.000
1605188096214008064,10.0.1.146,918,move_up,-0.350,-0.350,-0.350,0.000,0.000,0.000
1605188098048356096,10.0.1.146,773,move_up,-0.330,-0.330,-0.330,0.000,0.000,0.000
1605188100157501952,10.0.1.146,965,move_up,-0.310,-0.310,-0.310,0.000,0.000,0.000
1605188101928518144,10.0.1.146,719,move_up,-0.290,-0.290,-0.290,0.000,0.000,0.000
1605188104064781824,10.0.1.146,NaN,place,-0.270,-0.270,-0.270,0.000,0.000,0.000
1605188104122217984,10.0.1.146,57,place,-0.270,-0.270,-0.270,0.000,0.000,0.000
1605188105117108992,10.0.1.146,50,place,-0.260,-0.260,-0.260,0.000,0.000,0.000
1605188107070353920,10.0.1.146,NaN,place,-0.240,-0.240,-0.240,0.000,0.000,0.000
1605188108071543040,10.0.1.146,NaN,place,-0.230,-0.230,-0.230,0.000,0.000,0.000
1605188108135432960,10.0.1.146,63,place,-0.230,-0.230,-0.230,0.000,0.000,0.000
1605188109121859072,10.0.1.146,49,place,-0.220,-0.220,-0.220,0.000,0.000,0.000
1605188111118576128,10.0.1.146,NaN,place,-0.200,-0.200,-0.200,0.000,0.000,0.000
1605188111194385152,10.0.1.146,75,place,-0.200,-0.200,-0.200,0.000,0.000,0.000
1605188112186624000,10.0.1.146,58,place,-0.190,-0.190,-0.190,0.000,0.000,0.000
1605188113167564032,10.0.1.146,38,place,-0.180,-0.180,-0.180,0.000,0.000,0.000
1605188114201921024,10.0.1.146,71,place,-0.170,-0.170,-0.170,0.000,0.000,0.000
1605188116170466816,10.0.1.146,NaN,place,-0.150,-0.150,-0.150,0.000,0.000,0.000
1605188116346673920,10.0.1.146,176,place,-0.150,-0.150,-0.150,0.000,0.000,0.000
1605188118174163200,10.0.1.146,NaN,place,-0.130,-0.130,-0.130,0.000,0.000,0.000
1605188118216358912,10.0.1.146,42,place,-0.130,-0.130,-0.130,0.000,0.000,0.000
1605188119243442176,10.0.1.146,62,place,-0.120,-0.120,-0.120,0.000,0.000,0.000
1605188120280294912,10.0.1.146,96,place,-0.110,-0.110,-0.110,0.000,0.000,0.000
1605188121271665152,10.0.1.146,86,place,-0.100,-0.100,-0.100,0.000,0.000,0.000
1605188123196492032,10.0.1.146,1009,move_down,-0.120,-0.120,-0.120,0.000,0.000,0.000
1605188125403915008,10.0.1.146,997,move_down,-0.140,-0.140,-0.140,0.000,0.000,0.000
1605188127325757952,10.0.1.146,889,move_down,-0.160,-0.160,-0.160,0.000,0.000,0.000
1605188129595794944,10.0.1.146,1161,move_down,-0.180,-0.180,-0.180,0.000,0.000,0.000
1605188131780416000,10.0.1.146,798,move_down,-0.200,-0.200,-0.200,0.000,0.000,0.000
1605188133734541056,10.0.1.146,931,move_down,-0.220,-0.220,-0.220,0.000,0.000,0.000
1605188135492422144,10.0.1.146,670,move_down,-0.240,-0.240,-0.240,0.000,0.000,0.000
1605188137895005952,10.0.1.146,1328,move_down,-0.260,-0.260,-0.260,0.000,0.000,0.000
1605188139655972864,10.0.1.146,674,move_down,-0.280,-0.280,-0.280,0.000,0.000,0.000
1605188142421804800,10.0.1.146,975,move_down,-0.300,-0.300,-0.300,0.000,0.000,0.000
1605188144090621952,10.0.1.146,565,move_down,-0.320,-0.320,-0.320,0.000,0.000,0.000
1605188145822803968,10.0.1.146,707,move_down,-0.340,-0.340,-0.340,0.000,0.000,0.000
1605188147586523136,10.0.1.146,743,move_down,-0.360,-0.360,-0.360,0.000,0.000,0.000
1605188149958457088,10.0.1.146,1274,move_down,-0.380,-0.380,-0.380,0.000,0.000,0.000
1605188152111540992,10.0.1.146,1068,move_down,-0.400,-0.400,-0.400,0.000,0.000,0.000
1605188154433403136,10.0.1.146,1180,move_down,-0.420,-0.420,-0.420,0.000,0.000,0.000
1605188157126266880,10.0.1.146,1391,move_down,-0.440,-0.440,-0.440,0.000,0.000,0.000
1605188159642700800,10.0.1.146,1390,move_down,-0.460,-0.460,-0.460,0.000,0.000,0.000
1605188161616167168,10.0.1.146,879,move_down,-0.480,-0.480,-0.480,0.000,0.000,0.000
1605188163747028992,10.0.1.146,1025,move_down,-0.500,-0.500,-0.500,0.000,0.000,0.000
1605188166125943040,10.0.1.146,962,move_down,-0.520,-0.520,-0.520,0.000,0.000,0.000
1605188168480606976,10.0.1.146,1329,move_down,-0.540,-0.540,-0.540,0.000,0.000,0.000
1605188170466924032,10.0.1.146,782,move_down,-0.560,-0.560,-0.560,0.000,0.000,0.000
1605188172718978816,10.0.1.146,1236,move_down,-0.580,-0.580,-0.580,0.000,0.000,0.000
1605188174772509952,10.0.1.146,1004,move_down,-0.600,-0.600,-0.600,0.000,0.000,0.000
1605188177097718016,10.0.1.146,1288,move_down,-0.620,-0.620,-0.620,0.000,0.000,0.000
1605188179784549888,10.0.1.146,1613,move_down,-0.640,-0.640,-0.640,0.000,0.000,0.000
1605188182373126144,10.0.1.146,1511,move_down,-0.660,-0.660,-0.660,0.000,0.000,0.000
1605188184123819008,10.0.1.146,645,move_down,-0.680,-0.680,-0.680,0.000,0.000,0.000
1605188185300122880,10.0.1.146,92,pick,-0.690,-0.690,-0.690,0.000,0.000,0.000
1605188187267657984,10.0.1.146,NaN,pick,-0.710,-0.710,-0.710,0.000,0.000,0.000
1605188188269084928,10.0.1.146,NaN,pick,-0.720,-0.720,-0.720,0.000,0.000,0.000
1605188188328061952,10.0.1.146,58,pick,-0.720,-0.720,-0.720,0.000,0.000,0.000
1605188190279097088,10.0.1.146,NaN,pick,-0.740,-0.740,-0.740,0.000,0.000,0.000
1605188191279566080,10.0.1.146,NaN,pick,-0.750,-0.750,-0.750,0.000,0.000,0.000
1605188192309627136,10.0.1.146,NaN,pick,-0.760,-0.760,-0.760,0.000,0.000,0.000
1605188192349773056,10.0.1.146,40,pick,-0.760,-0.760,-0.760,0.000,0.000,0.000
1605188194335119872,10.0.1.146,NaN,pick,-0.780,-0.780,-0.780,0.000,0.000,0.000
1605188194425025024,10.0.1.146,89,pick,-0.780,-0.780,-0.780,0.000,0.000,0.000
1605188195423603968,10.0.1.146,83,pick,-0.790,-0.790,-0.790,0.000,0.000,0.000
1605188197352392960,10.0.1.146,NaN,pick,-0.810,-0.810,-0.810,0.000,0.000,0.000
1605188197441160960,10.0.1.146,88,pick,-0.810,-0.810,-0.810,0.000,0.000,0.000
1605188199367901952,10.0.1.146,NaN,pick,-0.830,-0.830,-0.830,0.000,0.000,0.000
1605188200375868160,10.0.1.146,NaN,pick,-0.840,-0.840,-0.840,0.000,0.000,0.000
1605188200471405056,10.0.1.146,95,pick,-0.840,-0.840,-0.840,0.000,0.000,0.000
1605188201456099072,10.0.1.146,75,pick,-0.850,-0.850,-0.850,0.000,0.000,0.000
1605188203391550976,10.0.1.146,NaN,pick,-0.870,-0.870,-0.870,0.000,0.000,0.000
1605188203474323968,10.0.1.146,82,pick,-0.870,-0.870,-0.870,0.000,0.000,0.000
1605188205218998016,10.0.1.146,825,move_up,-0.850,-0.850,-0.850,0.000,0.000,0.000
1605188207124748032,10.0.1.146,789,move_up,-0.830,-0.830,-0.830,0.000,0.000,0.000
1605188208909984000,10.0.1.146,736,move_up,-0.810,-0.810,-0.810,0.000,0.000,0.000
1605188210836855040,10.0.1.146,889,move_up,-0.790,-0.790,-0.790,0.000,0.000,0.000
1605188212620716032,10.0.1.146,643,move_up,-0.770,-0.770,-0.770,0.000,0.000,0.000
1605188215245197056,10.0.1.146,1075,move_up,-0.750,-0.750,-0.750,0.000,0.000,0.000
1605188217383790080,10.0.1.146,1093,move_up,-0.730,-0.730,-0.730,0.000,0.000,0.000
1605188219203869184,10.0.1.146,800,move_up,-0.710,-0.710,-0.710,0.000,0.000,0.000
1605188221207034112,10.0.1.146,875,move_up,-0.690,-0.690,-0.690,0.000,0.000,0.000
1605188223379811072,10.0.1.146,1088,move_up,-0.670,-0.670,-0.670,0.000,0.000,0.000
1605188225265927168,10.0.1.146,825,move_up,-0.650,-0.650,-0.650,0.000,0.000,0.000
1605188227751730944,10.0.1.146,1371,move_up,-0.630,-0.630,-0.630,0.000,0.000,0.000
1605188230434597888,10.0.1.146,1517,move_up,-0.610,-0.610,-0.610,0.000,0.000,0.000
1605188232024688896,10.0.1.146,613,move_up,-0.590,-0.590,-0.590,0.000,0.000,0.000
1605188234349244160,10.0.1.146,1264,move_up,-0.570,-0.570,-0.570,0.000,0.000,0.000
1605188236416038912,10.0.1.146,946,move_up,-0.550,-0.550,-0.550,0.000,0.000,0.000
1605188238685422848,10.0.1.146,1182,move_up,-0.530,-0.530,-0.530,0.000,0.000,0.000
1605188240641015040,10.0.1.146,722,move_up,-0.510,-0.510,-0.510,0.000,0.000,0.000
1605188243226403840,10.0.1.146,1480,move_up,-0.490,-0.490,-0.490,0.000,0.000,0.000
1605188245139954176,10.0.1.146,805,move_up,-0.470,-0.470,-0.470,0.000,0.000,0.000
1605188246805008896,10.0.1.146,560,move_up,-0.450,-0.450,-0.450,0.000,0.000,0.000
1605188249309596928,10.0.1.146,1502,move_up,-0.430,-0.430,-0.430,0.000,0.000,0.000
1605188251309673984,10.0.1.146,857,move_up,-0.410,-0.410,-0.410,0.000,0.000,0.000
1605188253822563840,10.0.1.146,1380,move_up,-0.390,-0.390,-0.390,0.000,0.000,0.000
1605188255743869952,10.0.1.146,790,move_up,-0.370,-0.370,-0.370,0.000,0.000,0.000
1605188257926476032,10.0.1.146,911,move_up,-0.350,-0.350,-0.350,0.000,0.000,0.000
1605188259623218176,10.0.1.146,491,move_up,-0.330,-0.330,-0.330,0.000,0.000,0.000
1605188261603774976,10.0.1.146,928,move_up,-0.310,-0.310,-0.310,0.000,0.000,0.000
1605188263401701888,10.0.1.146,679,move_up,-0.290,-0.290,-0.290,0.000,0.000,0.000
1605188264620590080,10.0.1.146,98,place,-0.280,-0.280,-0.280,0.000,0.000,0.000
1605188266526921984,10.0.1.146,NaN,place,-0.260,-0.260,-0.260,0.000,0.000,0.000
1605188266581068032,10.0.1.146,54,place,-0.260,-0.260,-0.260,0.000,0.000,0.000
1605188268529134080,10.0.1.146,NaN,place,-0.240,-0.240,-0.240,0.000,0.000,0.000
1605188269534790912,10.0.1.146,NaN,place,-0.230,-0.230,-0.230,0.000,0.000,0.000
1605188270551360000,10.0.1.146,NaN,place,-0.220,-0.220,-0.220,0.000,0.000,0.000
1605188270628302080,10.0.1.146,76,place,-0.220,-0.220,-0.220,0.000,0.000,0.000
1605188271667766016,10.0.1.146,109,place,-0.210,-0.210,-0.210,0.000,0.000,0.000
1605188272638081024,10.0.1.146,78,place,-0.200,-0.200,-0.200,0.000,0.000,0.000
1605188274561252096,10.0.1.146,NaN,place,-0.180,-0.180,-0.180,0.000,0.000,0.000
1605188274660947968,10.0.1.146,99,place,-0.180,-0.180,-0.180,0.000,0.000,0.000
1605188276565527808,10.0.1.146,NaN,place,-0.160,-0.160,-0.160,0.000,0.000,0.000
1605188276639864832,10.0.1.146,74,place,-0.160,-0.160,-0.160,0.000,0.000,0.000
1605188278571734016,10.0.1.146,NaN,place,-0.140,-0.140,-0.140,0.000,0.000,0.000
1605188278619894016,10.0.1.146,48,place,-0.140,-0.140,-0.140,0.000,0.000,0.000
1605188279614305024,10.0.1.146,41,place,-0.130,-0.130,-0.130,0.000,0.000,0.000
1605188281590791936,10.0.1.146,NaN,place,-0.110,-0.110,-0.110,0.000,0.000,0.000
1605188281643834112,10.0.1.146,52,place,-0.110,-0.110,-0.110,0.000,0.000,0.000
1605188283593053184,10.0.1.146,NaN,move_down,-0.120,-0.120,-0.120,0.000,0.000,0.000
1605188284322341888,10.0.1.146,728,move_down,-0.120,-0.120,-0.120,0.000,0.000,0.000
1605188287091836928,10.0.1.146,1568,move_down,-0.140,-0.140,-0.140,0.000,0.000,0.000
1605188289126880000,10.0.1.146,923,move_down,-0.160,-0.160,-0.160,0.000,0.000,0.000
1605188291714916864,10.0.1.146,1574,move_down,-0.180,-0.180,-0.180,0.000,0.000,0.000
1605188294035629056,10.0.1.146,1263,move_down,-0.200,-0.200,-0.200,0.000,0.000,0.000
1605188296690184192,10.0.1.146,1552,move_down,-0.220,-0.220,-0.220,0.000,0.000,0.000
1605188298629703936,10.0.1.146,615,move_down,-0.240,-0.240,-0.240,0.000,0.000,0.000
1605188300710490880,10.0.1.146,832,move_down,-0.260,-0.260,-0.260,0.000,0.000,0.000
1605188302405626112,10.0.1.146,631,move_down,-0.280,-0.280,-0.280,0.000,0.000,0.000
1605188305404463104,10.0.1.146,1502,move_down,-0.300,-0.300,-0.300,0.000,0.000,0.000
1605188307598382848,10.0.1.146,752,move_down,-0.320,-0.320,-0.320,0.000,0.000,0.000
1605188309531075840,10.0.1.146,732,move_down,-0.340,-0.340,-0.340,0.000,0.000,0.000
1605188311388336896,10.0.1.146,852,move_down,-0.360,-0.360,-0.360,0.000,0.000,0.000
1605188313463660032,10.0.1.146,954,move_down,-0.380,-0.380,-0.380,0.000,0.000,0.000
1605188315799438848,10.0.1.146,1292,move_down,-0.400,-0.400,-0.400,0.000,0.000,0.000
1605188317798449152,10.0.1.146,793,move_down,-0.420,-0.420,-0.420,0.000,0.000,0.000
1605188319831545088,10.0.1.146,921,move_down,-0.440,-0.440,-0.440,0.000,0.000,0.000
1605188321783286016,10.0.1.146,853,move_down,-0.460,-0.460,-0.460,0.000,0.000,0.000
1605188323468835072,10.0.1.146,639,move_down,-0.480,-0.480,-0.480,0.000,0.000,0.000
1605188325463852800,10.0.1.146,973,move_down,-0.500,-0.500,-0.500,0.000,0.000,0.000
1605188327317661952,10.0.1.146,802,move_down,-0.520,-0.520,-0.520,0.000,0.000,0.000
1605188329749284864,10.0.1.146,1349,move_down,-0.540,-0.540,-0.540,0.000,0.000,0.000
1605188331638454016,10.0.1.146,793,move_down,-0.560,-0.560,-0.560,0.000,0.000,0.000
1605188333840460032,10.0.1.146,968,move_down,-0.580,-0.580,-0.580,0.000,0.000,0.000
1605188335667414784,10.0.1.146,775,move_down,-0.600,-0.600,-0.600,0.000,0.000,0.000
1605188337821379840,10.0.1.146,1037,move_down,-0.620,-0.620,-0.620,0.000,0.000,0.000
1605188339750417920,10.0.1.146,920,move_down,-0.640,-0.640,-0.640,0.000,0.000,0.000
1605188342161904128,10.0.1.146,1338,move_down,-0.660,-0.660,-0.660,0.000,0.000,0.000
1605188344242295040,10.0.1.146,941,move_down,-0.680,-0.680,-0.680,0.000,0.000,0.000
1605188345319549952,10.0.1.146,49,pick,-0.690,-0.690,-0.690,0.000,0.000,0.000
1605188346333545984,10.0.1.146,61,pick,-0.700,-0.700,-0.700,0.000,0.000,0.000
1605188347328977152,10.0.1.146,54,pick,-0.710,-0.710,-0.710,0.000,0.000,0.000
1605188348356014848,10.0.1.146,65,pick,-0.720,-0.720,-0.720,0.000,0.000,0.000
1605188349353665024,10.0.1.146,61,pick,-0.730,-0.730,-0.730,0.000,0.000,0.000
1605188350350113024,10.0.1.146,57,pick,-0.740,-0.740,-0.740,0.000,0.000,0.000
1605188352327739904,10.0.1.146,NaN,pick,-0.760,-0.760,-0.760,0.000,0.000,0.000
1605188353331547136,10.0.1.146,NaN,pick,-0.770,-0.770,-0.770,0.000,0.000,0.000
1605188353396446976,10.0.1.146,64,pick,-0.770,-0.770,-0.770,0.000,0.000,0.000
1605188354447187968,10.0.1.146,83,pick,-0.780,-0.780,-0.780,0.000,0.000,0.000
1605188355433906176,10.0.1.146,67,pick,-0.790,-0.790,-0.790,0.000,0.000,0.000
1605188356440486912,10.0.1.146,45,pick,-0.800,-0.800,-0.800,0.000,0.000,0.000
1605188357438516992,10.0.1.146,41,pick,-0.810,-0.810,-0.810,0.000,0.000,0.000
1605188358499128064,10.0.1.146,98,pick,-0.820,-0.820,-0.820,0.000,0.000,0.000
1605188360409843968,10.0.1.146,NaN,pick,-0.840,-0.840,-0.840,0.000,0.000,0.000
1605188361411149056,10.0.1.146,NaN,pick,-0.850,-0.850,-0.850,0.000,0.000,0.000
1605188361482386944,10.0.1.146,71,pick,-0.850,-0.850,-0.850,0.000,0.000,0.000
1605188363417910016,10.0.1.146,NaN,pick,-0.870,-0.870,-0.870,0.000,0.000,0.000
1605188363497590016,10.0.1.146,79,pick,-0.870,-0.870,-0.870,0.000,0.000,0.000
1605188366088558848,10.0.1.146,1660,move_up,-0.850,-0.850,-0.850,0.000,0.000,0.000
1605188368692423936,10.0.1.146,1153,move_up,-0.830,-0.830,-0.830,0.000,0.000,0.000
1605188371639336960,10.0.1.146,1685,move_up,-0.810,-0.810,-0.810,0.000,0.000,0.000
1605188373675695872,10.0.1.146,777,move_up,-0.790,-0.790,-0.790,0.000,0.000,0.000
1605188376175899136,10.0.1.146,1294,move_up,-0.770,-0.770,-0.770,0.000,0.000,0.000
1605188378734504960,10.0.1.146,1310,move_up,-0.750,-0.750,-0.750,0.000,0.000,0.000
1605188380452892160,10.0.1.146,672,move_up,-0.730,-0.730,-0.730,0.000,0.000,0.000
1605188382613612032,10.0.1.146,1030,move_up,-0.710,-0.710,-0.710,0.000,0.000,0.000
1605188384578123008,10.0.1.146,720,move_up,-0.690,-0.690,-0.690,0.000,0.000,0.000
1605188387218355968,10.0.1.146,1430,move_up,-0.670,-0.670,-0.670,0.000,0.000,0.000
1605188389332395008,10.0.1.146,952,move_up,-0.650,-0.650,-0.650,0.000,0.000,0.000
1605188391187326976,10.0.1.146,689,move_up,-0.630,-0.630,-0.630,0.000,0.000,0.000
1605188393366345984,10.0.1.146,1134,move_up,-0.610,-0.610,-0.610,0.000,0.000,0.000
