milangroshev/digital-twin-scalability/logs/run4-300s-nan/10.0.1.137.csv
timestamp,node,latency,action,joint_1,joint_2,joint_3,joint_4,joint_5,joint_6
1605186234165036032,10.0.1.137,NaN,,0.000,0.000,0.000,0.000,0.000,0.000
1605186236174180864,10.0.1.137,2009,,0.000,0.000,0.000,0.000,0.000,0.000
1605186238874385152,10.0.1.137,704,move_down,-0.020,-0.020,-0.020,0.000,0.000,0.000
1605186240460486912,10.0.1.137,514,move_down,-0.040,-0.040,-0.040,0.000,0.000,0.000
1605186241514983936,10.0.1.137,-1,move_down,-0.060,-0.060,-0.060,0.000,0.000,0.000
1605186243517225984,10.0.1.137,546,move_down,-0.080,-0.080,-0.080,0.000,0.000,0.000
1605186245103833856,10.0.1.137,536,move_down,-0.100,-0.100,-0.100,0.000,0.000,0.000
1605186246574316032,10.0.1.137,461,move_down,-0.120,-0.120,-0.120,0.000,0.000,0.000
1605186248148909056,10.0.1.137,511,move_down,-0.140,-0.140,-0.140,0.000,0.000,0.000
1605186249719727104,10.0.1.137,500,move_down,-0.160,-0.160,-0.160,0.000,0.000,0.000
1605186251225415936,10.0.1.137,461,move_down,-0.180,-0.180,-0.180,0.000,0.000,0.000
1605186252758774016,10.0.1.137,463,move_down,-0.200,-0.200,-0.200,0.000,0.000,0.000
1605186254336353024,10.0.1.137,501,move_down,-0.220,-0.220,-0.220,0.000,0.000,0.000
1605186255846811136,10.0.1.137,469,move_down,-0.240,-0.240,-0.240,0.000,0.000,0.000
1605186257364922112,10.0.1.137,459,move_down,-0.260,-0.260,-0.260,0.000,0.000,0.000
1605186258896960000,10.0.1.137,447,move_down,-0.280,-0.280,-0.280,0.000,0.000,0.000
1605186260464435968,10.0.1.137,518,move_down,-0.300,-0.300,-0.300,0.000,0.000,0.000
1605186261978522112,10.0.1.137,426,move_down,-0.320,-0.320,-0.320,0.000,0.000,0.000
1605186263469188096,10.0.1.137,401,move_down,-0.340,-0.340,-0.340,0.000,0.000,0.000
1605186265039479040,10.0.1.137,448,move_down,-0.360,-0.360,-0.360,0.000,0.000,0.000
1605186266549117952,10.0.1.137,436,move_down,-0.380,-0.380,-0.380,0.000,0.000,0.000
1605186268027540992,10.0.1.137,437,move_down,-0.400,-0.400,-0.400,0.000,0.000,0.000
1605186269546176000,10.0.1.137,438,move_down,-0.420,-0.420,-0.420,0.000,0.000,0.000
1605186271087037952,10.0.1.137,462,move_down,-0.440,-0.440,-0.440,0.000,0.000,0.000
1605186272571537920,10.0.1.137,445,move_down,-0.460,-0.460,-0.460,0.000,0.000,0.000
1605186274090321920,10.0.1.137,439,move_down,-0.480,-0.480,-0.480,0.000,0.000,0.000
1605186275575346944,10.0.1.137,425,move_down,-0.500,-0.500,-0.500,0.000,0.000,0.000
1605186277115916032,10.0.1.137,439,move_down,-0.520,-0.520,-0.520,0.000,0.000,0.000
1605186278653341952,10.0.1.137,485,move_down,-0.540,-0.540,-0.540,0.000,0.000,0.000
1605186280120630016,10.0.1.137,399,move_down,-0.560,-0.560,-0.560,0.000,0.000,0.000
1605186281616493056,10.0.1.137,454,move_down,-0.580,-0.580,-0.580,0.000,0.000,0.000
1605186282738732032,10.0.1.137,52,pick,-0.590,-0.590,-0.590,0.000,0.000,0.000
1605186283748183040,10.0.1.137,60,pick,-0.600,-0.600,-0.600,0.000,0.000,0.000
1605186284753007872,10.0.1.137,63,pick,-0.610,-0.610,-0.610,0.000,0.000,0.000
1605186285740116992,10.0.1.137,48,pick,-0.620,-0.620,-0.620,0.000,0.000,0.000
1605186286741362176,10.0.1.137,48,pick,-0.630,-0.630,-0.630,0.000,0.000,0.000
1605186287743304960,10.0.1.137,49,pick,-0.640,-0.640,-0.640,0.000,0.000,0.000
1605186288745785856,10.0.1.137,48,pick,-0.650,-0.650,-0.650,0.000,0.000,0.000
1605186289743805952,10.0.1.137,44,pick,-0.660,-0.660,-0.660,0.000,0.000,0.000
1605186290754832896,10.0.1.137,54,pick,-0.670,-0.670,-0.670,0.000,0.000,0.000
1605186291743961088,10.0.1.137,42,pick,-0.680,-0.680,-0.680,0.000,0.000,0.000
1605186292741306112,10.0.1.137,38,pick,-0.690,-0.690,-0.690,0.000,0.000,0.000
1605186294705475072,10.0.1.137,NaN,pick,-0.710,-0.710,-0.710,0.000,0.000,0.000
1605186294755937024,10.0.1.137,50,pick,-0.710,-0.710,-0.710,0.000,0.000,0.000
1605186295764643840,10.0.1.137,57,pick,-0.720,-0.720,-0.720,0.000,0.000,0.000
1605186296762990080,10.0.1.137,55,pick,-0.730,-0.730,-0.730,0.000,0.000,0.000
1605186297743150848,10.0.1.137,34,pick,-0.740,-0.740,-0.740,0.000,0.000,0.000
1605186298756218880,10.0.1.137,45,pick,-0.750,-0.750,-0.750,0.000,0.000,0.000
1605186299756840960,10.0.1.137,45,pick,-0.760,-0.760,-0.760,0.000,0.000,0.000
1605186300768244992,10.0.1.137,55,pick,-0.770,-0.770,-0.770,0.000,0.000,0.000
1605186302161815808,10.0.1.137,447,move_up,-0.750,-0.750,-0.750,0.000,0.000,0.000
1605186303676834048,10.0.1.137,462,move_up,-0.730,-0.730,-0.730,0.000,0.000,0.000
1605186305238966016,10.0.1.137,441,move_up,-0.710,-0.710,-0.710,0.000,0.000,0.000
1605186306654067968,10.0.1.137,394,move_up,-0.690,-0.690,-0.690,0.000,0.000,0.000
1605186308152290048,10.0.1.137,416,move_up,-0.670,-0.670,-0.670,0.000,0.000,0.000
1605186309671776000,10.0.1.137,482,move_up,-0.650,-0.650,-0.650,0.000,0.000,0.000
1605186311192279040,10.0.1.137,432,move_up,-0.630,-0.630,-0.630,0.000,0.000,0.000
1605186312692670208,10.0.1.137,416,move_up,-0.610,-0.610,-0.610,0.000,0.000,0.000
1605186314293469952,10.0.1.137,504,move_up,-0.590,-0.590,-0.590,0.000,0.000,0.000
1605186315771236864,10.0.1.137,391,move_up,-0.570,-0.570,-0.570,0.000,0.000,0.000
1605186317370505984,10.0.1.137,506,move_up,-0.550,-0.550,-0.550,0.000,0.000,0.000
1605186318939068928,10.0.1.137,527,move_up,-0.530,-0.530,-0.530,0.000,0.000,0.000
1605186320458128896,10.0.1.137,502,move_up,-0.510,-0.510,-0.510,0.000,0.000,0.000
1605186321883002112,10.0.1.137,379,move_up,-0.490,-0.490,-0.490,0.000,0.000,0.000
1605186323300395008,10.0.1.137,385,move_up,-0.470,-0.470,-0.470,0.000,0.000,0.000
1605186324806998016,10.0.1.137,425,move_up,-0.450,-0.450,-0.450,0.000,0.000,0.000
1605186326301327872,10.0.1.137,442,move_up,-0.430,-0.430,-0.430,0.000,0.000,0.000
1605186327811098112,10.0.1.137,399,move_up,-0.410,-0.410,-0.410,0.000,0.000,0.000
1605186329372587008,10.0.1.137,450,move_up,-0.390,-0.390,-0.390,0.000,0.000,0.000
1605186330884756992,10.0.1.137,425,move_up,-0.370,-0.370,-0.370,0.000,0.000,0.000
1605186332470880000,10.0.1.137,443,move_up,-0.350,-0.350,-0.350,0.000,0.000,0.000
1605186333992109056,10.0.1.137,452,move_up,-0.330,-0.330,-0.330,0.000,0.000,0.000
1605186335595719168,10.0.1.137,510,move_up,-0.310,-0.310,-0.310,0.000,0.000,0.000
1605186337114664192,10.0.1.137,441,move_up,-0.290,-0.290,-0.290,0.000,0.000,0.000
1605186338618836992,10.0.1.137,453,move_up,-0.270,-0.270,-0.270,0.000,0.000,0.000
1605186340107290112,10.0.1.137,413,move_up,-0.250,-0.250,-0.250,0.000,0.000,0.000
1605186341525163776,10.0.1.137,414,move_up,-0.230,-0.230,-0.230,0.000,0.000,0.000
1605186343130584832,10.0.1.137,505,move_up,-0.210,-0.210,-0.210,0.000,0.000,0.000
1605186344602497024,10.0.1.137,436,move_up,-0.190,-0.190,-0.190,0.000,0.000,0.000
1605186345715342080,10.0.1.137,30,place,-0.180,-0.180,-0.180,0.000,0.000,0.000
1605186346736494080,10.0.1.137,47,place,-0.170,-0.170,-0.170,0.000,0.000,0.000
1605186347745794048,10.0.1.137,55,place,-0.160,-0.160,-0.160,0.000,0.000,0.000
1605186348752288000,10.0.1.137,60,place,-0.150,-0.150,-0.150,0.000,0.000,0.000
1605186349747266048,10.0.1.137,54,place,-0.140,-0.140,-0.140,0.000,0.000,0.000
1605186350749603072,10.0.1.137,56,place,-0.130,-0.130,-0.130,0.000,0.000,0.000
1605186351734080000,10.0.1.137,38,place,-0.120,-0.120,-0.120,0.000,0.000,0.000
1605186352743254784,10.0.1.137,46,place,-0.110,-0.110,-0.110,0.000,0.000,0.000
1605186353736526848,10.0.1.137,37,place,-0.100,-0.100,-0.100,0.000,0.000,0.000
1605186354744872960,10.0.1.137,44,place,-0.090,-0.090,-0.090,0.000,0.000,0.000
1605186355743223808,10.0.1.137,41,place,-0.080,-0.080,-0.080,0.000,0.000,0.000
1605186356757699840,10.0.1.137,54,place,-0.070,-0.070,-0.070,0.000,0.000,0.000
1605186357734662912,10.0.1.137,29,place,-0.060,-0.060,-0.060,0.000,0.000,0.000
1605186358756259072,10.0.1.137,50,place,-0.050,-0.050,-0.050,0.000,0.000,0.000
1605186359755846144,10.0.1.137,49,place,-0.040,-0.040,-0.040,0.000,0.000,0.000
1605186360766187008,10.0.1.137,59,place,-0.030,-0.030,-0.030,0.000,0.000,0.000
1605186361760012032,10.0.1.137,51,place,-0.020,-0.020,-0.020,0.000,0.000,0.000
1605186362757041920,10.0.1.137,48,place,-0.010,-0.010,-0.010,0.000,0.000,0.000
1605186363762984960,10.0.1.137,53,place,0.000,0.000,0.000,0.000,0.000,0.000
1605186365127706112,10.0.1.137,414,move_down,-0.020,-0.020,-0.020,0.000,0.000,0.000
1605186366646057984,10.0.1.137,447,move_down,-0.040,-0.040,-0.040,0.000,0.000,0.000
1605186368176083200,10.0.1.137,461,move_down,-0.060,-0.060,-0.060,0.000,0.000,0.000
1605186369694083840,10.0.1.137,435,move_down,-0.080,-0.080,-0.080,0.000,0.000,0.000
1605186371240925952,10.0.1.137,460,move_down,-0.100,-0.100,-0.100,0.000,0.000,0.000
1605186372762501888,10.0.1.137,468,move_down,-0.120,-0.120,-0.120,0.000,0.000,0.000
1605186374299310080,10.0.1.137,503,move_down,-0.140,-0.140,-0.140,0.000,0.000,0.000
1605186375877332992,10.0.1.137,549,move_down,-0.160,-0.160,-0.160,0.000,0.000,0.000
1605186377495889920,10.0.1.137,550,move_down,-0.180,-0.180,-0.180,0.000,0.000,0.000
1605186379028768000,10.0.1.137,473,move_down,-0.200,-0.200,-0.200,0.000,0.000,0.000
1605186380541081856,10.0.1.137,473,move_down,-0.220,-0.220,-0.220,0.000,0.000,0.000
1605186382087392000,10.0.1.137,432,move_down,-0.240,-0.240,-0.240,0.000,0.000,0.000
1605186383717353984,10.0.1.137,481,move_down,-0.260,-0.260,-0.260,0.000,0.000,0.000
1605186385340574976,10.0.1.137,476,move_down,-0.280,-0.280,-0.280,0.000,0.000,0.000
1605186386832278016,10.0.1.137,422,move_down,-0.300,-0.300,-0.300,0.000,0.000,0.000
1605186388380687872,10.0.1.137,452,move_down,-0.320,-0.320,-0.320,0.000,0.000,0.000
1605186389858140928,10.0.1.137,404,move_down,-0.340,-0.340,-0.340,0.000,0.000,0.000
1605186391459745024,10.0.1.137,484,move_down,-0.360,-0.360,-0.360,0.000,0.000,0.000
1605186393070100992,10.0.1.137,542,move_down,-0.380,-0.380,-0.380,0.000,0.000,0.000
1605186394646759936,10.0.1.137,524,move_down,-0.400,-0.400,-0.400,0.000,0.000,0.000
1605186396113372160,10.0.1.137,409,move_down,-0.420,-0.420,-0.420,0.000,0.000,0.000
1605186397622988032,10.0.1.137,431,move_down,-0.440,-0.440,-0.440,0.000,0.000,0.000
1605186399109779968,10.0.1.137,402,move_down,-0.460,-0.460,-0.460,0.000,0.000,0.000
1605186400568326912,10.0.1.137,382,move_down,-0.480,-0.480,-0.480,0.000,0.000,0.000
1605186402075993088,10.0.1.137,417,move_down,-0.500,-0.500,-0.500,0.000,0.000,0.000
1605186403491720960,10.0.1.137,408,move_down,-0.520,-0.520,-0.520,0.000,0.000,0.000
1605186405021413120,10.0.1.137,447,move_down,-0.540,-0.540,-0.540,0.000,0.000,0.000
1605186406567107840,10.0.1.137,495,move_down,-0.560,-0.560,-0.560,0.000,0.000,0.000
1605186407989681920,10.0.1.137,415,move_down,-0.580,-0.580,-0.580,0.000,0.000,0.000
1605186409167329024,10.0.1.137,45,pick,-0.590,-0.590,-0.590,0.000,0.000,0.000
1605186410168337152,10.0.1.137,45,pick,-0.600,-0.600,-0.600,0.000,0.000,0.000
1605186411166812928,10.0.1.137,42,pick,-0.610,-0.610,-0.610,0.000,0.000,0.000
1605186412168147968,10.0.1.137,43,pick,-0.620,-0.620,-0.620,0.000,0.000,0.000
1605186413168969984,10.0.1.137,42,pick,-0.630,-0.630,-0.630,0.000,0.000,0.000
1605186414167727872,10.0.1.137,40,pick,-0.640,-0.640,-0.640,0.000,0.000,0.000
1605186415166960896,10.0.1.137,37,pick,-0.650,-0.650,-0.650,0.000,0.000,0.000
1605186416166640128,10.0.1.137,35,pick,-0.660,-0.660,-0.660,0.000,0.000,0.000
1605186417167118080,10.0.1.137,34,pick,-0.670,-0.670,-0.670,0.000,0.000,0.000
1605186418172915968,10.0.1.137,39,pick,-0.680,-0.680,-0.680,0.000,0.000,0.000
1605186419168997888,10.0.1.137,34,pick,-0.690,-0.690,-0.690,0.000,0.000,0.000
1605186420169438976,10.0.1.137,33,pick,-0.700,-0.700,-0.700,0.000,0.000,0.000
1605186421169464064,10.0.1.137,32,pick,-0.710,-0.710,-0.710,0.000,0.000,0.000
1605186422187287040,10.0.1.137,48,pick,-0.720,-0.720,-0.720,0.000,0.000,0.000
1605186424141305088,10.0.1.137,NaN,pick,-0.740,-0.740,-0.740,0.000,0.000,0.000
1605186425143033856,10.0.1.137,NaN,pick,-0.750,-0.750,-0.750,0.000,0.000,0.000
1605186425191875072,10.0.1.137,48,pick,-0.750,-0.750,-0.750,0.000,0.000,0.000
1605186426191520000,10.0.1.137,41,pick,-0.760,-0.760,-0.760,0.000,0.000,0.000
1605186427193416192,10.0.1.137,39,pick,-0.770,-0.770,-0.770,0.000,0.000,0.000
1605186428575664896,10.0.1.137,420,move_up,-0.750,-0.750,-0.750,0.000,0.000,0.000
1605186430090863104,10.0.1.137,469,move_up,-0.730,-0.730,-0.730,0.000,0.000,0.000
1605186431604231168,10.0.1.137,445,move_up,-0.710,-0.710,-0.710,0.000,0.000,0.000
1605186433167618048,10.0.1.137,485,move_up,-0.690,-0.690,-0.690,0.000,0.000,0.000
1605186434742501120,10.0.1.137,526,move_up,-0.670,-0.670,-0.670,0.000,0.000,0.000
1605186436272787968,10.0.1.137,491,move_up,-0.650,-0.650,-0.650,0.000,0.000,0.000
1605186437727984896,10.0.1.137,420,move_up,-0.630,-0.630,-0.630,0.000,0.000,0.000
1605186439260626944,10.0.1.137,443,move_up,-0.610,-0.610,-0.610,0.000,0.000,0.000
1605186440910871040,10.0.1.137,560,move_up,-0.590,-0.590,-0.590,0.000,0.000,0.000
1605186442414083840,10.0.1.137,471,move_up,-0.570,-0.570,-0.570,0.000,0.000,0.000
1605186444000866048,10.0.1.137,457,move_up,-0.550,-0.550,-0.550,0.000,0.000,0.000
1605186445561444096,10.0.1.137,471,move_up,-0.530,-0.530,-0.530,0.000,0.000,0.000
1605186447000111104,10.0.1.137,417,move_up,-0.510,-0.510,-0.510,0.000,0.000,0.000
1605186448477524992,10.0.1.137,412,move_up,-0.490,-0.490,-0.490,0.000,0.000,0.000
1605186449981745920,10.0.1.137,434,move_up,-0.470,-0.470,-0.470,0.000,0.000,0.000
1605186451619250176,10.0.1.137,533,move_up,-0.450,-0.450,-0.450,0.000,0.000,0.000
1605186453150926080,10.0.1.137,422,move_up,-0.430,-0.430,-0.430,0.000,0.000,0.000
1605186454671077120,10.0.1.137,485,move_up,-0.410,-0.410,-0.410,0.000,0.000,0.000
1605186456203078912,10.0.1.137,460,move_up,-0.390,-0.390,-0.390,0.000,0.000,0.000
1605186457662318080,10.0.1.137,435,move_up,-0.370,-0.370,-0.370,0.000,0.000,0.000
1605186459242635008,10.0.1.137,463,move_up,-0.350,-0.350,-0.350,0.000,0.000,0.000
1605186460801625856,10.0.1.137,502,move_up,-0.330,-0.330,-0.330,0.000,0.000,0.000
1605186462330334976,10.0.1.137,469,move_up,-0.310,-0.310,-0.310,0.000,0.000,0.000
1605186463825622016,10.0.1.137,439,move_up,-0.290,-0.290,-0.290,0.000,0.000,0.000
1605186465321805056,10.0.1.137,418,move_up,-0.270,-0.270,-0.270,0.000,0.000,0.000
1605186466803226112,10.0.1.137,443,move_up,-0.250,-0.250,-0.250,0.000,0.000,0.000
1605186468312748800,10.0.1.137,428,move_up,-0.230,-0.230,-0.230,0.000,0.000,0.000
1605186469836453888,10.0.1.137,441,move_up,-0.210,-0.210,-0.210,0.000,0.000,0.000
1605186471366854912,10.0.1.137,445,move_up,-0.190,-0.190,-0.190,0.000,0.000,0.000
1605186472514256896,10.0.1.137,56,place,-0.180,-0.180,-0.180,0.000,0.000,0.000
1605186473515556096,10.0.1.137,56,place,-0.170,-0.170,-0.170,0.000,0.000,0.000
1605186474494875904,10.0.1.137,33,place,-0.160,-0.160,-0.160,0.000,0.000,0.000
1605186475514092032,10.0.1.137,51,place,-0.150,-0.150,-0.150,0.000,0.000,0.000
1605186477472839168,10.0.1.137,NaN,place,-0.130,-0.130,-0.130,0.000,0.000,0.000
1605186477515892992,10.0.1.137,42,place,-0.130,-0.130,-0.130,0.000,0.000,0.000
1605186478516328192,10.0.1.137,41,place,-0.120,-0.120,-0.120,0.000,0.000,0.000
1605186479516328192,10.0.1.137,40,place,-0.110,-0.110,-0.110,0.000,0.000,0.000
1605186480535110912,10.0.1.137,58,place,-0.100,-0.100,-0.100,0.000,0.000,0.000
1605186481516130816,10.0.1.137,36,place,-0.090,-0.090,-0.090,0.000,0.000,0.000
1605186482556035072,10.0.1.137,75,place,-0.080,-0.080,-0.080,0.000,0.000,0.000
1605186483526778880,10.0.1.137,44,place,-0.070,-0.070,-0.070,0.000,0.000,0.000
1605186484542705152,10.0.1.137,57,place,-0.060,-0.060,-0.060,0.000,0.000,0.000
1605186485536206848,10.0.1.137,47,place,-0.050,-0.050,-0.050,0.000,0.000,0.000
1605186487490984960,10.0.1.137,NaN,place,-0.030,-0.030,-0.030,0.000,0.000,0.000
1605186487527096064,10.0.1.137,36,place,-0.030,-0.030,-0.030,0.000,0.000,0.000
1605186488536055040,10.0.1.137,43,place,-0.020,-0.020,-0.020,0.000,0.000,0.000
1605186489528837888,10.0.1.137,31,place,-0.010,-0.010,-0.010,0.000,0.000,0.000
1605186490534416896,10.0.1.137,35,place,0.000,0.000,0.000,0.000,0.000,0.000
1605186491965858048,10.0.1.137,465,move_down,-0.020,-0.020,-0.020,0.000,0.000,0.000
1605186493485110016,10.0.1.137,455,move_down,-0.040,-0.040,-0.040,0.000,0.000,0.000
1605186495074380032,10.0.1.137,499,move_down,-0.060,-0.060,-0.060,0.000,0.000,0.000
1605186496656914944,10.0.1.137,446,move_down,-0.080,-0.080,-0.080,0.000,0.000,0.000
1605186498167591936,10.0.1.137,463,move_down,-0.100,-0.100,-0.100,0.000,0.000,0.000
1605186499717963008,10.0.1.137,466,move_down,-0.120,-0.120,-0.120,0.000,0.000,0.000
1605186501237918976,10.0.1.137,430,move_down,-0.140,-0.140,-0.140,0.000,0.000,0.000
1605186502795260928,10.0.1.137,465,move_down,-0.160,-0.160,-0.160,0.000,0.000,0.000
1605186504261532160,10.0.1.137,403,move_down,-0.180,-0.180,-0.180,0.000,0.000,0.000
1605186505774988032,10.0.1.137,438,move_down,-0.200,-0.200,-0.200,0.000,0.000,0.000
1605186507306288128,10.0.1.137,447,move_down,-0.220,-0.220,-0.220,0.000,0.000,0.000
1605186508806312960,10.0.1.137,398,move_down,-0.240,-0.240,-0.240,0.000,0.000,0.000
1605186510367814144,10.0.1.137,450,move_down,-0.260,-0.260,-0.260,0.000,0.000,0.000
1605186511901537024,10.0.1.137,440,move_down,-0.280,-0.280,-0.280,0.000,0.000,0.000
1605186513539736064,10.0.1.137,489,move_down,-0.300,-0.300,-0.300,0.000,0.000,0.000
1605186515098934784,10.0.1.137,472,move_down,-0.320,-0.320,-0.320,0.000,0.000,0.000
1605186516655653120,10.0.1.137,472,move_down,-0.340,-0.340,-0.340,0.000,0.000,0.000
1605186518274620160,10.0.1.137,547,move_down,-0.360,-0.360,-0.360,0.000,0.000,0.000
1605186519748527104,10.0.1.137,431,move_down,-0.380,-0.380,-0.380,0.000,0.000,0.000
1605186521349168896,10.0.1.137,499,move_down,-0.400,-0.400,-0.400,0.000,0.000,0.000
1605186522884577024,10.0.1.137,438,move_down,-0.420,-0.420,-0.420,0.000,0.000,0.000
1605186524473716992,10.0.1.137,478,move_down,-0.440,-0.440,-0.440,0.000,0.000,0.000
1605186525975425024,10.0.1.137,442,move_down,-0.460,-0.460,-0.460,0.000,0.000,0.000
1605186527509404928,10.0.1.137,446,move_down,-0.480,-0.480,-0.480,0.000,0.000,0.000
1605186529025823232,10.0.1.137,426,move_down,-0.500,-0.500,-0.500,0.000,0.000,0.000
1605186530550141952,10.0.1.137,447,move_down,-0.520,-0.520,-0.520,0.000,0.000,0.000
1605186532157929984,10.0.1.137,558,move_down,-0.540,-0.540,-0.540,0.000,0.000,0.000
1605186533690705920,10.0.1.137,466,move_down,-0.560,-0.560,-0.560,0.000,0.000,0.000
1605186535276593920,10.0.1.137,487,move_down,-0.580,-0.580,-0.580,0.000,0.000,0.000
1605186536421735168,10.0.1.137,60,pick,-0.590,-0.590,-0.590,0.000,0.000,0.000
1605186537417814016,10.0.1.137,55,pick,-0.600,-0.600,-0.600,0.000,0.000,0.000
1605186538418774016,10.0.1.137,55,pick,-0.610,-0.610,-0.610,0.000,0.000,0.000
1605186539408130816,10.0.1.137,43,pick,-0.620,-0.620,-0.620,0.000,0.000,0.000
1605186540421536000,10.0.1.137,49,pick,-0.630,-0.630,-0.630,0.000,0.000,0.000
1605186541416855040,10.0.1.137,43,pick,-0.640,-0.640,-0.640,0.000,0.000,0.000
1605186542415718912,10.0.1.137,40,pick,-0.650,-0.650,-0.650,0.000,0.000,0.000
1605186543464436992,10.0.1.137,88,pick,-0.660,-0.660,-0.660,0.000,0.000,0.000
1605186544424211968,10.0.1.137,46,pick,-0.670,-0.670,-0.670,0.000,0.000,0.000
1605186545414926080,10.0.1.137,35,pick,-0.680,-0.680,-0.680,0.000,0.000,0.000
1605186546415427840,10.0.1.137,35,pick,-0.690,-0.690,-0.690,0.000,0.000,0.000
1605186547416734976,10.0.1.137,34,pick,-0.700,-0.700,-0.700,0.000,0.000,0.000
1605186548436602112,10.0.1.137,51,pick,-0.710,-0.710,-0.710,0.000,0.000,0.000
1605186549441665792,10.0.1.137,55,pick,-0.720,-0.720,-0.720,0.000,0.000,0.000
1605186550428710912,10.0.1.137,41,pick,-0.730,-0.730,-0.730,0.000,0.000,0.000
1605186551447081216,10.0.1.137,58,pick,-0.740,-0.740,-0.740,0.000,0.000,0.000
1605186552445754880,10.0.1.137,55,pick,-0.750,-0.750,-0.750,0.000,0.000,0.000
1605186553440347904,10.0.1.137,45,pick,-0.760,-0.760,-0.760,0.000,0.000,0.000
1605186554454145792,10.0.1.137,55,pick,-0.770,-0.770,-0.770,0.000,0.000,0.000
1605186555890716928,10.0.1.137,491,move_up,-0.750,-0.750,-0.750,0.000,0.000,0.000
1605186557490062848,10.0.1.137,545,move_up,-0.730,-0.730,-0.730,0.000,0.000,0.000
1605186559172180992,10.0.1.137,594,move_up,-0.710,-0.710,-0.710,0.000,0.000,0.000
1605186560751151104,10.0.1.137,444,move_up,-0.690,-0.690,-0.690,0.000,0.000,0.000
1605186562371030016,10.0.1.137,466,move_up,-0.670,-0.670,-0.670,0.000,0.000,0.000
1605186563976225024,10.0.1.137,485,move_up,-0.650,-0.650,-0.650,0.000,0.000,0.000
1605186565451662080,10.0.1.137,457,move_up,-0.630,-0.630,-0.630,0.000,0.000,0.000
1605186567003531008,10.0.1.137,477,move_up,-0.610,-0.610,-0.610,0.000,0.000,0.000
1605186568584510208,10.0.1.137,510,move_up,-0.590,-0.590,-0.590,0.000,0.000,0.000
1605186570070264064,10.0.1.137,469,move_up,-0.570,-0.570,-0.570,0.000,0.000,0.000
1605186571612591104,10.0.1.137,490,move_up,-0.550,-0.550,-0.550,0.000,0.000,0.000
1605186573223969024,10.0.1.137,465,move_up,-0.530,-0.530,-0.530,0.000,0.000,0.000
1605186574826447872,10.0.1.137,532,move_up,-0.510,-0.510,-0.510,0.000,0.000,0.000
1605186576374898944,10.0.1.137,499,move_up,-0.490,-0.490,-0.490,0.000,0.000,0.000
1605186577956167936,10.0.1.137,444,move_up,-0.470,-0.470,-0.470,0.000,0.000,0.000
1605186579558008832,10.0.1.137,491,move_up,-0.450,-0.450,-0.450,0.000,0.000,0.000
1605186581159414016,10.0.1.137,503,move_up,-0.430,-0.430,-0.430,0.000,0.000,0.000
1605186582796163072,10.0.1.137,564,move_up,-0.410,-0.410,-0.410,0.000,0.000,0.000
1605186584339538176,10.0.1.137,524,move_up,-0.390,-0.390,-0.390,0.000,0.000,0.000
1605186585893920000,10.0.1.137,510,move_up,-0.370,-0.370,-0.370,0.000,0.000,0.000
1605186587467473152,10.0.1.137,513,move_up,-0.350,-0.350,-0.350,0.000,0.000,0.000
1605186589065171968,10.0.1.137,540,move_up,-0.330,-0.330,-0.330,0.000,0.000,0.000
1605186590577805056,10.0.1.137,511,move_up,-0.310,-0.310,-0.310,0.000,0.000,0.000
1605186592107023104,10.0.1.137,492,move_up,-0.290,-0.290,-0.290,0.000,0.000,0.000
1605186593687060992,10.0.1.137,503,move_up,-0.270,-0.270,-0.270,0.000,0.000,0.000
1605186595256843008,10.0.1.137,455,move_up,-0.250,-0.250,-0.250,0.000,0.000,0.000
1605186596777071104,10.0.1.137,481,move_up,-0.230,-0.230,-0.230,0.000,0.000,0.000
1605186598323345920,10.0.1.137,485,move_up,-0.210,-0.210,-0.210,0.000,0.000,0.000
1605186599910487808,10.0.1.137,530,move_up,-0.190,-0.190,-0.190,0.000,0.000,0.000
1605186600984258048,10.0.1.137,60,place,-0.180,-0.180,-0.180,0.000,0.000,0.000
1605186601991812864,10.0.1.137,66,place,-0.170,-0.170,-0.170,0.000,0.000,0.000
1605186602983057920,10.0.1.137,56,place,-0.160,-0.160,-0.160,0.000,0.000,0.000
1605186603984764160,10.0.1.137,57,place,-0.150,-0.150,-0.150,0.000,0.000,0.000
1605186604977853184,10.0.1.137,49,place,-0.140,-0.140,-0.140,0.000,0.000,0.000
1605186605977519104,10.0.1.137,48,place,-0.130,-0.130,-0.130,0.000,0.000,0.000
1605186606978841088,10.0.1.137,49,place,-0.120,-0.120,-0.120,0.000,0.000,0.000
1605186607985590016,10.0.1.137,54,place,-0.110,-0.110,-0.110,0.000,0.000,0.000
1605186608979911168,10.0.1.137,47,place,-0.100,-0.100,-0.100,0.000,0.000,0.000
1605186609982355200,10.0.1.137,49,place,-0.090,-0.090,-0.090,0.000,0.000,0.000
1605186611011107072,10.0.1.137,72,place,-0.080,-0.080,-0.080,0.000,0.000,0.000
1605186611981876992,10.0.1.137,41,place,-0.070,-0.070,-0.070,0.000,0.000,0.000
1605186612981031936,10.0.1.137,38,place,-0.060,-0.060,-0.060,0.000,0.000,0.000
1605186613976332032,10.0.1.137,32,place,-0.050,-0.050,-0.050,0.000,0.000,0.000
1605186615002390016,10.0.1.137,57,place,-0.040,-0.040,-0.040,0.000,0.000,0.000
1605186616023924992,10.0.1.137,77,place,-0.030,-0.030,-0.030,0.000,0.000,0.000
1605186616998182144,10.0.1.137,50,place,-0.020,-0.020,-0.020,0.000,0.000,0.000
1605186618004843008,10.0.1.137,56,place,-0.010,-0.010,-0.010,0.000,0.000,0.000
1605186619000823040,10.0.1.137,50,place,0.000,0.000,0.000,0.000,0.000,0.000
1605186620459954944,10.0.1.137,508,move_down,-0.020,-0.020,-0.020,0.000,0.000,0.000
1605186622071908864,10.0.1.137,488,move_down,-0.040,-0.040,-0.040,0.000,0.000,0.000
1605186623563198976,10.0.1.137,435,move_down,-0.060,-0.060,-0.060,0.000,0.000,0.000
1605186625109772800,10.0.1.137,458,move_down,-0.080,-0.080,-0.080,0.000,0.000,0.000
1605186626712423168,10.0.1.137,563,move_down,-0.100,-0.100,-0.100,0.000,0.000,0.000
1605186628285384960,10.0.1.137,502,move_down,-0.120,-0.120,-0.120,0.000,0.000,0.000
1605186629793142016,10.0.1.137,477,move_down,-0.140,-0.140,-0.140,0.000,0.000,0.000
1605186631395486208,10.0.1.137,518,move_down,-0.160,-0.160,-0.160,0.000,0.000,0.000
1605186632972652032,10.0.1.137,485,move_down,-0.180,-0.180,-0.180,0.000,0.000,0.000
1605186634741435136,10.0.1.137,662,move_down,-0.200,-0.200,-0.200,0.000,0.000,0.000
1605186636430504960,10.0.1.137,634,move_down,-0.220,-0.220,-0.220,0.000,0.000,0.000
1605186638090254080,10.0.1.137,566,move_down,-0.240,-0.240,-0.240,0.000,0.000,0.000
1605186639757647872,10.0.1.137,558,move_down,-0.260,-0.260,-0.260,0.000,0.000,0.000
1605186641247840768,10.0.1.137,487,move_down,-0.280,-0.280,-0.280,0.000,0.000,0.000
1605186642821693952,10.0.1.137,428,move_down,-0.300,-0.300,-0.300,0.000,0.000,0.000
1605186644336741888,10.0.1.137,448,move_down,-0.320,-0.320,-0.320,0.000,0.000,0.000
1605186645896670976,10.0.1.137,501,move_down,-0.340,-0.340,-0.340,0.000,0.000,0.000
1605186647501920000,10.0.1.137,494,move_down,-0.360,-0.360,-0.360,0.000,0.000,0.000
1605186649110075904,10.0.1.137,514,move_down,-0.380,-0.380,-0.380,0.000,0.000,0.000
1605186650701731072,10.0.1.137,497,move_down,-0.400,-0.400,-0.400,0.000,0.000,0.000
1605186652214402816,10.0.1.137,405,move_down,-0.420,-0.420,-0.420,0.000,0.000,0.000
1605186653704749056,10.0.1.137,453,move_down,-0.440,-0.440,-0.440,0.000,0.000,0.000
1605186655327853056,10.0.1.137,538,move_down,-0.460,-0.460,-0.460,0.000,0.000,0.000
1605186656922156032,10.0.1.137,496,move_down,-0.480,-0.480,-0.480,0.000,0.000,0.000
1605186658556550912,10.0.1.137,577,move_down,-0.500,-0.500,-0.500,0.000,0.000,0.000
1605186660117012992,10.0.1.137,519,move_down,-0.520,-0.520,-0.520,0.000,0.000,0.000
1605186661684838144,10.0.1.137,494,move_down,-0.540,-0.540,-0.540,0.000,0.000,0.000
1605186663158435072,10.0.1.137,447,move_down,-0.560,-0.560,-0.560,0.000,0.000,0.000
1605186664731829760,10.0.1.137,546,move_down,-0.580,-0.580,-0.580,0.000,0.000,0.000
1605186665883058944,10.0.1.137,47,pick,-0.590,-0.590,-0.590,0.000,0.000,0.000
1605186666895045888,10.0.1.137,58,pick,-0.600,-0.600,-0.600,0.000,0.000,0.000
1605186667880866048,10.0.1.137,42,pick,-0.610,-0.610,-0.610,0.000,0.000,0.000
1605186668884982016,10.0.1.137,44,pick,-0.620,-0.620,-0.620,0.000,0.000,0.000
1605186669881185024,10.0.1.137,39,pick,-0.630,-0.630,-0.630,0.000,0.000,0.000
1605186670892182016,10.0.1.137,48,pick,-0.640,-0.640,-0.640,0.000,0.000,0.000
1605186671892420096,10.0.1.137,47,pick,-0.650,-0.650,-0.650,0.000,0.000,0.000
1605186672892034048,10.0.1.137,45,pick,-0.660,-0.660,-0.660,0.000,0.000,0.000
1605186673885454848,10.0.1.137,37,pick,-0.670,-0.670,-0.670,0.000,0.000,0.000
1605186674891820032,10.0.1.137,42,pick,-0.680,-0.680,-0.680,0.000,0.000,0.000
1605186675904985856,10.0.1.137,53,pick,-0.690,-0.690,-0.690,0.000,0.000,0.000
1605186676907362816,10.0.1.137,52,pick,-0.700,-0.700,-0.700,0.000,0.000,0.000
1605186677919700992,10.0.1.137,63,pick,-0.710,-0.710,-0.710,0.000,0.000,0.000
1605186678906359040,10.0.1.137,48,pick,-0.720,-0.720,-0.720,0.000,0.000,0.000
1605186679910935040,10.0.1.137,45,pick,-0.730,-0.730,-0.730,0.000,0.000,0.000
1605186680916977920,10.0.1.137,50,pick,-0.740,-0.740,-0.740,0.000,0.000,0.000
1605186681914146048,10.0.1.137,46,pick,-0.750,-0.750,-0.750,0.000,0.000,0.000
1605186682906470912,10.0.1.137,38,pick,-0.760,-0.760,-0.760,0.000,0.000,0.000
1605186683909765888,10.0.1.137,41,pick,-0.770,-0.770,-0.770,0.000,0.000,0.000
1605186685414788096,10.0.1.137,541,move_up,-0.750,-0.750,-0.750,0.000,0.000,0.000
1605186687028816896,10.0.1.137,539,move_up,-0.730,-0.730,-0.730,0.000,0.000,0.000
1605186688549171968,10.0.1.137,512,move_up,-0.710,-0.710,-0.710,0.000,0.000,0.000
1605186690187446016,10.0.1.137,518,move_up,-0.690,-0.690,-0.690,0.000,0.000,0.000
1605186691902080000,10.0.1.137,556,move_up,-0.670,-0.670,-0.670,0.000,0.000,0.000
1605186693527249152,10.0.1.137,541,move_up,-0.650,-0.650,-0.650,0.000,0.000,0.000
1605186695064054016,10.0.1.137,481,move_up,-0.630,-0.630,-0.630,0.000,0.000,0.000
1605186696642697984,10.0.1.137,513,move_up,-0.610,-0.610,-0.610,0.000,0.000,0.000
1605186698194247936,10.0.1.137,532,move_up,-0.590,-0.590,-0.590,0.000,0.000,0.000
1605186699850137856,10.0.1.137,555,move_up,-0.570,-0.570,-0.570,0.000,0.000,0.000
1605186701443890944,10.0.1.137,512,move_up,-0.550,-0.550,-0.550,0.000,0.000,0.000
1605186703058834944,10.0.1.137,565,move_up,-0.530,-0.530,-0.530,0.000,0.000,0.000
1605186704594279168,10.0.1.137,522,move_up,-0.510,-0.510,-0.510,0.000,0.000,0.000
1605186706181771008,10.0.1.137,493,move_up,-0.490,-0.490,-0.490,0.000,0.000,0.000
1605186707854227968,10.0.1.137,565,move_up,-0.470,-0.470,-0.470,0.000,0.000,0.000
1605186709416205824,10.0.1.137,520,move_up,-0.450,-0.450,-0.450,0.000,0.000,0.000
1605186711065079808,10.0.1.137,499,move_up,-0.430,-0.430,-0.430,0.000,0.000,0.000
1605186712683859200,10.0.1.137,572,move_up,-0.410,-0.410,-0.410,0.000,0.000,0.000
1605186714204940032,10.0.1.137,459,move_up,-0.390,-0.390,-0.390,0.000,0.000,0.000
1605186715740977152,10.0.1.137,452,move_up,-0.370,-0.370,-0.370,0.000,0.000,0.000
1605186717293207040,10.0.1.137,491,move_up,-0.350,-0.350,-0.350,0.000,0.000,0.000
1605186718845256192,10.0.1.137,463,move_up,-0.330,-0.330,-0.330,0.000,0.000,0.000
1605186720346740992,10.0.1.137,427,move_up,-0.310,-0.310,-0.310,0.000,0.000,0.000
1605186721970458112,10.0.1.137,528,move_up,-0.290,-0.290,-0.290,0.000,0.000,0.000
1605186723602996992,10.0.1.137,570,move_up,-0.270,-0.270,-0.270,0.000,0.000,0.000
1605186725312904960,10.0.1.137,513,move_up,-0.250,-0.250,-0.250,0.000,0.000,0.000
1605186726841046016,10.0.1.137,438,move_up,-0.230,-0.230,-0.230,0.000,0.000,0.000
1605186728356587776,10.0.1.137,430,move_up,-0.210,-0.210,-0.210,0.000,0.000,0.000
1605186729888773888,10.0.1.137,468,move_up,-0.190,-0.190,-0.190,0.000,0.000,0.000
1605186731057260032,10.0.1.137,49,place,-0.180,-0.180,-0.180,0.000,0.000,0.000
1605186732060243968,10.0.1.137,51,place,-0.170,-0.170,-0.170,0.000,0.000,0.000
1605186733062042112,10.0.1.137,51,place,-0.160,-0.160,-0.160,0.000,0.000,0.000
1605186734051794944,10.0.1.137,40,place,-0.150,-0.150,-0.150,0.000,0.000,0.000
1605186735054513920,10.0.1.137,40,place,-0.140,-0.140,-0.140,0.000,0.000,0.000
1605186736052304128,10.0.1.137,37,place,-0.130,-0.130,-0.130,0.000,0.000,0.000
1605186737051275008,10.0.1.137,34,place,-0.120,-0.120,-0.120,0.000,0.000,0.000
1605186738061545984,10.0.1.137,43,place,-0.110,-0.110,-0.110,0.000,0.000,0.000
1605186739054241792,10.0.1.137,35,place,-0.100,-0.100,-0.100,0.000,0.000,0.000
1605186740064090880,10.0.1.137,42,place,-0.090,-0.090,-0.090,0.000,0.000,0.000
1605186741070807040,10.0.1.137,48,place,-0.080,-0.080,-0.080,0.000,0.000,0.000
1605186742065530112,10.0.1.137,41,place,-0.070,-0.070,-0.070,0.000,0.000,0.000
1605186743067264000,10.0.1.137,41,place,-0.060,-0.060,-0.060,0.000,0.000,0.000
1605186744084812032,10.0.1.137,57,place,-0.050,-0.050,-0.050,0.000,0.000,0.000
1605186745075924992,10.0.1.137,44,place,-0.040,-0.040,-0.040,0.000,0.000,0.000
1605186746087600896,10.0.1.137,54,place,-0.030,-0.030,-0.030,0.000,0.000,0.000
1605186747095352832,10.0.1.137,42,place,-0.020,-0.020,-0.020,0.000,0.000,0.000
1605186748096040960,10.0.1.137,40,place,-0.010,-0.010,-0.010,0.000,0.000,0.000
1605186749108305920,10.0.1.137,51,place,0.000,0.000,0.000,0.000,0.000,0.000
1605186750562906112,10.0.1.137,505,move_down,-0.020,-0.020,-0.020,0.000,0.000,0.000
1605186752174608896,10.0.1.137,545,move_down,-0.040,-0.040,-0.040,0.000,0.000,0.000
1605186753732076032,10.0.1.137,493,move_down,-0.060,-0.060,-0.060,0.000,0.000,0.000
1605186755380765952,10.0.1.137,523,move_down,-0.080,-0.080,-0.080,0.000,0.000,0.000
1605186756910304000,10.0.1.137,493,move_down,-0.100,-0.100,-0.100,0.000,0.000,0.000
1605186758473753088,10.0.1.137,498,move_down,-0.120,-0.120,-0.120,0.000,0.000,0.000
1605186759975193856,10.0.1.137,435,move_down,-0.140,-0.140,-0.140,0.000,0.000,0.000
1605186761572621056,10.0.1.137,489,move_down,-0.160,-0.160,-0.160,0.000,0.000,0.000
1605186763122118912,10.0.1.137,502,move_down,-0.180,-0.180,-0.180,0.000,0.000,0.000
1605186764697540096,10.0.1.137,505,move_down,-0.200,-0.200,-0.200,0.000,0.000,0.000
1605186766314446080,10.0.1.137,567,move_down,-0.220,-0.220,-0.220,0.000,0.000,0.000
1605186768021383936,10.0.1.137,622,move_down,-0.240,-0.240,-0.240,0.000,0.000,0.000
1605186769653554944,10.0.1.137,525,move_down,-0.260,-0.260,-0.260,0.000,0.000,0.000
1605186771229357056,10.0.1.137,517,move_down,-0.280,-0.280,-0.280,0.000,0.000,0.000
1605186772782838016,10.0.1.137,517,move_down,-0.300,-0.300,-0.300,0.000,0.000,0.000
1605186774413688064,10.0.1.137,575,move_down,-0.320,-0.320,-0.320,0.000,0.000,0.000
1605186775976839168,10.0.1.137,508,move_down,-0.340,-0.340,-0.340,0.000,0.000,0.000
1605186777476993024,10.0.1.137,441,move_down,-0.360,-0.360,-0.360,0.000,0.000,0.000
1605186779102864896,10.0.1.137,543,move_down,-0.380,-0.380,-0.380,0.000,0.000,0.000
1605186780781143808,10.0.1.137,596,move_down,-0.400,-0.400,-0.400,0.000,0.000,0.000
1605186782364218112,10.0.1.137,503,move_down,-0.420,-0.420,-0.420,0.000,0.000,0.000
1605186784028954112,10.0.1.137,566,move_down,-0.440,-0.440,-0.440,0.000,0.000,0.000
1605186785589041920,10.0.1.137,496,move_down,-0.460,-0.460,-0.460,0.000,0.000,0.000
1605186787232428032,10.0.1.137,513,move_down,-0.480,-0.480,-0.480,0.000,0.000,0.000
1605186788806526976,10.0.1.137,507,move_down,-0.500,-0.500,-0.500,0.000,0.000,0.000
1605186790386385920,10.0.1.137,519,move_down,-0.520,-0.520,-0.520,0.000,0.000,0.000
1605186792001220096,10.0.1.137,538,move_down,-0.540,-0.540,-0.540,0.000,0.000,0.000
1605186793582878976,10.0.1.137,481,move_down,-0.560,-0.560,-0.560,0.000,0.000,0.000
1605186795134176000,10.0.1.137,468,move_down,-0.580,-0.580,-0.580,0.000,0.000,0.000
1605186796295279104,10.0.1.137,39,pick,-0.590,-0.590,-0.590,0.000,0.000,0.000
1605186797293355008,10.0.1.137,35,pick,-0.600,-0.600,-0.600,0.000,0.000,0.000
1605186798296598784,10.0.1.137,37,pick,-0.610,-0.610,-0.610,0.000,0.000,0.000
1605186799306304000,10.0.1.137,46,pick,-0.620,-0.620,-0.620,0.000,0.000,0.000
1605186800293041920,10.0.1.137,32,pick,-0.630,-0.630,-0.630,0.000,0.000,0.000
1605186801312995072,10.0.1.137,49,pick,-0.640,-0.640,-0.640,0.000,0.000,0.000
1605186802312370176,10.0.1.137,47,pick,-0.650,-0.650,-0.650,0.000,0.000,0.000
1605186803311784960,10.0.1.137,45,pick,-0.660,-0.660,-0.660,0.000,0.000,0.000
1605186804315257088,10.0.1.137,48,pick,-0.670,-0.670,-0.670,0.000,0.000,0.000
1605186805317719040,10.0.1.137,49,pick,-0.680,-0.680,-0.680,0.000,0.000,0.000
1605186806322115072,10.0.1.137,52,pick,-0.690,-0.690,-0.690,0.000,0.000,0.000
1605186807312896000,10.0.1.137,41,pick,-0.700,-0.700,-0.700,0.000,0.000,0.000
1605186808311930880,10.0.1.137,37,pick,-0.710,-0.710,-0.710,0.000,0.000,0.000
1605186809317435904,10.0.1.137,38,pick,-0.720,-0.720,-0.720,0.000,0.000,0.000
1605186810315998976,10.0.1.137,36,pick,-0.730,-0.730,-0.730,0.000,0.000,0.000
1605186811324161024,10.0.1.137,42,pick,-0.740,-0.740,-0.740,0.000,0.000,0.000
1605186812343298816,10.0.1.137,58,pick,-0.750,-0.750,-0.750,0.000,0.000,0.000
1605186813342867968,10.0.1.137,57,pick,-0.760,-0.760,-0.760,0.000,0.000,0.000
1605186814349150976,10.0.1.137,61,pick,-0.770,-0.770,-0.770,0.000,0.000,0.000
1605186815835979008,10.0.1.137,548,move_up,-0.750,-0.750,-0.750,0.000,0.000,0.000
1605186817717870848,10.0.1.137,760,move_up,-0.730,-0.730,-0.730,0.000,0.000,0.000
1605186819277255168,10.0.1.137,497,move_up,-0.710,-0.710,-0.710,0.000,0.000,0.000
1605186820819211008,10.0.1.137,465,move_up,-0.690,-0.690,-0.690,0.000,0.000,0.000
1605186822274082816,10.0.1.137,442,move_up,-0.670,-0.670,-0.670,0.000,0.000,0.000
1605186823793523968,10.0.1.137,437,move_up,-0.650,-0.650,-0.650,0.000,0.000,0.000
1605186825422249984,10.0.1.137,511,move_up,-0.630,-0.630,-0.630,0.000,0.000,0.000
1605186827207847168,10.0.1.137,616,move_up,-0.610,-0.610,-0.610,0.000,0.000,0.000
1605186828761342976,10.0.1.137,502,move_up,-0.590,-0.590,-0.590,0.000,0.000,0.000
1605186830381583872,10.0.1.137,578,move_up,-0.570,-0.570,-0.570,0.000,0.000,0.000
1605186831963744000,10.0.1.137,506,move_up,-0.550,-0.550,-0.550,0.000,0.000,0.000
1605186833642137088,10.0.1.137,522,move_up,-0.530,-0.530,-0.530,0.000,0.000,0.000
1605186835213825024,10.0.1.137,548,move_up,-0.510,-0.510,-0.510,0.000,0.000,0.000
1605186836737348096,10.0.1.137,523,move_up,-0.490,-0.490,-0.490,0.000,0.000,0.000
1605186838307048192,10.0.1.137,457,move_up,-0.470,-0.470,-0.470,0.000,0.000,0.000
1605186839836019968,10.0.1.137,469,move_up,-0.450,-0.450,-0.450,0.000,0.000,0.000
1605186841390907136,10.0.1.137,488,move_up,-0.430,-0.430,-0.430,0.000,0.000,0.000
1605186843028177920,10.0.1.137,498,move_up,-0.410,-0.410,-0.410,0.000,0.000,0.000
1605186844707462912,10.0.1.137,574,move_up,-0.390,-0.390,-0.390,0.000,0.000,0.000
1605186846320553984,10.0.1.137,503,move_up,-0.370,-0.370,-0.370,0.000,0.000,0.000
1605186847954035968,10.0.1.137,524,move_up,-0.350,-0.350,-0.350,0.000,0.000,0.000
1605186849556680960,10.0.1.137,504,move_up,-0.330,-0.330,-0.330,0.000,0.000,0.000
1605186851144148992,10.0.1.137,491,move_up,-0.310,-0.310,-0.310,0.000,0.000,0.000
1605186852767916800,10.0.1.137,471,move_up,-0.290,-0.290,-0.290,0.000,0.000,0.000
1605186854360207104,10.0.1.137,504,move_up,-0.270,-0.270,-0.270,0.000,0.000,0.000
1605186856015032064,10.0.1.137,524,move_up,-0.250,-0.250,-0.250,0.000,0.000,0.000
1605186857665776896,10.0.1.137,546,move_up,-0.230,-0.230,-0.230,0.000,0.000,0.000
1605186859146439168,10.0.1.137,422,move_up,-0.210,-0.210,-0.210,0.000,0.000,0.000
1605186860802571008,10.0.1.137,614,move_up,-0.190,-0.190,-0.190,0.000,0.000,0.000
1605186861966425856,10.0.1.137,45,place,-0.180,-0.180,-0.180,0.000,0.000,0.000
1605186862962985984,10.0.1.137,41,place,-0.170,-0.170,-0.170,0.000,0.000,0.000
1605186863964435200,10.0.1.137,40,place,-0.160,-0.160,-0.160,0.000,0.000,0.000
1605186864963238912,10.0.1.137,38,place,-0.150,-0.150,-0.150,0.000,0.000,0.000
1605186865968570112,10.0.1.137,42,place,-0.140,-0.140,-0.140,0.000,0.000,0.000
1605186866962631936,10.0.1.137,34,place,-0.130,-0.130,-0.130,0.000,0.000,0.000
1605186867964574976,10.0.1.137,34,place,-0.120,-0.120,-0.120,0.000,0.000,0.000
1605186868965097984,10.0.1.137,34,place,-0.110,-0.110,-0.110,0.000,0.000,0.000
1605186869982326016,10.0.1.137,50,place,-0.100,-0.100,-0.100,0.000,0.000,0.000
1605186871935651072,10.0.1.137,NaN,place,-0.080,-0.080,-0.080,0.000,0.000,0.000
1605186871986479104,10.0.1.137,50,place,-0.080,-0.080,-0.080,0.000,0.000,0.000
1605186872984648960,10.0.1.137,46,place,-0.070,-0.070,-0.070,0.000,0.000,0.000
1605186873987771904,10.0.1.137,47,place,-0.060,-0.060,-0.060,0.000,0.000,0.000
1605186874983798016,10.0.1.137,40,place,-0.050,-0.050,-0.050,0.000,0.000,0.000
1605186875985218048,10.0.1.137,41,place,-0.040,-0.040,-0.040,0.000,0.000,0.000
1605186876982394880,10.0.1.137,37,place,-0.030,-0.030,-0.030,0.000,0.000,0.000
1605186877991847936,10.0.1.137,45,place,-0.020,-0.020,-0.020,0.000,0.000,0.000
1605186879948937984,10.0.1.137,NaN,place,0.000,0.000,0.000,0.000,0.000,0.000
1605186879985575936,10.0.1.137,36,place,0.000,0.000,0.000,0.000,0.000,0.000
1605186881491052032,10.0.1.137,525,move_down,-0.020,-0.020,-0.020,0.000,0.000,0.000
1605186883120382976,10.0.1.137,563,move_down,-0.040,-0.040,-0.040,0.000,0.000,0.000
1605186884650238976,10.0.1.137,435,move_down,-0.060,-0.060,-0.060,0.000,0.000,0.000
1605186886287760128,10.0.1.137,550,move_down,-0.080,-0.080,-0.080,0.000,0.000,0.000
1605186887886295040,10.0.1.137,499,move_down,-0.100,-0.100,-0.100,0.000,0.000,0.000
1605186889472423168,10.0.1.137,508,move_down,-0.120,-0.120,-0.120,0.000,0.000,0.000
1605186891057061888,10.0.1.137,500,move_down,-0.140,-0.140,-0.140,0.000,0.000,0.000
1605186892596901888,10.0.1.137,476,move_down,-0.160,-0.160,-0.160,0.000,0.000,0.000
1605186894152913920,10.0.1.137,416,move_down,-0.180,-0.180,-0.180,0.000,0.000,0.000
1605186895809884928,10.0.1.137,546,move_down,-0.200,-0.200,-0.200,0.000,0.000,0.000
1605186897512527872,10.0.1.137,559,move_down,-0.220,-0.220,-0.220,0.000,0.000,0.000
1605186899184097024,10.0.1.137,586,move_down,-0.240,-0.240,-0.240,0.000,0.000,0.000
1605186900751930112,10.0.1.137,503,move_down,-0.260,-0.260,-0.260,0.000,0.000,0.000
1605186902371284992,10.0.1.137,523,move_down,-0.280,-0.280,-0.280,0.000,0.000,0.000
1605186903960598016,10.0.1.137,543,move_down,-0.300,-0.300,-0.300,0.000,0.000,0.000
1605186905713839104,10.0.1.137,652,move_down,-0.320,-0.320,-0.320,0.000,0.000,0.000
1605186907605502976,10.0.1.137,749,move_down,-0.340,-0.340,-0.340,0.000,0.000,0.000
1605186909147849984,10.0.1.137,486,move_down,-0.360,-0.360,-0.360,0.000,0.000,0.000
1605186910804193024,10.0.1.137,499,move_down,-0.380,-0.380,-0.380,0.000,0.000,0.000
1605186912393372160,10.0.1.137,562,move_down,-0.400,-0.400,-0.400,0.000,0.000,0.000
1605186914332178944,10.0.1.137,824,move_down,-0.420,-0.420,-0.420,0.000,0.000,0.000
1605186916026036992,10.0.1.137,668,move_down,-0.440,-0.440,-0.440,0.000,0.000,0.000
1605186917703564800,10.0.1.137,618,move_down,-0.460,-0.460,-0.460,0.000,0.000,0.000
1605186919369504000,10.0.1.137,603,move_down,-0.480,-0.480,-0.480,0.000,0.000,0.000
1605186920977574144,10.0.1.137,528,move_down,-0.500,-0.500,-0.500,0.000,0.000,0.000
1605186922533644800,10.0.1.137,513,move_down,-0.520,-0.520,-0.520,0.000,0.000,0.000
1605186924086652160,10.0.1.137,468,move_down,-0.540,-0.540,-0.540,0.000,0.000,0.000
1605186925665945088,10.0.1.137,490,move_down,-0.560,-0.560,-0.560,0.000,0.000,0.000
1605186927271452928,10.0.1.137,525,move_down,-0.580,-0.580,-0.580,0.000,0.000,0.000
1605186929366149888,10.0.1.137,NaN,pick,-0.600,-0.600,-0.600,0.000,0.000,0.000
1605186929418916864,10.0.1.137,52,pick,-0.600,-0.600,-0.600,0.000,0.000,0.000
1605186930438033152,10.0.1.137,34,pick,-0.610,-0.610,-0.610,0.000,0.000,0.000
1605186931465105920,10.0.1.137,56,pick,-0.620,-0.620,-0.620,0.000,0.000,0.000
1605186932486394880,10.0.1.137,76,pick,-0.630,-0.630,-0.630,0.000,0.000,0.000
1605186933478362112,10.0.1.137,65,pick,-0.640,-0.640,-0.640,0.000,0.000,0.000
1605186934470678016,10.0.1.137,56,pick,-0.650,-0.650,-0.650,0.000,0.000,0.000
1605186935482014976,10.0.1.137,66,pick,-0.660,-0.660,-0.660,0.000,0.000,0.000
1605186936466285056,10.0.1.137,49,pick,-0.670,-0.670,-0.670,0.000,0.000,0.000
1605186937469924864,10.0.1.137,52,pick,-0.680,-0.680,-0.680,0.000,0.000,0.000
1605186938497189888,10.0.1.137,77,pick,-0.690,-0.690,-0.690,0.000,0.000,0.000
1605186939470902016,10.0.1.137,46,pick,-0.700,-0.700,-0.700,0.000,0.000,0.000
1605186940485018112,10.0.1.137,57,pick,-0.710,-0.710,-0.710,0.000,0.000,0.000
1605186941474398976,10.0.1.137,45,pick,-0.720,-0.720,-0.720,0.000,0.000,0.000
1605186942480540928,10.0.1.137,50,pick,-0.730,-0.730,-0.730,0.000,0.000,0.000
1605186943471750144,10.0.1.137,40,pick,-0.740,-0.740,-0.740,0.000,0.000,0.000
1605186945448681216,10.0.1.137,NaN,pick,-0.760,-0.760,-0.760,0.000,0.000,0.000
1605186946465332992,10.0.1.137,NaN,pick,-0.770,-0.770,-0.770,0.000,0.000,0.000
1605186946522263040,10.0.1.137,56,pick,-0.770,-0.770,-0.770,0.000,0.000,0.000
1605186947929116928,10.0.1.137,457,move_up,-0.750,-0.750,-0.750,0.000,0.000,0.000
1605186949691906048,10.0.1.137,609,move_up,-0.730,-0.730,-0.730,0.000,0.000,0.000
1605186951251617792,10.0.1.137,491,move_up,-0.710,-0.710,-0.710,0.000,0.000,0.000
1605186952899323904,10.0.1.137,573,move_up,-0.690,-0.690,-0.690,0.000,0.000,0.000
1605186954495928064,10.0.1.137,507,move_up,-0.670,-0.670,-0.670,0.000,0.000,0.000
1605186956159663872,10.0.1.137,554,move_up,-0.650,-0.650,-0.650,0.000,0.000,0.000
1605186957827975936,10.0.1.137,600,move_up,-0.630,-0.630,-0.630,0.000,0.000,0.000
1605186959492019968,10.0.1.137,590,move_up,-0.610,-0.610,-0.610,0.000,0.000,0.000
1605186961074408960,10.0.1.137,539,move_up,-0.590,-0.590,-0.590,0.000,0.000,0.000
1605186962631037952,10.0.1.137,492,move_up,-0.570,-0.570,-0.570,0.000,0.000,0.000
1605186964386030080,10.0.1.137,640,move_up,-0.550,-0.550,-0.550,0.000,0.000,0.000
1605186965846173952,10.0.1.137,468,move_up,-0.530,-0.530,-0.530,0.000,0.000,0.000
1605186967474749952,10.0.1.137,549,move_up,-0.510,-0.510,-0.510,0.000,0.000,0.000
1605186969103451904,10.0.1.137,546,move_up,-0.490,-0.490,-0.490,0.000,0.000,0.000
1605186970833672960,10.0.1.137,578,move_up,-0.470,-0.470,-0.470,0.000,0.000,0.000
1605186972416340224,10.0.1.137,518,move_up,-0.450,-0.450,-0.450,0.000,0.000,0.000
1605186974057748992,10.0.1.137,485,move_up,-0.430,-0.430,-0.430,0.000,0.000,0.000
1605186975593945856,10.0.1.137,474,move_up,-0.410,-0.410,-0.410,0.000,0.000,0.000
1605186977198051072,10.0.1.137,486,move_up,-0.390,-0.390,-0.390,0.000,0.000,0.000
1605186978857163008,10.0.1.137,529,move_up,-0.370,-0.370,-0.370,0.000,0.000,0.000
1605186980747747840,10.0.1.137,829,move_up,-0.350,-0.350,-0.350,0.000,0.000,0.000
1605186982491905024,10.0.1.137,617,move_up,-0.330,-0.330,-0.330,0.000,0.000,0.000
1605186984092841984,10.0.1.137,538,move_up,-0.310,-0.310,-0.310,0.000,0.000,0.000
1605186985834189824,10.0.1.137,638,move_up,-0.290,-0.290,-0.290,0.000,0.000,0.000
1605186987510942976,10.0.1.137,631,move_up,-0.270,-0.270,-0.270,0.000,0.000,0.000
1605186989106526976,10.0.1.137,478,move_up,-0.250,-0.250,-0.250,0.000,0.000,0.000
1605186990764110080,10.0.1.137,553,move_up,-0.230,-0.230,-0.230,0.000,0.000,0.000
1605186992364465920,10.0.1.137,575,move_up,-0.210,-0.210,-0.210,0.000,0.000,0.000
1605186994016045056,10.0.1.137,528,move_up,-0.190,-0.190,-0.190,0.000,0.000,0.000
1605186995181531904,10.0.1.137,41,place,-0.180,-0.180,-0.180,0.000,0.000,0.000
1605186996188456960,10.0.1.137,47,place,-0.170,-0.170,-0.170,0.000,0.000,0.000
1605186997195975936,10.0.1.137,53,place,-0.160,-0.160,-0.160,0.000,0.000,0.000
1605186999144839936,10.0.1.137,NaN,place,-0.140,-0.140,-0.140,0.000,0.000,0.000
1605186999188419072,10.0.1.137,43,place,-0.140,-0.140,-0.140,0.000,0.000,0.000
1605187000187216128,10.0.1.137,39,place,-0.130,-0.130,-0.130,0.000,0.000,0.000
1605187001188499968,10.0.1.137,32,place,-0.120,-0.120,-0.120,0.000,0.000,0.000
1605187002213536000,10.0.1.137,56,place,-0.110,-0.110,-0.110,0.000,0.000,0.000
1605187003207078912,10.0.1.137,48,place,-0.100,-0.100,-0.100,0.000,0.000,0.000
1605187004212976896,10.0.1.137,52,place,-0.090,-0.090,-0.090,0.000,0.000,0.000
1605187006162125056,10.0.1.137,NaN,place,-0.070,-0.070,-0.070,0.000,0.000,0.000
1605187006214209024,10.0.1.137,52,place,-0.070,-0.070,-0.070,0.000,0.000,0.000
1605187007210834944,10.0.1.137,40,place,-0.060,-0.060,-0.060,0.000,0.000,0.000
1605187008220719104,10.0.1.137,49,place,-0.050,-0.050,-0.050,0.000,0.000,0.000
1605187009205876992,10.0.1.137,33,place,-0.040,-0.040,-0.040,0.000,0.000,0.000
1605187010233140992,10.0.1.137,59,place,-0.030,-0.030,-0.030,0.000,0.000,0.000
1605187011226632960,10.0.1.137,51,place,-0.020,-0.020,-0.020,0.000,0.000,0.000
1605187012228840192,10.0.1.137,51,place,-0.010,-0.010,-0.010,0.000,0.000,0.000
1605187014210903040,10.0.1.137,NaN,move_down,-0.020,-0.020,-0.020,0.000,0.000,0.000
1605187014778526976,10.0.1.137,567,move_down,-0.020,-0.020,-0.020,0.000,0.000,0.000
1605187016490451200,10.0.1.137,530,move_down,-0.040,-0.040,-0.040,0.000,0.000,0.000
1605187018151571968,10.0.1.137,619,move_down,-0.060,-0.060,-0.060,0.000,0.000,0.000
1605187019815703040,10.0.1.137,604,move_down,-0.080,-0.080,-0.080,0.000,0.000,0.000
1605187021503608832,10.0.1.137,580,move_down,-0.100,-0.100,-0.100,0.000,0.000,0.000
1605187023022326016,10.0.1.137,455,move_down,-0.120,-0.120,-0.120,0.000,0.000,0.000
1605187024746619904,10.0.1.137,617,move_down,-0.140,-0.140,-0.140,0.000,0.000,0.000
1605187026408642048,10.0.1.137,594,move_down,-0.160,-0.160,-0.160,0.000,0.000,0.000
1605187028107616000,10.0.1.137,603,move_down,-0.180,-0.180,-0.180,0.000,0.000,0.000
1605187029807630080,10.0.1.137,660,move_down,-0.200,-0.200,-0.200,0.000,0.000,0.000
1605187031421700864,10.0.1.137,512,move_down,-0.220,-0.220,-0.220,0.000,0.000,0.000
1605187033052575232,10.0.1.137,591,move_down,-0.240,-0.240,-0.240,0.000,0.000,0.000
1605187034512617216,10.0.1.137,457,move_down,-0.260,-0.260,-0.260,0.000,0.000,0.000
1605187036194597120,10.0.1.137,582,move_down,-0.280,-0.280,-0.280,0.000,0.000,0.000
1605187037905330944,10.0.1.137,561,move_down,-0.300,-0.300,-0.300,0.000,0.000,0.000
1605187039547051008,10.0.1.137,545,move_down,-0.320,-0.320,-0.320,0.000,0.000,0.000
1605187041203654144,10.0.1.137,483,move_down,-0.340,-0.340,-0.340,0.000,0.000,0.000
1605187042960791040,10.0.1.137,669,move_down,-0.360,-0.360,-0.360,0.000,0.000,0.000
1605187044608792064,10.0.1.137,522,move_down,-0.380,-0.380,-0.380,0.000,0.000,0.000
1605187046464788992,10.0.1.137,646,move_down,-0.400,-0.400,-0.400,0.000,0.000,0.000
1605187048062033920,10.0.1.137,535,move_down,-0.420,-0.420,-0.420,0.000,0.000,0.000
1605187049772310016,10.0.1.137,649,move_down,-0.440,-0.440,-0.440,0.000,0.000,0.000
1605187051387120896,10.0.1.137,556,move_down,-0.460,-0.460,-0.460,0.000,0.000,0.000
1605187053051194880,10.0.1.137,557,move_down,-0.480,-0.480,-0.480,0.000,0.000,0.000
1605187054617611776,10.0.1.137,526,move_down,-0.500,-0.500,-0.500,0.000,0.000,0.000
1605187056383428096,10.0.1.137,648,move_down,-0.520,-0.520,-0.520,0.000,0.000,0.000
1605187058062361856,10.0.1.137,576,move_down,-0.540,-0.540,-0.540,0.000,0.000,0.000
1605187059609286144,10.0.1.137,502,move_down,-0.560,-0.560,-0.560,0.000,0.000,0.000
1605187061414569984,10.0.1.137,696,move_down,-0.580,-0.580,-0.580,0.000,0.000,0.000
1605187062585272064,10.0.1.137,42,pick,-0.590,-0.590,-0.590,0.000,0.000,0.000
1605187063609970944,10.0.1.137,52,pick,-0.600,-0.600,-0.600,0.000,0.000,0.000
1605187064597282048,10.0.1.137,38,pick,-0.610,-0.610,-0.610,0.000,0.000,0.000
1605187065601619968,10.0.1.137,41,pick,-0.620,-0.620,-0.620,0.000,0.000,0.000
1605187066609736960,10.0.1.137,46,pick,-0.630,-0.630,-0.630,0.000,0.000,0.000
1605187067600096000,10.0.1.137,36,pick,-0.640,-0.640,-0.640,0.000,0.000,0.000
1605187068604128000,10.0.1.137,40,pick,-0.650,-0.650,-0.650,0.000,0.000,0.000
1605187069620368896,10.0.1.137,51,pick,-0.660,-0.660,-0.660,0.000,0.000,0.000
1605187070629246976,10.0.1.137,54,pick,-0.670,-0.670,-0.670,0.000,0.000,0.000
1605187071619442944,10.0.1.137,43,pick,-0.680,-0.680,-0.680,0.000,0.000,0.000
1605187072620203008,10.0.1.137,42,pick,-0.690,-0.690,-0.690,0.000,0.000,0.000
1605187073656732160,10.0.1.137,77,pick,-0.700,-0.700,-0.700,0.000,0.000,0.000
1605187074622286080,10.0.1.137,42,pick,-0.710,-0.710,-0.710,0.000,0.000,0.000
1605187075623666944,10.0.1.137,43,pick,-0.720,-0.720,-0.720,0.000,0.000,0.000
1605187076622199040,10.0.1.137,40,pick,-0.730,-0.730,-0.730,0.000,0.000,0.000
1605187077619113984,10.0.1.137,36,pick,-0.740,-0.740,-0.740,0.000,0.000,0.000
1605187078620513792,10.0.1.137,36,pick,-0.750,-0.750,-0.750,0.000,0.000,0.000
1605187079618758912,10.0.1.137,32,pick,-0.760,-0.760,-0.760,0.000,0.000,0.000
1605187081588798976,10.0.1.137,NaN,move_up,-0.750,-0.750,-0.750,0.000,0.000,0.000
1605187082138881024,10.0.1.137,550,move_up,-0.750,-0.750,-0.750,0.000,0.000,0.000
1605187083696257024,10.0.1.137,488,move_up,-0.730,-0.730,-0.730,0.000,0.000,0.000
1605187085265844224,10.0.1.137,506,move_up,-0.710,-0.710,-0.710,0.000,0.000,0.000
1605187086880215040,10.0.1.137,547,move_up,-0.690,-0.690,-0.690,0.000,0.000,0.000
1605187088520952064,10.0.1.137,585,move_up,-0.670,-0.670,-0.670,0.000,0.000,0.000
1605187090182173952,10.0.1.137,584,move_up,-0.650,-0.650,-0.650,0.000,0.000,0.000
1605187091884337920,10.0.1.137,589,move_up,-0.630,-0.630,-0.630,0.000,0.000,0.000
1605187093630727936,10.0.1.137,686,move_up,-0.610,-0.610,-0.610,0.000,0.000,0.000
1605187095225532928,10.0.1.137,559,move_up,-0.590,-0.590,-0.590,0.000,0.000,0.000
1605187096919877120,10.0.1.137,551,move_up,-0.570,-0.570,-0.570,0.000,0.000,0.000
1605187098598656000,10.0.1.137,480,move_up,-0.550,-0.550,-0.550,0.000,0.000,0.000
1605187100342021888,10.0.1.137,658,move_up,-0.530,-0.530,-0.530,0.000,0.000,0.000
1605187101906144000,10.0.1.137,486,move_up,-0.510,-0.510,-0.510,0.000,0.000,0.000
1605187103588032000,10.0.1.137,522,move_up,-0.490,-0.490,-0.490,0.000,0.000,0.000
1605187105267877120,10.0.1.137,557,move_up,-0.470,-0.470,-0.470,0.000,0.000,0.000
1605187106909562112,10.0.1.137,608,move_up,-0.450,-0.450,-0.450,0.000,0.000,0.000
1605187108581165056,10.0.1.137,629,move_up,-0.430,-0.430,-0.430,0.000,0.000,0.000
1605187110205411072,10.0.1.137,512,move_up,-0.410,-0.410,-0.410,0.000,0.000,0.000
1605187111850793984,10.0.1.137,574,move_up,-0.390,-0.390,-0.390,0.000,0.000,0.000
1605187113477714944,10.0.1.137,561,move_up,-0.370,-0.370,-0.370,0.000,0.000,0.000
1605187115273622016,10.0.1.137,705,move_up,-0.350,-0.350,-0.350,0.000,0.000,0.000
1605187116917079808,10.0.1.137,579,move_up,-0.330,-0.330,-0.330,0.000,0.000,0.000
1605187118607161088,10.0.1.137,602,move_up,-0.310,-0.310,-0.310,0.000,0.000,0.000
1605187120244667904,10.0.1.137,569,move_up,-0.290,-0.290,-0.290,0.000,0.000,0.000
1605187121872115968,10.0.1.137,523,move_up,-0.270,-0.270,-0.270,0.000,0.000,0.000
1605187123523379968,10.0.1.137,517,move_up,-0.250,-0.250,-0.250,0.000,0.000,0.000
1605187125206459904,10.0.1.137,559,move_up,-0.230,-0.230,-0.230,0.000,0.000,0.000
1605187126970662144,10.0.1.137,573,move_up,-0.210,-0.210,-0.210,0.000,0.000,0.000
1605187128491524096,10.0.1.137,443,move_up,-0.190,-0.190,-0.190,0.000,0.000,0.000
1605187130609651200,10.0.1.137,NaN,place,-0.170,-0.170,-0.170,0.000,0.000,0.000
1605187130669302016,10.0.1.137,59,place,-0.170,-0.170,-0.170,0.000,0.000,0.000
1605187131695652864,10.0.1.137,54,place,-0.160,-0.160,-0.160,0.000,0.000,0.000
1605187133646138880,10.0.1.137,NaN,place,-0.140,-0.140,-0.140,0.000,0.000,0.000
1605187134650188032,10.0.1.137,NaN,place,-0.130,-0.130,-0.130,0.000,0.000,0.000
1605187134712280064,10.0.1.137,62,place,-0.130,-0.130,-0.130,0.000,0.000,0.000
1605187135705851904,10.0.1.137,54,place,-0.120,-0.120,-0.120,0.000,0.000,0.000
1605187136699932160,10.0.1.137,46,place,-0.110,-0.110,-0.110,0.000,0.000,0.000
1605187137699242240,10.0.1.137,45,place,-0.100,-0.100,-0.100,0.000,0.000,0.000
1605187138707484928,10.0.1.137,51,place,-0.090,-0.090,-0.090,0.000,0.000,0.000
1605187139701641984,10.0.1.137,44,place,-0.080,-0.080,-0.080,0.000,0.000,0.000
1605187140704911872,10.0.1.137,46,place,-0.070,-0.070,-0.070,0.000,0.000,0.000
1605187141705970176,10.0.1.137,47,place,-0.060,-0.060,-0.060,0.000,0.000,0.000
1605187142719425792,10.0.1.137,47,place,-0.050,-0.050,-0.050,0.000,0.000,0.000
1605187143720293120,10.0.1.137,45,place,-0.040,-0.040,-0.040,0.000,0.000,0.000
1605187144721213952,10.0.1.137,45,place,-0.030,-0.030,-0.030,0.000,0.000,0.000
1605187145721513984,10.0.1.137,42,place,-0.020,-0.020,-0.020,0.000,0.000,0.000
1605187146723473152,10.0.1.137,43,place,-0.010,-0.010,-0.010,0.000,0.000,0.000
1605187147718440960,10.0.1.137,36,place,0.000,0.000,0.000,0.000,0.000,0.000
1605187149266767872,10.0.1.137,561,move_down,-0.020,-0.020,-0.020,0.000,0.000,0.000
1605187150849404160,10.0.1.137,496,move_down,-0.040,-0.040,-0.040,0.000,0.000,0.000
1605187152580563968,10.0.1.137,675,move_down,-0.060,-0.060,-0.060,0.000,0.000,0.000
1605187154218441984,10.0.1.137,512,move_down,-0.080,-0.080,-0.080,0.000,0.000,0.000
1605187155931556864,10.0.1.137,619,move_down,-0.100,-0.100,-0.100,0.000,0.000,0.000
1605187157578216960,10.0.1.137,576,move_down,-0.120,-0.120,-0.120,0.000,0.000,0.000
1605187159327527936,10.0.1.137,681,move_down,-0.140,-0.140,-0.140,0.000,0.000,0.000
1605187161077966080,10.0.1.137,615,move_down,-0.160,-0.160,-0.160,0.000,0.000,0.000
1605187162771437824,10.0.1.137,591,move_down,-0.180,-0.180,-0.180,0.000,0.000,0.000
1605187164539190016,10.0.1.137,677,move_down,-0.200,-0.200,-0.200,0.000,0.000,0.000
1605187166260648960,10.0.1.137,645,move_down,-0.220,-0.220,-0.220,0.000,0.000,0.000
1605187167789888000,10.0.1.137,466,move_down,-0.240,-0.240,-0.240,0.000,0.000,0.000
1605187169682609152,10.0.1.137,773,move_down,-0.260,-0.260,-0.260,0.000,0.000,0.000
1605187171598541056,10.0.1.137,693,move_down,-0.280,-0.280,-0.280,0.000,0.000,0.000
1605187173247616000,10.0.1.137,536,move_down,-0.300,-0.300,-0.300,0.000,0.000,0.000
1605187174891017984,10.0.1.137,570,move_down,-0.320,-0.320,-0.320,0.000,0.000,0.000
1605187176637161984,10.0.1.137,614,move_down,-0.340,-0.340,-0.340,0.000,0.000,0.000
1605187178395489024,10.0.1.137,638,move_down,-0.360,-0.360,-0.360,0.000,0.000,0.000
1605187180121742848,10.0.1.137,568,move_down,-0.380,-0.380,-0.380,0.000,0.000,0.000
1605187181857201152,10.0.1.137,594,move_down,-0.400,-0.400,-0.400,0.000,0.000,0.000
1605187183581523968,10.0.1.137,632,move_down,-0.420,-0.420,-0.420,0.000,0.000,0.000
1605187185315749888,10.0.1.137,601,move_down,-0.440,-0.440,-0.440,0.000,0.000,0.000
1605187186893903872,10.0.1.137,580,move_down,-0.460,-0.460,-0.460,0.000,0.000,0.000
1605187188776367872,10.0.1.137,796,move_down,-0.480,-0.480,-0.480,0.000,0.000,0.000
1605187190581414912,10.0.1.137,624,move_down,-0.500,-0.500,-0.500,0.000,0.000,0.000
1605187192294328832,10.0.1.137,596,move_down,-0.520,-0.520,-0.520,0.000,0.000,0.000
1605187193905268992,10.0.1.137,539,move_down,-0.540,-0.540,-0.540,0.000,0.000,0.000
1605187195671201024,10.0.1.137,631,move_down,-0.560,-0.560,-0.560,0.000,0.000,0.000
1605187197501106944,10.0.1.137,672,move_down,-0.580,-0.580,-0.580,0.000,0.000,0.000
1605187198657800960,10.0.1.137,53,pick,-0.590,-0.590,-0.590,0.000,0.000,0.000
1605187199649667072,10.0.1.137,43,pick,-0.600,-0.600,-0.600,0.000,0.000,0.000
1605187200674505984,10.0.1.137,65,pick,-0.610,-0.610,-0.610,0.000,0.000,0.000
1605187201672414976,10.0.1.137,62,pick,-0.620,-0.620,-0.620,0.000,0.000,0.000
1605187202655632896,10.0.1.137,44,pick,-0.630,-0.630,-0.630,0.000,0.000,0.000
1605187203664093952,10.0.1.137,51,pick,-0.640,-0.640,-0.640,0.000,0.000,0.000
1605187204660238080,10.0.1.137,45,pick,-0.650,-0.650,-0.650,0.000,0.000,0.000
1605187205661744128,10.0.1.137,46,pick,-0.660,-0.660,-0.660,0.000,0.000,0.000
1605187206677881856,10.0.1.137,60,pick,-0.670,-0.670,-0.670,0.000,0.000,0.000
1605187207658224128,10.0.1.137,37,pick,-0.680,-0.680,-0.680,0.000,0.000,0.000
1605187208670004992,10.0.1.137,46,pick,-0.690,-0.690,-0.690,0.000,0.000,0.000
1605187209695915008,10.0.1.137,67,pick,-0.700,-0.700,-0.700,0.000,0.000,0.000
1605187210676124928,10.0.1.137,46,pick,-0.710,-0.710,-0.710,0.000,0.000,0.000
1605187211676197120,10.0.1.137,44,pick,-0.720,-0.720,-0.720,0.000,0.000,0.000
1605187213636730880,10.0.1.137,NaN,pick,-0.740,-0.740,-0.740,0.000,0.000,0.000
1605187213666696192,10.0.1.137,29,pick,-0.740,-0.740,-0.740,0.000,0.000,0.000
1605187214673888000,10.0.1.137,35,pick,-0.750,-0.750,-0.750,0.000,0.000,0.000
1605187215700784896,10.0.1.137,55,pick,-0.760,-0.760,-0.760,0.000,0.000,0.000
1605187216690450944,10.0.1.137,42,pick,-0.770,-0.770,-0.770,0.000,0.000,0.000
1605187218338597120,10.0.1.137,690,move_up,-0.750,-0.750,-0.750,0.000,0.000,0.000
1605187219991005952,10.0.1.137,613,move_up,-0.730,-0.730,-0.730,0.000,0.000,0.000
1605187221565548800,10.0.1.137,486,move_up,-0.710,-0.710,-0.710,0.000,0.000,0.000
1605187222700207104,10.0.1.137,-1,move_up,-0.690,-0.690,-0.690,0.000,0.000,0.000
1605187225090579968,10.0.1.137,573,move_up,-0.670,-0.670,-0.670,0.000,0.000,0.000
1605187226754752000,10.0.1.137,560,move_up,-0.650,-0.650,-0.650,0.000,0.000,0.000
1605187228444364032,10.0.1.137,506,move_up,-0.630,-0.630,-0.630,0.000,0.000,0.000
1605187230285164032,10.0.1.137,767,move_up,-0.610,-0.610,-0.610,0.000,0.000,0.000
1605187232046041856,10.0.1.137,678,move_up,-0.590,-0.590,-0.590,0.000,0.000,0.000
1605187233784730880,10.0.1.137,548,move_up,-0.570,-0.570,-0.570,0.000,0.000,0.000
1605187235377741056,10.0.1.137,558,move_up,-0.550,-0.550,-0.550,0.000,0.000,0.000
1605187237039854080,10.0.1.137,552,move_up,-0.530,-0.530,-0.530,0.000,0.000,0.000
1605187238810471168,10.0.1.137,647,move_up,-0.510,-0.510,-0.510,0.000,0.000,0.000
1605187240603435008,10.0.1.137,689,move_up,-0.490,-0.490,-0.490,0.000,0.000,0.000
1605187242340694784,10.0.1.137,637,move_up,-0.470,-0.470,-0.470,0.000,0.000,0.000
1605187243991651072,10.0.1.137,569,move_up,-0.450,-0.450,-0.450,0.000,0.000,0.000
1605187245584738048,10.0.1.137,503,move_up,-0.430,-0.430,-0.430,0.000,0.000,0.000
1605187247297224960,10.0.1.137,610,move_up,-0.410,-0.410,-0.410,0.000,0.000,0.000
1605187249104317952,10.0.1.137,718,move_up,-0.390,-0.390,-0.390,0.000,0.000,0.000
1605187250795569920,10.0.1.137,558,move_up,-0.370,-0.370,-0.370,0.000,0.000,0.000
1605187252567478784,10.0.1.137,627,move_up,-0.350,-0.350,-0.350,0.000,0.000,0.000
1605187254183857920,10.0.1.137,542,move_up,-0.330,-0.330,-0.330,0.000,0.000,0.000
1605187255759310848,10.0.1.137,502,move_up,-0.310,-0.310,-0.310,0.000,0.000,0.000
1605187257461752064,10.0.1.137,599,move_up,-0.290,-0.290,-0.290,0.000,0.000,0.000
1605187259071427072,10.0.1.137,522,move_up,-0.270,-0.270,-0.270,0.000,0.000,0.000
1605187260695024128,10.0.1.137,597,move_up,-0.250,-0.250,-0.250,0.000,0.000,0.000
1605187262245566976,10.0.1.137,487,move_up,-0.230,-0.230,-0.230,0.000,0.000,0.000
1605187264168945152,10.0.1.137,789,move_up,-0.210,-0.210,-0.210,0.000,0.000,0.000
1605187265849443840,10.0.1.137,477,move_up,-0.190,-0.190,-0.190,0.000,0.000,0.000
1605187267023276032,10.0.1.137,55,place,-0.180,-0.180,-0.180,0.000,0.000,0.000
1605187268028964096,10.0.1.137,51,place,-0.170,-0.170,-0.170,0.000,0.000,0.000
1605187269023212800,10.0.1.137,39,place,-0.160,-0.160,-0.160,0.000,0.000,0.000
1605187270987988992,10.0.1.137,NaN,place,-0.140,-0.140,-0.140,0.000,0.000,0.000
1605187271989299968,10.0.1.137,NaN,place,-0.130,-0.130,-0.130,0.000,0.000,0.000
1605187272039309056,10.0.1.137,49,place,-0.130,-0.130,-0.130,0.000,0.000,0.000
1605187273050642944,10.0.1.137,59,place,-0.120,-0.120,-0.120,0.000,0.000,0.000
1605187274067246848,10.0.1.137,70,place,-0.110,-0.110,-0.110,0.000,0.000,0.000
1605187275052110848,10.0.1.137,52,place,-0.100,-0.100,-0.100,0.000,0.000,0.000
1605187276057602816,10.0.1.137,55,place,-0.090,-0.090,-0.090,0.000,0.000,0.000
1605187277045323008,10.0.1.137,41,place,-0.080,-0.080,-0.080,0.000,0.000,0.000
1605187278053778944,10.0.1.137,46,place,-0.070,-0.070,-0.070,0.000,0.000,0.000
1605187279058590976,10.0.1.137,49,place,-0.060,-0.060,-0.060,0.000,0.000,0.000
1605187280051886080,10.0.1.137,40,place,-0.050,-0.050,-0.050,0.000,0.000,0.000
1605187281070713088,10.0.1.137,57,place,-0.040,-0.040,-0.040,0.000,0.000,0.000
1605187282084152832,10.0.1.137,68,place,-0.030,-0.030,-0.030,0.000,0.000,0.000
1605187283083864064,10.0.1.137,60,place,-0.020,-0.020,-0.020,0.000,0.000,0.000
1605187284076334848,10.0.1.137,43,place,-0.010,-0.010,-0.010,0.000,0.000,0.000
1605187285098945024,10.0.1.137,64,place,0.000,0.000,0.000,0.000,0.000,0.000
1605187286636566016,10.0.1.137,601,move_down,-0.020,-0.020,-0.020,0.000,0.000,0.000
1605187288449761024,10.0.1.137,766,move_down,-0.040,-0.040,-0.040,0.000,0.000,0.000
1605187290319454976,10.0.1.137,689,move_down,-0.060,-0.060,-0.060,0.000,0.000,0.000
1605187292362531072,10.0.1.137,843,move_down,-0.080,-0.080,-0.080,0.000,0.000,0.000
1605187294040971008,10.0.1.137,676,move_down,-0.100,-0.100,-0.100,0.000,0.000,0.000
1605187295831685120,10.0.1.137,742,move_down,-0.120,-0.120,-0.120,0.000,0.000,0.000
1605187297390649088,10.0.1.137,467,move_down,-0.140,-0.140,-0.140,0.000,0.000,0.000
1605187299174192896,10.0.1.137,656,move_down,-0.160,-0.160,-0.160,0.000,0.000,0.000
1605187300898135808,10.0.1.137,664,move_down,-0.180,-0.180,-0.180,0.000,0.000,0.000
1605187302672353024,10.0.1.137,691,move_down,-0.200,-0.200,-0.200,0.000,0.000,0.000
1605187304428692224,10.0.1.137,710,move_down,-0.220,-0.220,-0.220,0.000,0.000,0.000
1605187306182204928,10.0.1.137,720,move_down,-0.240,-0.240,-0.240,0.000,0.000,0.000
1605187308595741952,10.0.1.137,1271,move_down,-0.260,-0.260,-0.260,0.000,0.000,0.000
1605187310374233088,10.0.1.137,677,move_down,-0.280,-0.280,-0.280,0.000,0.000,0.000
1605187312130625024,10.0.1.137,654,move_down,-0.300,-0.300,-0.300,0.000,0.000,0.000
1605187313974956032,10.0.1.137,590,move_down,-0.320,-0.320,-0.320,0.000,0.000,0.000
1605187315820102912,10.0.1.137,736,move_down,-0.340,-0.340,-0.340,0.000,0.000,0.000
1605187317573241088,10.0.1.137,657,move_down,-0.360,-0.360,-0.360,0.000,0.000,0.000
1605187319211298816,10.0.1.137,560,move_down,-0.380,-0.380,-0.380,0.000,0.000,0.000
1605187321016964864,10.0.1.137,582,move_down,-0.400,-0.400,-0.400,0.000,0.000,0.000
1605187322774128896,10.0.1.137,596,move_down,-0.420,-0.420,-0.420,0.000,0.000,0.000
1605187324506417920,10.0.1.137,617,move_down,-0.440,-0.440,-0.440,0.000,0.000,0.000
1605187326275111936,10.0.1.137,627,move_down,-0.460,-0.460,-0.460,0.000,0.000,0.000
1605187328069032960,10.0.1.137,717,move_down,-0.480,-0.480,-0.480,0.000,0.000,0.000
1605187329860461056,10.0.1.137,739,move_down,-0.500,-0.500,-0.500,0.000,0.000,0.000
1605187331525207040,10.0.1.137,571,move_down,-0.520,-0.520,-0.520,0.000,0.000,0.000
1605187333332596992,10.0.1.137,NaN,move_down,-0.560,-0.560,-0.560,0.000,0.000,0.000
1605187333987556864,10.0.1.137,654,move_down,-0.560,-0.560,-0.560,0.000,0.000,0.000
1605187335691365888,10.0.1.137,598,move_down,-0.580,-0.580,-0.580,0.000,0.000,0.000
1605187337317472000,10.0.1.137,569,move_down,-0.600,-0.600,-0.600,0.000,0.000,0.000
1605187338954992896,10.0.1.137,618,move_down,-0.620,-0.620,-0.620,0.000,0.000,0.000
1605187340863076864,10.0.1.137,850,move_down,-0.640,-0.640,-0.640,0.000,0.000,0.000
1605187342537480960,10.0.1.137,641,move_down,-0.660,-0.660,-0.660,0.000,0.000,0.000
1605187344326351872,10.0.1.137,739,move_down,-0.680,-0.680,-0.680,0.000,0.000,0.000
1605187345892909056,10.0.1.137,544,move_down,-0.700,-0.700,-0.700,0.000,0.000,0.000
1605187347440637184,10.0.1.137,512,move_down,-0.720,-0.720,-0.720,0.000,0.000,0.000
1605187349009816832,10.0.1.137,526,move_down,-0.740,-0.740,-0.740,0.000,0.000,0.000
1605187350588811008,10.0.1.137,490,move_down,-0.760,-0.760,-0.760,0.000,0.000,0.000
1605187352310403072,10.0.1.137,533,move_down,-0.780,-0.780,-0.780,0.000,0.000,0.000
1605187353867048960,10.0.1.137,464,move_down,-0.800,-0.800,-0.800,0.000,0.000,0.000
1605187355482758144,10.0.1.137,560,move_down,-0.820,-0.820,-0.820,0.000,0.000,0.000
1605187357162035968,10.0.1.137,579,move_down,-0.840,-0.840,-0.840,0.000,0.000,0.000
1605187358783422976,10.0.1.137,579,move_down,-0.860,-0.860,-0.860,0.000,0.000,0.000
1605187360503737088,10.0.1.137,676,move_down,-0.880,-0.880,-0.880,0.000,0.000,0.000
1605187362211960064,10.0.1.137,574,move_down,-0.900,-0.900,-0.900,0.000,0.000,0.000
1605187364327982848,10.0.1.137,927,move_down,-0.920,-0.920,-0.920,0.000,0.000,0.000
1605187365770589184,10.0.1.137,NaN,move_down,-0.960,-0.960,-0.960,0.000,0.000,0.000
1605187366098246144,10.0.1.137,NaN,move_down,-0.980,-0.980,-0.980,0.000,0.000,0.000
1605187366431875840,10.0.1.137,NaN,move_down,-1.000,-1.000,-1.000,0.000,0.000,0.000
1605187366726788096,10.0.1.137,NaN,move_down,-1.020,-1.020,-1.020,0.000,0.000,0.000
1605187367238789120,10.0.1.137,NaN,move_down,-1.040,-1.040,-1.040,0.000,0.000,0.000
1605187367866569984,10.0.1.137,NaN,move_down,-1.060,-1.060,-1.060,0.000,0.000,0.000
1605187368383112960,10.0.1.137,NaN,move_down,-1.080,-1.080,-1.080,0.000,0.000,0.000
1605187368867863808,10.0.1.137,NaN,move_down,-1.100,-1.100,-1.100,0.000,0.000,0.000
1605187369363603968,10.0.1.137,NaN,move_down,-1.120,-1.120,-1.120,0.000,0.000,0.000
1605187369816183040,10.0.1.137,NaN,move_down,-1.140,-1.140,-1.140,0.000,0.000,0.000
1605187370326731008,10.0.1.137,NaN,move_down,-1.160,-1.160,-1.160,0.000,0.000,0.000
1605187370723876096,10.0.1.137,NaN,move_down,-1.180,-1.180,-1.180,0.000,0.000,0.000
1605187371174491904,10.0.1.137,NaN,move_down,-1.200,-1.200,-1.200,0.000,0.000,0.000
1605187371509274880,10.0.1.137,NaN,move_down,-1.220,-1.220,-1.220,0.000,0.000,0.000
1605187372124654080,10.0.1.137,NaN,move_down,-1.240,-1.240,-1.240,0.000,0.000,0.000
1605187372667688960,10.0.1.137,NaN,move_down,-1.260,-1.260,-1.260,0.000,0.000,0.000
1605187372979907072,10.0.1.137,NaN,move_down,-1.280,-1.280,-1.280,0.000,0.000,0.000
1605187373336100096,10.0.1.137,NaN,move_down,-1.300,-1.300,-1.300,0.000,0.000,0.000
1605187373806114816,10.0.1.137,NaN,move_down,-1.320,-1.320,-1.320,0.000,0.000,0.000
1605187374264365824,10.0.1.137,NaN,move_down,-1.340,-1.340,-1.340,0.000,0.000,0.000
1605187374735784960,10.0.1.137,NaN,move_down,-1.360,-1.360,-1.360,0.000,0.000,0.000
1605187375206075904,10.0.1.137,NaN,move_down,-1.380,-1.380,-1.380,0.000,0.000,0.000
1605187375745776896,10.0.1.137,NaN,move_down,-1.400,-1.400,-1.400,0.000,0.000,0.000
1605187375890880000,10.0.1.137,NaN,move_down,-1.420,-1.420,-1.420,0.000,0.000,0.000
1605187375993201920,10.0.1.137,NaN,move_down,-1.440,-1.440,-1.440,0.000,0.000,0.000
1605187376152615168,10.0.1.137,NaN,move_down,-1.460,-1.460,-1.460,0.000,0.000,0.000
1605187376397502976,10.0.1.137,NaN,move_down,-1.480,-1.480,-1.480,0.000,0.000,0.000
1605187376558400000,10.0.1.137,NaN,move_down,-1.500,-1.500,-1.500,0.000,0.000,0.000
1605187376689030912,10.0.1.137,NaN,move_down,-1.520,-1.520,-1.520,0.000,0.000,0.000
1605187376769160960,10.0.1.137,NaN,move_down,-1.540,-1.540,-1.540,0.000,0.000,0.000
1605187376957282048,10.0.1.137,NaN,move_down,-1.560,-1.560,-1.560,0.000,0.000,0.000
1605187377294969088,10.0.1.137,NaN,move_down,-1.580,-1.580,-1.580,0.000,0.000,0.000
1605187377523288064,10.0.1.137,NaN,move_down,-1.600,-1.600,-1.600,0.000,0.000,0.000
1605187377662454016,10.0.1.137,NaN,move_down,-1.620,-1.620,-1.620,0.000,0.000,0.000
1605187377731633920,10.0.1.137,NaN,move_down,-1.640,-1.640,-1.640,0.000,0.000,0.000
1605187377997998080,10.0.1.137,NaN,move_down,-1.660,-1.660,-1.660,0.000,0.000,0.000
1605187378166702080,10.0.1.137,NaN,move_down,-1.680,-1.680,-1.680,0.000,0.000,0.000
1605187378319772928,10.0.1.137,NaN,move_down,-1.700,-1.700,-1.700,0.000,0.000,0.000
1605187378489496064,10.0.1.137,NaN,move_down,-1.720,-1.720,-1.720,0.000,0.000,0.000
1605187378627578112,10.0.1.137,NaN,move_down,-1.740,-1.740,-1.740,0.000,0.000,0.000
1605187378769902080,10.0.1.137,NaN,move_down,-1.760,-1.760,-1.760,0.000,0.000,0.000
1605187378955298816,10.0.1.137,NaN,move_down,-1.780,-1.780,-1.780,0.000,0.000,0.000
1605187379120994048,10.0.1.137,NaN,move_down,-1.800,-1.800,-1.800,0.000,0.000,0.000
1605187379295054080,10.0.1.137,NaN,move_down,-1.820,-1.820,-1.820,0.000,0.000,0.000
1605187379464381952,10.0.1.137,NaN,move_down,-1.840,-1.840,-1.840,0.000,0.000,0.000
1605187379531297024,10.0.1.137,NaN,move_down,-1.860,-1.860,-1.860,0.000,0.000,0.000
1605187379674280960,10.0.1.137,NaN,move_down,-1.880,-1.880,-1.880,0.000,0.000,0.000
1605187380044997888,10.0.1.137,NaN,move_down,-1.900,-1.900,-1.900,0.000,0.000,0.000
1605187380326221824,10.0.1.137,NaN,move_down,-1.920,-1.920,-1.920,0.000,0.000,0.000
1605187380542283008,10.0.1.137,NaN,move_down,-1.940,-1.940,-1.940,0.000,0.000,0.000
1605187380767000064,10.0.1.137,NaN,move_down,-1.960,-1.960,-1.960,0.000,0.000,0.000
1605187381042974976,10.0.1.137,NaN,move_down,-1.980,-1.980,-1.980,0.000,0.000,0.000
1605187381239368960,10.0.1.137,NaN,move_down,-2.000,-2.000,-2.000,0.000,0.000,0.000
1605187381513637120,10.0.1.137,NaN,move_down,-2.020,-2.020,-2.020,0.000,0.000,0.000
1605187381663467776,10.0.1.137,NaN,move_down,-2.040,-2.040,-2.040,0.000,0.000,0.000
1605187381814172928,10.0.1.137,NaN,move_down,-2.060,-2.060,-2.060,0.000,0.000,0.000
1605187382097481984,10.0.1.137,NaN,move_down,-2.080,-2.080,-2.080,0.000,0.000,0.000
1605187382229932032,10.0.1.137,NaN,move_down,-2.100,-2.100,-2.100,0.000,0.000,0.000
1605187382527436032,10.0.1.137,NaN,move_down,-2.120,-2.120,-2.120,0.000,0.000,0.000
1605187382668761856,10.0.1.137,NaN,move_down,-2.140,-2.140,-2.140,0.000,0.000,0.000
1605187382797664000,10.0.1.137,NaN,move_down,-2.160,-2.160,-2.160,0.000,0.000,0.000
1605187383055543040,10.0.1.137,NaN,move_down,-2.180,-2.180,-2.180,0.000,0.000,0.000
1605187383238364928,10.0.1.137,NaN,move_down,-2.200,-2.200,-2.200,0.000,0.000,0.000
1605187383390481920,10.0.1.137,NaN,move_down,-2.220,-2.220,-2.220,0.000,0.000,0.000
1605187383553196800,10.0.1.137,NaN,move_down,-2.240,-2.240,-2.240,0.000,0.000,0.000
1605187383691521792,10.0.1.137,NaN,move_down,-2.260,-2.260,-2.260,0.000,0.000,0.000
1605187383844486912,10.0.1.137,NaN,move_down,-2.280,-2.280,-2.280,0.000,0.000,0.000
1605187383988950016,10.0.1.137,NaN,move_down,-2.300,-2.300,-2.300,0.000,0.000,0.000
1605187384194930176,10.0.1.137,NaN,move_down,-2.320,-2.320,-2.320,0.000,0.000,0.000
1605187384381746944,10.0.1.137,NaN,move_down,-2.340,-2.340,-2.340,0.000,0.000,0.000
1605187384554471936,10.0.1.137,NaN,move_down,-2.360,-2.360,-2.360,0.000,0.000,0.000
1605187384727891968,10.0.1.137,NaN,move_down,-2.380,-2.380,-2.380,0.000,0.000,0.000
1605187384877408000,10.0.1.137,NaN,move_down,-2.400,-2.400,-2.400,0.000,0.000,0.000
1605187384950206976,10.0.1.137,NaN,move_down,-2.420,-2.420,-2.420,0.000,0.000,0.000
1605187385091404800,10.0.1.137,NaN,move_down,-2.440,-2.440,-2.440,0.000,0.000,0.000
1605187385310298880,10.0.1.137,NaN,move_down,-2.460,-2.460,-2.460,0.000,0.000,0.000
1605187385434603008,10.0.1.137,NaN,move_down,-2.480,-2.480,-2.480,0.000,0.000,0.000
1605187385748148992,10.0.1.137,NaN,move_down,-2.500,-2.500,-2.500,0.000,0.000,0.000
1605187385798755840,10.0.1.137,NaN,move_down,-2.520,-2.520,-2.520,0.000,0.000,0.000
1605187385921235200,10.0.1.137,NaN,move_down,-2.540,-2.540,-2.540,0.000,0.000,0.000
1605187386160274944,10.0.1.137,NaN,move_down,-2.560,-2.560,-2.560,0.000,0.000,0.000
1605187386381491968,10.0.1.137,NaN,move_down,-2.580,-2.580,-2.580,0.000,0.000,0.000
1605187386535852032,10.0.1.137,NaN,move_down,-2.600,-2.600,-2.600,0.000,0.000,0.000
1605187386737476096,10.0.1.137,NaN,move_down,-2.620,-2.620,-2.620,0.000,0.000,0.000
1605187386967945216,10.0.1.137,NaN,move_down,-2.640,-2.640,-2.640,0.000,0.000,0.000
1605187387155659008,10.0.1.137,NaN,move_down,-2.660,-2.660,-2.660,0.000,0.000,0.000
1605187387324008960,10.0.1.137,NaN,move_down,-2.680,-2.680,-2.680,0.000,0.000,0.000
1605187387512430080,10.0.1.137,NaN,move_down,-2.700,-2.700,-2.700,0.000,0.000,0.000
1605187387588422912,10.0.1.137,NaN,move_down,-2.720,-2.720,-2.720,0.000,0.000,0.000
1605187387758491904,10.0.1.137,NaN,move_down,-2.740,-2.740,-2.740,0.000,0.000,0.000
1605187387935972864,10.0.1.137,NaN,move_down,-2.760,-2.760,-2.760,0.000,0.000,0.000
1605187388059371008,10.0.1.137,NaN,move_down,-2.780,-2.780,-2.780,0.000,0.000,0.000
1605187388242145024,10.0.1.137,NaN,move_down,-2.800,-2.800,-2.800,0.000,0.000,0.000
1605187388364232960,10.0.1.137,NaN,move_down,-2.820,-2.820,-2.820,0.000,0.000,0.000
1605187388597107968,10.0.1.137,NaN,move_down,-2.840,-2.840,-2.840,0.000,0.000,0.000
1605187388857240832,10.0.1.137,NaN,move_down,-2.860,-2.860,-2.860,0.000,0.000,0.000
1605187389053170944,10.0.1.137,NaN,move_down,-2.880,-2.880,-2.880,0.000,0.000,0.000
1605187389168760064,10.0.1.137,NaN,move_down,-2.900,-2.900,-2.900,0.000,0.000,0.000
1605187389365129984,10.0.1.137,NaN,move_down,-2.920,-2.920,-2.920,0.000,0.000,0.000
1605187389600536064,10.0.1.137,NaN,move_down,-2.940,-2.940,-2.940,0.000,0.000,0.000
1605187389775439104,10.0.1.137,NaN,move_down,-2.960,-2.960,-2.960,0.000,0.000,0.000
1605187390126377216,10.0.1.137,NaN,move_down,-2.980,-2.980,-2.980,0.000,0.000,0.000
1605187390280100096,10.0.1.137,NaN,move_down,-3.000,-3.000,-3.000,0.000,0.000,0.000
1605187390479481856,10.0.1.137,NaN,move_down,-3.020,-3.020,-3.020,0.000,0.000,0.000
1605187390717257984,10.0.1.137,NaN,move_down,-3.040,-3.040,-3.040,0.000,0.000,0.000
1605187390893042944,10.0.1.137,NaN,move_down,-3.060,-3.060,-3.060,0.000,0.000,0.000
1605187391079403008,10.0.1.137,NaN,move_down,-3.080,-3.080,-3.080,0.000,0.000,0.000
1605187391194808064,10.0.1.137,NaN,move_down,-3.100,-3.100,-3.100,0.000,0.000,0.000
1605187391328547072,10.0.1.137,NaN,move_down,-3.120,-3.120,-3.120,0.000,0.000,0.000
1605187391465464064,10.0.1.137,NaN,move_down,-3.140,-3.140,-3.140,0.000,0.000,0.000
1605187391690104064,10.0.1.137,NaN,move_down,-3.160,-3.160,-3.160,0.000,0.000,0.000
1605187391807518976,10.0.1.137,NaN,move_down,-3.180,-3.180,-3.180,0.000,0.000,0.000
1605187392077948160,10.0.1.137,NaN,move_down,-3.200,-3.200,-3.200,0.000,0.000,0.000
1605187392169107968,10.0.1.137,NaN,move_down,-3.220,-3.220,-3.220,0.000,0.000,0.000
1605187392336770048,10.0.1.137,NaN,move_down,-3.240,-3.240,-3.240,0.000,0.000,0.000
1605187392493573888,10.0.1.137,NaN,move_down,-3.260,-3.260,-3.260,0.000,0.000,0.000
1605187392720683008,10.0.1.137,NaN,move_down,-3.280,-3.280,-3.280,0.000,0.000,0.000
1605187392851730944,10.0.1.137,NaN,move_down,-3.300,-3.300,-3.300,0.000,0.000,0.000
1605187393306617088,10.0.1.137,NaN,move_down,-3.320,-3.320,-3.320,0.000,0.000,0.000
1605187393535609856,10.0.1.137,NaN,move_down,-3.340,-3.340,-3.340,0.000,0.000,0.000
1605187393672614144,10.0.1.137,NaN,move_down,-3.360,-3.360,-3.360,0.000,0.000,0.000
1605187393899878144,10.0.1.137,NaN,move_down,-3.380,-3.380,-3.380,0.000,0.000,0.000
1605187394041098240,10.0.1.137,NaN,move_down,-3.400,-3.400,-3.400,0.000,0.000,0.000
1605187394143842816,10.0.1.137,NaN,move_down,-3.420,-3.420,-3.420,0.000,0.000,0.000
1605187394295624960,10.0.1.137,NaN,move_down,-3.440,-3.440,-3.440,0.000,0.000,0.000
1605187394444758784,10.0.1.137,NaN,move_down,-3.460,-3.460,-3.460,0.000,0.000,0.000
1605187394540962048,10.0.1.137,NaN,move_down,-3.480,-3.480,-3.480,0.000,0.000,0.000
1605187394782321920,10.0.1.137,NaN,move_down,-3.500,-3.500,-3.500,0.000,0.000,0.000
1605187395021548032,10.0.1.137,NaN,move_down,-3.520,-3.520,-3.520,0.000,0.000,0.000
1605187395307636992,10.0.1.137,NaN,move_down,-3.540,-3.540,-3.540,0.000,0.000,0.000
1605187395470557952,10.0.1.137,NaN,move_down,-3.560,-3.560,-3.560,0.000,0.000,0.000
1605187395567243008,10.0.1.137,NaN,move_down,-3.580,-3.580,-3.580,0.000,0.000,0.000
1605187395778067200,10.0.1.137,NaN,move_down,-3.600,-3.600,-3.600,0.000,0.000,0.000
1605187395921989888,10.0.1.137,NaN,move_down,-3.620,-3.620,-3.620,0.000,0.000,0.000
1605187396031313920,10.0.1.137,NaN,move_down,-3.640,-3.640,-3.640,0.000,0.000,0.000
1605187396148375040,10.0.1.137,NaN,move_down,-3.660,-3.660,-3.660,0.000,0.000,0.000
1605187396331367936,10.0.1.137,NaN,move_down,-3.680,-3.680,-3.680,0.000,0.000,0.000
1605187396490205952,10.0.1.137,NaN,move_down,-3.700,-3.700,-3.700,0.000,0.000,0.000
1605187396624878848,10.0.1.137,NaN,move_down,-3.720,-3.720,-3.720,0.000,0.000,0.000
1605187396824572928,10.0.1.137,NaN,move_down,-3.740,-3.740,-3.740,0.000,0.000,0.000
1605187396971753984,10.0.1.137,NaN,move_down,-3.760,-3.760,-3.760,0.000,0.000,0.000
1605187397293346816,10.0.1.137,NaN,move_down,-3.780,-3.780,-3.780,0.000,0.000,0.000
1605187397456187904,10.0.1.137,NaN,move_down,-3.800,-3.800,-3.800,0.000,0.000,0.000
1605187397585974016,10.0.1.137,NaN,move_down,-3.820,-3.820,-3.820,0.000,0.000,0.000
1605187397789485824,10.0.1.137,NaN,move_down,-3.840,-3.840,-3.840,0.000,0.000,0.000
1605187397939578112,10.0.1.137,NaN,move_down,-3.860,-3.860,-3.860,0.000,0.000,0.000
1605187397995862016,10.0.1.137,NaN,move_down,-3.880,-3.880,-3.880,0.000,0.000,0.000
1605187398348540160,10.0.1.137,NaN,move_down,-3.900,-3.900,-3.900,0.000,0.000,0.000
1605187398484573952,10.0.1.137,NaN,move_down,-3.920,-3.920,-3.920,0.000,0.000,0.000
1605187398573890816,10.0.1.137,NaN,move_down,-3.940,-3.940,-3.940,0.000,0.000,0.000
1605187398721959168,10.0.1.137,NaN,move_down,-3.960,-3.960,-3.960,0.000,0.000,0.000
1605187398936333056,10.0.1.137,NaN,move_down,-3.980,-3.980,-3.980,0.000,0.000,0.000
1605187399071755776,10.0.1.137,NaN,move_down,-4.000,-4.000,-4.000,0.000,0.000,0.000
1605187399318939904,10.0.1.137,NaN,move_down,-4.020,-4.020,-4.020,0.000,0.000,0.000
1605187399497507072,10.0.1.137,NaN,move_down,-4.040,-4.040,-4.040,0.000,0.000,0.000
1605187399731728128,10.0.1.137,NaN,move_down,-4.060,-4.060,-4.060,0.000,0.000,0.000
1605187399881779968,10.0.1.137,NaN,move_down,-4.080,-4.080,-4.080,0.000,0.000,0.000
1605187400191063040,10.0.1.137,NaN,move_down,-4.100,-4.100,-4.100,0.000,0.000,0.000
1605187400429723904,10.0.1.137,NaN,move_down,-4.120,-4.120,-4.120,0.000,0.000,0.000
1605187400717342976,10.0.1.137,NaN,move_down,-4.140,-4.140,-4.140,0.000,0.000,0.000
1605187401166291968,10.0.1.137,NaN,move_down,-4.160,-4.160,-4.160,0.000,0.000,0.000
1605187401349191936,10.0.1.137,NaN,move_down,-4.180,-4.180,-4.180,0.000,0.000,0.000
1605187401478673920,10.0.1.137,NaN,move_down,-4.200,-4.200,-4.200,0.000,0.000,0.000
1605187401945583104,10.0.1.137,NaN,move_down,-4.220,-4.220,-4.220,0.000,0.000,0.000
1605187402142408960,10.0.1.137,NaN,move_down,-4.240,-4.240,-4.240,0.000,0.000,0.000
1605187402199308032,10.0.1.137,NaN,move_down,-4.260,-4.260,-4.260,0.000,0.000,0.000
1605187402341521920,10.0.1.137,NaN,move_down,-4.280,-4.280,-4.280,0.000,0.000,0.000
1605187402376172032,10.0.1.137,NaN,move_down,-4.300,-4.300,-4.300,0.000,0.000,0.000
1605187402552443136,10.0.1.137,NaN,move_down,-4.320,-4.320,-4.320,0.000,0.000,0.000
1605187402708399104,10.0.1.137,NaN,move_down,-4.340,-4.340,-4.340,0.000,0.000,0.000
1605187402909713920,10.0.1.137,NaN,move_down,-4.360,-4.360,-4.360,0.000,0.000,0.000
1605187403025698048,10.0.1.137,NaN,move_down,-4.380,-4.380,-4.380,0.000,0.000,0.000
1605187403211469824,10.0.1.137,NaN,move_down,-4.400,-4.400,-4.400,0.000,0.000,0.000
1605187403294793984,10.0.1.137,NaN,move_down,-4.420,-4.420,-4.420,0.000,0.000,0.000
1605187403408343040,10.0.1.137,NaN,move_down,-4.440,-4.440,-4.440,0.000,0.000,0.000
1605187403507232000,10.0.1.137,NaN,move_down,-4.460,-4.460,-4.460,0.000,0.000,0.000
1605187403682796032,10.0.1.137,NaN,move_down,-4.480,-4.480,-4.480,0.000,0.000,0.000
1605187403875801088,10.0.1.137,NaN,move_down,-4.500,-4.500,-4.500,0.000,0.000,0.000
1605187403971394048,10.0.1.137,NaN,move_down,-4.520,-4.520,-4.520,0.000,0.000,0.000
1605187404176304128,10.0.1.137,NaN,move_down,-4.540,-4.540,-4.540,0.000,0.000,0.000
1605187404407294976,10.0.1.137,NaN,move_down,-4.560,-4.560,-4.560,0.000,0.000,0.000
1605187404545532928,10.0.1.137,NaN,move_down,-4.580,-4.580,-4.580,0.000,0.000,0.000
1605187404712795904,10.0.1.137,NaN,move_down,-4.600,-4.600,-4.600,0.000,0.000,0.000
1605187404837188864,10.0.1.137,NaN,move_down,-4.620,-4.620,-4.620,0.000,0.000,0.000
1605187404920229888,10.0.1.137,NaN,move_down,-4.640,-4.640,-4.640,0.000,0.000,0.000
1605187405082406144,10.0.1.137,NaN,move_down,-4.660,-4.660,-4.660,0.000,0.000,0.000
1605187405144585984,10.0.1.137,NaN,move_down,-4.680,-4.680,-4.680,0.000,0.000,0.000
1605187405216793088,10.0.1.137,NaN,move_down,-4.700,-4.700,-4.700,0.000,0.000,0.000
1605187405423801856,10.0.1.137,NaN,move_down,-4.720,-4.720,-4.720,0.000,0.000,0.000
1605187405582691072,10.0.1.137,NaN,move_down,-4.740,-4.740,-4.740,0.000,0.000,0.000
1605187405777784064,10.0.1.137,NaN,move_down,-4.760,-4.760,-4.760,0.000,0.000,0.000
1605187405958134784,10.0.1.137,NaN,move_down,-4.780,-4.780,-4.780,0.000,0.000,0.000
1605187406211049984,10.0.1.137,NaN,move_down,-4.800,-4.800,-4.800,0.000,0.000,0.000
1605187406783770112,10.0.1.137,NaN,move_down,-4.820,-4.820,-4.820,0.000,0.000,0.000
1605187407011053056,10.0.1.137,NaN,move_down,-4.840,-4.840,-4.840,0.000,0.000,0.000
1605187407124603904,10.0.1.137,NaN,move_down,-4.860,-4.860,-4.860,0.000,0.000,0.000
1605187407314125056,10.0.1.137,NaN,move_down,-4.880,-4.880,-4.880,0.000,0.000,0.000
1605187407579318016,10.0.1.137,NaN,move_down,-4.900,-4.900,-4.900,0.000,0.000,0.000
1605187407766277120,10.0.1.137,NaN,move_down,-4.920,-4.920,-4.920,0.000,0.000,0.000
1605187407957400064,10.0.1.137,NaN,move_down,-4.940,-4.940,-4.940,0.000,0.000,0.000
1605187408250503936,10.0.1.137,NaN,move_down,-4.960,-4.960,-4.960,0.000,0.000,0.000
1605187408477030144,10.0.1.137,NaN,move_down,-4.980,-4.980,-4.980,0.000,0.000,0.000
1605187408592380160,10.0.1.137,NaN,move_down,-5.000,-5.000,-5.000,0.000,0.000,0.000
1605187408793075968,10.0.1.137,NaN,move_down,-5.020,-5.020,-5.020,0.000,0.000,0.000
1605187409086919168,10.0.1.137,NaN,move_down,-5.040,-5.040,-5.040,0.000,0.000,0.000
1605187409243907840,10.0.1.137,NaN,move_down,-5.060,-5.060,-5.060,0.000,0.000,0.000
1605187409393228032,10.0.1.137,NaN,move_down,-5.080,-5.080,-5.080,0.000,0.000,0.000
1605187409546498048,10.0.1.137,NaN,move_down,-5.100,-5.100,-5.100,0.000,0.000,0.000
1605187409604896000,10.0.1.137,NaN,move_down,-5.120,-5.120,-5.120,0.000,0.000,0.000
1605187409776416000,10.0.1.137,NaN,move_down,-5.140,-5.140,-5.140,0.000,0.000,0.000
1605187409894750976,10.0.1.137,NaN,move_down,-5.160,-5.160,-5.160,0.000,0.000,0.000
1605187410147062016,10.0.1.137,NaN,move_down,-5.180,-5.180,-5.180,0.000,0.000,0.000
1605187410298251008,10.0.1.137,NaN,move_down,-5.200,-5.200,-5.200,0.000,0.000,0.000
1605187410379298816,10.0.1.137,NaN,move_down,-5.220,-5.220,-5.220,0.000,0.000,0.000
1605187410534714880,10.0.1.137,NaN,move_down,-5.240,-5.240,-5.240,0.000,0.000,0.000
1605187410634478080,10.0.1.137,NaN,move_down,-5.260,-5.260,-5.260,0.000,0.000,0.000
1605187410811680000,10.0.1.137,NaN,move_down,-5.280,-5.280,-5.280,0.000,0.000,0.000
1605187411078429952,10.0.1.137,NaN,move_down,-5.300,-5.300,-5.300,0.000,0.000,0.000
1605187411297164800,10.0.1.137,NaN,move_down,-5.320,-5.320,-5.320,0.000,0.000,0.000
1605187411531692032,10.0.1.137,NaN,move_down,-5.340,-5.340,-5.340,0.000,0.000,0.000
1605187411591564800,10.0.1.137,NaN,move_down,-5.360,-5.360,-5.360,0.000,0.000,0.000
1605187411698635008,10.0.1.137,NaN,move_down,-5.380,-5.380,-5.380,0.000,0.000,0.000
1605187411841742080,10.0.1.137,NaN,move_down,-5.400,-5.400,-5.400,0.000,0.000,0.000
1605187412074008064,10.0.1.137,NaN,move_down,-5.420,-5.420,-5.420,0.000,0.000,0.000
1605187412248246784,10.0.1.137,NaN,move_down,-5.440,-5.440,-5.440,0.000,0.000,0.000
1605187412498974976,10.0.1.137,NaN,move_down,-5.460,-5.460,-5.460,0.000,0.000,0.000
1605187412762114048,10.0.1.137,NaN,move_down,-5.480,-5.480,-5.480,0.000,0.000,0.000
1605187412924976128,10.0.1.137,NaN,move_down,-5.500,-5.500,-5.500,0.000,0.000,0.000
1605187413088300032,10.0.1.137,NaN,move_down,-5.520,-5.520,-5.520,0.000,0.000,0.000
1605187413291228160,10.0.1.137,NaN,move_down,-5.540,-5.540,-5.540,0.000,0.000,0.000
1605187413395407872,10.0.1.137,NaN,move_down,-5.560,-5.560,-5.560,0.000,0.000,0.000
1605187413563288064,10.0.1.137,NaN,move_down,-5.580,-5.580,-5.580,0.000,0.000,0.000
1605187413753442048,10.0.1.137,NaN,move_down,-5.600,-5.600,-5.600,0.000,0.000,0.000
1605187413943159040,10.0.1.137,NaN,move_down,-5.620,-5.620,-5.620,0.000,0.000,0.000
1605187414140013056,10.0.1.137,NaN,move_down,-5.640,-5.640,-5.640,0.000,0.000,0.000
1605187414202616064,10.0.1.137,NaN,move_down,-5.660,-5.660,-5.660,0.000,0.000,0.000
1605187414348672000,10.0.1.137,NaN,move_down,-5.680,-5.680,-5.680,0.000,0.000,0.000
1605187414559892992,10.0.1.137,NaN,move_down,-5.700,-5.700,-5.700,0.000,0.000,0.000
1605187414748786944,10.0.1.137,NaN,move_down,-5.720,-5.720,-5.720,0.000,0.000,0.000
1605187414941404160,10.0.1.137,NaN,move_down,-5.740,-5.740,-5.740,0.000,0.000,0.000
1605187415047322112,10.0.1.137,NaN,move_down,-5.760,-5.760,-5.760,0.000,0.000,0.000
1605187415355604992,10.0.1.137,NaN,move_down,-5.780,-5.780,-5.780,0.000,0.000,0.000
1605187415490190080,10.0.1.137,NaN,move_down,-5.800,-5.800,-5.800,0.000,0.000,0.000
1605187415610065920,10.0.1.137,NaN,move_down,-5.820,-5.820,-5.820,0.000,0.000,0.000
1605187415811939072,10.0.1.137,NaN,move_down,-5.840,-5.840,-5.840,0.000,0.000,0.000
1605187416008927232,10.0.1.137,NaN,move_down,-5.860,-5.860,-5.860,0.000,0.000,0.000
1605187416188985088,10.0.1.137,NaN,move_down,-5.880,-5.880,-5.880,0.000,0.000,0.000
1605187416342696960,10.0.1.137,NaN,move_down,-5.900,-5.900,-5.900,0.000,0.000,0.000
1605187416604978944,10.0.1.137,NaN,move_down,-5.920,-5.920,-5.920,0.000,0.000,0.000
1605187416818635008,10.0.1.137,NaN,move_down,-5.940,-5.940,-5.940,0.000,0.000,0.000
1605187417018185984,10.0.1.137,NaN,move_down,-5.960,-5.960,-5.960,0.000,0.000,0.000
1605187417149827072,10.0.1.137,NaN,move_down,-5.980,-5.980,-5.980,0.000,0.000,0.000
1605187417215054080,10.0.1.137,NaN,move_down,-6.000,-6.000,-6.000,0.000,0.000,0.000
1605187417388251904,10.0.1.137,NaN,move_down,-6.020,-6.020,-6.020,0.000,0.000,0.000
1605187417596289024,10.0.1.137,NaN,move_down,-6.040,-6.040,-6.040,0.000,0.000,0.000
1605187417788006912,10.0.1.137,NaN,move_down,-6.060,-6.060,-6.060,0.000,0.000,0.000
1605187418000443904,10.0.1.137,NaN,move_down,-6.080,-6.080,-6.080,0.000,0.000,0.000
1605187418269170944,10.0.1.137,NaN,move_down,-6.100,-6.100,-6.100,0.000,0.000,0.000
1605187418485328896,10.0.1.137,NaN,move_down,-6.120,-6.120,-6.120,0.000,0.000,0.000
1605187418695115008,10.0.1.137,NaN,move_down,-6.140,-6.140,-6.140,0.000,0.000,0.000
1605187418824336896,10.0.1.137,NaN,move_down,-6.160,-6.160,-6.160,0.000,0.000,0.000
1605187419098865152,10.0.1.137,NaN,move_down,-6.180,-6.180,-6.180,0.000,0.000,0.000
1605187419165764096,10.0.1.137,NaN,move_down,-6.200,-6.200,-6.200,0.000,0.000,0.000
1605187419368913920,10.0.1.137,NaN,move_down,-6.220,-6.220,-6.220,0.000,0.000,0.000
1605187419567673088,10.0.1.137,NaN,move_down,-6.240,-6.240,-6.240,0.000,0.000,0.000
1605187419737182976,10.0.1.137,NaN,move_down,-6.260,-6.260,-6.260,0.000,0.000,0.000
1605187419866415872,10.0.1.137,NaN,move_down,-6.280,-6.280,-6.280,0.000,0.000,0.000
1605187420004200960,10.0.1.137,NaN,move_down,-6.300,-6.300,-6.300,0.000,0.000,0.000
1605187420214329856,10.0.1.137,NaN,move_down,-6.320,-6.320,-6.320,0.000,0.000,0.000
1605187420401029120,10.0.1.137,NaN,move_down,-6.340,-6.340,-6.340,0.000,0.000,0.000
1605187420523596032,10.0.1.137,NaN,move_down,-6.360,-6.360,-6.360,0.000,0.000,0.000
1605187420773538048,10.0.1.137,NaN,move_down,-6.380,-6.380,-6.380,0.000,0.000,0.000
1605187420927164928,10.0.1.137,NaN,move_down,-6.400,-6.400,-6.400,0.000,0.000,0.000
1605187421136621056,10.0.1.137,NaN,move_down,-6.420,-6.420,-6.420,0.000,0.000,0.000
1605187421367005952,10.0.1.137,NaN,move_down,-6.440,-6.440,-6.440,0.000,0.000,0.000
1605187421718995200,10.0.1.137,NaN,move_down,-6.460,-6.460,-6.460,0.000,0.000,0.000
1605187421804000000,10.0.1.137,NaN,move_down,-6.480,-6.480,-6.480,0.000,0.000,0.000
1605187421998087936,10.0.1.137,NaN,move_down,-6.500,-6.500,-6.500,0.000,0.000,0.000
1605187422175360000,10.0.1.137,NaN,move_down,-6.520,-6.520,-6.520,0.000,0.000,0.000
1605187422310539008,10.0.1.137,NaN,move_down,-6.540,-6.540,-6.540,0.000,0.000,0.000
1605187422466145024,10.0.1.137,NaN,move_down,-6.560,-6.560,-6.560,0.000,0.000,0.000
1605187422651799808,10.0.1.137,NaN,move_down,-6.580,-6.580,-6.580,0.000,0.000,0.000
1605187422913160960,10.0.1.137,NaN,move_down,-6.600,-6.600,-6.600,0.000,0.000,0.000
1605187423134290944,10.0.1.137,NaN,move_down,-6.620,-6.620,-6.620,0.000,0.000,0.000
1605187423225207040,10.0.1.137,NaN,move_down,-6.640,-6.640,-6.640,0.000,0.000,0.000
1605187423374860032,10.0.1.137,NaN,move_down,-6.660,-6.660,-6.660,0.000,0.000,0.000
1605187423535440896,10.0.1.137,NaN,move_down,-6.680,-6.680,-6.680,0.000,0.000,0.000
1605187423701072896,10.0.1.137,NaN,move_down,-6.700,-6.700,-6.700,0.000,0.000,0.000
1605187423800131072,10.0.1.137,NaN,move_down,-6.720,-6.720,-6.720,0.000,0.000,0.000
1605187423976484096,10.0.1.137,NaN,move_down,-6.740,-6.740,-6.740,0.000,0.000,0.000
1605187424103079936,10.0.1.137,NaN,move_down,-6.760,-6.760,-6.760,0.000,0.000,0.000
1605187424213850880,10.0.1.137,NaN,move_down,-6.780,-6.780,-6.780,0.000,0.000,0.000
1605187424390533888,10.0.1.137,NaN,move_down,-6.800,-6.800,-6.800,0.000,0.000,0.000
1605187424556390912,10.0.1.137,NaN,move_down,-6.820,-6.820,-6.820,0.000,0.000,0.000
1605187424753690112,10.0.1.137,NaN,move_down,-6.840,-6.840,-6.840,0.000,0.000,0.000
1605187424939286016,10.0.1.137,NaN,move_down,-6.860,-6.860,-6.860,0.000,0.000,0.000
1605187425135145984,10.0.1.137,NaN,move_down,-6.880,-6.880,-6.880,0.000,0.000,0.000
1605187425434652928,10.0.1.137,NaN,move_down,-6.900,-6.900,-6.900,0.000,0.000,0.000
1605187425595159040,10.0.1.137,NaN,move_down,-6.920,-6.920,-6.920,0.000,0.000,0.000
1605187425764736768,10.0.1.137,NaN,move_down,-6.940,-6.940,-6.940,0.000,0.000,0.000
1605187425947038976,10.0.1.137,NaN,move_down,-6.960,-6.960,-6.960,0.000,0.000,0.000
1605187426093048064,10.0.1.137,NaN,move_down,-6.980,-6.980,-6.980,0.000,0.000,0.000
1605187426228465152,10.0.1.137,NaN,move_down,-7.000,-7.000,-7.000,0.000,0.000,0.000
1605187426381001984,10.0.1.137,NaN,move_down,-7.020,-7.020,-7.020,0.000,0.000,0.000
1605187426461339904,10.0.1.137,NaN,move_down,-7.040,-7.040,-7.040,0.000,0.000,0.000
1605187426631331840,10.0.1.137,NaN,move_down,-7.060,-7.060,-7.060,0.000,0.000,0.000
1605187426846236928,10.0.1.137,NaN,move_down,-7.080,-7.080,-7.080,0.000,0.000,0.000
1605187426993788928,10.0.1.137,NaN,move_down,-7.100,-7.100,-7.100,0.000,0.000,0.000
1605187427078098944,10.0.1.137,NaN,move_down,-7.120,-7.120,-7.120,0.000,0.000,0.000
1605187427574628096,10.0.1.137,NaN,move_down,-7.140,-7.140,-7.140,0.000,0.000,0.000
1605187427847192064,10.0.1.137,NaN,move_down,-7.160,-7.160,-7.160,0.000,0.000,0.000
1605187427998082048,10.0.1.137,NaN,move_down,-7.180,-7.180,-7.180,0.000,0.000,0.000
1605187428179974912,10.0.1.137,NaN,move_down,-7.200,-7.200,-7.200,0.000,0.000,0.000
1605187428386876160,10.0.1.137,NaN,move_down,-7.220,-7.220,-7.220,0.000,0.000,0.000
1605187428505455104,10.0.1.137,NaN,move_down,-7.240,-7.240,-7.240,0.000,0.000,0.000
1605187428693861888,10.0.1.137,NaN,move_down,-7.260,-7.260,-7.260,0.000,0.000,0.000
1605187428878536960,10.0.1.137,NaN,move_down,-7.280,-7.280,-7.280,0.000,0.000,0.000
1605187429021609984,10.0.1.137,NaN,move_down,-7.300,-7.300,-7.300,0.000,0.000,0.000
1605187429175275008,10.0.1.137,NaN,move_down,-7.320,-7.320,-7.320,0.000,0.000,0.000
1605187429356492032,10.0.1.137,NaN,move_down,-7.340,-7.340,-7.340,0.000,0.000,0.000
1605187429589790976,10.0.1.137,NaN,move_down,-7.360,-7.360,-7.360,0.000,0.000,0.000
1605187429766532864,10.0.1.137,NaN,move_down,-7.380,-7.380,-7.380,0.000,0.000,0.000
1605187430000946944,10.0.1.137,NaN,move_down,-7.400,-7.400,-7.400,0.000,0.000,0.000
1605187430176090880,10.0.1.137,NaN,move_down,-7.420,-7.420,-7.420,0.000,0.000,0.000
1605187430342416896,10.0.1.137,NaN,move_down,-7.440,-7.440,-7.440,0.000,0.000,0.000
1605187430517646080,10.0.1.137,NaN,move_down,-7.460,-7.460,-7.460,0.000,0.000,0.000
1605187430761485056,10.0.1.137,NaN,move_down,-7.480,-7.480,-7.480,0.000,0.000,0.000
1605187430921771008,10.0.1.137,NaN,move_down,-7.500,-7.500,-7.500,0.000,0.000,0.000
1605187431005922048,10.0.1.137,NaN,move_down,-7.520,-7.520,-7.520,0.000,0.000,0.000
1605187431102343936,10.0.1.137,NaN,move_down,-7.540,-7.540,-7.540,0.000,0.000,0.000
1605187431223515136,10.0.1.137,NaN,move_down,-7.560,-7.560,-7.560,0.000,0.000,0.000
1605187431404262144,10.0.1.137,NaN,move_down,-7.580,-7.580,-7.580,0.000,0.000,0.000
1605187431578903040,10.0.1.137,NaN,move_down,-7.600,-7.600,-7.600,0.000,0.000,0.000
1605187431882489088,10.0.1.137,NaN,move_down,-7.620,-7.620,-7.620,0.000,0.000,0.000
1605187432038692864,10.0.1.137,NaN,move_down,-7.640,-7.640,-7.640,0.000,0.000,0.000
1605187432191173120,10.0.1.137,NaN,move_down,-7.660,-7.660,-7.660,0.000,0.000,0.000
1605187432513086976,10.0.1.137,NaN,move_down,-7.680,-7.680,-7.680,0.000,0.000,0.000
1605187432769577984,10.0.1.137,NaN,move_down,-7.700,-7.700,-7.700,0.000,0.000,0.000
1605187433023659008,10.0.1.137,NaN,move_down,-7.720,-7.720,-7.720,0.000,0.000,0.000
1605187433306579200,10.0.1.137,NaN,move_down,-7.740,-7.740,-7.740,0.000,0.000,0.000
1605187433582222848,10.0.1.137,NaN,move_down,-7.760,-7.760,-7.760,0.000,0.000,0.000
1605187433727009024,10.0.1.137,NaN,move_down,-7.780,-7.780,-7.780,0.000,0.000,0.000
1605187433923817984,10.0.1.137,NaN,move_down,-7.800,-7.800,-7.800,0.000,0.000,0.000
1605187434179724032,10.0.1.137,NaN,move_down,-7.820,-7.820,-7.820,0.000,0.000,0.000
1605187434315064832,10.0.1.137,NaN,move_down,-7.840,-7.840,-7.840,0.000,0.000,0.000
1605187434556977152,10.0.1.137,NaN,move_down,-7.860,-7.860,-7.860,0.000,0.000,0.000
1605187434760230912,10.0.1.137,NaN,move_down,-7.880,-7.880,-7.880,0.000,0.000,0.000
1605187435178414080,10.0.1.137,NaN,move_down,-7.900,-7.900,-7.900,0.000,0.000,0.000
1605187435376351232,10.0.1.137,NaN,move_down,-7.920,-7.920,-7.920,0.000,0.000,0.000
1605187435541766912,10.0.1.137,NaN,move_down,-7.940,-7.940,-7.940,0.000,0.000,0.000
1605187435645161984,10.0.1.137,NaN,move_down,-7.960,-7.960,-7.960,0.000,0.000,0.000
1605187435879881984,10.0.1.137,NaN,move_down,-7.980,-7.980,-7.980,0.000,0.000,0.000
1605187436151134976,10.0.1.137,NaN,move_down,-8.000,-8.000,-8.000,0.000,0.000,0.000
1605187436297949952,10.0.1.137,NaN,move_down,-8.020,-8.020,-8.020,0.000,0.000,0.000
1605187436434500096,10.0.1.137,NaN,move_down,-8.040,-8.040,-8.040,0.000,0.000,0.000
1605187436577001984,10.0.1.137,NaN,move_down,-8.060,-8.060,-8.060,0.000,0.000,0.000
1605187436791742976,10.0.1.137,NaN,move_down,-8.080,-8.080,-8.080,0.000,0.000,0.000
1605187437128360960,10.0.1.137,NaN,move_down,-8.100,-8.100,-8.100,0.000,0.000,0.000
1605187437295805952,10.0.1.137,NaN,move_down,-8.120,-8.120,-8.120,0.000,0.000,0.000
1605187437399394048,10.0.1.137,NaN,move_down,-8.140,-8.140,-8.140,0.000,0.000,0.000
1605187437778408960,10.0.1.137,NaN,move_down,-8.160,-8.160,-8.160,0.000,0.000,0.000
1605187438209484032,10.0.1.137,NaN,move_down,-8.180,-8.180,-8.180,0.000,0.000,0.000
1605187438421614848,10.0.1.137,NaN,move_down,-8.200,-8.200,-8.200,0.000,0.000,0.000
1605187438608026880,10.0.1.137,NaN,move_down,-8.220,-8.220,-8.220,0.000,0.000,0.000
1605187438906537984,10.0.1.137,NaN,move_down,-8.240,-8.240,-8.240,0.000,0.000,0.000
1605187439116342016,10.0.1.137,NaN,move_down,-8.260,-8.260,-8.260,0.000,0.000,0.000
1605187439405136128,10.0.1.137,NaN,move_down,-8.280,-8.280,-8.280,0.000,0.000,0.000
1605187439595771904,10.0.1.137,NaN,move_down,-8.300,-8.300,-8.300,0.000,0.000,0.000
1605187439931740928,10.0.1.137,NaN,move_down,-8.320,-8.320,-8.320,0.000,0.000,0.000
1605187440100589056,10.0.1.137,NaN,move_down,-8.340,-8.340,-8.340,0.000,0.000,0.000
1605187440354861056,10.0.1.137,NaN,move_down,-8.360,-8.360,-8.360,0.000,0.000,0.000
1605187440580401920,10.0.1.137,NaN,move_down,-8.380,-8.380,-8.380,0.000,0.000,0.000
1605187440741123840,10.0.1.137,NaN,move_down,-8.400,-8.400,-8.400,0.000,0.000,0.000
1605187440983796992,10.0.1.137,NaN,move_down,-8.420,-8.420,-8.420,0.000,0.000,0.000
1605187441341849088,10.0.1.137,NaN,move_down,-8.440,-8.440,-8.440,0.000,0.000,0.000
1605187441479731200,10.0.1.137,NaN,move_down,-8.460,-8.460,-8.460,0.000,0.000,0.000
1605187441807550976,10.0.1.137,NaN,move_down,-8.480,-8.480,-8.480,0.000,0.000,0.000
1605187441959054848,10.0.1.137,NaN,move_down,-8.500,-8.500,-8.500,0.000,0.000,0.000
1605187442228302080,10.0.1.137,NaN,move_down,-8.520,-8.520,-8.520,0.000,0.000,0.000
1605187442461497088,10.0.1.137,NaN,move_down,-8.540,-8.540,-8.540,0.000,0.000,0.000
1605187442607528960,10.0.1.137,NaN,move_down,-8.560,-8.560,-8.560,0.000,0.000,0.000
1605187442769596160,10.0.1.137,NaN,move_down,-8.580,-8.580,-8.580,0.000,0.000,0.000
1605187442995060992,10.0.1.137,NaN,move_down,-8.600,-8.600,-8.600,0.000,0.000,0.000
1605187443189794048,10.0.1.137,NaN,move_down,-8.620,-8.620,-8.620,0.000,0.000,0.000
