milangroshev/digital-twin-scalability/logs/run2-3600s/10.0.1.122.csv
timestamp,node,latency,action,joint_1,joint_2,joint_3,joint_4,joint_5,joint_6
1605117324089906944,10.0.1.122,2010,,0.000,0.000,0.000,0.000,0.000,0.000
1605117326679095040,10.0.1.122,594,move_down,-0.020,-0.020,-0.020,0.000,0.000,0.000
1605117328109585920,10.0.1.122,384,move_down,-0.040,-0.040,-0.040,0.000,0.000,0.000
1605117329560003072,10.0.1.122,393,move_down,-0.060,-0.060,-0.060,0.000,0.000,0.000
1605117331008224000,10.0.1.122,388,move_down,-0.080,-0.080,-0.080,0.000,0.000,0.000
1605117332379353088,10.0.1.122,350,move_down,-0.100,-0.100,-0.100,0.000,0.000,0.000
1605117333869378048,10.0.1.122,425,move_down,-0.120,-0.120,-0.120,0.000,0.000,0.000
1605117335279905024,10.0.1.122,361,move_down,-0.140,-0.140,-0.140,0.000,0.000,0.000
1605117336758867968,10.0.1.122,396,move_down,-0.160,-0.160,-0.160,0.000,0.000,0.000
1605117338187619840,10.0.1.122,375,move_down,-0.180,-0.180,-0.180,0.000,0.000,0.000
1605117339599348992,10.0.1.122,357,move_down,-0.200,-0.200,-0.200,0.000,0.000,0.000
1605117341057527040,10.0.1.122,398,move_down,-0.220,-0.220,-0.220,0.000,0.000,0.000
1605117342518560000,10.0.1.122,409,move_down,-0.240,-0.240,-0.240,0.000,0.000,0.000
1605117343969495040,10.0.1.122,372,move_down,-0.260,-0.260,-0.260,0.000,0.000,0.000
1605117345419101952,10.0.1.122,370,move_down,-0.280,-0.280,-0.280,0.000,0.000,0.000
1605117346848429824,10.0.1.122,385,move_down,-0.300,-0.300,-0.300,0.000,0.000,0.000
1605117348279414784,10.0.1.122,384,move_down,-0.320,-0.320,-0.320,0.000,0.000,0.000
1605117349694071040,10.0.1.122,375,move_down,-0.340,-0.340,-0.340,0.000,0.000,0.000
1605117351127528960,10.0.1.122,393,move_down,-0.360,-0.360,-0.360,0.000,0.000,0.000
1605117352558116864,10.0.1.122,398,move_down,-0.380,-0.380,-0.380,0.000,0.000,0.000
1605117353969146112,10.0.1.122,383,move_down,-0.400,-0.400,-0.400,0.000,0.000,0.000
1605117355430018048,10.0.1.122,400,move_down,-0.420,-0.420,-0.420,0.000,0.000,0.000
1605117356868510976,10.0.1.122,365,move_down,-0.440,-0.440,-0.440,0.000,0.000,0.000
1605117358327638016,10.0.1.122,385,move_down,-0.460,-0.460,-0.460,0.000,0.000,0.000
1605117359757739008,10.0.1.122,382,move_down,-0.480,-0.480,-0.480,0.000,0.000,0.000
1605117361177381888,10.0.1.122,361,move_down,-0.500,-0.500,-0.500,0.000,0.000,0.000
1605117362623437824,10.0.1.122,375,move_down,-0.520,-0.520,-0.520,0.000,0.000,0.000
1605117364038127872,10.0.1.122,375,move_down,-0.540,-0.540,-0.540,0.000,0.000,0.000
1605117365477939968,10.0.1.122,398,move_down,-0.560,-0.560,-0.560,0.000,0.000,0.000
1605117366877824000,10.0.1.122,357,move_down,-0.580,-0.580,-0.580,0.000,0.000,0.000
1605117367981024000,10.0.1.122,44,pick,-0.590,-0.590,-0.590,0.000,0.000,0.000
1605117368979944960,10.0.1.122,42,pick,-0.600,-0.600,-0.600,0.000,0.000,0.000
1605117369978110976,10.0.1.122,39,pick,-0.610,-0.610,-0.610,0.000,0.000,0.000
1605117370979392000,10.0.1.122,39,pick,-0.620,-0.620,-0.620,0.000,0.000,0.000
1605117371977516800,10.0.1.122,36,pick,-0.630,-0.630,-0.630,0.000,0.000,0.000
1605117372977714944,10.0.1.122,35,pick,-0.640,-0.640,-0.640,0.000,0.000,0.000
1605117373977197056,10.0.1.122,33,pick,-0.650,-0.650,-0.650,0.000,0.000,0.000
1605117374980353024,10.0.1.122,35,pick,-0.660,-0.660,-0.660,0.000,0.000,0.000
1605117375977891072,10.0.1.122,31,pick,-0.670,-0.670,-0.670,0.000,0.000,0.000
1605117376997410048,10.0.1.122,49,pick,-0.680,-0.680,-0.680,0.000,0.000,0.000
1605117377998245888,10.0.1.122,49,pick,-0.690,-0.690,-0.690,0.000,0.000,0.000
1605117378997488896,10.0.1.122,47,pick,-0.700,-0.700,-0.700,0.000,0.000,0.000
1605117379998040064,10.0.1.122,46,pick,-0.710,-0.710,-0.710,0.000,0.000,0.000
1605117380997734144,10.0.1.122,45,pick,-0.720,-0.720,-0.720,0.000,0.000,0.000
1605117381999793920,10.0.1.122,45,pick,-0.730,-0.730,-0.730,0.000,0.000,0.000
1605117382998356224,10.0.1.122,43,pick,-0.740,-0.740,-0.740,0.000,0.000,0.000
1605117383999824896,10.0.1.122,43,pick,-0.750,-0.750,-0.750,0.000,0.000,0.000
1605117384998426880,10.0.1.122,40,pick,-0.760,-0.760,-0.760,0.000,0.000,0.000
1605117385998298880,10.0.1.122,38,pick,-0.770,-0.770,-0.770,0.000,0.000,0.000
1605117387348453120,10.0.1.122,387,move_up,-0.750,-0.750,-0.750,0.000,0.000,0.000
1605117388768343808,10.0.1.122,360,move_up,-0.730,-0.730,-0.730,0.000,0.000,0.000
1605117390177590016,10.0.1.122,346,move_up,-0.710,-0.710,-0.710,0.000,0.000,0.000
1605117391638082048,10.0.1.122,393,move_up,-0.690,-0.690,-0.690,0.000,0.000,0.000
1605117393080338944,10.0.1.122,380,move_up,-0.670,-0.670,-0.670,0.000,0.000,0.000
1605117394508264960,10.0.1.122,398,move_up,-0.650,-0.650,-0.650,0.000,0.000,0.000
1605117395937350144,10.0.1.122,399,move_up,-0.630,-0.630,-0.630,0.000,0.000,0.000
1605117397369088768,10.0.1.122,387,move_up,-0.610,-0.610,-0.610,0.000,0.000,0.000
1605117398798355968,10.0.1.122,371,move_up,-0.590,-0.590,-0.590,0.000,0.000,0.000
1605117400248866048,10.0.1.122,373,move_up,-0.570,-0.570,-0.570,0.000,0.000,0.000
1605117401697799936,10.0.1.122,374,move_up,-0.550,-0.550,-0.550,0.000,0.000,0.000
1605117403147394816,10.0.1.122,393,move_up,-0.530,-0.530,-0.530,0.000,0.000,0.000
1605117404658159104,10.0.1.122,378,move_up,-0.510,-0.510,-0.510,0.000,0.000,0.000
1605117406077393152,10.0.1.122,373,move_up,-0.490,-0.490,-0.490,0.000,0.000,0.000
1605117407530057984,10.0.1.122,399,move_up,-0.470,-0.470,-0.470,0.000,0.000,0.000
1605117408959238144,10.0.1.122,401,move_up,-0.450,-0.450,-0.450,0.000,0.000,0.000
1605117410388744960,10.0.1.122,375,move_up,-0.430,-0.430,-0.430,0.000,0.000,0.000
1605117411817862144,10.0.1.122,376,move_up,-0.410,-0.410,-0.410,0.000,0.000,0.000
1605117413279815936,10.0.1.122,401,move_up,-0.390,-0.390,-0.390,0.000,0.000,0.000
1605117414688235008,10.0.1.122,367,move_up,-0.370,-0.370,-0.370,0.000,0.000,0.000
1605117416100466944,10.0.1.122,366,move_up,-0.350,-0.350,-0.350,0.000,0.000,0.000
1605117417501730816,10.0.1.122,386,move_up,-0.330,-0.330,-0.330,0.000,0.000,0.000
1605117418932262912,10.0.1.122,385,move_up,-0.310,-0.310,-0.310,0.000,0.000,0.000
1605117420377537024,10.0.1.122,388,move_up,-0.290,-0.290,-0.290,0.000,0.000,0.000
1605117421810499840,10.0.1.122,371,move_up,-0.270,-0.270,-0.270,0.000,0.000,0.000
1605117423257936128,10.0.1.122,398,move_up,-0.250,-0.250,-0.250,0.000,0.000,0.000
1605117424697844992,10.0.1.122,384,move_up,-0.230,-0.230,-0.230,0.000,0.000,0.000
1605117426117963008,10.0.1.122,375,move_up,-0.210,-0.210,-0.210,0.000,0.000,0.000
1605117427548137984,10.0.1.122,381,move_up,-0.190,-0.190,-0.190,0.000,0.000,0.000
1605117428650535168,10.0.1.122,40,place,-0.180,-0.180,-0.180,0.000,0.000,0.000
1605117429647684096,10.0.1.122,36,place,-0.170,-0.170,-0.170,0.000,0.000,0.000
1605117430648421120,10.0.1.122,36,place,-0.160,-0.160,-0.160,0.000,0.000,0.000
1605117431648911872,10.0.1.122,35,place,-0.150,-0.150,-0.150,0.000,0.000,0.000
1605117432647894016,10.0.1.122,32,place,-0.140,-0.140,-0.140,0.000,0.000,0.000
1605117433647815936,10.0.1.122,31,place,-0.130,-0.130,-0.130,0.000,0.000,0.000
1605117434667697920,10.0.1.122,50,place,-0.120,-0.120,-0.120,0.000,0.000,0.000
1605117435668366080,10.0.1.122,49,place,-0.110,-0.110,-0.110,0.000,0.000,0.000
1605117436668268800,10.0.1.122,48,place,-0.100,-0.100,-0.100,0.000,0.000,0.000
1605117437668019968,10.0.1.122,47,place,-0.090,-0.090,-0.090,0.000,0.000,0.000
1605117438667660032,10.0.1.122,45,place,-0.080,-0.080,-0.080,0.000,0.000,0.000
1605117439668550912,10.0.1.122,45,place,-0.070,-0.070,-0.070,0.000,0.000,0.000
1605117440667248896,10.0.1.122,42,place,-0.060,-0.060,-0.060,0.000,0.000,0.000
1605117441669292800,10.0.1.122,43,place,-0.050,-0.050,-0.050,0.000,0.000,0.000
1605117442667884032,10.0.1.122,40,place,-0.040,-0.040,-0.040,0.000,0.000,0.000
1605117443667746048,10.0.1.122,39,place,-0.030,-0.030,-0.030,0.000,0.000,0.000
1605117444668494848,10.0.1.122,39,place,-0.020,-0.020,-0.020,0.000,0.000,0.000
1605117445669128960,10.0.1.122,38,place,-0.010,-0.010,-0.010,0.000,0.000,0.000
1605117446668291072,10.0.1.122,36,place,0.000,0.000,0.000,0.000,0.000,0.000
1605117448028669184,10.0.1.122,395,move_down,-0.020,-0.020,-0.020,0.000,0.000,0.000
1605117449438950912,10.0.1.122,361,move_down,-0.040,-0.040,-0.040,0.000,0.000,0.000
1605117450918661120,10.0.1.122,399,move_down,-0.060,-0.060,-0.060,0.000,0.000,0.000
1605117452370387968,10.0.1.122,395,move_down,-0.080,-0.080,-0.080,0.000,0.000,0.000
1605117453798025984,10.0.1.122,391,move_down,-0.100,-0.100,-0.100,0.000,0.000,0.000
1605117455218141952,10.0.1.122,365,move_down,-0.120,-0.120,-0.120,0.000,0.000,0.000
1605117456647687936,10.0.1.122,383,move_down,-0.140,-0.140,-0.140,0.000,0.000,0.000
1605117458067162112,10.0.1.122,368,move_down,-0.160,-0.160,-0.160,0.000,0.000,0.000
1605117459538157824,10.0.1.122,401,move_down,-0.180,-0.180,-0.180,0.000,0.000,0.000
1605117460947664896,10.0.1.122,380,move_down,-0.200,-0.200,-0.200,0.000,0.000,0.000
1605117462379386880,10.0.1.122,385,move_down,-0.220,-0.220,-0.220,0.000,0.000,0.000
1605117463787767808,10.0.1.122,349,move_down,-0.240,-0.240,-0.240,0.000,0.000,0.000
1605117465257410048,10.0.1.122,405,move_down,-0.260,-0.260,-0.260,0.000,0.000,0.000
1605117466670310912,10.0.1.122,376,move_down,-0.280,-0.280,-0.280,0.000,0.000,0.000
1605117468097893888,10.0.1.122,374,move_down,-0.300,-0.300,-0.300,0.000,0.000,0.000
1605117469528057088,10.0.1.122,380,move_down,-0.320,-0.320,-0.320,0.000,0.000,0.000
1605117470977860096,10.0.1.122,402,move_down,-0.340,-0.340,-0.340,0.000,0.000,0.000
1605117472397756928,10.0.1.122,384,move_down,-0.360,-0.360,-0.360,0.000,0.000,0.000
1605117473829310976,10.0.1.122,383,move_down,-0.380,-0.380,-0.380,0.000,0.000,0.000
1605117475280214016,10.0.1.122,395,move_down,-0.400,-0.400,-0.400,0.000,0.000,0.000
1605117476718929920,10.0.1.122,378,move_down,-0.420,-0.420,-0.420,0.000,0.000,0.000
1605117478158238976,10.0.1.122,391,move_down,-0.440,-0.440,-0.440,0.000,0.000,0.000
1605117479588061952,10.0.1.122,380,move_down,-0.460,-0.460,-0.460,0.000,0.000,0.000
1605117481037772032,10.0.1.122,387,move_down,-0.480,-0.480,-0.480,0.000,0.000,0.000
1605117482488455168,10.0.1.122,389,move_down,-0.500,-0.500,-0.500,0.000,0.000,0.000
1605117483917409792,10.0.1.122,378,move_down,-0.520,-0.520,-0.520,0.000,0.000,0.000
1605117485323998976,10.0.1.122,409,move_down,-0.540,-0.540,-0.540,0.000,0.000,0.000
1605117486717329920,10.0.1.122,368,move_down,-0.560,-0.560,-0.560,0.000,0.000,0.000
1605117488170198016,10.0.1.122,381,move_down,-0.580,-0.580,-0.580,0.000,0.000,0.000
1605117489267868928,10.0.1.122,50,pick,-0.590,-0.590,-0.590,0.000,0.000,0.000
1605117490268180992,10.0.1.122,49,pick,-0.600,-0.600,-0.600,0.000,0.000,0.000
1605117491268965888,10.0.1.122,49,pick,-0.610,-0.610,-0.610,0.000,0.000,0.000
1605117492268313856,10.0.1.122,47,pick,-0.620,-0.620,-0.620,0.000,0.000,0.000
1605117493269483008,10.0.1.122,46,pick,-0.630,-0.630,-0.630,0.000,0.000,0.000
1605117494267738112,10.0.1.122,44,pick,-0.640,-0.640,-0.640,0.000,0.000,0.000
1605117495268933120,10.0.1.122,43,pick,-0.650,-0.650,-0.650,0.000,0.000,0.000
1605117496269316864,10.0.1.122,42,pick,-0.660,-0.660,-0.660,0.000,0.000,0.000
1605117497268395008,10.0.1.122,40,pick,-0.670,-0.670,-0.670,0.000,0.000,0.000
1605117498267627008,10.0.1.122,38,pick,-0.680,-0.680,-0.680,0.000,0.000,0.000
1605117499269576192,10.0.1.122,39,pick,-0.690,-0.690,-0.690,0.000,0.000,0.000
1605117500268826880,10.0.1.122,34,pick,-0.700,-0.700,-0.700,0.000,0.000,0.000
1605117501267847936,10.0.1.122,32,pick,-0.710,-0.710,-0.710,0.000,0.000,0.000
1605117502270725120,10.0.1.122,34,pick,-0.720,-0.720,-0.720,0.000,0.000,0.000
1605117503287659776,10.0.1.122,49,pick,-0.730,-0.730,-0.730,0.000,0.000,0.000
1605117504289798912,10.0.1.122,45,pick,-0.740,-0.740,-0.740,0.000,0.000,0.000
1605117505289140992,10.0.1.122,43,pick,-0.750,-0.750,-0.750,0.000,0.000,0.000
1605117506288510208,10.0.1.122,42,pick,-0.760,-0.760,-0.760,0.000,0.000,0.000
1605117507287416064,10.0.1.122,39,pick,-0.770,-0.770,-0.770,0.000,0.000,0.000
1605117508597758976,10.0.1.122,348,move_up,-0.750,-0.750,-0.750,0.000,0.000,0.000
1605117510047277824,10.0.1.122,385,move_up,-0.730,-0.730,-0.730,0.000,0.000,0.000
1605117511490955008,10.0.1.122,384,move_up,-0.710,-0.710,-0.710,0.000,0.000,0.000
1605117512917444096,10.0.1.122,382,move_up,-0.690,-0.690,-0.690,0.000,0.000,0.000
1605117514335486976,10.0.1.122,360,move_up,-0.670,-0.670,-0.670,0.000,0.000,0.000
1605117515777826048,10.0.1.122,376,move_up,-0.650,-0.650,-0.650,0.000,0.000,0.000
1605117517211131136,10.0.1.122,380,move_up,-0.630,-0.630,-0.630,0.000,0.000,0.000
1605117518660684032,10.0.1.122,403,move_up,-0.610,-0.610,-0.610,0.000,0.000,0.000
1605117520127926016,10.0.1.122,390,move_up,-0.590,-0.590,-0.590,0.000,0.000,0.000
1605117521567485184,10.0.1.122,389,move_up,-0.570,-0.570,-0.570,0.000,0.000,0.000
1605117522988024064,10.0.1.122,378,move_up,-0.550,-0.550,-0.550,0.000,0.000,0.000
1605117524430778880,10.0.1.122,394,move_up,-0.530,-0.530,-0.530,0.000,0.000,0.000
1605117525857696000,10.0.1.122,379,move_up,-0.510,-0.510,-0.510,0.000,0.000,0.000
1605117527328453120,10.0.1.122,409,move_up,-0.490,-0.490,-0.490,0.000,0.000,0.000
1605117528771737088,10.0.1.122,399,move_up,-0.470,-0.470,-0.470,0.000,0.000,0.000
1605117530208102912,10.0.1.122,394,move_up,-0.450,-0.450,-0.450,0.000,0.000,0.000
1605117531642870784,10.0.1.122,385,move_up,-0.430,-0.430,-0.430,0.000,0.000,0.000
1605117533067691008,10.0.1.122,368,move_up,-0.410,-0.410,-0.410,0.000,0.000,0.000
1605117534509150976,10.0.1.122,397,move_up,-0.390,-0.390,-0.390,0.000,0.000,0.000
1605117535947792896,10.0.1.122,386,move_up,-0.370,-0.370,-0.370,0.000,0.000,0.000
1605117537418000896,10.0.1.122,381,move_up,-0.350,-0.350,-0.350,0.000,0.000,0.000
1605117538837672960,10.0.1.122,374,move_up,-0.330,-0.330,-0.330,0.000,0.000,0.000
1605117540300705024,10.0.1.122,419,move_up,-0.310,-0.310,-0.310,0.000,0.000,0.000
1605117541758345984,10.0.1.122,402,move_up,-0.290,-0.290,-0.290,0.000,0.000,0.000
1605117543190843136,10.0.1.122,386,move_up,-0.270,-0.270,-0.270,0.000,0.000,0.000
1605117544647558912,10.0.1.122,401,move_up,-0.250,-0.250,-0.250,0.000,0.000,0.000
1605117546090711040,10.0.1.122,397,move_up,-0.230,-0.230,-0.230,0.000,0.000,0.000
1605117547533000960,10.0.1.122,395,move_up,-0.210,-0.210,-0.210,0.000,0.000,0.000
1605117548947917056,10.0.1.122,375,move_up,-0.190,-0.190,-0.190,0.000,0.000,0.000
1605117550028054016,10.0.1.122,39,place,-0.180,-0.180,-0.180,0.000,0.000,0.000
1605117551031548928,10.0.1.122,41,place,-0.170,-0.170,-0.170,0.000,0.000,0.000
1605117552027141120,10.0.1.122,36,place,-0.160,-0.160,-0.160,0.000,0.000,0.000
1605117553028374016,10.0.1.122,36,place,-0.150,-0.150,-0.150,0.000,0.000,0.000
1605117554028615936,10.0.1.122,35,place,-0.140,-0.140,-0.140,0.000,0.000,0.000
1605117555027256064,10.0.1.122,32,place,-0.130,-0.130,-0.130,0.000,0.000,0.000
1605117556027198976,10.0.1.122,31,place,-0.120,-0.120,-0.120,0.000,0.000,0.000
1605117557048088064,10.0.1.122,50,place,-0.110,-0.110,-0.110,0.000,0.000,0.000
1605117558048631808,10.0.1.122,49,place,-0.100,-0.100,-0.100,0.000,0.000,0.000
1605117559038140928,10.0.1.122,38,place,-0.090,-0.090,-0.090,0.000,0.000,0.000
1605117560047878912,10.0.1.122,46,place,-0.080,-0.080,-0.080,0.000,0.000,0.000
1605117561048585984,10.0.1.122,46,place,-0.070,-0.070,-0.070,0.000,0.000,0.000
1605117562047621120,10.0.1.122,44,place,-0.060,-0.060,-0.060,0.000,0.000,0.000
1605117563048350976,10.0.1.122,43,place,-0.050,-0.050,-0.050,0.000,0.000,0.000
1605117564048144128,10.0.1.122,41,place,-0.040,-0.040,-0.040,0.000,0.000,0.000
1605117565047789056,10.0.1.122,40,place,-0.030,-0.030,-0.030,0.000,0.000,0.000
1605117566047687168,10.0.1.122,38,place,-0.020,-0.020,-0.020,0.000,0.000,0.000
1605117567047756032,10.0.1.122,37,place,-0.010,-0.010,-0.010,0.000,0.000,0.000
1605117568048120064,10.0.1.122,36,place,0.000,0.000,0.000,0.000,0.000,0.000
1605117569401413888,10.0.1.122,388,move_down,-0.020,-0.020,-0.020,0.000,0.000,0.000
1605117570828141056,10.0.1.122,373,move_down,-0.040,-0.040,-0.040,0.000,0.000,0.000
1605117572248208896,10.0.1.122,365,move_down,-0.060,-0.060,-0.060,0.000,0.000,0.000
1605117573719042048,10.0.1.122,402,move_down,-0.080,-0.080,-0.080,0.000,0.000,0.000
1605117575127288064,10.0.1.122,356,move_down,-0.100,-0.100,-0.100,0.000,0.000,0.000
1605117576577748992,10.0.1.122,382,move_down,-0.120,-0.120,-0.120,0.000,0.000,0.000
1605117577997569024,10.0.1.122,361,move_down,-0.140,-0.140,-0.140,0.000,0.000,0.000
1605117579447494144,10.0.1.122,387,move_down,-0.160,-0.160,-0.160,0.000,0.000,0.000
1605117580887897088,10.0.1.122,381,move_down,-0.180,-0.180,-0.180,0.000,0.000,0.000
1605117582317827072,10.0.1.122,366,move_down,-0.200,-0.200,-0.200,0.000,0.000,0.000
1605117583748563968,10.0.1.122,387,move_down,-0.220,-0.220,-0.220,0.000,0.000,0.000
1605117585198308096,10.0.1.122,385,move_down,-0.240,-0.240,-0.240,0.000,0.000,0.000
1605117586640235008,10.0.1.122,377,move_down,-0.260,-0.260,-0.260,0.000,0.000,0.000
1605117588028214016,10.0.1.122,356,move_down,-0.280,-0.280,-0.280,0.000,0.000,0.000
1605117589497137920,10.0.1.122,406,move_down,-0.300,-0.300,-0.300,0.000,0.000,0.000
1605117590887316992,10.0.1.122,361,move_down,-0.320,-0.320,-0.320,0.000,0.000,0.000
1605117592317285888,10.0.1.122,365,move_down,-0.340,-0.340,-0.340,0.000,0.000,0.000
1605117593769582080,10.0.1.122,377,move_down,-0.360,-0.360,-0.360,0.000,0.000,0.000
1605117595217684992,10.0.1.122,403,move_down,-0.380,-0.380,-0.380,0.000,0.000,0.000
1605117596627950080,10.0.1.122,379,move_down,-0.400,-0.400,-0.400,0.000,0.000,0.000
1605117598088064000,10.0.1.122,406,move_down,-0.420,-0.420,-0.420,0.000,0.000,0.000
1605117599533995008,10.0.1.122,375,move_down,-0.440,-0.440,-0.440,0.000,0.000,0.000
1605117600947776000,10.0.1.122,363,move_down,-0.460,-0.460,-0.460,0.000,0.000,0.000
1605117602397495040,10.0.1.122,373,move_down,-0.480,-0.480,-0.480,0.000,0.000,0.000
1605117603837939968,10.0.1.122,396,move_down,-0.500,-0.500,-0.500,0.000,0.000,0.000
1605117605277984000,10.0.1.122,388,move_down,-0.520,-0.520,-0.520,0.000,0.000,0.000
1605117606687730176,10.0.1.122,367,move_down,-0.540,-0.540,-0.540,0.000,0.000,0.000
1605117608107986944,10.0.1.122,375,move_down,-0.560,-0.560,-0.560,0.000,0.000,0.000
1605117609559324928,10.0.1.122,399,move_down,-0.580,-0.580,-0.580,0.000,0.000,0.000
1605117610658072064,10.0.1.122,51,pick,-0.590,-0.590,-0.590,0.000,0.000,0.000
1605117611658156032,10.0.1.122,50,pick,-0.600,-0.600,-0.600,0.000,0.000,0.000
1605117612657571072,10.0.1.122,49,pick,-0.610,-0.610,-0.610,0.000,0.000,0.000
1605117613657948928,10.0.1.122,48,pick,-0.620,-0.620,-0.620,0.000,0.000,0.000
1605117614658017024,10.0.1.122,47,pick,-0.630,-0.630,-0.630,0.000,0.000,0.000
1605117615657921024,10.0.1.122,46,pick,-0.640,-0.640,-0.640,0.000,0.000,0.000
1605117616658040064,10.0.1.122,44,pick,-0.650,-0.650,-0.650,0.000,0.000,0.000
1605117617657315072,10.0.1.122,42,pick,-0.660,-0.660,-0.660,0.000,0.000,0.000
1605117618658571008,10.0.1.122,42,pick,-0.670,-0.670,-0.670,0.000,0.000,0.000
1605117619658664960,10.0.1.122,41,pick,-0.680,-0.680,-0.680,0.000,0.000,0.000
1605117620657571072,10.0.1.122,39,pick,-0.690,-0.690,-0.690,0.000,0.000,0.000
1605117621657746176,10.0.1.122,38,pick,-0.700,-0.700,-0.700,0.000,0.000,0.000
1605117622657661952,10.0.1.122,36,pick,-0.710,-0.710,-0.710,0.000,0.000,0.000
1605117623657524992,10.0.1.122,35,pick,-0.720,-0.720,-0.720,0.000,0.000,0.000
1605117624657457152,10.0.1.122,34,pick,-0.730,-0.730,-0.730,0.000,0.000,0.000
1605117625658057984,10.0.1.122,33,pick,-0.740,-0.740,-0.740,0.000,0.000,0.000
1605117626657545216,10.0.1.122,31,pick,-0.750,-0.750,-0.750,0.000,0.000,0.000
1605117627677385984,10.0.1.122,50,pick,-0.760,-0.760,-0.760,0.000,0.000,0.000
1605117628677772032,10.0.1.122,49,pick,-0.770,-0.770,-0.770,0.000,0.000,0.000
1605117630025864960,10.0.1.122,395,move_up,-0.750,-0.750,-0.750,0.000,0.000,0.000
1605117631468382976,10.0.1.122,406,move_up,-0.730,-0.730,-0.730,0.000,0.000,0.000
1605117632857483008,10.0.1.122,347,move_up,-0.710,-0.710,-0.710,0.000,0.000,0.000
1605117634307715840,10.0.1.122,381,move_up,-0.690,-0.690,-0.690,0.000,0.000,0.000
1605117635747947008,10.0.1.122,381,move_up,-0.670,-0.670,-0.670,0.000,0.000,0.000
1605117637197555968,10.0.1.122,384,move_up,-0.650,-0.650,-0.650,0.000,0.000,0.000
1605117638640647936,10.0.1.122,385,move_up,-0.630,-0.630,-0.630,0.000,0.000,0.000
1605117640048017152,10.0.1.122,382,move_up,-0.610,-0.610,-0.610,0.000,0.000,0.000
1605117641469955840,10.0.1.122,379,move_up,-0.590,-0.590,-0.590,0.000,0.000,0.000
1605117642918432000,10.0.1.122,378,move_up,-0.570,-0.570,-0.570,0.000,0.000,0.000
1605117644369417984,10.0.1.122,403,move_up,-0.550,-0.550,-0.550,0.000,0.000,0.000
1605117645758501888,10.0.1.122,357,move_up,-0.530,-0.530,-0.530,0.000,0.000,0.000
1605117647218301952,10.0.1.122,398,move_up,-0.510,-0.510,-0.510,0.000,0.000,0.000
1605117648647469056,10.0.1.122,386,move_up,-0.490,-0.490,-0.490,0.000,0.000,0.000
1605117650131896064,10.0.1.122,429,move_up,-0.470,-0.470,-0.470,0.000,0.000,0.000
1605117651557417984,10.0.1.122,372,move_up,-0.450,-0.450,-0.450,0.000,0.000,0.000
1605117653017619968,10.0.1.122,407,move_up,-0.430,-0.430,-0.430,0.000,0.000,0.000
1605117654491878912,10.0.1.122,402,move_up,-0.410,-0.410,-0.410,0.000,0.000,0.000
1605117655908009984,10.0.1.122,393,move_up,-0.390,-0.390,-0.390,0.000,0.000,0.000
1605117657319740928,10.0.1.122,363,move_up,-0.370,-0.370,-0.370,0.000,0.000,0.000
1605117658767443968,10.0.1.122,401,move_up,-0.350,-0.350,-0.350,0.000,0.000,0.000
1605117660167870976,10.0.1.122,356,move_up,-0.330,-0.330,-0.330,0.000,0.000,0.000
1605117661627290880,10.0.1.122,389,move_up,-0.310,-0.310,-0.310,0.000,0.000,0.000
1605117663079879168,10.0.1.122,400,move_up,-0.290,-0.290,-0.290,0.000,0.000,0.000
1605117664488160000,10.0.1.122,380,move_up,-0.270,-0.270,-0.270,0.000,0.000,0.000
1605117665940089856,10.0.1.122,391,move_up,-0.250,-0.250,-0.250,0.000,0.000,0.000
1605117667367954944,10.0.1.122,367,move_up,-0.230,-0.230,-0.230,0.000,0.000,0.000
1605117668797401856,10.0.1.122,379,move_up,-0.210,-0.210,-0.210,0.000,0.000,0.000
1605117670207977984,10.0.1.122,364,move_up,-0.190,-0.190,-0.190,0.000,0.000,0.000
1605117671330931968,10.0.1.122,47,place,-0.180,-0.180,-0.180,0.000,0.000,0.000
1605117672327454976,10.0.1.122,42,place,-0.170,-0.170,-0.170,0.000,0.000,0.000
1605117673329085184,10.0.1.122,42,place,-0.160,-0.160,-0.160,0.000,0.000,0.000
1605117674330025984,10.0.1.122,40,place,-0.150,-0.150,-0.150,0.000,0.000,0.000
1605117675327677952,10.0.1.122,36,place,-0.140,-0.140,-0.140,0.000,0.000,0.000
1605117676327405056,10.0.1.122,35,place,-0.130,-0.130,-0.130,0.000,0.000,0.000
1605117677327634176,10.0.1.122,34,place,-0.120,-0.120,-0.120,0.000,0.000,0.000
1605117678330203904,10.0.1.122,35,place,-0.110,-0.110,-0.110,0.000,0.000,0.000
1605117679328577024,10.0.1.122,32,place,-0.100,-0.100,-0.100,0.000,0.000,0.000
1605117680347408896,10.0.1.122,50,place,-0.090,-0.090,-0.090,0.000,0.000,0.000
1605117681347808000,10.0.1.122,49,place,-0.080,-0.080,-0.080,0.000,0.000,0.000
1605117682347651072,10.0.1.122,47,place,-0.070,-0.070,-0.070,0.000,0.000,0.000
1605117683345705984,10.0.1.122,44,place,-0.060,-0.060,-0.060,0.000,0.000,0.000
1605117684347621888,10.0.1.122,45,place,-0.050,-0.050,-0.050,0.000,0.000,0.000
1605117685348730112,10.0.1.122,45,place,-0.040,-0.040,-0.040,0.000,0.000,0.000
1605117686347451904,10.0.1.122,42,place,-0.030,-0.030,-0.030,0.000,0.000,0.000
1605117687349906944,10.0.1.122,43,place,-0.020,-0.020,-0.020,0.000,0.000,0.000
1605117688349958912,10.0.1.122,42,place,-0.010,-0.010,-0.010,0.000,0.000,0.000
1605117689347776000,10.0.1.122,38,place,0.000,0.000,0.000,0.000,0.000,0.000
1605117690678395904,10.0.1.122,367,move_down,-0.020,-0.020,-0.020,0.000,0.000,0.000
1605117692117576960,10.0.1.122,392,move_down,-0.040,-0.040,-0.040,0.000,0.000,0.000
1605117693537713152,10.0.1.122,378,move_down,-0.060,-0.060,-0.060,0.000,0.000,0.000
1605117695008343040,10.0.1.122,398,move_down,-0.080,-0.080,-0.080,0.000,0.000,0.000
1605117696437992192,10.0.1.122,382,move_down,-0.100,-0.100,-0.100,0.000,0.000,0.000
1605117697887780864,10.0.1.122,392,move_down,-0.120,-0.120,-0.120,0.000,0.000,0.000
1605117699317277952,10.0.1.122,377,move_down,-0.140,-0.140,-0.140,0.000,0.000,0.000
1605117700757612032,10.0.1.122,389,move_down,-0.160,-0.160,-0.160,0.000,0.000,0.000
1605117702171556096,10.0.1.122,360,move_down,-0.180,-0.180,-0.180,0.000,0.000,0.000
1605117703627849216,10.0.1.122,389,move_down,-0.200,-0.200,-0.200,0.000,0.000,0.000
1605117705058621952,10.0.1.122,388,move_down,-0.220,-0.220,-0.220,0.000,0.000,0.000
1605117706497783040,10.0.1.122,384,move_down,-0.240,-0.240,-0.240,0.000,0.000,0.000
1605117707947588864,10.0.1.122,382,move_down,-0.260,-0.260,-0.260,0.000,0.000,0.000
1605117709377361920,10.0.1.122,383,move_down,-0.280,-0.280,-0.280,0.000,0.000,0.000
1605117710817282048,10.0.1.122,380,move_down,-0.300,-0.300,-0.300,0.000,0.000,0.000
1605117712297372160,10.0.1.122,386,move_down,-0.320,-0.320,-0.320,0.000,0.000,0.000
1605117713728508928,10.0.1.122,376,move_down,-0.340,-0.340,-0.340,0.000,0.000,0.000
1605117715157697024,10.0.1.122,382,move_down,-0.360,-0.360,-0.360,0.000,0.000,0.000
1605117716590370048,10.0.1.122,386,move_down,-0.380,-0.380,-0.380,0.000,0.000,0.000
1605117717998814976,10.0.1.122,362,move_down,-0.400,-0.400,-0.400,0.000,0.000,0.000
1605117719389241856,10.0.1.122,373,move_down,-0.420,-0.420,-0.420,0.000,0.000,0.000
1605117720818630912,10.0.1.122,378,move_down,-0.440,-0.440,-0.440,0.000,0.000,0.000
1605117722207961088,10.0.1.122,388,move_down,-0.460,-0.460,-0.460,0.000,0.000,0.000
1605117723638260992,10.0.1.122,370,move_down,-0.480,-0.480,-0.480,0.000,0.000,0.000
1605117725097510144,10.0.1.122,404,move_down,-0.500,-0.500,-0.500,0.000,0.000,0.000
1605117726507738112,10.0.1.122,372,move_down,-0.520,-0.520,-0.520,0.000,0.000,0.000
1605117727943417088,10.0.1.122,390,move_down,-0.540,-0.540,-0.540,0.000,0.000,0.000
1605117729368069888,10.0.1.122,385,move_down,-0.560,-0.560,-0.560,0.000,0.000,0.000
1605117730817841152,10.0.1.122,401,move_down,-0.580,-0.580,-0.580,0.000,0.000,0.000
1605117731938120960,10.0.1.122,46,pick,-0.590,-0.590,-0.590,0.000,0.000,0.000
1605117732938494976,10.0.1.122,45,pick,-0.600,-0.600,-0.600,0.000,0.000,0.000
1605117733938028032,10.0.1.122,43,pick,-0.610,-0.610,-0.610,0.000,0.000,0.000
1605117734937995008,10.0.1.122,42,pick,-0.620,-0.620,-0.620,0.000,0.000,0.000
1605117735938172160,10.0.1.122,41,pick,-0.630,-0.630,-0.630,0.000,0.000,0.000
1605117736938148864,10.0.1.122,39,pick,-0.640,-0.640,-0.640,0.000,0.000,0.000
1605117737938028032,10.0.1.122,38,pick,-0.650,-0.650,-0.650,0.000,0.000,0.000
1605117738937709056,10.0.1.122,36,pick,-0.660,-0.660,-0.660,0.000,0.000,0.000
1605117739938237952,10.0.1.122,36,pick,-0.670,-0.670,-0.670,0.000,0.000,0.000
1605117740937516032,10.0.1.122,34,pick,-0.680,-0.680,-0.680,0.000,0.000,0.000
1605117741938031872,10.0.1.122,33,pick,-0.690,-0.690,-0.690,0.000,0.000,0.000
1605117742937478144,10.0.1.122,31,pick,-0.700,-0.700,-0.700,0.000,0.000,0.000
1605117743957690880,10.0.1.122,50,pick,-0.710,-0.710,-0.710,0.000,0.000,0.000
1605117744957582080,10.0.1.122,48,pick,-0.720,-0.720,-0.720,0.000,0.000,0.000
1605117745957929984,10.0.1.122,48,pick,-0.730,-0.730,-0.730,0.000,0.000,0.000
1605117746957977088,10.0.1.122,46,pick,-0.740,-0.740,-0.740,0.000,0.000,0.000
1605117747957897984,10.0.1.122,45,pick,-0.750,-0.750,-0.750,0.000,0.000,0.000
1605117748958167040,10.0.1.122,44,pick,-0.760,-0.760,-0.760,0.000,0.000,0.000
1605117749957686016,10.0.1.122,42,pick,-0.770,-0.770,-0.770,0.000,0.000,0.000
1605117751308098048,10.0.1.122,391,move_up,-0.750,-0.750,-0.750,0.000,0.000,0.000
1605117752738179840,10.0.1.122,374,move_up,-0.730,-0.730,-0.730,0.000,0.000,0.000
1605117754158107136,10.0.1.122,370,move_up,-0.710,-0.710,-0.710,0.000,0.000,0.000
1605117755597389824,10.0.1.122,377,move_up,-0.690,-0.690,-0.690,0.000,0.000,0.000
1605117757048324096,10.0.1.122,380,move_up,-0.670,-0.670,-0.670,0.000,0.000,0.000
1605117758458157056,10.0.1.122,362,move_up,-0.650,-0.650,-0.650,0.000,0.000,0.000
1605117759887959040,10.0.1.122,366,move_up,-0.630,-0.630,-0.630,0.000,0.000,0.000
1605117761358177024,10.0.1.122,402,move_up,-0.610,-0.610,-0.610,0.000,0.000,0.000
1605117762757864960,10.0.1.122,369,move_up,-0.590,-0.590,-0.590,0.000,0.000,0.000
1605117764197481984,10.0.1.122,365,move_up,-0.570,-0.570,-0.570,0.000,0.000,0.000
1605117765627963904,10.0.1.122,378,move_up,-0.550,-0.550,-0.550,0.000,0.000,0.000
1605117767068176128,10.0.1.122,393,move_up,-0.530,-0.530,-0.530,0.000,0.000,0.000
1605117768507278080,10.0.1.122,395,move_up,-0.510,-0.510,-0.510,0.000,0.000,0.000
1605117769920404992,10.0.1.122,386,move_up,-0.490,-0.490,-0.490,0.000,0.000,0.000
1605117771329188096,10.0.1.122,353,move_up,-0.470,-0.470,-0.470,0.000,0.000,0.000
1605117772767410944,10.0.1.122,379,move_up,-0.450,-0.450,-0.450,0.000,0.000,0.000
1605117774197227008,10.0.1.122,383,move_up,-0.430,-0.430,-0.430,0.000,0.000,0.000
1605117775637944064,10.0.1.122,377,move_up,-0.410,-0.410,-0.410,0.000,0.000,0.000
1605117777107412224,10.0.1.122,375,move_up,-0.390,-0.390,-0.390,0.000,0.000,0.000
1605117778537743104,10.0.1.122,380,move_up,-0.370,-0.370,-0.370,0.000,0.000,0.000
1605117779970088960,10.0.1.122,379,move_up,-0.350,-0.350,-0.350,0.000,0.000,0.000
1605117781357986816,10.0.1.122,382,move_up,-0.330,-0.330,-0.330,0.000,0.000,0.000
1605117782767639040,10.0.1.122,364,move_up,-0.310,-0.310,-0.310,0.000,0.000,0.000
1605117784251281920,10.0.1.122,422,move_up,-0.290,-0.290,-0.290,0.000,0.000,0.000
1605117785637161984,10.0.1.122,356,move_up,-0.270,-0.270,-0.270,0.000,0.000,0.000
1605117787088646912,10.0.1.122,387,move_up,-0.250,-0.250,-0.250,0.000,0.000,0.000
1605117788517330944,10.0.1.122,369,move_up,-0.230,-0.230,-0.230,0.000,0.000,0.000
1605117789937294848,10.0.1.122,375,move_up,-0.210,-0.210,-0.210,0.000,0.000,0.000
1605117791318588928,10.0.1.122,384,move_up,-0.190,-0.190,-0.190,0.000,0.000,0.000
1605117792417198848,10.0.1.122,46,place,-0.180,-0.180,-0.180,0.000,0.000,0.000
1605117793418637056,10.0.1.122,46,place,-0.170,-0.170,-0.170,0.000,0.000,0.000
1605117794419867904,10.0.1.122,46,place,-0.160,-0.160,-0.160,0.000,0.000,0.000
1605117795420780032,10.0.1.122,46,place,-0.150,-0.150,-0.150,0.000,0.000,0.000
1605117796417856000,10.0.1.122,41,place,-0.140,-0.140,-0.140,0.000,0.000,0.000
1605117797418654976,10.0.1.122,41,place,-0.130,-0.130,-0.130,0.000,0.000,0.000
1605117798418009088,10.0.1.122,39,place,-0.120,-0.120,-0.120,0.000,0.000,0.000
1605117799418440960,10.0.1.122,38,place,-0.110,-0.110,-0.110,0.000,0.000,0.000
1605117800418142208,10.0.1.122,37,place,-0.100,-0.100,-0.100,0.000,0.000,0.000
1605117801418086144,10.0.1.122,35,place,-0.090,-0.090,-0.090,0.000,0.000,0.000
1605117802418021888,10.0.1.122,34,place,-0.080,-0.080,-0.080,0.000,0.000,0.000
1605117803418206976,10.0.1.122,33,place,-0.070,-0.070,-0.070,0.000,0.000,0.000
1605117804417820928,10.0.1.122,31,place,-0.060,-0.060,-0.060,0.000,0.000,0.000
1605117805441593856,10.0.1.122,52,place,-0.050,-0.050,-0.050,0.000,0.000,0.000
1605117806441793024,10.0.1.122,51,place,-0.040,-0.040,-0.040,0.000,0.000,0.000
1605117807438277888,10.0.1.122,46,place,-0.030,-0.030,-0.030,0.000,0.000,0.000
1605117808438038016,10.0.1.122,45,place,-0.020,-0.020,-0.020,0.000,0.000,0.000
1605117809442793984,10.0.1.122,48,place,-0.010,-0.010,-0.010,0.000,0.000,0.000
1605117810438136064,10.0.1.122,42,place,0.000,0.000,0.000,0.000,0.000,0.000
1605117811789114112,10.0.1.122,392,move_down,-0.020,-0.020,-0.020,0.000,0.000,0.000
1605117813258686976,10.0.1.122,406,move_down,-0.040,-0.040,-0.040,0.000,0.000,0.000
1605117814647694080,10.0.1.122,358,move_down,-0.060,-0.060,-0.060,0.000,0.000,0.000
1605117816117080064,10.0.1.122,383,move_down,-0.080,-0.080,-0.080,0.000,0.000,0.000
1605117817567779072,10.0.1.122,392,move_down,-0.100,-0.100,-0.100,0.000,0.000,0.000
1605117819019123200,10.0.1.122,394,move_down,-0.120,-0.120,-0.120,0.000,0.000,0.000
1605117820428216832,10.0.1.122,366,move_down,-0.140,-0.140,-0.140,0.000,0.000,0.000
1605117821837560064,10.0.1.122,364,move_down,-0.160,-0.160,-0.160,0.000,0.000,0.000
1605117823289593856,10.0.1.122,386,move_down,-0.180,-0.180,-0.180,0.000,0.000,0.000
1605117824728000000,10.0.1.122,382,move_down,-0.200,-0.200,-0.200,0.000,0.000,0.000
1605117826167893760,10.0.1.122,391,move_down,-0.220,-0.220,-0.220,0.000,0.000,0.000
1605117827577584896,10.0.1.122,356,move_down,-0.240,-0.240,-0.240,0.000,0.000,0.000
1605117829028003072,10.0.1.122,382,move_down,-0.260,-0.260,-0.260,0.000,0.000,0.000
1605117830457827072,10.0.1.122,387,move_down,-0.280,-0.280,-0.280,0.000,0.000,0.000
1605117831887187968,10.0.1.122,364,move_down,-0.300,-0.300,-0.300,0.000,0.000,0.000
1605117833337500160,10.0.1.122,379,move_down,-0.320,-0.320,-0.320,0.000,0.000,0.000
1605117834748107008,10.0.1.122,361,move_down,-0.340,-0.340,-0.340,0.000,0.000,0.000
1605117836198072832,10.0.1.122,383,move_down,-0.360,-0.360,-0.360,0.000,0.000,0.000
1605117837628611072,10.0.1.122,370,move_down,-0.380,-0.380,-0.380,0.000,0.000,0.000
1605117839051932928,10.0.1.122,370,move_down,-0.400,-0.400,-0.400,0.000,0.000,0.000
1605117840479057920,10.0.1.122,384,move_down,-0.420,-0.420,-0.420,0.000,0.000,0.000
1605117841948009984,10.0.1.122,412,move_down,-0.440,-0.440,-0.440,0.000,0.000,0.000
1605117843369668864,10.0.1.122,386,move_down,-0.460,-0.460,-0.460,0.000,0.000,0.000
1605117844777968896,10.0.1.122,364,move_down,-0.480,-0.480,-0.480,0.000,0.000,0.000
1605117846207824896,10.0.1.122,381,move_down,-0.500,-0.500,-0.500,0.000,0.000,0.000
1605117847652582912,10.0.1.122,399,move_down,-0.520,-0.520,-0.520,0.000,0.000,0.000
1605117849139545088,10.0.1.122,375,move_down,-0.540,-0.540,-0.540,0.000,0.000,0.000
1605117850567867136,10.0.1.122,382,move_down,-0.560,-0.560,-0.560,0.000,0.000,0.000
1605117851977728000,10.0.1.122,352,move_down,-0.580,-0.580,-0.580,0.000,0.000,0.000
1605117853078302976,10.0.1.122,35,pick,-0.590,-0.590,-0.590,0.000,0.000,0.000
1605117854078382848,10.0.1.122,34,pick,-0.600,-0.600,-0.600,0.000,0.000,0.000
1605117855077747200,10.0.1.122,32,pick,-0.610,-0.610,-0.610,0.000,0.000,0.000
1605117856078692864,10.0.1.122,32,pick,-0.620,-0.620,-0.620,0.000,0.000,0.000
1605117857097878016,10.0.1.122,50,pick,-0.630,-0.630,-0.630,0.000,0.000,0.000
1605117858097803008,10.0.1.122,48,pick,-0.640,-0.640,-0.640,0.000,0.000,0.000
1605117859098233088,10.0.1.122,47,pick,-0.650,-0.650,-0.650,0.000,0.000,0.000
1605117860102341888,10.0.1.122,50,pick,-0.660,-0.660,-0.660,0.000,0.000,0.000
1605117861097434880,10.0.1.122,44,pick,-0.670,-0.670,-0.670,0.000,0.000,0.000
1605117862098334976,10.0.1.122,44,pick,-0.680,-0.680,-0.680,0.000,0.000,0.000
1605117863098434048,10.0.1.122,42,pick,-0.690,-0.690,-0.690,0.000,0.000,0.000
1605117864101260800,10.0.1.122,44,pick,-0.700,-0.700,-0.700,0.000,0.000,0.000
1605117865097841152,10.0.1.122,39,pick,-0.710,-0.710,-0.710,0.000,0.000,0.000
1605117866097250048,10.0.1.122,37,pick,-0.720,-0.720,-0.720,0.000,0.000,0.000
1605117867098252032,10.0.1.122,37,pick,-0.730,-0.730,-0.730,0.000,0.000,0.000
1605117868097872128,10.0.1.122,35,pick,-0.740,-0.740,-0.740,0.000,0.000,0.000
1605117869097672960,10.0.1.122,34,pick,-0.750,-0.750,-0.750,0.000,0.000,0.000
1605117870097417984,10.0.1.122,32,pick,-0.760,-0.760,-0.760,0.000,0.000,0.000
1605117871097352960,10.0.1.122,31,pick,-0.770,-0.770,-0.770,0.000,0.000,0.000
1605117872447629824,10.0.1.122,380,move_up,-0.750,-0.750,-0.750,0.000,0.000,0.000
1605117873887665152,10.0.1.122,380,move_up,-0.730,-0.730,-0.730,0.000,0.000,0.000
1605117875317914880,10.0.1.122,377,move_up,-0.710,-0.710,-0.710,0.000,0.000,0.000
1605117876757527040,10.0.1.122,376,move_up,-0.690,-0.690,-0.690,0.000,0.000,0.000
1605117878167267072,10.0.1.122,372,move_up,-0.670,-0.670,-0.670,0.000,0.000,0.000
1605117879598118144,10.0.1.122,384,move_up,-0.650,-0.650,-0.650,0.000,0.000,0.000
1605117881048268032,10.0.1.122,392,move_up,-0.630,-0.630,-0.630,0.000,0.000,0.000
1605117882478193152,10.0.1.122,375,move_up,-0.610,-0.610,-0.610,0.000,0.000,0.000
1605117883888283136,10.0.1.122,361,move_up,-0.590,-0.590,-0.590,0.000,0.000,0.000
1605117885338167808,10.0.1.122,384,move_up,-0.570,-0.570,-0.570,0.000,0.000,0.000
1605117886747801088,10.0.1.122,365,move_up,-0.550,-0.550,-0.550,0.000,0.000,0.000
1605117888147950848,10.0.1.122,349,move_up,-0.530,-0.530,-0.530,0.000,0.000,0.000
1605117889577483008,10.0.1.122,359,move_up,-0.510,-0.510,-0.510,0.000,0.000,0.000
1605117891037894912,10.0.1.122,393,move_up,-0.490,-0.490,-0.490,0.000,0.000,0.000
1605117892508249088,10.0.1.122,388,move_up,-0.470,-0.470,-0.470,0.000,0.000,0.000
1605117893937967104,10.0.1.122,374,move_up,-0.450,-0.450,-0.450,0.000,0.000,0.000
1605117895347561984,10.0.1.122,359,move_up,-0.430,-0.430,-0.430,0.000,0.000,0.000
1605117896807607808,10.0.1.122,390,move_up,-0.410,-0.410,-0.410,0.000,0.000,0.000
1605117898237974784,10.0.1.122,378,move_up,-0.390,-0.390,-0.390,0.000,0.000,0.000
1605117899667870976,10.0.1.122,381,move_up,-0.370,-0.370,-0.370,0.000,0.000,0.000
1605117901097275136,10.0.1.122,378,move_up,-0.350,-0.350,-0.350,0.000,0.000,0.000
1605117902539002880,10.0.1.122,397,move_up,-0.330,-0.330,-0.330,0.000,0.000,0.000
1605117903971365888,10.0.1.122,388,move_up,-0.310,-0.310,-0.310,0.000,0.000,0.000
1605117905428132096,10.0.1.122,399,move_up,-0.290,-0.290,-0.290,0.000,0.000,0.000
1605117906857168896,10.0.1.122,377,move_up,-0.270,-0.270,-0.270,0.000,0.000,0.000
1605117908288240896,10.0.1.122,381,move_up,-0.250,-0.250,-0.250,0.000,0.000,0.000
1605117909737318144,10.0.1.122,402,move_up,-0.230,-0.230,-0.230,0.000,0.000,0.000
1605117911147756032,10.0.1.122,370,move_up,-0.210,-0.210,-0.210,0.000,0.000,0.000
1605117912577289216,10.0.1.122,380,move_up,-0.190,-0.190,-0.190,0.000,0.000,0.000
1605117913677014016,10.0.1.122,40,place,-0.180,-0.180,-0.180,0.000,0.000,0.000
1605117914678275072,10.0.1.122,40,place,-0.170,-0.170,-0.170,0.000,0.000,0.000
1605117915677357824,10.0.1.122,38,place,-0.160,-0.160,-0.160,0.000,0.000,0.000
1605117916680047104,10.0.1.122,39,place,-0.150,-0.150,-0.150,0.000,0.000,0.000
1605117917677390080,10.0.1.122,35,place,-0.140,-0.140,-0.140,0.000,0.000,0.000
1605117918677235968,10.0.1.122,34,place,-0.130,-0.130,-0.130,0.000,0.000,0.000
1605117919678003200,10.0.1.122,33,place,-0.120,-0.120,-0.120,0.000,0.000,0.000
1605117920679405056,10.0.1.122,33,place,-0.110,-0.110,-0.110,0.000,0.000,0.000
1605117921697561088,10.0.1.122,50,place,-0.100,-0.100,-0.100,0.000,0.000,0.000
1605117922697711104,10.0.1.122,49,place,-0.090,-0.090,-0.090,0.000,0.000,0.000
1605117923697469952,10.0.1.122,48,place,-0.080,-0.080,-0.080,0.000,0.000,0.000
1605117924697635840,10.0.1.122,46,place,-0.070,-0.070,-0.070,0.000,0.000,0.000
1605117925697348096,10.0.1.122,45,place,-0.060,-0.060,-0.060,0.000,0.000,0.000
1605117926698766080,10.0.1.122,45,place,-0.050,-0.050,-0.050,0.000,0.000,0.000
1605117927697541120,10.0.1.122,42,place,-0.040,-0.040,-0.040,0.000,0.000,0.000
1605117928697609984,10.0.1.122,41,place,-0.030,-0.030,-0.030,0.000,0.000,0.000
1605117929697160960,10.0.1.122,39,place,-0.020,-0.020,-0.020,0.000,0.000,0.000
1605117930697319936,10.0.1.122,38,place,-0.010,-0.010,-0.010,0.000,0.000,0.000
1605117931697859072,10.0.1.122,38,place,0.000,0.000,0.000,0.000,0.000,0.000
1605117933019063040,10.0.1.122,358,move_down,-0.020,-0.020,-0.020,0.000,0.000,0.000
1605117934476993024,10.0.1.122,399,move_down,-0.040,-0.040,-0.040,0.000,0.000,0.000
1605117935910492928,10.0.1.122,389,move_down,-0.060,-0.060,-0.060,0.000,0.000,0.000
1605117937357779968,10.0.1.122,393,move_down,-0.080,-0.080,-0.080,0.000,0.000,0.000
1605117938767697152,10.0.1.122,375,move_down,-0.100,-0.100,-0.100,0.000,0.000,0.000
1605117940196957184,10.0.1.122,380,move_down,-0.120,-0.120,-0.120,0.000,0.000,0.000
1605117941617771008,10.0.1.122,374,move_down,-0.140,-0.140,-0.140,0.000,0.000,0.000
1605117943067246848,10.0.1.122,382,move_down,-0.160,-0.160,-0.160,0.000,0.000,0.000
1605117944521442048,10.0.1.122,404,move_down,-0.180,-0.180,-0.180,0.000,0.000,0.000
1605117945937350144,10.0.1.122,380,move_down,-0.200,-0.200,-0.200,0.000,0.000,0.000
1605117947388706048,10.0.1.122,381,move_down,-0.220,-0.220,-0.220,0.000,0.000,0.000
1605117948818572032,10.0.1.122,386,move_down,-0.240,-0.240,-0.240,0.000,0.000,0.000
1605117950227613952,10.0.1.122,352,move_down,-0.260,-0.260,-0.260,0.000,0.000,0.000
1605117951678682112,10.0.1.122,374,move_down,-0.280,-0.280,-0.280,0.000,0.000,0.000
1605117953117796864,10.0.1.122,391,move_down,-0.300,-0.300,-0.300,0.000,0.000,0.000
1605117954570708992,10.0.1.122,399,move_down,-0.320,-0.320,-0.320,0.000,0.000,0.000
1605117955977925120,10.0.1.122,379,move_down,-0.340,-0.340,-0.340,0.000,0.000,0.000
1605117957410113024,10.0.1.122,369,move_down,-0.360,-0.360,-0.360,0.000,0.000,0.000
1605117958857299968,10.0.1.122,400,move_down,-0.380,-0.380,-0.380,0.000,0.000,0.000
1605117960300098048,10.0.1.122,390,move_down,-0.400,-0.400,-0.400,0.000,0.000,0.000
1605117961730748928,10.0.1.122,383,move_down,-0.420,-0.420,-0.420,0.000,0.000,0.000
1605117963158796032,10.0.1.122,366,move_down,-0.440,-0.440,-0.440,0.000,0.000,0.000
1605117964587768064,10.0.1.122,383,move_down,-0.460,-0.460,-0.460,0.000,0.000,0.000
1605117966048697856,10.0.1.122,401,move_down,-0.480,-0.480,-0.480,0.000,0.000,0.000
1605117967467781120,10.0.1.122,392,move_down,-0.500,-0.500,-0.500,0.000,0.000,0.000
1605117968899635968,10.0.1.122,390,move_down,-0.520,-0.520,-0.520,0.000,0.000,0.000
1605117970357928960,10.0.1.122,398,move_down,-0.540,-0.540,-0.540,0.000,0.000,0.000
1605117971788002048,10.0.1.122,388,move_down,-0.560,-0.560,-0.560,0.000,0.000,0.000
1605117973237935104,10.0.1.122,401,move_down,-0.580,-0.580,-0.580,0.000,0.000,0.000
1605117974317308928,10.0.1.122,46,pick,-0.590,-0.590,-0.590,0.000,0.000,0.000
1605117976319436032,10.0.1.122,45,pick,-0.610,-0.610,-0.610,0.000,0.000,0.000
1605117977317500160,10.0.1.122,42,pick,-0.620,-0.620,-0.620,0.000,0.000,0.000
1605117978322465792,10.0.1.122,46,pick,-0.630,-0.630,-0.630,0.000,0.000,0.000
1605117979317538048,10.0.1.122,40,pick,-0.640,-0.640,-0.640,0.000,0.000,0.000
1605117980318414080,10.0.1.122,40,pick,-0.650,-0.650,-0.650,0.000,0.000,0.000
1605117981317745920,10.0.1.122,38,pick,-0.660,-0.660,-0.660,0.000,0.000,0.000
1605117982318109952,10.0.1.122,38,pick,-0.670,-0.670,-0.670,0.000,0.000,0.000
1605117983317961984,10.0.1.122,37,pick,-0.680,-0.680,-0.680,0.000,0.000,0.000
1605117984318344192,10.0.1.122,36,pick,-0.690,-0.690,-0.690,0.000,0.000,0.000
1605117985316976128,10.0.1.122,33,pick,-0.700,-0.700,-0.700,0.000,0.000,0.000
1605117986317036032,10.0.1.122,32,pick,-0.710,-0.710,-0.710,0.000,0.000,0.000
1605117987317946880,10.0.1.122,32,pick,-0.720,-0.720,-0.720,0.000,0.000,0.000
1605117988338071040,10.0.1.122,50,pick,-0.730,-0.730,-0.730,0.000,0.000,0.000
1605117989338167808,10.0.1.122,49,pick,-0.740,-0.740,-0.740,0.000,0.000,0.000
1605117990337915904,10.0.1.122,48,pick,-0.750,-0.750,-0.750,0.000,0.000,0.000
1605117991338067968,10.0.1.122,46,pick,-0.760,-0.760,-0.760,0.000,0.000,0.000
1605117992337554944,10.0.1.122,45,pick,-0.770,-0.770,-0.770,0.000,0.000,0.000
1605117993687762944,10.0.1.122,394,move_up,-0.750,-0.750,-0.750,0.000,0.000,0.000
1605117995078334976,10.0.1.122,359,move_up,-0.730,-0.730,-0.730,0.000,0.000,0.000
1605117996518048000,10.0.1.122,390,move_up,-0.710,-0.710,-0.710,0.000,0.000,0.000
1605117997937521920,10.0.1.122,385,move_up,-0.690,-0.690,-0.690,0.000,0.000,0.000
1605117999410579968,10.0.1.122,379,move_up,-0.670,-0.670,-0.670,0.000,0.000,0.000
1605118000820231936,10.0.1.122,376,move_up,-0.650,-0.650,-0.650,0.000,0.000,0.000
1605118002267368192,10.0.1.122,381,move_up,-0.630,-0.630,-0.630,0.000,0.000,0.000
1605118003727436032,10.0.1.122,397,move_up,-0.610,-0.610,-0.610,0.000,0.000,0.000
1605118005157259008,10.0.1.122,374,move_up,-0.590,-0.590,-0.590,0.000,0.000,0.000
1605118006588342016,10.0.1.122,376,move_up,-0.570,-0.570,-0.570,0.000,0.000,0.000
1605118007999008000,10.0.1.122,360,move_up,-0.550,-0.550,-0.550,0.000,0.000,0.000
1605118009448486144,10.0.1.122,384,move_up,-0.530,-0.530,-0.530,0.000,0.000,0.000
1605118010838273024,10.0.1.122,346,move_up,-0.510,-0.510,-0.510,0.000,0.000,0.000
1605118012288083200,10.0.1.122,381,move_up,-0.490,-0.490,-0.490,0.000,0.000,0.000
1605118013717940992,10.0.1.122,370,move_up,-0.470,-0.470,-0.470,0.000,0.000,0.000
1605118015168308992,10.0.1.122,403,move_up,-0.450,-0.450,-0.450,0.000,0.000,0.000
1605118016598170112,10.0.1.122,383,move_up,-0.430,-0.430,-0.430,0.000,0.000,0.000
1605118018020926976,10.0.1.122,374,move_up,-0.410,-0.410,-0.410,0.000,0.000,0.000
1605118019468312064,10.0.1.122,381,move_up,-0.390,-0.390,-0.390,0.000,0.000,0.000
1605118020878472192,10.0.1.122,359,move_up,-0.370,-0.370,-0.370,0.000,0.000,0.000
1605118022338052864,10.0.1.122,394,move_up,-0.350,-0.350,-0.350,0.000,0.000,0.000
1605118023748094208,10.0.1.122,362,move_up,-0.330,-0.330,-0.330,0.000,0.000,0.000
1605118025197936896,10.0.1.122,386,move_up,-0.310,-0.310,-0.310,0.000,0.000,0.000
1605118026628457984,10.0.1.122,382,move_up,-0.290,-0.290,-0.290,0.000,0.000,0.000
1605118028068924928,10.0.1.122,383,move_up,-0.270,-0.270,-0.270,0.000,0.000,0.000
1605118029530121216,10.0.1.122,368,move_up,-0.250,-0.250,-0.250,0.000,0.000,0.000
1605118031008488960,10.0.1.122,410,move_up,-0.230,-0.230,-0.230,0.000,0.000,0.000
1605118032417853184,10.0.1.122,367,move_up,-0.210,-0.210,-0.210,0.000,0.000,0.000
1605118033848453120,10.0.1.122,385,move_up,-0.190,-0.190,-0.190,0.000,0.000,0.000
1605118034948872960,10.0.1.122,45,place,-0.180,-0.180,-0.180,0.000,0.000,0.000
1605118035947921152,10.0.1.122,43,place,-0.170,-0.170,-0.170,0.000,0.000,0.000
1605118036947650816,10.0.1.122,41,place,-0.160,-0.160,-0.160,0.000,0.000,0.000
1605118037947664128,10.0.1.122,40,place,-0.150,-0.150,-0.150,0.000,0.000,0.000
1605118038947674112,10.0.1.122,39,place,-0.140,-0.140,-0.140,0.000,0.000,0.000
1605118039951950080,10.0.1.122,42,place,-0.130,-0.130,-0.130,0.000,0.000,0.000
1605118040949043968,10.0.1.122,38,place,-0.120,-0.120,-0.120,0.000,0.000,0.000
1605118041947920128,10.0.1.122,36,place,-0.110,-0.110,-0.110,0.000,0.000,0.000
1605118042948209920,10.0.1.122,35,place,-0.100,-0.100,-0.100,0.000,0.000,0.000
1605118043948760064,10.0.1.122,34,place,-0.090,-0.090,-0.090,0.000,0.000,0.000
1605118044947858944,10.0.1.122,32,place,-0.080,-0.080,-0.080,0.000,0.000,0.000
1605118045970316800,10.0.1.122,53,place,-0.070,-0.070,-0.070,0.000,0.000,0.000
1605118046968197120,10.0.1.122,50,place,-0.060,-0.060,-0.060,0.000,0.000,0.000
1605118047967792128,10.0.1.122,49,place,-0.050,-0.050,-0.050,0.000,0.000,0.000
1605118048968267008,10.0.1.122,49,place,-0.040,-0.040,-0.040,0.000,0.000,0.000
1605118049967287040,10.0.1.122,46,place,-0.030,-0.030,-0.030,0.000,0.000,0.000
1605118050967536896,10.0.1.122,45,place,-0.020,-0.020,-0.020,0.000,0.000,0.000
1605118051969602048,10.0.1.122,46,place,-0.010,-0.010,-0.010,0.000,0.000,0.000
1605118052967639808,10.0.1.122,43,place,0.000,0.000,0.000,0.000,0.000,0.000
1605118054327318784,10.0.1.122,401,move_down,-0.020,-0.020,-0.020,0.000,0.000,0.000
1605118055807245056,10.0.1.122,406,move_down,-0.040,-0.040,-0.040,0.000,0.000,0.000
1605118057237811200,10.0.1.122,387,move_down,-0.060,-0.060,-0.060,0.000,0.000,0.000
1605118058679877120,10.0.1.122,386,move_down,-0.080,-0.080,-0.080,0.000,0.000,0.000
1605118060107796992,10.0.1.122,373,move_down,-0.100,-0.100,-0.100,0.000,0.000,0.000
1605118061537880832,10.0.1.122,385,move_down,-0.120,-0.120,-0.120,0.000,0.000,0.000
1605118062998009088,10.0.1.122,392,move_down,-0.140,-0.140,-0.140,0.000,0.000,0.000
1605118064437935104,10.0.1.122,387,move_down,-0.160,-0.160,-0.160,0.000,0.000,0.000
1605118065869873920,10.0.1.122,382,move_down,-0.180,-0.180,-0.180,0.000,0.000,0.000
1605118067307273984,10.0.1.122,376,move_down,-0.200,-0.200,-0.200,0.000,0.000,0.000
1605118068767442944,10.0.1.122,407,move_down,-0.220,-0.220,-0.220,0.000,0.000,0.000
1605118070227597824,10.0.1.122,388,move_down,-0.240,-0.240,-0.240,0.000,0.000,0.000
1605118071657282048,10.0.1.122,377,move_down,-0.260,-0.260,-0.260,0.000,0.000,0.000
1605118073087059968,10.0.1.122,383,move_down,-0.280,-0.280,-0.280,0.000,0.000,0.000
1605118074537491200,10.0.1.122,392,move_down,-0.300,-0.300,-0.300,0.000,0.000,0.000
1605118075979252224,10.0.1.122,391,move_down,-0.320,-0.320,-0.320,0.000,0.000,0.000
1605118077407849984,10.0.1.122,374,move_down,-0.340,-0.340,-0.340,0.000,0.000,0.000
1605118078837920000,10.0.1.122,383,move_down,-0.360,-0.360,-0.360,0.000,0.000,0.000
1605118080287659776,10.0.1.122,391,move_down,-0.380,-0.380,-0.380,0.000,0.000,0.000
1605118081727482112,10.0.1.122,379,move_down,-0.400,-0.400,-0.400,0.000,0.000,0.000
1605118083167694080,10.0.1.122,389,move_down,-0.420,-0.420,-0.420,0.000,0.000,0.000
1605118084597414144,10.0.1.122,379,move_down,-0.440,-0.440,-0.440,0.000,0.000,0.000
1605118086038149120,10.0.1.122,392,move_down,-0.460,-0.460,-0.460,0.000,0.000,0.000
1605118087480706816,10.0.1.122,392,move_down,-0.480,-0.480,-0.480,0.000,0.000,0.000
1605118088933594880,10.0.1.122,405,move_down,-0.500,-0.500,-0.500,0.000,0.000,0.000
1605118090337987072,10.0.1.122,355,move_down,-0.520,-0.520,-0.520,0.000,0.000,0.000
1605118091807454976,10.0.1.122,398,move_down,-0.540,-0.540,-0.540,0.000,0.000,0.000
1605118093228647936,10.0.1.122,394,move_down,-0.560,-0.560,-0.560,0.000,0.000,0.000
1605118094647145984,10.0.1.122,362,move_down,-0.580,-0.580,-0.580,0.000,0.000,0.000
1605118095748418048,10.0.1.122,36,pick,-0.590,-0.590,-0.590,0.000,0.000,0.000
1605118096747889920,10.0.1.122,34,pick,-0.600,-0.600,-0.600,0.000,0.000,0.000
1605118097747142912,10.0.1.122,32,pick,-0.610,-0.610,-0.610,0.000,0.000,0.000
1605118098747878144,10.0.1.122,32,pick,-0.620,-0.620,-0.620,0.000,0.000,0.000
1605118099767469056,10.0.1.122,50,pick,-0.630,-0.630,-0.630,0.000,0.000,0.000
1605118100769536000,10.0.1.122,51,pick,-0.640,-0.640,-0.640,0.000,0.000,0.000
1605118101767784192,10.0.1.122,48,pick,-0.650,-0.650,-0.650,0.000,0.000,0.000
1605118102767476992,10.0.1.122,47,pick,-0.660,-0.660,-0.660,0.000,0.000,0.000
1605118103767582976,10.0.1.122,46,pick,-0.670,-0.670,-0.670,0.000,0.000,0.000
1605118104767073024,10.0.1.122,44,pick,-0.680,-0.680,-0.680,0.000,0.000,0.000
1605118105767574016,10.0.1.122,44,pick,-0.690,-0.690,-0.690,0.000,0.000,0.000
1605118106768071936,10.0.1.122,43,pick,-0.700,-0.700,-0.700,0.000,0.000,0.000
1605118107768496128,10.0.1.122,42,pick,-0.710,-0.710,-0.710,0.000,0.000,0.000
1605118108769274112,10.0.1.122,42,pick,-0.720,-0.720,-0.720,0.000,0.000,0.000
1605118109769886976,10.0.1.122,41,pick,-0.730,-0.730,-0.730,0.000,0.000,0.000
1605118110767691008,10.0.1.122,39,pick,-0.740,-0.740,-0.740,0.000,0.000,0.000
1605118111769273088,10.0.1.122,40,pick,-0.750,-0.750,-0.750,0.000,0.000,0.000
1605118112769891072,10.0.1.122,40,pick,-0.760,-0.760,-0.760,0.000,0.000,0.000
1605118113767713024,10.0.1.122,36,pick,-0.770,-0.770,-0.770,0.000,0.000,0.000
1605118115108584960,10.0.1.122,375,move_up,-0.750,-0.750,-0.750,0.000,0.000,0.000
1605118116558914816,10.0.1.122,380,move_up,-0.730,-0.730,-0.730,0.000,0.000,0.000
1605118117988270080,10.0.1.122,381,move_up,-0.710,-0.710,-0.710,0.000,0.000,0.000
1605118119427897088,10.0.1.122,381,move_up,-0.690,-0.690,-0.690,0.000,0.000,0.000
1605118120858055168,10.0.1.122,384,move_up,-0.670,-0.670,-0.670,0.000,0.000,0.000
1605118122300695808,10.0.1.122,385,move_up,-0.650,-0.650,-0.650,0.000,0.000,0.000
1605118123727986176,10.0.1.122,382,move_up,-0.630,-0.630,-0.630,0.000,0.000,0.000
1605118125147453184,10.0.1.122,360,move_up,-0.610,-0.610,-0.610,0.000,0.000,0.000
1605118126598031872,10.0.1.122,386,move_up,-0.590,-0.590,-0.590,0.000,0.000,0.000
1605118128048726016,10.0.1.122,389,move_up,-0.570,-0.570,-0.570,0.000,0.000,0.000
1605118129499236096,10.0.1.122,391,move_up,-0.550,-0.550,-0.550,0.000,0.000,0.000
1605118130918358016,10.0.1.122,392,move_up,-0.530,-0.530,-0.530,0.000,0.000,0.000
1605118132370059008,10.0.1.122,403,move_up,-0.510,-0.510,-0.510,0.000,0.000,0.000
1605118133849178112,10.0.1.122,403,move_up,-0.490,-0.490,-0.490,0.000,0.000,0.000
1605118135307663872,10.0.1.122,408,move_up,-0.470,-0.470,-0.470,0.000,0.000,0.000
1605118136738022144,10.0.1.122,359,move_up,-0.450,-0.450,-0.450,0.000,0.000,0.000
1605118138187421184,10.0.1.122,383,move_up,-0.430,-0.430,-0.430,0.000,0.000,0.000
1605118139627787008,10.0.1.122,380,move_up,-0.410,-0.410,-0.410,0.000,0.000,0.000
1605118141017737984,10.0.1.122,393,move_up,-0.390,-0.390,-0.390,0.000,0.000,0.000
1605118142428155904,10.0.1.122,384,move_up,-0.370,-0.370,-0.370,0.000,0.000,0.000
1605118143837637888,10.0.1.122,365,move_up,-0.350,-0.350,-0.350,0.000,0.000,0.000
1605118145257957888,10.0.1.122,358,move_up,-0.330,-0.330,-0.330,0.000,0.000,0.000
1605118146709718016,10.0.1.122,384,move_up,-0.310,-0.310,-0.310,0.000,0.000,0.000
1605118148137447168,10.0.1.122,371,move_up,-0.290,-0.290,-0.290,0.000,0.000,0.000
1605118149557848064,10.0.1.122,374,move_up,-0.270,-0.270,-0.270,0.000,0.000,0.000
1605118150999883008,10.0.1.122,393,move_up,-0.250,-0.250,-0.250,0.000,0.000,0.000
1605118152441172992,10.0.1.122,392,move_up,-0.230,-0.230,-0.230,0.000,0.000,0.000
1605118153908839936,10.0.1.122,386,move_up,-0.210,-0.210,-0.210,0.000,0.000,0.000
1605118155339474944,10.0.1.122,374,move_up,-0.190,-0.190,-0.190,0.000,0.000,0.000
1605118156440422912,10.0.1.122,48,place,-0.180,-0.180,-0.180,0.000,0.000,0.000
1605118157439388928,10.0.1.122,45,place,-0.170,-0.170,-0.170,0.000,0.000,0.000
1605118158438811904,10.0.1.122,44,place,-0.160,-0.160,-0.160,0.000,0.000,0.000
1605118159439204096,10.0.1.122,43,place,-0.150,-0.150,-0.150,0.000,0.000,0.000
1605118160441051904,10.0.1.122,43,place,-0.140,-0.140,-0.140,0.000,0.000,0.000
1605118161439215872,10.0.1.122,40,place,-0.130,-0.130,-0.130,0.000,0.000,0.000
1605118162439528960,10.0.1.122,39,place,-0.120,-0.120,-0.120,0.000,0.000,0.000
1605118163443083008,10.0.1.122,41,place,-0.110,-0.110,-0.110,0.000,0.000,0.000
1605118164439127808,10.0.1.122,36,place,-0.100,-0.100,-0.100,0.000,0.000,0.000
1605118165440188928,10.0.1.122,36,place,-0.090,-0.090,-0.090,0.000,0.000,0.000
1605118166439418112,10.0.1.122,34,place,-0.080,-0.080,-0.080,0.000,0.000,0.000
1605118167441096192,10.0.1.122,34,place,-0.070,-0.070,-0.070,0.000,0.000,0.000
1605118168438731008,10.0.1.122,31,place,-0.060,-0.060,-0.060,0.000,0.000,0.000
1605118169459196928,10.0.1.122,50,place,-0.050,-0.050,-0.050,0.000,0.000,0.000
1605118170458891008,10.0.1.122,48,place,-0.040,-0.040,-0.040,0.000,0.000,0.000
1605118171459631872,10.0.1.122,48,place,-0.030,-0.030,-0.030,0.000,0.000,0.000
1605118172459956992,10.0.1.122,47,place,-0.020,-0.020,-0.020,0.000,0.000,0.000
1605118173459336960,10.0.1.122,45,place,-0.010,-0.010,-0.010,0.000,0.000,0.000
1605118174459866880,10.0.1.122,44,place,0.000,0.000,0.000,0.000,0.000,0.000
1605118175779289088,10.0.1.122,362,move_down,-0.020,-0.020,-0.020,0.000,0.000,0.000
1605118177229128960,10.0.1.122,369,move_down,-0.040,-0.040,-0.040,0.000,0.000,0.000
1605118178680092928,10.0.1.122,385,move_down,-0.060,-0.060,-0.060,0.000,0.000,0.000
1605118180108839936,10.0.1.122,369,move_down,-0.080,-0.080,-0.080,0.000,0.000,0.000
1605118181559251968,10.0.1.122,406,move_down,-0.100,-0.100,-0.100,0.000,0.000,0.000
1605118182970618112,10.0.1.122,385,move_down,-0.120,-0.120,-0.120,0.000,0.000,0.000
1605118184439589120,10.0.1.122,410,move_down,-0.140,-0.140,-0.140,0.000,0.000,0.000
1605118185869308928,10.0.1.122,362,move_down,-0.160,-0.160,-0.160,0.000,0.000,0.000
1605118187319566080,10.0.1.122,371,move_down,-0.180,-0.180,-0.180,0.000,0.000,0.000
1605118188769553920,10.0.1.122,407,move_down,-0.200,-0.200,-0.200,0.000,0.000,0.000
1605118190200818944,10.0.1.122,390,move_down,-0.220,-0.220,-0.220,0.000,0.000,0.000
1605118191639934976,10.0.1.122,386,move_down,-0.240,-0.240,-0.240,0.000,0.000,0.000
1605118193068828160,10.0.1.122,372,move_down,-0.260,-0.260,-0.260,0.000,0.000,0.000
1605118194499124992,10.0.1.122,382,move_down,-0.280,-0.280,-0.280,0.000,0.000,0.000
1605118195919121920,10.0.1.122,367,move_down,-0.300,-0.300,-0.300,0.000,0.000,0.000
1605118197398878208,10.0.1.122,406,move_down,-0.320,-0.320,-0.320,0.000,0.000,0.000
1605118198849686016,10.0.1.122,379,move_down,-0.340,-0.340,-0.340,0.000,0.000,0.000
1605118200259234816,10.0.1.122,360,move_down,-0.360,-0.360,-0.360,0.000,0.000,0.000
1605118201718988800,10.0.1.122,397,move_down,-0.380,-0.380,-0.380,0.000,0.000,0.000
1605118203169841920,10.0.1.122,400,move_down,-0.400,-0.400,-0.400,0.000,0.000,0.000
1605118204584896000,10.0.1.122,373,move_down,-0.420,-0.420,-0.420,0.000,0.000,0.000
1605118206019121920,10.0.1.122,391,move_down,-0.440,-0.440,-0.440,0.000,0.000,0.000
1605118207450313984,10.0.1.122,386,move_down,-0.460,-0.460,-0.460,0.000,0.000,0.000
1605118208889005824,10.0.1.122,382,move_down,-0.480,-0.480,-0.480,0.000,0.000,0.000
1605118210320271104,10.0.1.122,366,move_down,-0.500,-0.500,-0.500,0.000,0.000,0.000
1605118211768837888,10.0.1.122,397,move_down,-0.520,-0.520,-0.520,0.000,0.000,0.000
1605118213219217152,10.0.1.122,400,move_down,-0.540,-0.540,-0.540,0.000,0.000,0.000
1605118214648939008,10.0.1.122,388,move_down,-0.560,-0.560,-0.560,0.000,0.000,0.000
1605118216078448896,10.0.1.122,382,move_down,-0.580,-0.580,-0.580,0.000,0.000,0.000
1605118217159612928,10.0.1.122,34,pick,-0.590,-0.590,-0.590,0.000,0.000,0.000
1605118218160643072,10.0.1.122,34,pick,-0.600,-0.600,-0.600,0.000,0.000,0.000
1605118219158648064,10.0.1.122,31,pick,-0.610,-0.610,-0.610,0.000,0.000,0.000
1605118220182599168,10.0.1.122,53,pick,-0.620,-0.620,-0.620,0.000,0.000,0.000
1605118221178611968,10.0.1.122,48,pick,-0.630,-0.630,-0.630,0.000,0.000,0.000
1605118222178695936,10.0.1.122,47,pick,-0.640,-0.640,-0.640,0.000,0.000,0.000
1605118223179069952,10.0.1.122,46,pick,-0.650,-0.650,-0.650,0.000,0.000,0.000
1605118224179112960,10.0.1.122,45,pick,-0.660,-0.660,-0.660,0.000,0.000,0.000
1605118225178332160,10.0.1.122,43,pick,-0.670,-0.670,-0.670,0.000,0.000,0.000
1605118226178725120,10.0.1.122,42,pick,-0.680,-0.680,-0.680,0.000,0.000,0.000
1605118227178950912,10.0.1.122,41,pick,-0.690,-0.690,-0.690,0.000,0.000,0.000
1605118228180866048,10.0.1.122,41,pick,-0.700,-0.700,-0.700,0.000,0.000,0.000
1605118229181575936,10.0.1.122,41,pick,-0.710,-0.710,-0.710,0.000,0.000,0.000
1605118230178688000,10.0.1.122,36,pick,-0.720,-0.720,-0.720,0.000,0.000,0.000
1605118231178791936,10.0.1.122,35,pick,-0.730,-0.730,-0.730,0.000,0.000,0.000
1605118232178862080,10.0.1.122,34,pick,-0.740,-0.740,-0.740,0.000,0.000,0.000
1605118233179702016,10.0.1.122,34,pick,-0.750,-0.750,-0.750,0.000,0.000,0.000
1605118234179440128,10.0.1.122,32,pick,-0.760,-0.760,-0.760,0.000,0.000,0.000
1605118235178987008,10.0.1.122,30,pick,-0.770,-0.770,-0.770,0.000,0.000,0.000
1605118236528923136,10.0.1.122,379,move_up,-0.750,-0.750,-0.750,0.000,0.000,0.000
1605118237958803968,10.0.1.122,380,move_up,-0.730,-0.730,-0.730,0.000,0.000,0.000
1605118239391577856,10.0.1.122,388,move_up,-0.710,-0.710,-0.710,0.000,0.000,0.000
1605118240822864896,10.0.1.122,380,move_up,-0.690,-0.690,-0.690,0.000,0.000,0.000
1605118242259120896,10.0.1.122,399,move_up,-0.670,-0.670,-0.670,0.000,0.000,0.000
1605118243733475072,10.0.1.122,386,move_up,-0.650,-0.650,-0.650,0.000,0.000,0.000
1605118245178900992,10.0.1.122,391,move_up,-0.630,-0.630,-0.630,0.000,0.000,0.000
1605118246609112064,10.0.1.122,379,move_up,-0.610,-0.610,-0.610,0.000,0.000,0.000
1605118248069324032,10.0.1.122,402,move_up,-0.590,-0.590,-0.590,0.000,0.000,0.000
1605118249500209920,10.0.1.122,384,move_up,-0.570,-0.570,-0.570,0.000,0.000,0.000
1605118250908988928,10.0.1.122,365,move_up,-0.550,-0.550,-0.550,0.000,0.000,0.000
1605118252330882048,10.0.1.122,356,move_up,-0.530,-0.530,-0.530,0.000,0.000,0.000
1605118253770364928,10.0.1.122,374,move_up,-0.510,-0.510,-0.510,0.000,0.000,0.000
1605118255179302912,10.0.1.122,360,move_up,-0.490,-0.490,-0.490,0.000,0.000,0.000
1605118256639282944,10.0.1.122,394,move_up,-0.470,-0.470,-0.470,0.000,0.000,0.000
1605118258088912896,10.0.1.122,398,move_up,-0.450,-0.450,-0.450,0.000,0.000,0.000
1605118259482825984,10.0.1.122,361,move_up,-0.430,-0.430,-0.430,0.000,0.000,0.000
1605118260930146048,10.0.1.122,381,move_up,-0.410,-0.410,-0.410,0.000,0.000,0.000
1605118262359196928,10.0.1.122,381,move_up,-0.390,-0.390,-0.390,0.000,0.000,0.000
1605118263788672000,10.0.1.122,377,move_up,-0.370,-0.370,-0.370,0.000,0.000,0.000
1605118265219276032,10.0.1.122,378,move_up,-0.350,-0.350,-0.350,0.000,0.000,0.000
1605118266649441024,10.0.1.122,373,move_up,-0.330,-0.330,-0.330,0.000,0.000,0.000
1605118268080005888,10.0.1.122,376,move_up,-0.310,-0.310,-0.310,0.000,0.000,0.000
1605118269530396928,10.0.1.122,405,move_up,-0.290,-0.290,-0.290,0.000,0.000,0.000
1605118270971968768,10.0.1.122,394,move_up,-0.270,-0.270,-0.270,0.000,0.000,0.000
1605118272379046912,10.0.1.122,369,move_up,-0.250,-0.250,-0.250,0.000,0.000,0.000
1605118273808536064,10.0.1.122,374,move_up,-0.230,-0.230,-0.230,0.000,0.000,0.000
1605118275230385152,10.0.1.122,369,move_up,-0.210,-0.210,-0.210,0.000,0.000,0.000
1605118276680943872,10.0.1.122,379,move_up,-0.190,-0.190,-0.190,0.000,0.000,0.000
1605118277759766016,10.0.1.122,31,place,-0.180,-0.180,-0.180,0.000,0.000,0.000
1605118278779977984,10.0.1.122,48,place,-0.170,-0.170,-0.170,0.000,0.000,0.000
1605118279779371008,10.0.1.122,46,place,-0.160,-0.160,-0.160,0.000,0.000,0.000
1605118280778640128,10.0.1.122,44,place,-0.150,-0.150,-0.150,0.000,0.000,0.000
1605118281781117952,10.0.1.122,45,place,-0.140,-0.140,-0.140,0.000,0.000,0.000
1605118282779100928,10.0.1.122,41,place,-0.130,-0.130,-0.130,0.000,0.000,0.000
1605118283779182080,10.0.1.122,40,place,-0.120,-0.120,-0.120,0.000,0.000,0.000
1605118284779213056,10.0.1.122,39,place,-0.110,-0.110,-0.110,0.000,0.000,0.000
1605118285778980096,10.0.1.122,37,place,-0.100,-0.100,-0.100,0.000,0.000,0.000
1605118286779102208,10.0.1.122,36,place,-0.090,-0.090,-0.090,0.000,0.000,0.000
1605118287779453952,10.0.1.122,35,place,-0.080,-0.080,-0.080,0.000,0.000,0.000
1605118288779424000,10.0.1.122,34,place,-0.070,-0.070,-0.070,0.000,0.000,0.000
1605118289778569984,10.0.1.122,32,place,-0.060,-0.060,-0.060,0.000,0.000,0.000
1605118290780003072,10.0.1.122,32,place,-0.050,-0.050,-0.050,0.000,0.000,0.000
1605118291799369984,10.0.1.122,50,place,-0.040,-0.040,-0.040,0.000,0.000,0.000
1605118292799282944,10.0.1.122,49,place,-0.030,-0.030,-0.030,0.000,0.000,0.000
1605118293804178944,10.0.1.122,50,place,-0.020,-0.020,-0.020,0.000,0.000,0.000
1605118294798708992,10.0.1.122,43,place,-0.010,-0.010,-0.010,0.000,0.000,0.000
1605118295798394880,10.0.1.122,42,place,0.000,0.000,0.000,0.000,0.000,0.000
1605118297168466944,10.0.1.122,406,move_down,-0.020,-0.020,-0.020,0.000,0.000,0.000
1605118298599782912,10.0.1.122,389,move_down,-0.040,-0.040,-0.040,0.000,0.000,0.000
1605118300029996032,10.0.1.122,374,move_down,-0.060,-0.060,-0.060,0.000,0.000,0.000
1605118301450149888,10.0.1.122,369,move_down,-0.080,-0.080,-0.080,0.000,0.000,0.000
1605118302910091008,10.0.1.122,385,move_down,-0.100,-0.100,-0.100,0.000,0.000,0.000
1605118304360233984,10.0.1.122,383,move_down,-0.120,-0.120,-0.120,0.000,0.000,0.000
1605118305789518080,10.0.1.122,373,move_down,-0.140,-0.140,-0.140,0.000,0.000,0.000
1605118307229340928,10.0.1.122,391,move_down,-0.160,-0.160,-0.160,0.000,0.000,0.000
1605118308669712128,10.0.1.122,381,move_down,-0.180,-0.180,-0.180,0.000,0.000,0.000
1605118310089564928,10.0.1.122,373,move_down,-0.200,-0.200,-0.200,0.000,0.000,0.000
1605118311566062080,10.0.1.122,399,move_down,-0.220,-0.220,-0.220,0.000,0.000,0.000
1605118312998699776,10.0.1.122,390,move_down,-0.240,-0.240,-0.240,0.000,0.000,0.000
1605118314418921984,10.0.1.122,370,move_down,-0.260,-0.260,-0.260,0.000,0.000,0.000
1605118315809294080,10.0.1.122,372,move_down,-0.280,-0.280,-0.280,0.000,0.000,0.000
1605118317220519168,10.0.1.122,369,move_down,-0.300,-0.300,-0.300,0.000,0.000,0.000
1605118318659586048,10.0.1.122,396,move_down,-0.320,-0.320,-0.320,0.000,0.000,0.000
1605118320069116160,10.0.1.122,363,move_down,-0.340,-0.340,-0.340,0.000,0.000,0.000
1605118321519032832,10.0.1.122,382,move_down,-0.360,-0.360,-0.360,0.000,0.000,0.000
1605118322959785984,10.0.1.122,373,move_down,-0.380,-0.380,-0.380,0.000,0.000,0.000
1605118324410434048,10.0.1.122,383,move_down,-0.400,-0.400,-0.400,0.000,0.000,0.000
1605118325819416064,10.0.1.122,362,move_down,-0.420,-0.420,-0.420,0.000,0.000,0.000
1605118327259113984,10.0.1.122,392,move_down,-0.440,-0.440,-0.440,0.000,0.000,0.000
1605118328681364992,10.0.1.122,381,move_down,-0.460,-0.460,-0.460,0.000,0.000,0.000
1605118330108685056,10.0.1.122,379,move_down,-0.480,-0.480,-0.480,0.000,0.000,0.000
1605118331548985856,10.0.1.122,392,move_down,-0.500,-0.500,-0.500,0.000,0.000,0.000
1605118332998545920,10.0.1.122,404,move_down,-0.520,-0.520,-0.520,0.000,0.000,0.000
1605118334428986112,10.0.1.122,389,move_down,-0.540,-0.540,-0.540,0.000,0.000,0.000
1605118335858799872,10.0.1.122,374,move_down,-0.560,-0.560,-0.560,0.000,0.000,0.000
1605118337298775040,10.0.1.122,388,move_down,-0.580,-0.580,-0.580,0.000,0.000,0.000
1605118338378562816,10.0.1.122,33,pick,-0.590,-0.590,-0.590,0.000,0.000,0.000
1605118339378952960,10.0.1.122,32,pick,-0.600,-0.600,-0.600,0.000,0.000,0.000
1605118340379164928,10.0.1.122,31,pick,-0.610,-0.610,-0.610,0.000,0.000,0.000
1605118341398668032,10.0.1.122,49,pick,-0.620,-0.620,-0.620,0.000,0.000,0.000
1605118342398621184,10.0.1.122,48,pick,-0.630,-0.630,-0.630,0.000,0.000,0.000
1605118343400131072,10.0.1.122,48,pick,-0.640,-0.640,-0.640,0.000,0.000,0.000
1605118344403712000,10.0.1.122,50,pick,-0.650,-0.650,-0.650,0.000,0.000,0.000
1605118345398804992,10.0.1.122,44,pick,-0.660,-0.660,-0.660,0.000,0.000,0.000
1605118346400683008,10.0.1.122,45,pick,-0.670,-0.670,-0.670,0.000,0.000,0.000
1605118347400016896,10.0.1.122,43,pick,-0.680,-0.680,-0.680,0.000,0.000,0.000
1605118348399064064,10.0.1.122,40,pick,-0.690,-0.690,-0.690,0.000,0.000,0.000
1605118349399677952,10.0.1.122,40,pick,-0.700,-0.700,-0.700,0.000,0.000,0.000
1605118350398461952,10.0.1.122,37,pick,-0.710,-0.710,-0.710,0.000,0.000,0.000
1605118351399787776,10.0.1.122,37,pick,-0.720,-0.720,-0.720,0.000,0.000,0.000
1605118352398423808,10.0.1.122,35,pick,-0.730,-0.730,-0.730,0.000,0.000,0.000
1605118353398854912,10.0.1.122,34,pick,-0.740,-0.740,-0.740,0.000,0.000,0.000
1605118354399559936,10.0.1.122,33,pick,-0.750,-0.750,-0.750,0.000,0.000,0.000
1605118355400062976,10.0.1.122,32,pick,-0.760,-0.760,-0.760,0.000,0.000,0.000
1605118356398443008,10.0.1.122,30,pick,-0.770,-0.770,-0.770,0.000,0.000,0.000
1605118357740595200,10.0.1.122,371,move_up,-0.750,-0.750,-0.750,0.000,0.000,0.000
1605118359188365056,10.0.1.122,388,move_up,-0.730,-0.730,-0.730,0.000,0.000,0.000
1605118360638689024,10.0.1.122,399,move_up,-0.710,-0.710,-0.710,0.000,0.000,0.000
1605118362089209088,10.0.1.122,371,move_up,-0.690,-0.690,-0.690,0.000,0.000,0.000
1605118363508694784,10.0.1.122,374,move_up,-0.670,-0.670,-0.670,0.000,0.000,0.000
1605118364969641984,10.0.1.122,383,move_up,-0.650,-0.650,-0.650,0.000,0.000,0.000
1605118366415065088,10.0.1.122,379,move_up,-0.630,-0.630,-0.630,0.000,0.000,0.000
1605118367859555840,10.0.1.122,371,move_up,-0.610,-0.610,-0.610,0.000,0.000,0.000
1605118369289391104,10.0.1.122,376,move_up,-0.590,-0.590,-0.590,0.000,0.000,0.000
1605118370708678912,10.0.1.122,371,move_up,-0.570,-0.570,-0.570,0.000,0.000,0.000
1605118372160388864,10.0.1.122,382,move_up,-0.550,-0.550,-0.550,0.000,0.000,0.000
1605118373594923008,10.0.1.122,384,move_up,-0.530,-0.530,-0.530,0.000,0.000,0.000
1605118375069374208,10.0.1.122,412,move_up,-0.510,-0.510,-0.510,0.000,0.000,0.000
1605118376499079936,10.0.1.122,389,move_up,-0.490,-0.490,-0.490,0.000,0.000,0.000
1605118377930347008,10.0.1.122,378,move_up,-0.470,-0.470,-0.470,0.000,0.000,0.000
1605118379339046912,10.0.1.122,362,move_up,-0.450,-0.450,-0.450,0.000,0.000,0.000
1605118380768996864,10.0.1.122,380,move_up,-0.430,-0.430,-0.430,0.000,0.000,0.000
1605118382200706048,10.0.1.122,387,move_up,-0.410,-0.410,-0.410,0.000,0.000,0.000
1605118383648747008,10.0.1.122,427,move_up,-0.390,-0.390,-0.390,0.000,0.000,0.000
1605118385058726144,10.0.1.122,364,move_up,-0.370,-0.370,-0.370,0.000,0.000,0.000
1605118386508954112,10.0.1.122,370,move_up,-0.350,-0.350,-0.350,0.000,0.000,0.000
1605118387968944128,10.0.1.122,410,move_up,-0.330,-0.330,-0.330,0.000,0.000,0.000
1605118389379316992,10.0.1.122,374,move_up,-0.310,-0.310,-0.310,0.000,0.000,0.000
1605118390819323136,10.0.1.122,388,move_up,-0.290,-0.290,-0.290,0.000,0.000,0.000
1605118392228615168,10.0.1.122,363,move_up,-0.270,-0.270,-0.270,0.000,0.000,0.000
1605118393689307904,10.0.1.122,396,move_up,-0.250,-0.250,-0.250,0.000,0.000,0.000
1605118395120271872,10.0.1.122,384,move_up,-0.230,-0.230,-0.230,0.000,0.000,0.000
1605118396559045120,10.0.1.122,387,move_up,-0.210,-0.210,-0.210,0.000,0.000,0.000
1605118397948657152,10.0.1.122,347,move_up,-0.190,-0.190,-0.190,0.000,0.000,0.000
1605118399048643072,10.0.1.122,36,place,-0.180,-0.180,-0.180,0.000,0.000,0.000
1605118400071059968,10.0.1.122,52,place,-0.170,-0.170,-0.170,0.000,0.000,0.000
1605118401068742912,10.0.1.122,48,place,-0.160,-0.160,-0.160,0.000,0.000,0.000
1605118402068652032,10.0.1.122,47,place,-0.150,-0.150,-0.150,0.000,0.000,0.000
1605118403068721920,10.0.1.122,45,place,-0.140,-0.140,-0.140,0.000,0.000,0.000
1605118404068770816,10.0.1.122,44,place,-0.130,-0.130,-0.130,0.000,0.000,0.000
1605118405069134080,10.0.1.122,43,place,-0.120,-0.120,-0.120,0.000,0.000,0.000
1605118406068929792,10.0.1.122,42,place,-0.110,-0.110,-0.110,0.000,0.000,0.000
1605118407068591104,10.0.1.122,40,place,-0.100,-0.100,-0.100,0.000,0.000,0.000
1605118408068840960,10.0.1.122,38,place,-0.090,-0.090,-0.090,0.000,0.000,0.000
1605118409068048896,10.0.1.122,36,place,-0.080,-0.080,-0.080,0.000,0.000,0.000
1605118410068756992,10.0.1.122,36,place,-0.070,-0.070,-0.070,0.000,0.000,0.000
1605118411068683008,10.0.1.122,34,place,-0.060,-0.060,-0.060,0.000,0.000,0.000
1605118412068445952,10.0.1.122,33,place,-0.050,-0.050,-0.050,0.000,0.000,0.000
1605118413069188096,10.0.1.122,32,place,-0.040,-0.040,-0.040,0.000,0.000,0.000
1605118414089332224,10.0.1.122,51,place,-0.030,-0.030,-0.030,0.000,0.000,0.000
1605118415095204096,10.0.1.122,55,place,-0.020,-0.020,-0.020,0.000,0.000,0.000
1605118416088793088,10.0.1.122,48,place,-0.010,-0.010,-0.010,0.000,0.000,0.000
1605118417091828224,10.0.1.122,50,place,0.000,0.000,0.000,0.000,0.000,0.000
1605118418418776064,10.0.1.122,375,move_down,-0.020,-0.020,-0.020,0.000,0.000,0.000
1605118419838808064,10.0.1.122,375,move_down,-0.040,-0.040,-0.040,0.000,0.000,0.000
1605118421268954880,10.0.1.122,381,move_down,-0.060,-0.060,-0.060,0.000,0.000,0.000
1605118422731326976,10.0.1.122,400,move_down,-0.080,-0.080,-0.080,0.000,0.000,0.000
1605118424150254080,10.0.1.122,393,move_down,-0.100,-0.100,-0.100,0.000,0.000,0.000
1605118425561840896,10.0.1.122,361,move_down,-0.120,-0.120,-0.120,0.000,0.000,0.000
1605118427018880000,10.0.1.122,394,move_down,-0.140,-0.140,-0.140,0.000,0.000,0.000
1605118428442118912,10.0.1.122,372,move_down,-0.160,-0.160,-0.160,0.000,0.000,0.000
1605118429911382016,10.0.1.122,391,move_down,-0.180,-0.180,-0.180,0.000,0.000,0.000
1605118431348771072,10.0.1.122,374,move_down,-0.200,-0.200,-0.200,0.000,0.000,0.000
1605118432778609920,10.0.1.122,387,move_down,-0.220,-0.220,-0.220,0.000,0.000,0.000
1605118434202446848,10.0.1.122,370,move_down,-0.240,-0.240,-0.240,0.000,0.000,0.000
1605118435639414016,10.0.1.122,398,move_down,-0.260,-0.260,-0.260,0.000,0.000,0.000
1605118437089001984,10.0.1.122,371,move_down,-0.280,-0.280,-0.280,0.000,0.000,0.000
1605118438518626816,10.0.1.122,382,move_down,-0.300,-0.300,-0.300,0.000,0.000,0.000
1605118439958752000,10.0.1.122,385,move_down,-0.320,-0.320,-0.320,0.000,0.000,0.000
1605118441410144000,10.0.1.122,403,move_down,-0.340,-0.340,-0.340,0.000,0.000,0.000
1605118442820931840,10.0.1.122,378,move_down,-0.360,-0.360,-0.360,0.000,0.000,0.000
1605118444252438016,10.0.1.122,384,move_down,-0.380,-0.380,-0.380,0.000,0.000,0.000
1605118445659621120,10.0.1.122,360,move_down,-0.400,-0.400,-0.400,0.000,0.000,0.000
1605118447098949888,10.0.1.122,385,move_down,-0.420,-0.420,-0.420,0.000,0.000,0.000
1605118448508894976,10.0.1.122,350,move_down,-0.440,-0.440,-0.440,0.000,0.000,0.000
1605118449978427904,10.0.1.122,396,move_down,-0.460,-0.460,-0.460,0.000,0.000,0.000
1605118451429122048,10.0.1.122,375,move_down,-0.480,-0.480,-0.480,0.000,0.000,0.000
1605118452859131136,10.0.1.122,384,move_down,-0.500,-0.500,-0.500,0.000,0.000,0.000
1605118454289060096,10.0.1.122,368,move_down,-0.520,-0.520,-0.520,0.000,0.000,0.000
1605118455718841088,10.0.1.122,381,move_down,-0.540,-0.540,-0.540,0.000,0.000,0.000
1605118457168603904,10.0.1.122,400,move_down,-0.560,-0.560,-0.560,0.000,0.000,0.000
1605118458580064000,10.0.1.122,370,move_down,-0.580,-0.580,-0.580,0.000,0.000,0.000
1605118459680988160,10.0.1.122,46,pick,-0.590,-0.590,-0.590,0.000,0.000,0.000
1605118460682502912,10.0.1.122,46,pick,-0.600,-0.600,-0.600,0.000,0.000,0.000
1605118461681849088,10.0.1.122,44,pick,-0.610,-0.610,-0.610,0.000,0.000,0.000
1605118462683636992,10.0.1.122,44,pick,-0.620,-0.620,-0.620,0.000,0.000,0.000
1605118463678740992,10.0.1.122,39,pick,-0.630,-0.630,-0.630,0.000,0.000,0.000
1605118464678766848,10.0.1.122,37,pick,-0.640,-0.640,-0.640,0.000,0.000,0.000
1605118465680349184,10.0.1.122,38,pick,-0.650,-0.650,-0.650,0.000,0.000,0.000
1605118466680752896,10.0.1.122,37,pick,-0.660,-0.660,-0.660,0.000,0.000,0.000
1605118467678486016,10.0.1.122,33,pick,-0.670,-0.670,-0.670,0.000,0.000,0.000
1605118468680829952,10.0.1.122,34,pick,-0.680,-0.680,-0.680,0.000,0.000,0.000
1605118469682366976,10.0.1.122,34,pick,-0.690,-0.690,-0.690,0.000,0.000,0.000
1605118470699161088,10.0.1.122,50,pick,-0.700,-0.700,-0.700,0.000,0.000,0.000
1605118471700217856,10.0.1.122,50,pick,-0.710,-0.710,-0.710,0.000,0.000,0.000
1605118472698503936,10.0.1.122,47,pick,-0.720,-0.720,-0.720,0.000,0.000,0.000
1605118473698945024,10.0.1.122,46,pick,-0.730,-0.730,-0.730,0.000,0.000,0.000
1605118474699728128,10.0.1.122,46,pick,-0.740,-0.740,-0.740,0.000,0.000,0.000
1605118475699047168,10.0.1.122,44,pick,-0.750,-0.750,-0.750,0.000,0.000,0.000
1605118476699547136,10.0.1.122,44,pick,-0.760,-0.760,-0.760,0.000,0.000,0.000
1605118477699316992,10.0.1.122,42,pick,-0.770,-0.770,-0.770,0.000,0.000,0.000
1605118479028916992,10.0.1.122,371,move_up,-0.750,-0.750,-0.750,0.000,0.000,0.000
1605118480418579968,10.0.1.122,344,move_up,-0.730,-0.730,-0.730,0.000,0.000,0.000
1605118481849627136,10.0.1.122,360,move_up,-0.710,-0.710,-0.710,0.000,0.000,0.000
1605118483280652032,10.0.1.122,383,move_up,-0.690,-0.690,-0.690,0.000,0.000,0.000
1605118484699666944,10.0.1.122,372,move_up,-0.670,-0.670,-0.670,0.000,0.000,0.000
1605118486130689024,10.0.1.122,393,move_up,-0.650,-0.650,-0.650,0.000,0.000,0.000
1605118487538765056,10.0.1.122,367,move_up,-0.630,-0.630,-0.630,0.000,0.000,0.000
1605118488972753152,10.0.1.122,391,move_up,-0.610,-0.610,-0.610,0.000,0.000,0.000
1605118490409318912,10.0.1.122,381,move_up,-0.590,-0.590,-0.590,0.000,0.000,0.000
1605118491840028160,10.0.1.122,360,move_up,-0.570,-0.570,-0.570,0.000,0.000,0.000
1605118493269125888,10.0.1.122,361,move_up,-0.550,-0.550,-0.550,0.000,0.000,0.000
1605118494739037952,10.0.1.122,389,move_up,-0.530,-0.530,-0.530,0.000,0.000,0.000
1605118496191474944,10.0.1.122,392,move_up,-0.510,-0.510,-0.510,0.000,0.000,0.000
1605118497628668160,10.0.1.122,383,move_up,-0.490,-0.490,-0.490,0.000,0.000,0.000
1605118499060150016,10.0.1.122,382,move_up,-0.470,-0.470,-0.470,0.000,0.000,0.000
1605118500489690112,10.0.1.122,381,move_up,-0.450,-0.450,-0.450,0.000,0.000,0.000
1605118501969990912,10.0.1.122,416,move_up,-0.430,-0.430,-0.430,0.000,0.000,0.000
1605118503429643008,10.0.1.122,396,move_up,-0.410,-0.410,-0.410,0.000,0.000,0.000
1605118504860212992,10.0.1.122,377,move_up,-0.390,-0.390,-0.390,0.000,0.000,0.000
1605118506290193152,10.0.1.122,379,move_up,-0.370,-0.370,-0.370,0.000,0.000,0.000
1605118507719892992,10.0.1.122,384,move_up,-0.350,-0.350,-0.350,0.000,0.000,0.000
1605118509179922944,10.0.1.122,404,move_up,-0.330,-0.330,-0.330,0.000,0.000,0.000
1605118510610557184,10.0.1.122,383,move_up,-0.310,-0.310,-0.310,0.000,0.000,0.000
1605118512040567040,10.0.1.122,367,move_up,-0.290,-0.290,-0.290,0.000,0.000,0.000
1605118513510924032,10.0.1.122,398,move_up,-0.270,-0.270,-0.270,0.000,0.000,0.000
1605118514951348992,10.0.1.122,398,move_up,-0.250,-0.250,-0.250,0.000,0.000,0.000
1605118516371911936,10.0.1.122,375,move_up,-0.230,-0.230,-0.230,0.000,0.000,0.000
1605118517800563200,10.0.1.122,354,move_up,-0.210,-0.210,-0.210,0.000,0.000,0.000
1605118519270297088,10.0.1.122,405,move_up,-0.190,-0.190,-0.190,0.000,0.000,0.000
1605118520350744064,10.0.1.122,51,place,-0.180,-0.180,-0.180,0.000,0.000,0.000
1605118521349863168,10.0.1.122,49,place,-0.170,-0.170,-0.170,0.000,0.000,0.000
1605118522350461952,10.0.1.122,48,place,-0.160,-0.160,-0.160,0.000,0.000,0.000
1605118523349977088,10.0.1.122,46,place,-0.150,-0.150,-0.150,0.000,0.000,0.000
1605118524350117888,10.0.1.122,46,place,-0.140,-0.140,-0.140,0.000,0.000,0.000
1605118525351428864,10.0.1.122,46,place,-0.130,-0.130,-0.130,0.000,0.000,0.000
1605118526350791936,10.0.1.122,44,place,-0.120,-0.120,-0.120,0.000,0.000,0.000
1605118527350693888,10.0.1.122,43,place,-0.110,-0.110,-0.110,0.000,0.000,0.000
1605118528350456064,10.0.1.122,41,place,-0.100,-0.100,-0.100,0.000,0.000,0.000
1605118529350494976,10.0.1.122,40,place,-0.090,-0.090,-0.090,0.000,0.000,0.000
1605118530350198016,10.0.1.122,38,place,-0.080,-0.080,-0.080,0.000,0.000,0.000
1605118531351488000,10.0.1.122,38,place,-0.070,-0.070,-0.070,0.000,0.000,0.000
1605118532350803968,10.0.1.122,36,place,-0.060,-0.060,-0.060,0.000,0.000,0.000
1605118533349894912,10.0.1.122,34,place,-0.050,-0.050,-0.050,0.000,0.000,0.000
1605118534350104064,10.0.1.122,33,place,-0.040,-0.040,-0.040,0.000,0.000,0.000
1605118535351006976,10.0.1.122,32,place,-0.030,-0.030,-0.030,0.000,0.000,0.000
1605118536369824000,10.0.1.122,50,place,-0.020,-0.020,-0.020,0.000,0.000,0.000
1605118537369623040,10.0.1.122,48,place,-0.010,-0.010,-0.010,0.000,0.000,0.000
1605118538369715968,10.0.1.122,47,place,0.000,0.000,0.000,0.000,0.000,0.000
1605118539689902080,10.0.1.122,366,move_down,-0.020,-0.020,-0.020,0.000,0.000,0.000
1605118541159832064,10.0.1.122,390,move_down,-0.040,-0.040,-0.040,0.000,0.000,0.000
1605118542590478848,10.0.1.122,378,move_down,-0.060,-0.060,-0.060,0.000,0.000,0.000
1605118544000071936,10.0.1.122,362,move_down,-0.080,-0.080,-0.080,0.000,0.000,0.000
1605118545430844928,10.0.1.122,352,move_down,-0.100,-0.100,-0.100,0.000,0.000,0.000
1605118546890195968,10.0.1.122,393,move_down,-0.120,-0.120,-0.120,0.000,0.000,0.000
1605118548310221056,10.0.1.122,372,move_down,-0.140,-0.140,-0.140,0.000,0.000,0.000
1605118549790083840,10.0.1.122,377,move_down,-0.160,-0.160,-0.160,0.000,0.000,0.000
1605118551240485888,10.0.1.122,380,move_down,-0.180,-0.180,-0.180,0.000,0.000,0.000
1605118552690268160,10.0.1.122,389,move_down,-0.200,-0.200,-0.200,0.000,0.000,0.000
1605118554120142848,10.0.1.122,402,move_down,-0.220,-0.220,-0.220,0.000,0.000,0.000
1605118555570136064,10.0.1.122,408,move_down,-0.240,-0.240,-0.240,0.000,0.000,0.000
1605118557051970048,10.0.1.122,380,move_down,-0.260,-0.260,-0.260,0.000,0.000,0.000
1605118558499847936,10.0.1.122,386,move_down,-0.280,-0.280,-0.280,0.000,0.000,0.000
1605118559920336128,10.0.1.122,392,move_down,-0.300,-0.300,-0.300,0.000,0.000,0.000
1605118561330248960,10.0.1.122,376,move_down,-0.320,-0.320,-0.320,0.000,0.000,0.000
1605118562751308800,10.0.1.122,382,move_down,-0.340,-0.340,-0.340,0.000,0.000,0.000
1605118564179863808,10.0.1.122,376,move_down,-0.360,-0.360,-0.360,0.000,0.000,0.000
1605118565609556992,10.0.1.122,381,move_down,-0.380,-0.380,-0.380,0.000,0.000,0.000
1605118567039764992,10.0.1.122,382,move_down,-0.400,-0.400,-0.400,0.000,0.000,0.000
1605118568470349056,10.0.1.122,369,move_down,-0.420,-0.420,-0.420,0.000,0.000,0.000
1605118569920065024,10.0.1.122,377,move_down,-0.440,-0.440,-0.440,0.000,0.000,0.000
1605118571350887936,10.0.1.122,382,move_down,-0.460,-0.460,-0.460,0.000,0.000,0.000
1605118572789400064,10.0.1.122,376,move_down,-0.480,-0.480,-0.480,0.000,0.000,0.000
1605118574219772928,10.0.1.122,384,move_down,-0.500,-0.500,-0.500,0.000,0.000,0.000
1605118575630575872,10.0.1.122,354,move_down,-0.520,-0.520,-0.520,0.000,0.000,0.000
1605118577029989120,10.0.1.122,378,move_down,-0.540,-0.540,-0.540,0.000,0.000,0.000
1605118578484185856,10.0.1.122,390,move_down,-0.560,-0.560,-0.560,0.000,0.000,0.000
1605118579929786880,10.0.1.122,392,move_down,-0.580,-0.580,-0.580,0.000,0.000,0.000
1605118581049877760,10.0.1.122,36,pick,-0.590,-0.590,-0.590,0.000,0.000,0.000
1605118582049739008,10.0.1.122,35,pick,-0.600,-0.600,-0.600,0.000,0.000,0.000
1605118583050343936,10.0.1.122,34,pick,-0.610,-0.610,-0.610,0.000,0.000,0.000
1605118584049822208,10.0.1.122,32,pick,-0.620,-0.620,-0.620,0.000,0.000,0.000
1605118585049885952,10.0.1.122,31,pick,-0.630,-0.630,-0.630,0.000,0.000,0.000
1605118586070599936,10.0.1.122,51,pick,-0.640,-0.640,-0.640,0.000,0.000,0.000
1605118587069572096,10.0.1.122,48,pick,-0.650,-0.650,-0.650,0.000,0.000,0.000
1605118588070203904,10.0.1.122,47,pick,-0.660,-0.660,-0.660,0.000,0.000,0.000
1605118589069888000,10.0.1.122,46,pick,-0.670,-0.670,-0.670,0.000,0.000,0.000
1605118590070488064,10.0.1.122,45,pick,-0.680,-0.680,-0.680,0.000,0.000,0.000
1605118591071738112,10.0.1.122,42,pick,-0.690,-0.690,-0.690,0.000,0.000,0.000
1605118592070185984,10.0.1.122,39,pick,-0.700,-0.700,-0.700,0.000,0.000,0.000
1605118593069710848,10.0.1.122,37,pick,-0.710,-0.710,-0.710,0.000,0.000,0.000
1605118594069967872,10.0.1.122,36,pick,-0.720,-0.720,-0.720,0.000,0.000,0.000
1605118595070238208,10.0.1.122,35,pick,-0.730,-0.730,-0.730,0.000,0.000,0.000
1605118596070342144,10.0.1.122,34,pick,-0.740,-0.740,-0.740,0.000,0.000,0.000
1605118597070524928,10.0.1.122,33,pick,-0.750,-0.750,-0.750,0.000,0.000,0.000
1605118598069545984,10.0.1.122,31,pick,-0.760,-0.760,-0.760,0.000,0.000,0.000
1605118599089745152,10.0.1.122,49,pick,-0.770,-0.770,-0.770,0.000,0.000,0.000
1605118600451020032,10.0.1.122,409,move_up,-0.750,-0.750,-0.750,0.000,0.000,0.000
1605118601840087040,10.0.1.122,355,move_up,-0.730,-0.730,-0.730,0.000,0.000,0.000
1605118603300848128,10.0.1.122,391,move_up,-0.710,-0.710,-0.710,0.000,0.000,0.000
1605118604709935872,10.0.1.122,387,move_up,-0.690,-0.690,-0.690,0.000,0.000,0.000
1605118606140475136,10.0.1.122,374,move_up,-0.670,-0.670,-0.670,0.000,0.000,0.000
1605118607550831104,10.0.1.122,364,move_up,-0.650,-0.650,-0.650,0.000,0.000,0.000
1605118609009679104,10.0.1.122,382,move_up,-0.630,-0.630,-0.630,0.000,0.000,0.000
1605118610471033088,10.0.1.122,416,move_up,-0.610,-0.610,-0.610,0.000,0.000,0.000
1605118611910072064,10.0.1.122,369,move_up,-0.590,-0.590,-0.590,0.000,0.000,0.000
1605118613360012032,10.0.1.122,379,move_up,-0.570,-0.570,-0.570,0.000,0.000,0.000
1605118614790725888,10.0.1.122,381,move_up,-0.550,-0.550,-0.550,0.000,0.000,0.000
1605118616229926144,10.0.1.122,396,move_up,-0.530,-0.530,-0.530,0.000,0.000,0.000
1605118617690100992,10.0.1.122,384,move_up,-0.510,-0.510,-0.510,0.000,0.000,0.000
1605118619110064896,10.0.1.122,369,move_up,-0.490,-0.490,-0.490,0.000,0.000,0.000
1605118620562067968,10.0.1.122,380,move_up,-0.470,-0.470,-0.470,0.000,0.000,0.000
1605118621980067072,10.0.1.122,369,move_up,-0.450,-0.450,-0.450,0.000,0.000,0.000
1605118623449907968,10.0.1.122,396,move_up,-0.430,-0.430,-0.430,0.000,0.000,0.000
1605118624900784896,10.0.1.122,391,move_up,-0.410,-0.410,-0.410,0.000,0.000,0.000
1605118626330048000,10.0.1.122,373,move_up,-0.390,-0.390,-0.390,0.000,0.000,0.000
1605118627770075136,10.0.1.122,393,move_up,-0.370,-0.370,-0.370,0.000,0.000,0.000
1605118629219805952,10.0.1.122,392,move_up,-0.350,-0.350,-0.350,0.000,0.000,0.000
1605118630652275200,10.0.1.122,382,move_up,-0.330,-0.330,-0.330,0.000,0.000,0.000
1605118632020140800,10.0.1.122,366,move_up,-0.310,-0.310,-0.310,0.000,0.000,0.000
1605118633429445888,10.0.1.122,363,move_up,-0.290,-0.290,-0.290,0.000,0.000,0.000
1605118634840317952,10.0.1.122,358,move_up,-0.270,-0.270,-0.270,0.000,0.000,0.000
1605118636290311936,10.0.1.122,385,move_up,-0.250,-0.250,-0.250,0.000,0.000,0.000
1605118637719609088,10.0.1.122,379,move_up,-0.230,-0.230,-0.230,0.000,0.000,0.000
1605118639149812992,10.0.1.122,376,move_up,-0.210,-0.210,-0.210,0.000,0.000,0.000
1605118640599837184,10.0.1.122,386,move_up,-0.190,-0.190,-0.190,0.000,0.000,0.000
1605118641683758080,10.0.1.122,35,place,-0.180,-0.180,-0.180,0.000,0.000,0.000
1605118642700108032,10.0.1.122,50,place,-0.170,-0.170,-0.170,0.000,0.000,0.000
1605118643699928064,10.0.1.122,49,place,-0.160,-0.160,-0.160,0.000,0.000,0.000
1605118644699815936,10.0.1.122,47,place,-0.150,-0.150,-0.150,0.000,0.000,0.000
1605118645700705024,10.0.1.122,47,place,-0.140,-0.140,-0.140,0.000,0.000,0.000
1605118646699836928,10.0.1.122,45,place,-0.130,-0.130,-0.130,0.000,0.000,0.000
1605118647700506880,10.0.1.122,43,place,-0.120,-0.120,-0.120,0.000,0.000,0.000
1605118648699760896,10.0.1.122,41,place,-0.110,-0.110,-0.110,0.000,0.000,0.000
1605118649700150016,10.0.1.122,40,place,-0.100,-0.100,-0.100,0.000,0.000,0.000
1605118650700030976,10.0.1.122,38,place,-0.090,-0.090,-0.090,0.000,0.000,0.000
1605118651700419840,10.0.1.122,37,place,-0.080,-0.080,-0.080,0.000,0.000,0.000
1605118652699950848,10.0.1.122,35,place,-0.070,-0.070,-0.070,0.000,0.000,0.000
1605118653700578816,10.0.1.122,35,place,-0.060,-0.060,-0.060,0.000,0.000,0.000
1605118654700009216,10.0.1.122,33,place,-0.050,-0.050,-0.050,0.000,0.000,0.000
1605118655700073984,10.0.1.122,32,place,-0.040,-0.040,-0.040,0.000,0.000,0.000
1605118656720206848,10.0.1.122,51,place,-0.030,-0.030,-0.030,0.000,0.000,0.000
1605118657719572992,10.0.1.122,49,place,-0.020,-0.020,-0.020,0.000,0.000,0.000
1605118658720733952,10.0.1.122,48,place,-0.010,-0.010,-0.010,0.000,0.000,0.000
1605118659719744000,10.0.1.122,46,place,0.000,0.000,0.000,0.000,0.000,0.000
1605118661090675200,10.0.1.122,416,move_down,-0.020,-0.020,-0.020,0.000,0.000,0.000
1605118662481522944,10.0.1.122,362,move_down,-0.040,-0.040,-0.040,0.000,0.000,0.000
1605118663940922880,10.0.1.122,389,move_down,-0.060,-0.060,-0.060,0.000,0.000,0.000
1605118665372407808,10.0.1.122,369,move_down,-0.080,-0.080,-0.080,0.000,0.000,0.000
1605118666800625152,10.0.1.122,375,move_down,-0.100,-0.100,-0.100,0.000,0.000,0.000
1605118668230701824,10.0.1.122,390,move_down,-0.120,-0.120,-0.120,0.000,0.000,0.000
1605118669659926784,10.0.1.122,374,move_down,-0.140,-0.140,-0.140,0.000,0.000,0.000
1605118671090262784,10.0.1.122,379,move_down,-0.160,-0.160,-0.160,0.000,0.000,0.000
1605118672540162048,10.0.1.122,388,move_down,-0.180,-0.180,-0.180,0.000,0.000,0.000
1605118673990024960,10.0.1.122,388,move_down,-0.200,-0.200,-0.200,0.000,0.000,0.000
1605118675412913920,10.0.1.122,386,move_down,-0.220,-0.220,-0.220,0.000,0.000,0.000
1605118676872512000,10.0.1.122,394,move_down,-0.240,-0.240,-0.240,0.000,0.000,0.000
1605118678300216064,10.0.1.122,381,move_down,-0.260,-0.260,-0.260,0.000,0.000,0.000
1605118679729880064,10.0.1.122,385,move_down,-0.280,-0.280,-0.280,0.000,0.000,0.000
1605118681162516224,10.0.1.122,373,move_down,-0.300,-0.300,-0.300,0.000,0.000,0.000
1605118682600208128,10.0.1.122,393,move_down,-0.320,-0.320,-0.320,0.000,0.000,0.000
1605118684030268928,10.0.1.122,383,move_down,-0.340,-0.340,-0.340,0.000,0.000,0.000
1605118685480859136,10.0.1.122,383,move_down,-0.360,-0.360,-0.360,0.000,0.000,0.000
1605118686909955072,10.0.1.122,382,move_down,-0.380,-0.380,-0.380,0.000,0.000,0.000
1605118688379846144,10.0.1.122,410,move_down,-0.400,-0.400,-0.400,0.000,0.000,0.000
1605118689769584896,10.0.1.122,351,move_down,-0.420,-0.420,-0.420,0.000,0.000,0.000
1605118691230106112,10.0.1.122,391,move_down,-0.440,-0.440,-0.440,0.000,0.000,0.000
1605118692669768960,10.0.1.122,394,move_down,-0.460,-0.460,-0.460,0.000,0.000,0.000
1605118694101020928,10.0.1.122,373,move_down,-0.480,-0.480,-0.480,0.000,0.000,0.000
1605118695572659968,10.0.1.122,401,move_down,-0.500,-0.500,-0.500,0.000,0.000,0.000
1605118696990587904,10.0.1.122,378,move_down,-0.520,-0.520,-0.520,0.000,0.000,0.000
1605118698411494144,10.0.1.122,372,move_down,-0.540,-0.540,-0.540,0.000,0.000,0.000
1605118699869899008,10.0.1.122,407,move_down,-0.560,-0.560,-0.560,0.000,0.000,0.000
1605118701300004096,10.0.1.122,381,move_down,-0.580,-0.580,-0.580,0.000,0.000,0.000
1605118702399732224,10.0.1.122,40,pick,-0.590,-0.590,-0.590,0.000,0.000,0.000
1605118703401596928,10.0.1.122,40,pick,-0.600,-0.600,-0.600,0.000,0.000,0.000
1605118704399629056,10.0.1.122,37,pick,-0.610,-0.610,-0.610,0.000,0.000,0.000
1605118705400003072,10.0.1.122,36,pick,-0.620,-0.620,-0.620,0.000,0.000,0.000
1605118706399700992,10.0.1.122,35,pick,-0.630,-0.630,-0.630,0.000,0.000,0.000
1605118707400631040,10.0.1.122,34,pick,-0.640,-0.640,-0.640,0.000,0.000,0.000
1605118708399764992,10.0.1.122,32,pick,-0.650,-0.650,-0.650,0.000,0.000,0.000
1605118709420218880,10.0.1.122,50,pick,-0.660,-0.660,-0.660,0.000,0.000,0.000
1605118710420902912,10.0.1.122,49,pick,-0.670,-0.670,-0.670,0.000,0.000,0.000
1605118711420391168,10.0.1.122,48,pick,-0.680,-0.680,-0.680,0.000,0.000,0.000
1605118712420016128,10.0.1.122,46,pick,-0.690,-0.690,-0.690,0.000,0.000,0.000
1605118713419560960,10.0.1.122,44,pick,-0.700,-0.700,-0.700,0.000,0.000,0.000
1605118714420763136,10.0.1.122,43,pick,-0.710,-0.710,-0.710,0.000,0.000,0.000
1605118715421762816,10.0.1.122,41,pick,-0.720,-0.720,-0.720,0.000,0.000,0.000
1605118716423755776,10.0.1.122,41,pick,-0.730,-0.730,-0.730,0.000,0.000,0.000
1605118717419931904,10.0.1.122,37,pick,-0.740,-0.740,-0.740,0.000,0.000,0.000
1605118718425993984,10.0.1.122,42,pick,-0.750,-0.750,-0.750,0.000,0.000,0.000
1605118719420214784,10.0.1.122,35,pick,-0.760,-0.760,-0.760,0.000,0.000,0.000
1605118720421030144,10.0.1.122,34,pick,-0.770,-0.770,-0.770,0.000,0.000,0.000
1605118721750777856,10.0.1.122,363,move_up,-0.750,-0.750,-0.750,0.000,0.000,0.000
1605118723190450944,10.0.1.122,371,move_up,-0.730,-0.730,-0.730,0.000,0.000,0.000
1605118724640541184,10.0.1.122,371,move_up,-0.710,-0.710,-0.710,0.000,0.000,0.000
1605118726090231808,10.0.1.122,380,move_up,-0.690,-0.690,-0.690,0.000,0.000,0.000
1605118727541712896,10.0.1.122,376,move_up,-0.670,-0.670,-0.670,0.000,0.000,0.000
1605118728999895040,10.0.1.122,386,move_up,-0.650,-0.650,-0.650,0.000,0.000,0.000
1605118730430552832,10.0.1.122,367,move_up,-0.630,-0.630,-0.630,0.000,0.000,0.000
1605118731840666112,10.0.1.122,355,move_up,-0.610,-0.610,-0.610,0.000,0.000,0.000
1605118733290606080,10.0.1.122,374,move_up,-0.590,-0.590,-0.590,0.000,0.000,0.000
1605118734739658240,10.0.1.122,381,move_up,-0.570,-0.570,-0.570,0.000,0.000,0.000
1605118736189673984,10.0.1.122,401,move_up,-0.550,-0.550,-0.550,0.000,0.000,0.000
1605118737632587008,10.0.1.122,404,move_up,-0.530,-0.530,-0.530,0.000,0.000,0.000
1605118739084325120,10.0.1.122,384,move_up,-0.510,-0.510,-0.510,0.000,0.000,0.000
1605118740469922048,10.0.1.122,361,move_up,-0.490,-0.490,-0.490,0.000,0.000,0.000
1605118741930605824,10.0.1.122,393,move_up,-0.470,-0.470,-0.470,0.000,0.000,0.000
1605118743370369792,10.0.1.122,388,move_up,-0.450,-0.450,-0.450,0.000,0.000,0.000
1605118744780901888,10.0.1.122,363,move_up,-0.430,-0.430,-0.430,0.000,0.000,0.000
1605118746241494016,10.0.1.122,383,move_up,-0.410,-0.410,-0.410,0.000,0.000,0.000
1605118747670217984,10.0.1.122,378,move_up,-0.390,-0.390,-0.390,0.000,0.000,0.000
1605118749100526080,10.0.1.122,380,move_up,-0.370,-0.370,-0.370,0.000,0.000,0.000
1605118750550238976,10.0.1.122,394,move_up,-0.350,-0.350,-0.350,0.000,0.000,0.000
1605118752000619008,10.0.1.122,363,move_up,-0.330,-0.330,-0.330,0.000,0.000,0.000
1605118753460193024,10.0.1.122,409,move_up,-0.310,-0.310,-0.310,0.000,0.000,0.000
1605118754902230016,10.0.1.122,397,move_up,-0.290,-0.290,-0.290,0.000,0.000,0.000
1605118756351458048,10.0.1.122,400,move_up,-0.270,-0.270,-0.270,0.000,0.000,0.000
1605118757781644032,10.0.1.122,380,move_up,-0.250,-0.250,-0.250,0.000,0.000,0.000
1605118759210685952,10.0.1.122,380,move_up,-0.230,-0.230,-0.230,0.000,0.000,0.000
1605118760630175232,10.0.1.122,371,move_up,-0.210,-0.210,-0.210,0.000,0.000,0.000
1605118762102448896,10.0.1.122,371,move_up,-0.190,-0.190,-0.190,0.000,0.000,0.000
1605118763219608064,10.0.1.122,47,place,-0.180,-0.180,-0.180,0.000,0.000,0.000
1605118764220064000,10.0.1.122,46,place,-0.170,-0.170,-0.170,0.000,0.000,0.000
1605118765219847936,10.0.1.122,45,place,-0.160,-0.160,-0.160,0.000,0.000,0.000
1605118766220146944,10.0.1.122,44,place,-0.150,-0.150,-0.150,0.000,0.000,0.000
1605118767220211968,10.0.1.122,43,place,-0.140,-0.140,-0.140,0.000,0.000,0.000
1605118768220033792,10.0.1.122,41,place,-0.130,-0.130,-0.130,0.000,0.000,0.000
1605118769221349120,10.0.1.122,41,place,-0.120,-0.120,-0.120,0.000,0.000,0.000
1605118770219439104,10.0.1.122,38,place,-0.110,-0.110,-0.110,0.000,0.000,0.000
1605118771220269824,10.0.1.122,38,place,-0.100,-0.100,-0.100,0.000,0.000,0.000
1605118772220119040,10.0.1.122,36,place,-0.090,-0.090,-0.090,0.000,0.000,0.000
1605118773220814080,10.0.1.122,36,place,-0.080,-0.080,-0.080,0.000,0.000,0.000
1605118774219489024,10.0.1.122,33,place,-0.070,-0.070,-0.070,0.000,0.000,0.000
1605118775219720960,10.0.1.122,32,place,-0.060,-0.060,-0.060,0.000,0.000,0.000
1605118776219557120,10.0.1.122,30,place,-0.050,-0.050,-0.050,0.000,0.000,0.000
1605118777240408832,10.0.1.122,50,place,-0.040,-0.040,-0.040,0.000,0.000,0.000
1605118778239473152,10.0.1.122,48,place,-0.030,-0.030,-0.030,0.000,0.000,0.000
1605118779240112896,10.0.1.122,47,place,-0.020,-0.020,-0.020,0.000,0.000,0.000
1605118780240251904,10.0.1.122,46,place,-0.010,-0.010,-0.010,0.000,0.000,0.000
1605118781239640064,10.0.1.122,44,place,0.000,0.000,0.000,0.000,0.000,0.000
1605118782590065920,10.0.1.122,393,move_down,-0.020,-0.020,-0.020,0.000,0.000,0.000
1605118784060481024,10.0.1.122,416,move_down,-0.040,-0.040,-0.040,0.000,0.000,0.000
1605118785470009088,10.0.1.122,374,move_down,-0.060,-0.060,-0.060,0.000,0.000,0.000
1605118786910340096,10.0.1.122,398,move_down,-0.080,-0.080,-0.080,0.000,0.000,0.000
1605118788349903104,10.0.1.122,393,move_down,-0.100,-0.100,-0.100,0.000,0.000,0.000
1605118789790336000,10.0.1.122,390,move_down,-0.120,-0.120,-0.120,0.000,0.000,0.000
1605118791209906944,10.0.1.122,375,move_down,-0.140,-0.140,-0.140,0.000,0.000,0.000
1605118792640445952,10.0.1.122,388,move_down,-0.160,-0.160,-0.160,0.000,0.000,0.000
1605118794049629952,10.0.1.122,367,move_down,-0.180,-0.180,-0.180,0.000,0.000,0.000
1605118795519727872,10.0.1.122,403,move_down,-0.200,-0.200,-0.200,0.000,0.000,0.000
1605118796949821952,10.0.1.122,347,move_down,-0.220,-0.220,-0.220,0.000,0.000,0.000
1605118798390182144,10.0.1.122,373,move_down,-0.240,-0.240,-0.240,0.000,0.000,0.000
1605118799812082944,10.0.1.122,386,move_down,-0.260,-0.260,-0.260,0.000,0.000,0.000
1605118801249489920,10.0.1.122,376,move_down,-0.280,-0.280,-0.280,0.000,0.000,0.000
1605118802700278016,10.0.1.122,378,move_down,-0.300,-0.300,-0.300,0.000,0.000,0.000
1605118804139774976,10.0.1.122,392,move_down,-0.320,-0.320,-0.320,0.000,0.000,0.000
1605118805557012992,10.0.1.122,365,move_down,-0.340,-0.340,-0.340,0.000,0.000,0.000
1605118807009947136,10.0.1.122,388,move_down,-0.360,-0.360,-0.360,0.000,0.000,0.000
1605118808484308992,10.0.1.122,413,move_down,-0.380,-0.380,-0.380,0.000,0.000,0.000
1605118809890003968,10.0.1.122,375,move_down,-0.400,-0.400,-0.400,0.000,0.000,0.000
1605118811340146944,10.0.1.122,400,move_down,-0.420,-0.420,-0.420,0.000,0.000,0.000
1605118812790020096,10.0.1.122,398,move_down,-0.440,-0.440,-0.440,0.000,0.000,0.000
1605118814220307200,10.0.1.122,382,move_down,-0.460,-0.460,-0.460,0.000,0.000,0.000
1605118815670060032,10.0.1.122,390,move_down,-0.480,-0.480,-0.480,0.000,0.000,0.000
1605118817120350976,10.0.1.122,392,move_down,-0.500,-0.500,-0.500,0.000,0.000,0.000
1605118818569937920,10.0.1.122,391,move_down,-0.520,-0.520,-0.520,0.000,0.000,0.000
1605118820013947136,10.0.1.122,394,move_down,-0.540,-0.540,-0.540,0.000,0.000,0.000
1605118821442208000,10.0.1.122,380,move_down,-0.560,-0.560,-0.560,0.000,0.000,0.000
1605118822879996928,10.0.1.122,388,move_down,-0.580,-0.580,-0.580,0.000,0.000,0.000
1605118823979769856,10.0.1.122,35,pick,-0.590,-0.590,-0.590,0.000,0.000,0.000
1605118824979713024,10.0.1.122,33,pick,-0.600,-0.600,-0.600,0.000,0.000,0.000
1605118825979831040,10.0.1.122,32,pick,-0.610,-0.610,-0.610,0.000,0.000,0.000
1605118826979393024,10.0.1.122,30,pick,-0.620,-0.620,-0.620,0.000,0.000,0.000
1605118828003122176,10.0.1.122,52,pick,-0.630,-0.630,-0.630,0.000,0.000,0.000
1605118829003868160,10.0.1.122,51,pick,-0.640,-0.640,-0.640,0.000,0.000,0.000
1605118830002784000,10.0.1.122,49,pick,-0.650,-0.650,-0.650,0.000,0.000,0.000
1605118831002459904,10.0.1.122,45,pick,-0.660,-0.660,-0.660,0.000,0.000,0.000
1605118832000140032,10.0.1.122,42,pick,-0.670,-0.670,-0.670,0.000,0.000,0.000
1605118833000072960,10.0.1.122,40,pick,-0.680,-0.680,-0.680,0.000,0.000,0.000
1605118834000734208,10.0.1.122,40,pick,-0.690,-0.690,-0.690,0.000,0.000,0.000
1605118835000352000,10.0.1.122,38,pick,-0.700,-0.700,-0.700,0.000,0.000,0.000
1605118835999769088,10.0.1.122,36,pick,-0.710,-0.710,-0.710,0.000,0.000,0.000
1605118836999842816,10.0.1.122,33,pick,-0.720,-0.720,-0.720,0.000,0.000,0.000
1605118837999880192,10.0.1.122,32,pick,-0.730,-0.730,-0.730,0.000,0.000,0.000
1605118839020488960,10.0.1.122,51,pick,-0.740,-0.740,-0.740,0.000,0.000,0.000
1605118840019866112,10.0.1.122,49,pick,-0.750,-0.750,-0.750,0.000,0.000,0.000
1605118841020355072,10.0.1.122,48,pick,-0.760,-0.760,-0.760,0.000,0.000,0.000
1605118842020446976,10.0.1.122,47,pick,-0.770,-0.770,-0.770,0.000,0.000,0.000
1605118843350275072,10.0.1.122,376,move_up,-0.750,-0.750,-0.750,0.000,0.000,0.000
1605118844789691904,10.0.1.122,373,move_up,-0.730,-0.730,-0.730,0.000,0.000,0.000
1605118846250333184,10.0.1.122,393,move_up,-0.710,-0.710,-0.710,0.000,0.000,0.000
1605118847680246016,10.0.1.122,373,move_up,-0.690,-0.690,-0.690,0.000,0.000,0.000
1605118849110006016,10.0.1.122,384,move_up,-0.670,-0.670,-0.670,0.000,0.000,0.000
1605118850549817088,10.0.1.122,394,move_up,-0.650,-0.650,-0.650,0.000,0.000,0.000
1605118852000207872,10.0.1.122,398,move_up,-0.630,-0.630,-0.630,0.000,0.000,0.000
1605118853431014144,10.0.1.122,379,move_up,-0.610,-0.610,-0.610,0.000,0.000,0.000
1605118854840038912,10.0.1.122,379,move_up,-0.590,-0.590,-0.590,0.000,0.000,0.000
1605118856282560000,10.0.1.122,381,move_up,-0.570,-0.570,-0.570,0.000,0.000,0.000
1605118857771790080,10.0.1.122,397,move_up,-0.550,-0.550,-0.550,0.000,0.000,0.000
1605118859210084864,10.0.1.122,391,move_up,-0.530,-0.530,-0.530,0.000,0.000,0.000
1605118860629735936,10.0.1.122,378,move_up,-0.510,-0.510,-0.510,0.000,0.000,0.000
1605118862059289856,10.0.1.122,391,move_up,-0.490,-0.490,-0.490,0.000,0.000,0.000
1605118863510572032,10.0.1.122,390,move_up,-0.470,-0.470,-0.470,0.000,0.000,0.000
