milangroshev/digital-twin-scalability/logs/run2-3600s/10.0.1.137.csv
timestamp,node,latency,action,joint_1,joint_2,joint_3,joint_4,joint_5,joint_6
1605135703976788992,10.0.1.137,2025,,0.000,0.000,0.000,0.000,0.000,0.000
1605135707206102016,10.0.1.137,1248,move_down,-0.020,-0.020,-0.020,0.000,0.000,0.000
1605135708958804992,10.0.1.137,653,move_down,-0.040,-0.040,-0.040,0.000,0.000,0.000
1605135710703816960,10.0.1.137,592,move_down,-0.060,-0.060,-0.060,0.000,0.000,0.000
1605135712316171776,10.0.1.137,504,move_down,-0.080,-0.080,-0.080,0.000,0.000,0.000
1605135713834275840,10.0.1.137,426,move_down,-0.100,-0.100,-0.100,0.000,0.000,0.000
1605135715742702848,10.0.1.137,781,move_down,-0.120,-0.120,-0.120,0.000,0.000,0.000
1605135717339227904,10.0.1.137,504,move_down,-0.140,-0.140,-0.140,0.000,0.000,0.000
1605135719191296000,10.0.1.137,622,move_down,-0.160,-0.160,-0.160,0.000,0.000,0.000
1605135720866554112,10.0.1.137,537,move_down,-0.180,-0.180,-0.180,0.000,0.000,0.000
1605135722657560064,10.0.1.137,739,move_down,-0.200,-0.200,-0.200,0.000,0.000,0.000
1605135724647724032,10.0.1.137,933,move_down,-0.220,-0.220,-0.220,0.000,0.000,0.000
1605135726170684928,10.0.1.137,484,move_down,-0.240,-0.240,-0.240,0.000,0.000,0.000
1605135727865801216,10.0.1.137,658,move_down,-0.260,-0.260,-0.260,0.000,0.000,0.000
1605135729506967040,10.0.1.137,520,move_down,-0.280,-0.280,-0.280,0.000,0.000,0.000
1605135731203600896,10.0.1.137,625,move_down,-0.300,-0.300,-0.300,0.000,0.000,0.000
1605135732918988032,10.0.1.137,564,move_down,-0.320,-0.320,-0.320,0.000,0.000,0.000
1605135734746885120,10.0.1.137,705,move_down,-0.340,-0.340,-0.340,0.000,0.000,0.000
1605135736413265920,10.0.1.137,634,move_down,-0.360,-0.360,-0.360,0.000,0.000,0.000
1605135738476318976,10.0.1.137,1029,move_down,-0.380,-0.380,-0.380,0.000,0.000,0.000
1605135740207766016,10.0.1.137,613,move_down,-0.400,-0.400,-0.400,0.000,0.000,0.000
1605135742184472064,10.0.1.137,868,move_down,-0.420,-0.420,-0.420,0.000,0.000,0.000
1605135744412686080,10.0.1.137,695,move_down,-0.440,-0.440,-0.440,0.000,0.000,0.000
1605135746250816000,10.0.1.137,814,move_down,-0.460,-0.460,-0.460,0.000,0.000,0.000
1605135747806153984,10.0.1.137,513,move_down,-0.480,-0.480,-0.480,0.000,0.000,0.000
1605135749490323968,10.0.1.137,664,move_down,-0.500,-0.500,-0.500,0.000,0.000,0.000
1605135751481427968,10.0.1.137,883,move_down,-0.520,-0.520,-0.520,0.000,0.000,0.000
1605135753451868928,10.0.1.137,865,move_down,-0.540,-0.540,-0.540,0.000,0.000,0.000
1605135755105462016,10.0.1.137,569,move_down,-0.560,-0.560,-0.560,0.000,0.000,0.000
1605135756868176896,10.0.1.137,670,move_down,-0.580,-0.580,-0.580,0.000,0.000,0.000
1605135758053739008,10.0.1.137,46,pick,-0.590,-0.590,-0.590,0.000,0.000,0.000
1605135759061672960,10.0.1.137,54,pick,-0.600,-0.600,-0.600,0.000,0.000,0.000
1605135760087877120,10.0.1.137,71,pick,-0.610,-0.610,-0.610,0.000,0.000,0.000
1605135761068240896,10.0.1.137,50,pick,-0.620,-0.620,-0.620,0.000,0.000,0.000
1605135763070471168,10.0.1.137,49,pick,-0.640,-0.640,-0.640,0.000,0.000,0.000
1605135764077405952,10.0.1.137,55,pick,-0.650,-0.650,-0.650,0.000,0.000,0.000
1605135765072845056,10.0.1.137,49,pick,-0.660,-0.660,-0.660,0.000,0.000,0.000
1605135766079037952,10.0.1.137,54,pick,-0.670,-0.670,-0.670,0.000,0.000,0.000
1605135767068695040,10.0.1.137,37,pick,-0.680,-0.680,-0.680,0.000,0.000,0.000
1605135768075490048,10.0.1.137,42,pick,-0.690,-0.690,-0.690,0.000,0.000,0.000
1605135769089767936,10.0.1.137,53,pick,-0.700,-0.700,-0.700,0.000,0.000,0.000
1605135773088065024,10.0.1.137,38,pick,-0.740,-0.740,-0.740,0.000,0.000,0.000
1605135774085725952,10.0.1.137,35,pick,-0.750,-0.750,-0.750,0.000,0.000,0.000
1605135775115386112,10.0.1.137,63,pick,-0.760,-0.760,-0.760,0.000,0.000,0.000
1605135776112173056,10.0.1.137,58,pick,-0.770,-0.770,-0.770,0.000,0.000,0.000
1605135777621246976,10.0.1.137,561,move_up,-0.750,-0.750,-0.750,0.000,0.000,0.000
1605135779158226944,10.0.1.137,509,move_up,-0.730,-0.730,-0.730,0.000,0.000,0.000
1605135781104129024,10.0.1.137,852,move_up,-0.710,-0.710,-0.710,0.000,0.000,0.000
1605135782977300992,10.0.1.137,703,move_up,-0.690,-0.690,-0.690,0.000,0.000,0.000
1605135784794292992,10.0.1.137,722,move_up,-0.670,-0.670,-0.670,0.000,0.000,0.000
1605135786526347008,10.0.1.137,509,move_up,-0.650,-0.650,-0.650,0.000,0.000,0.000
1605135788104098048,10.0.1.137,515,move_up,-0.630,-0.630,-0.630,0.000,0.000,0.000
1605135789884342784,10.0.1.137,530,move_up,-0.610,-0.610,-0.610,0.000,0.000,0.000
1605135791741949952,10.0.1.137,796,move_up,-0.590,-0.590,-0.590,0.000,0.000,0.000
1605135793338049792,10.0.1.137,494,move_up,-0.570,-0.570,-0.570,0.000,0.000,0.000
1605135794941929984,10.0.1.137,560,move_up,-0.550,-0.550,-0.550,0.000,0.000,0.000
1605135796898558976,10.0.1.137,807,move_up,-0.530,-0.530,-0.530,0.000,0.000,0.000
1605135798690821888,10.0.1.137,530,move_up,-0.510,-0.510,-0.510,0.000,0.000,0.000
1605135800561285888,10.0.1.137,655,move_up,-0.490,-0.490,-0.490,0.000,0.000,0.000
1605135802408194048,10.0.1.137,708,move_up,-0.470,-0.470,-0.470,0.000,0.000,0.000
1605135803997760000,10.0.1.137,516,move_up,-0.450,-0.450,-0.450,0.000,0.000,0.000
1605135805580514048,10.0.1.137,519,move_up,-0.430,-0.430,-0.430,0.000,0.000,0.000
1605135807514148864,10.0.1.137,851,move_up,-0.410,-0.410,-0.410,0.000,0.000,0.000
1605135809350927104,10.0.1.137,649,move_up,-0.390,-0.390,-0.390,0.000,0.000,0.000
1605135810939587072,10.0.1.137,573,move_up,-0.370,-0.370,-0.370,0.000,0.000,0.000
1605135812627345920,10.0.1.137,586,move_up,-0.350,-0.350,-0.350,0.000,0.000,0.000
1605135814496100864,10.0.1.137,609,move_up,-0.330,-0.330,-0.330,0.000,0.000,0.000
1605135816626019840,10.0.1.137,892,move_up,-0.310,-0.310,-0.310,0.000,0.000,0.000
1605135818273001984,10.0.1.137,579,move_up,-0.290,-0.290,-0.290,0.000,0.000,0.000
1605135820042788864,10.0.1.137,482,move_up,-0.270,-0.270,-0.270,0.000,0.000,0.000
1605135821684197888,10.0.1.137,538,move_up,-0.250,-0.250,-0.250,0.000,0.000,0.000
1605135823302014976,10.0.1.137,568,move_up,-0.230,-0.230,-0.230,0.000,0.000,0.000
1605135825373490944,10.0.1.137,949,move_up,-0.210,-0.210,-0.210,0.000,0.000,0.000
1605135827026905088,10.0.1.137,587,move_up,-0.190,-0.190,-0.190,0.000,0.000,0.000
1605135828107166976,10.0.1.137,53,place,-0.180,-0.180,-0.180,0.000,0.000,0.000
1605135830199065856,10.0.1.137,83,place,-0.160,-0.160,-0.160,0.000,0.000,0.000
1605135831165939968,10.0.1.137,42,place,-0.150,-0.150,-0.150,0.000,0.000,0.000
1605135832171176960,10.0.1.137,47,place,-0.140,-0.140,-0.140,0.000,0.000,0.000
1605135833195239168,10.0.1.137,67,place,-0.130,-0.130,-0.130,0.000,0.000,0.000
1605135834204968960,10.0.1.137,69,place,-0.120,-0.120,-0.120,0.000,0.000,0.000
1605135835194672128,10.0.1.137,50,place,-0.110,-0.110,-0.110,0.000,0.000,0.000
1605135836182630144,10.0.1.137,36,place,-0.100,-0.100,-0.100,0.000,0.000,0.000
1605135837228984064,10.0.1.137,70,place,-0.090,-0.090,-0.090,0.000,0.000,0.000
1605135838206880000,10.0.1.137,42,place,-0.080,-0.080,-0.080,0.000,0.000,0.000
1605135839231817984,10.0.1.137,53,place,-0.070,-0.070,-0.070,0.000,0.000,0.000
1605135840224098816,10.0.1.137,44,place,-0.060,-0.060,-0.060,0.000,0.000,0.000
1605135841238713856,10.0.1.137,47,place,-0.050,-0.050,-0.050,0.000,0.000,0.000
1605135842256425984,10.0.1.137,63,place,-0.040,-0.040,-0.040,0.000,0.000,0.000
1605135843241516032,10.0.1.137,45,place,-0.030,-0.030,-0.030,0.000,0.000,0.000
1605135844247261952,10.0.1.137,45,place,-0.020,-0.020,-0.020,0.000,0.000,0.000
1605135845283983872,10.0.1.137,80,place,-0.010,-0.010,-0.010,0.000,0.000,0.000
1605135847648864000,10.0.1.137,442,move_down,-0.020,-0.020,-0.020,0.000,0.000,0.000
1605135849216159232,10.0.1.137,513,move_down,-0.040,-0.040,-0.040,0.000,0.000,0.000
1605135851123963136,10.0.1.137,869,move_down,-0.060,-0.060,-0.060,0.000,0.000,0.000
1605135852874749952,10.0.1.137,606,move_down,-0.080,-0.080,-0.080,0.000,0.000,0.000
1605135854512641024,10.0.1.137,529,move_down,-0.100,-0.100,-0.100,0.000,0.000,0.000
1605135856149566976,10.0.1.137,570,move_down,-0.120,-0.120,-0.120,0.000,0.000,0.000
1605135857695771904,10.0.1.137,500,move_down,-0.140,-0.140,-0.140,0.000,0.000,0.000
1605135859377497856,10.0.1.137,538,move_down,-0.160,-0.160,-0.160,0.000,0.000,0.000
1605135860945001984,10.0.1.137,504,move_down,-0.180,-0.180,-0.180,0.000,0.000,0.000
1605135862579441152,10.0.1.137,569,move_down,-0.200,-0.200,-0.200,0.000,0.000,0.000
1605135864262496000,10.0.1.137,597,move_down,-0.220,-0.220,-0.220,0.000,0.000,0.000
1605135865906067968,10.0.1.137,493,move_down,-0.240,-0.240,-0.240,0.000,0.000,0.000
1605135867645572864,10.0.1.137,624,move_down,-0.260,-0.260,-0.260,0.000,0.000,0.000
1605135869463156992,10.0.1.137,613,move_down,-0.280,-0.280,-0.280,0.000,0.000,0.000
1605135871232600832,10.0.1.137,694,move_down,-0.300,-0.300,-0.300,0.000,0.000,0.000
1605135872805507072,10.0.1.137,525,move_down,-0.320,-0.320,-0.320,0.000,0.000,0.000
1605135874553495808,10.0.1.137,601,move_down,-0.340,-0.340,-0.340,0.000,0.000,0.000
1605135876541120000,10.0.1.137,878,move_down,-0.360,-0.360,-0.360,0.000,0.000,0.000
1605135878499344128,10.0.1.137,844,move_down,-0.380,-0.380,-0.380,0.000,0.000,0.000
1605135880192583936,10.0.1.137,504,move_down,-0.400,-0.400,-0.400,0.000,0.000,0.000
1605135881884913920,10.0.1.137,626,move_down,-0.420,-0.420,-0.420,0.000,0.000,0.000
1605135883735465984,10.0.1.137,702,move_down,-0.440,-0.440,-0.440,0.000,0.000,0.000
1605135885573806080,10.0.1.137,639,move_down,-0.460,-0.460,-0.460,0.000,0.000,0.000
1605135887377620992,10.0.1.137,774,move_down,-0.480,-0.480,-0.480,0.000,0.000,0.000
1605135889090359040,10.0.1.137,593,move_down,-0.500,-0.500,-0.500,0.000,0.000,0.000
1605135890663252992,10.0.1.137,460,move_down,-0.520,-0.520,-0.520,0.000,0.000,0.000
1605135892342371072,10.0.1.137,612,move_down,-0.540,-0.540,-0.540,0.000,0.000,0.000
1605135894120716032,10.0.1.137,502,move_down,-0.560,-0.560,-0.560,0.000,0.000,0.000
1605135896021492992,10.0.1.137,762,move_down,-0.580,-0.580,-0.580,0.000,0.000,0.000
1605135898172179968,10.0.1.137,41,pick,-0.600,-0.600,-0.600,0.000,0.000,0.000
1605135899185619968,10.0.1.137,51,pick,-0.610,-0.610,-0.610,0.000,0.000,0.000
1605135900172050944,10.0.1.137,36,pick,-0.620,-0.620,-0.620,0.000,0.000,0.000
1605135902229521152,10.0.1.137,88,pick,-0.640,-0.640,-0.640,0.000,0.000,0.000
1605135903196507904,10.0.1.137,48,pick,-0.650,-0.650,-0.650,0.000,0.000,0.000
1605135904214228992,10.0.1.137,64,pick,-0.660,-0.660,-0.660,0.000,0.000,0.000
1605135905217266944,10.0.1.137,66,pick,-0.670,-0.670,-0.670,0.000,0.000,0.000
1605135906266387968,10.0.1.137,83,pick,-0.680,-0.680,-0.680,0.000,0.000,0.000
1605135907231246848,10.0.1.137,46,pick,-0.690,-0.690,-0.690,0.000,0.000,0.000
1605135908246466048,10.0.1.137,50,pick,-0.700,-0.700,-0.700,0.000,0.000,0.000
1605135909277368064,10.0.1.137,51,pick,-0.710,-0.710,-0.710,0.000,0.000,0.000
1605135910283618816,10.0.1.137,56,pick,-0.720,-0.720,-0.720,0.000,0.000,0.000
1605135911282653184,10.0.1.137,52,pick,-0.730,-0.730,-0.730,0.000,0.000,0.000
1605135912275634944,10.0.1.137,37,pick,-0.740,-0.740,-0.740,0.000,0.000,0.000
1605135913279862016,10.0.1.137,37,pick,-0.750,-0.750,-0.750,0.000,0.000,0.000
1605135914298775808,10.0.1.137,52,pick,-0.760,-0.760,-0.760,0.000,0.000,0.000
1605135915291289088,10.0.1.137,43,pick,-0.770,-0.770,-0.770,0.000,0.000,0.000
1605135916979286784,10.0.1.137,730,move_up,-0.750,-0.750,-0.750,0.000,0.000,0.000
1605135918492204032,10.0.1.137,500,move_up,-0.730,-0.730,-0.730,0.000,0.000,0.000
1605135920412282880,10.0.1.137,798,move_up,-0.710,-0.710,-0.710,0.000,0.000,0.000
1605135922113210880,10.0.1.137,584,move_up,-0.690,-0.690,-0.690,0.000,0.000,0.000
1605135923860135936,10.0.1.137,530,move_up,-0.670,-0.670,-0.670,0.000,0.000,0.000
1605135925758974976,10.0.1.137,822,move_up,-0.650,-0.650,-0.650,0.000,0.000,0.000
1605135927563091968,10.0.1.137,676,move_up,-0.630,-0.630,-0.630,0.000,0.000,0.000
1605135929400407040,10.0.1.137,776,move_up,-0.610,-0.610,-0.610,0.000,0.000,0.000
1605135931385335808,10.0.1.137,570,move_up,-0.590,-0.590,-0.590,0.000,0.000,0.000
1605135933092958976,10.0.1.137,573,move_up,-0.570,-0.570,-0.570,0.000,0.000,0.000
1605135934933139968,10.0.1.137,679,move_up,-0.550,-0.550,-0.550,0.000,0.000,0.000
1605135936649837056,10.0.1.137,605,move_up,-0.530,-0.530,-0.530,0.000,0.000,0.000
1605135938582129920,10.0.1.137,794,move_up,-0.510,-0.510,-0.510,0.000,0.000,0.000
1605135940236102144,10.0.1.137,574,move_up,-0.490,-0.490,-0.490,0.000,0.000,0.000
1605135942157850880,10.0.1.137,731,move_up,-0.470,-0.470,-0.470,0.000,0.000,0.000
1605135943792436992,10.0.1.137,536,move_up,-0.450,-0.450,-0.450,0.000,0.000,0.000
1605135945787997952,10.0.1.137,948,move_up,-0.430,-0.430,-0.430,0.000,0.000,0.000
1605135947350856192,10.0.1.137,523,move_up,-0.410,-0.410,-0.410,0.000,0.000,0.000
1605135948950978048,10.0.1.137,563,move_up,-0.390,-0.390,-0.390,0.000,0.000,0.000
1605135950642961920,10.0.1.137,515,move_up,-0.370,-0.370,-0.370,0.000,0.000,0.000
1605135952465635072,10.0.1.137,728,move_up,-0.350,-0.350,-0.350,0.000,0.000,0.000
1605135954616579072,10.0.1.137,606,move_up,-0.330,-0.330,-0.330,0.000,0.000,0.000
1605135956283153152,10.0.1.137,578,move_up,-0.310,-0.310,-0.310,0.000,0.000,0.000
1605135961090210048,10.0.1.137,560,move_up,-0.290,-0.290,-0.290,0.000,0.000,0.000
1605135962873308928,10.0.1.137,677,move_up,-0.270,-0.270,-0.270,0.000,0.000,0.000
1605135964888884992,10.0.1.137,853,move_up,-0.250,-0.250,-0.250,0.000,0.000,0.000
1605135966565785856,10.0.1.137,528,move_up,-0.230,-0.230,-0.230,0.000,0.000,0.000
1605135968197128960,10.0.1.137,537,move_up,-0.210,-0.210,-0.210,0.000,0.000,0.000
1605135969952222976,10.0.1.137,653,move_up,-0.190,-0.190,-0.190,0.000,0.000,0.000
1605135971133569024,10.0.1.137,41,place,-0.180,-0.180,-0.180,0.000,0.000,0.000
1605135973169250048,10.0.1.137,62,place,-0.160,-0.160,-0.160,0.000,0.000,0.000
1605135974149146112,10.0.1.137,41,place,-0.150,-0.150,-0.150,0.000,0.000,0.000
1605135977183876096,10.0.1.137,54,place,-0.120,-0.120,-0.120,0.000,0.000,0.000
1605135978185911040,10.0.1.137,47,place,-0.110,-0.110,-0.110,0.000,0.000,0.000
1605135979173746176,10.0.1.137,33,place,-0.100,-0.100,-0.100,0.000,0.000,0.000
1605135980202233088,10.0.1.137,50,place,-0.090,-0.090,-0.090,0.000,0.000,0.000
1605135981201829888,10.0.1.137,48,place,-0.080,-0.080,-0.080,0.000,0.000,0.000
1605135982193698048,10.0.1.137,37,place,-0.070,-0.070,-0.070,0.000,0.000,0.000
1605135983207962880,10.0.1.137,44,place,-0.060,-0.060,-0.060,0.000,0.000,0.000
1605135984221431040,10.0.1.137,53,place,-0.050,-0.050,-0.050,0.000,0.000,0.000
1605135985229885184,10.0.1.137,57,place,-0.040,-0.040,-0.040,0.000,0.000,0.000
1605135986217752832,10.0.1.137,37,place,-0.030,-0.030,-0.030,0.000,0.000,0.000
1605135987248016128,10.0.1.137,48,place,-0.020,-0.020,-0.020,0.000,0.000,0.000
1605135988263992064,10.0.1.137,60,place,-0.010,-0.010,-0.010,0.000,0.000,0.000
1605135989256637952,10.0.1.137,49,place,0.000,0.000,0.000,0.000,0.000,0.000
1605135990867582208,10.0.1.137,655,move_down,-0.020,-0.020,-0.020,0.000,0.000,0.000
1605135992483917056,10.0.1.137,457,move_down,-0.040,-0.040,-0.040,0.000,0.000,0.000
1605135994273485824,10.0.1.137,671,move_down,-0.060,-0.060,-0.060,0.000,0.000,0.000
1605135996036612864,10.0.1.137,623,move_down,-0.080,-0.080,-0.080,0.000,0.000,0.000
1605135997785157888,10.0.1.137,507,move_down,-0.100,-0.100,-0.100,0.000,0.000,0.000
1605135999478484992,10.0.1.137,621,move_down,-0.120,-0.120,-0.120,0.000,0.000,0.000
1605136001450609920,10.0.1.137,867,move_down,-0.140,-0.140,-0.140,0.000,0.000,0.000
1605136003424669952,10.0.1.137,685,move_down,-0.160,-0.160,-0.160,0.000,0.000,0.000
1605136005330526208,10.0.1.137,508,move_down,-0.180,-0.180,-0.180,0.000,0.000,0.000
1605136007165136128,10.0.1.137,547,move_down,-0.200,-0.200,-0.200,0.000,0.000,0.000
1605136008828443904,10.0.1.137,559,move_down,-0.220,-0.220,-0.220,0.000,0.000,0.000
1605136010667109120,10.0.1.137,591,move_down,-0.240,-0.240,-0.240,0.000,0.000,0.000
1605136012458252032,10.0.1.137,747,move_down,-0.260,-0.260,-0.260,0.000,0.000,0.000
1605136014282594816,10.0.1.137,689,move_down,-0.280,-0.280,-0.280,0.000,0.000,0.000
1605136016010798080,10.0.1.137,651,move_down,-0.300,-0.300,-0.300,0.000,0.000,0.000
1605136017640856064,10.0.1.137,563,move_down,-0.320,-0.320,-0.320,0.000,0.000,0.000
1605136019150516992,10.0.1.137,493,move_down,-0.340,-0.340,-0.340,0.000,0.000,0.000
1605136020893723904,10.0.1.137,647,move_down,-0.360,-0.360,-0.360,0.000,0.000,0.000
1605136022684116992,10.0.1.137,714,move_down,-0.380,-0.380,-0.380,0.000,0.000,0.000
1605136024150723840,10.0.1.137,473,move_down,-0.400,-0.400,-0.400,0.000,0.000,0.000
1605136025998519040,10.0.1.137,761,move_down,-0.420,-0.420,-0.420,0.000,0.000,0.000
1605136027985604096,10.0.1.137,781,move_down,-0.440,-0.440,-0.440,0.000,0.000,0.000
1605136030035408896,10.0.1.137,909,move_down,-0.460,-0.460,-0.460,0.000,0.000,0.000
1605136031807435008,10.0.1.137,671,move_down,-0.480,-0.480,-0.480,0.000,0.000,0.000
1605136033532535040,10.0.1.137,532,move_down,-0.500,-0.500,-0.500,0.000,0.000,0.000
1605136035338426112,10.0.1.137,748,move_down,-0.520,-0.520,-0.520,0.000,0.000,0.000
1605136036971267072,10.0.1.137,533,move_down,-0.540,-0.540,-0.540,0.000,0.000,0.000
1605136038626064128,10.0.1.137,570,move_down,-0.560,-0.560,-0.560,0.000,0.000,0.000
1605136040605509888,10.0.1.137,886,move_down,-0.580,-0.580,-0.580,0.000,0.000,0.000
1605136041666928128,10.0.1.137,42,pick,-0.590,-0.590,-0.590,0.000,0.000,0.000
1605136042674246144,10.0.1.137,48,pick,-0.600,-0.600,-0.600,0.000,0.000,0.000
1605136044685254144,10.0.1.137,57,pick,-0.620,-0.620,-0.620,0.000,0.000,0.000
1605136045696384000,10.0.1.137,67,pick,-0.630,-0.630,-0.630,0.000,0.000,0.000
1605136046681339904,10.0.1.137,46,pick,-0.640,-0.640,-0.640,0.000,0.000,0.000
1605136047696217088,10.0.1.137,60,pick,-0.650,-0.650,-0.650,0.000,0.000,0.000
1605136048680440064,10.0.1.137,39,pick,-0.660,-0.660,-0.660,0.000,0.000,0.000
1605136050701936896,10.0.1.137,41,pick,-0.680,-0.680,-0.680,0.000,0.000,0.000
1605136051731201792,10.0.1.137,65,pick,-0.690,-0.690,-0.690,0.000,0.000,0.000
1605136052716886016,10.0.1.137,48,pick,-0.700,-0.700,-0.700,0.000,0.000,0.000
1605136053748892928,10.0.1.137,76,pick,-0.710,-0.710,-0.710,0.000,0.000,0.000
1605136054766393856,10.0.1.137,84,pick,-0.720,-0.720,-0.720,0.000,0.000,0.000
1605136056769128192,10.0.1.137,85,pick,-0.740,-0.740,-0.740,0.000,0.000,0.000
1605136057737207040,10.0.1.137,51,pick,-0.750,-0.750,-0.750,0.000,0.000,0.000
1605136058750492928,10.0.1.137,63,pick,-0.760,-0.760,-0.760,0.000,0.000,0.000
1605136059733473024,10.0.1.137,44,pick,-0.770,-0.770,-0.770,0.000,0.000,0.000
1605136061350136064,10.0.1.137,659,move_up,-0.750,-0.750,-0.750,0.000,0.000,0.000
1605136063035075840,10.0.1.137,659,move_up,-0.730,-0.730,-0.730,0.000,0.000,0.000
1605136064742046976,10.0.1.137,599,move_up,-0.710,-0.710,-0.710,0.000,0.000,0.000
1605136066685262080,10.0.1.137,633,move_up,-0.690,-0.690,-0.690,0.000,0.000,0.000
1605136068287556864,10.0.1.137,506,move_up,-0.670,-0.670,-0.670,0.000,0.000,0.000
1605136069982635008,10.0.1.137,594,move_up,-0.650,-0.650,-0.650,0.000,0.000,0.000
1605136071913000192,10.0.1.137,785,move_up,-0.630,-0.630,-0.630,0.000,0.000,0.000
1605136073809127168,10.0.1.137,793,move_up,-0.610,-0.610,-0.610,0.000,0.000,0.000
1605136075480290048,10.0.1.137,588,move_up,-0.590,-0.590,-0.590,0.000,0.000,0.000
1605136077085020160,10.0.1.137,589,move_up,-0.570,-0.570,-0.570,0.000,0.000,0.000
1605136078789037056,10.0.1.137,549,move_up,-0.550,-0.550,-0.550,0.000,0.000,0.000
1605136080607074048,10.0.1.137,739,move_up,-0.530,-0.530,-0.530,0.000,0.000,0.000
1605136082132445952,10.0.1.137,461,move_up,-0.510,-0.510,-0.510,0.000,0.000,0.000
1605136083933073152,10.0.1.137,648,move_up,-0.490,-0.490,-0.490,0.000,0.000,0.000
1605136086338205184,10.0.1.137,890,move_up,-0.470,-0.470,-0.470,0.000,0.000,0.000
1605136088034377216,10.0.1.137,619,move_up,-0.450,-0.450,-0.450,0.000,0.000,0.000
1605136089751900928,10.0.1.137,684,move_up,-0.430,-0.430,-0.430,0.000,0.000,0.000
1605136091344069120,10.0.1.137,546,move_up,-0.410,-0.410,-0.410,0.000,0.000,0.000
1605136093032141056,10.0.1.137,620,move_up,-0.390,-0.390,-0.390,0.000,0.000,0.000
1605136094691063040,10.0.1.137,572,move_up,-0.370,-0.370,-0.370,0.000,0.000,0.000
1605136096433975040,10.0.1.137,613,move_up,-0.350,-0.350,-0.350,0.000,0.000,0.000
1605136098364456960,10.0.1.137,679,move_up,-0.330,-0.330,-0.330,0.000,0.000,0.000
1605136100199919872,10.0.1.137,778,move_up,-0.310,-0.310,-0.310,0.000,0.000,0.000
1605136101858333952,10.0.1.137,531,move_up,-0.290,-0.290,-0.290,0.000,0.000,0.000
1605136103616506112,10.0.1.137,706,move_up,-0.270,-0.270,-0.270,0.000,0.000,0.000
1605136105252812032,10.0.1.137,568,move_up,-0.250,-0.250,-0.250,0.000,0.000,0.000
1605136107103239168,10.0.1.137,639,move_up,-0.230,-0.230,-0.230,0.000,0.000,0.000
1605136108837771008,10.0.1.137,541,move_up,-0.210,-0.210,-0.210,0.000,0.000,0.000
1605136110570061056,10.0.1.137,563,move_up,-0.190,-0.190,-0.190,0.000,0.000,0.000
1605136111755520000,10.0.1.137,67,place,-0.180,-0.180,-0.180,0.000,0.000,0.000
1605136112729219072,10.0.1.137,40,place,-0.170,-0.170,-0.170,0.000,0.000,0.000
1605136113766707968,10.0.1.137,69,place,-0.160,-0.160,-0.160,0.000,0.000,0.000
1605136114742629888,10.0.1.137,44,place,-0.150,-0.150,-0.150,0.000,0.000,0.000
1605136116755827968,10.0.1.137,56,place,-0.130,-0.130,-0.130,0.000,0.000,0.000
1605136117751478016,10.0.1.137,51,place,-0.120,-0.120,-0.120,0.000,0.000,0.000
1605136118742419968,10.0.1.137,41,place,-0.110,-0.110,-0.110,0.000,0.000,0.000
1605136120761059072,10.0.1.137,58,place,-0.090,-0.090,-0.090,0.000,0.000,0.000
1605136121745219840,10.0.1.137,41,place,-0.080,-0.080,-0.080,0.000,0.000,0.000
1605136122745724928,10.0.1.137,40,place,-0.070,-0.070,-0.070,0.000,0.000,0.000
1605136123758874880,10.0.1.137,52,place,-0.060,-0.060,-0.060,0.000,0.000,0.000
1605136124753036032,10.0.1.137,45,place,-0.050,-0.050,-0.050,0.000,0.000,0.000
1605136125759255808,10.0.1.137,50,place,-0.040,-0.040,-0.040,0.000,0.000,0.000
1605136126760807936,10.0.1.137,50,place,-0.030,-0.030,-0.030,0.000,0.000,0.000
1605136127768696064,10.0.1.137,48,place,-0.020,-0.020,-0.020,0.000,0.000,0.000
1605136128793736960,10.0.1.137,72,place,-0.010,-0.010,-0.010,0.000,0.000,0.000
1605136129785867008,10.0.1.137,62,place,0.000,0.000,0.000,0.000,0.000,0.000
1605136131254434048,10.0.1.137,522,move_down,-0.020,-0.020,-0.020,0.000,0.000,0.000
1605136133309673984,10.0.1.137,972,move_down,-0.040,-0.040,-0.040,0.000,0.000,0.000
1605136135133754112,10.0.1.137,693,move_down,-0.060,-0.060,-0.060,0.000,0.000,0.000
1605136136727832064,10.0.1.137,577,move_down,-0.080,-0.080,-0.080,0.000,0.000,0.000
1605136138276537856,10.0.1.137,466,move_down,-0.100,-0.100,-0.100,0.000,0.000,0.000
1605136140057967872,10.0.1.137,678,move_down,-0.120,-0.120,-0.120,0.000,0.000,0.000
1605136141749767936,10.0.1.137,624,move_down,-0.140,-0.140,-0.140,0.000,0.000,0.000
1605136143498763008,10.0.1.137,551,move_down,-0.160,-0.160,-0.160,0.000,0.000,0.000
1605136145083642880,10.0.1.137,576,move_down,-0.180,-0.180,-0.180,0.000,0.000,0.000
1605136146849543168,10.0.1.137,578,move_down,-0.200,-0.200,-0.200,0.000,0.000,0.000
1605136148526498048,10.0.1.137,663,move_down,-0.220,-0.220,-0.220,0.000,0.000,0.000
1605136150369999872,10.0.1.137,724,move_down,-0.240,-0.240,-0.240,0.000,0.000,0.000
1605136152014573056,10.0.1.137,530,move_down,-0.260,-0.260,-0.260,0.000,0.000,0.000
1605136153634650880,10.0.1.137,522,move_down,-0.280,-0.280,-0.280,0.000,0.000,0.000
1605136155377736192,10.0.1.137,680,move_down,-0.300,-0.300,-0.300,0.000,0.000,0.000
1605136156868614912,10.0.1.137,438,move_down,-0.320,-0.320,-0.320,0.000,0.000,0.000
1605136158531461120,10.0.1.137,560,move_down,-0.340,-0.340,-0.340,0.000,0.000,0.000
1605136160186023936,10.0.1.137,532,move_down,-0.360,-0.360,-0.360,0.000,0.000,0.000
1605136162029216000,10.0.1.137,761,move_down,-0.380,-0.380,-0.380,0.000,0.000,0.000
1605136163697731072,10.0.1.137,548,move_down,-0.400,-0.400,-0.400,0.000,0.000,0.000
1605136165607495936,10.0.1.137,669,move_down,-0.420,-0.420,-0.420,0.000,0.000,0.000
1605136167252410880,10.0.1.137,564,move_down,-0.440,-0.440,-0.440,0.000,0.000,0.000
1605136168987145984,10.0.1.137,699,move_down,-0.460,-0.460,-0.460,0.000,0.000,0.000
1605136170738290176,10.0.1.137,506,move_down,-0.480,-0.480,-0.480,0.000,0.000,0.000
1605136172494308096,10.0.1.137,644,move_down,-0.500,-0.500,-0.500,0.000,0.000,0.000
1605136174235655936,10.0.1.137,521,move_down,-0.520,-0.520,-0.520,0.000,0.000,0.000
1605136176126658816,10.0.1.137,560,move_down,-0.540,-0.540,-0.540,0.000,0.000,0.000
1605136177786305024,10.0.1.137,516,move_down,-0.560,-0.560,-0.560,0.000,0.000,0.000
1605136179588288000,10.0.1.137,768,move_down,-0.580,-0.580,-0.580,0.000,0.000,0.000
1605136180826430976,10.0.1.137,47,pick,-0.590,-0.590,-0.590,0.000,0.000,0.000
1605136181839490048,10.0.1.137,54,pick,-0.600,-0.600,-0.600,0.000,0.000,0.000
1605136182821101824,10.0.1.137,34,pick,-0.610,-0.610,-0.610,0.000,0.000,0.000
1605136183838632192,10.0.1.137,51,pick,-0.620,-0.620,-0.620,0.000,0.000,0.000
1605136184830394880,10.0.1.137,41,pick,-0.630,-0.630,-0.630,0.000,0.000,0.000
1605136185858264064,10.0.1.137,60,pick,-0.640,-0.640,-0.640,0.000,0.000,0.000
1605136186852545024,10.0.1.137,53,pick,-0.650,-0.650,-0.650,0.000,0.000,0.000
1605136187892256000,10.0.1.137,83,pick,-0.660,-0.660,-0.660,0.000,0.000,0.000
1605136188873518080,10.0.1.137,63,pick,-0.670,-0.670,-0.670,0.000,0.000,0.000
1605136189853869056,10.0.1.137,39,pick,-0.680,-0.680,-0.680,0.000,0.000,0.000
1605136190892461056,10.0.1.137,71,pick,-0.690,-0.690,-0.690,0.000,0.000,0.000
1605136191895354880,10.0.1.137,73,pick,-0.700,-0.700,-0.700,0.000,0.000,0.000
1605136192875219200,10.0.1.137,52,pick,-0.710,-0.710,-0.710,0.000,0.000,0.000
1605136194903350016,10.0.1.137,74,pick,-0.730,-0.730,-0.730,0.000,0.000,0.000
1605136195892667904,10.0.1.137,54,pick,-0.740,-0.740,-0.740,0.000,0.000,0.000
1605136196901156864,10.0.1.137,56,pick,-0.750,-0.750,-0.750,0.000,0.000,0.000
1605136198907138048,10.0.1.137,56,pick,-0.770,-0.770,-0.770,0.000,0.000,0.000
1605136200410319104,10.0.1.137,558,move_up,-0.750,-0.750,-0.750,0.000,0.000,0.000
1605136202143708928,10.0.1.137,578,move_up,-0.730,-0.730,-0.730,0.000,0.000,0.000
1605136203933187072,10.0.1.137,683,move_up,-0.710,-0.710,-0.710,0.000,0.000,0.000
1605136205683780864,10.0.1.137,634,move_up,-0.690,-0.690,-0.690,0.000,0.000,0.000
1605136207318523904,10.0.1.137,513,move_up,-0.670,-0.670,-0.670,0.000,0.000,0.000
1605136209161863936,10.0.1.137,700,move_up,-0.650,-0.650,-0.650,0.000,0.000,0.000
1605136210998425088,10.0.1.137,688,move_up,-0.630,-0.630,-0.630,0.000,0.000,0.000
1605136212831954944,10.0.1.137,762,move_up,-0.610,-0.610,-0.610,0.000,0.000,0.000
1605136214384399872,10.0.1.137,551,move_up,-0.590,-0.590,-0.590,0.000,0.000,0.000
1605136216249448960,10.0.1.137,773,move_up,-0.570,-0.570,-0.570,0.000,0.000,0.000
1605136217947787008,10.0.1.137,608,move_up,-0.550,-0.550,-0.550,0.000,0.000,0.000
1605136219825282048,10.0.1.137,673,move_up,-0.530,-0.530,-0.530,0.000,0.000,0.000
1605136221563243008,10.0.1.137,666,move_up,-0.510,-0.510,-0.510,0.000,0.000,0.000
1605136223291098112,10.0.1.137,667,move_up,-0.490,-0.490,-0.490,0.000,0.000,0.000
1605136224941457152,10.0.1.137,550,move_up,-0.470,-0.470,-0.470,0.000,0.000,0.000
1605136226540177152,10.0.1.137,517,move_up,-0.450,-0.450,-0.450,0.000,0.000,0.000
1605136228265937920,10.0.1.137,582,move_up,-0.430,-0.430,-0.430,0.000,0.000,0.000
1605136230147058944,10.0.1.137,788,move_up,-0.410,-0.410,-0.410,0.000,0.000,0.000
1605136231810306048,10.0.1.137,550,move_up,-0.390,-0.390,-0.390,0.000,0.000,0.000
1605136233654288896,10.0.1.137,575,move_up,-0.370,-0.370,-0.370,0.000,0.000,0.000
1605136235239873024,10.0.1.137,480,move_up,-0.350,-0.350,-0.350,0.000,0.000,0.000
1605136237053739008,10.0.1.137,668,move_up,-0.330,-0.330,-0.330,0.000,0.000,0.000
1605136238791405824,10.0.1.137,594,move_up,-0.310,-0.310,-0.310,0.000,0.000,0.000
1605136240389820160,10.0.1.137,519,move_up,-0.290,-0.290,-0.290,0.000,0.000,0.000
1605136242005871104,10.0.1.137,584,move_up,-0.270,-0.270,-0.270,0.000,0.000,0.000
1605136243886192128,10.0.1.137,850,move_up,-0.250,-0.250,-0.250,0.000,0.000,0.000
1605136245556786176,10.0.1.137,539,move_up,-0.230,-0.230,-0.230,0.000,0.000,0.000
1605136247330578944,10.0.1.137,681,move_up,-0.210,-0.210,-0.210,0.000,0.000,0.000
1605136249000722944,10.0.1.137,581,move_up,-0.190,-0.190,-0.190,0.000,0.000,0.000
1605136251335876864,10.0.1.137,51,place,-0.170,-0.170,-0.170,0.000,0.000,0.000
1605136252337473024,10.0.1.137,52,place,-0.160,-0.160,-0.160,0.000,0.000,0.000
1605136253332250112,10.0.1.137,45,place,-0.150,-0.150,-0.150,0.000,0.000,0.000
1605136254350967808,10.0.1.137,59,place,-0.140,-0.140,-0.140,0.000,0.000,0.000
1605136255350932992,10.0.1.137,55,place,-0.130,-0.130,-0.130,0.000,0.000,0.000
1605136257362993920,10.0.1.137,62,place,-0.110,-0.110,-0.110,0.000,0.000,0.000
1605136258360896000,10.0.1.137,58,place,-0.100,-0.100,-0.100,0.000,0.000,0.000
1605136259389977088,10.0.1.137,71,place,-0.090,-0.090,-0.090,0.000,0.000,0.000
1605136260379621888,10.0.1.137,60,place,-0.080,-0.080,-0.080,0.000,0.000,0.000
1605136261399812096,10.0.1.137,78,place,-0.070,-0.070,-0.070,0.000,0.000,0.000
1605136262381591040,10.0.1.137,59,place,-0.060,-0.060,-0.060,0.000,0.000,0.000
1605136263374212096,10.0.1.137,50,place,-0.050,-0.050,-0.050,0.000,0.000,0.000
1605136264373430016,10.0.1.137,48,place,-0.040,-0.040,-0.040,0.000,0.000,0.000
1605136265368129024,10.0.1.137,42,place,-0.030,-0.030,-0.030,0.000,0.000,0.000
1605136266382119936,10.0.1.137,50,place,-0.020,-0.020,-0.020,0.000,0.000,0.000
1605136267370203904,10.0.1.137,37,place,-0.010,-0.010,-0.010,0.000,0.000,0.000
1605136268374785024,10.0.1.137,41,place,0.000,0.000,0.000,0.000,0.000,0.000
1605136269923043840,10.0.1.137,585,move_down,-0.020,-0.020,-0.020,0.000,0.000,0.000
1605136271750211840,10.0.1.137,760,move_down,-0.040,-0.040,-0.040,0.000,0.000,0.000
1605136273458728192,10.0.1.137,548,move_down,-0.060,-0.060,-0.060,0.000,0.000,0.000
1605136275362821120,10.0.1.137,838,move_down,-0.080,-0.080,-0.080,0.000,0.000,0.000
1605136276975113984,10.0.1.137,506,move_down,-0.100,-0.100,-0.100,0.000,0.000,0.000
1605136278547864064,10.0.1.137,475,move_down,-0.120,-0.120,-0.120,0.000,0.000,0.000
1605136280309815808,10.0.1.137,626,move_down,-0.140,-0.140,-0.140,0.000,0.000,0.000
1605136281929049088,10.0.1.137,583,move_down,-0.160,-0.160,-0.160,0.000,0.000,0.000
1605136283695628800,10.0.1.137,550,move_down,-0.180,-0.180,-0.180,0.000,0.000,0.000
1605136285433938944,10.0.1.137,703,move_down,-0.200,-0.200,-0.200,0.000,0.000,0.000
1605136287142697984,10.0.1.137,510,move_down,-0.220,-0.220,-0.220,0.000,0.000,0.000
1605136288850739968,10.0.1.137,570,move_down,-0.240,-0.240,-0.240,0.000,0.000,0.000
1605136290827881984,10.0.1.137,876,move_down,-0.260,-0.260,-0.260,0.000,0.000,0.000
1605136292774208000,10.0.1.137,624,move_down,-0.280,-0.280,-0.280,0.000,0.000,0.000
1605136294483452928,10.0.1.137,654,move_down,-0.300,-0.300,-0.300,0.000,0.000,0.000
1605136296078546944,10.0.1.137,530,move_down,-0.320,-0.320,-0.320,0.000,0.000,0.000
1605136298310264064,10.0.1.137,1081,move_down,-0.340,-0.340,-0.340,0.000,0.000,0.000
1605136299960480000,10.0.1.137,521,move_down,-0.360,-0.360,-0.360,0.000,0.000,0.000
1605136301644130048,10.0.1.137,602,move_down,-0.380,-0.380,-0.380,0.000,0.000,0.000
1605136303492541184,10.0.1.137,729,move_down,-0.400,-0.400,-0.400,0.000,0.000,0.000
1605136305303832064,10.0.1.137,727,move_down,-0.420,-0.420,-0.420,0.000,0.000,0.000
1605136306963485952,10.0.1.137,599,move_down,-0.440,-0.440,-0.440,0.000,0.000,0.000
1605136308875727872,10.0.1.137,785,move_down,-0.460,-0.460,-0.460,0.000,0.000,0.000
1605136310875389952,10.0.1.137,834,move_down,-0.480,-0.480,-0.480,0.000,0.000,0.000
1605136312478478848,10.0.1.137,520,move_down,-0.500,-0.500,-0.500,0.000,0.000,0.000
1605136314281336064,10.0.1.137,631,move_down,-0.520,-0.520,-0.520,0.000,0.000,0.000
1605136315821972992,10.0.1.137,476,move_down,-0.540,-0.540,-0.540,0.000,0.000,0.000
1605136317598361088,10.0.1.137,658,move_down,-0.560,-0.560,-0.560,0.000,0.000,0.000
1605136319255670016,10.0.1.137,558,move_down,-0.580,-0.580,-0.580,0.000,0.000,0.000
1605136320389720064,10.0.1.137,95,pick,-0.590,-0.590,-0.590,0.000,0.000,0.000
1605136321366409984,10.0.1.137,72,pick,-0.600,-0.600,-0.600,0.000,0.000,0.000
1605136322367774976,10.0.1.137,65,pick,-0.610,-0.610,-0.610,0.000,0.000,0.000
1605136323347280128,10.0.1.137,43,pick,-0.620,-0.620,-0.620,0.000,0.000,0.000
1605136324355868160,10.0.1.137,45,pick,-0.630,-0.630,-0.630,0.000,0.000,0.000
1605136325365298944,10.0.1.137,53,pick,-0.640,-0.640,-0.640,0.000,0.000,0.000
1605136326378245120,10.0.1.137,65,pick,-0.650,-0.650,-0.650,0.000,0.000,0.000
1605136327367783936,10.0.1.137,53,pick,-0.660,-0.660,-0.660,0.000,0.000,0.000
1605136328373216000,10.0.1.137,51,pick,-0.670,-0.670,-0.670,0.000,0.000,0.000
1605136329389235968,10.0.1.137,65,pick,-0.680,-0.680,-0.680,0.000,0.000,0.000
1605136331391289088,10.0.1.137,62,pick,-0.700,-0.700,-0.700,0.000,0.000,0.000
1605136333408046080,10.0.1.137,63,pick,-0.720,-0.720,-0.720,0.000,0.000,0.000
1605136334398236928,10.0.1.137,51,pick,-0.730,-0.730,-0.730,0.000,0.000,0.000
1605136335403245824,10.0.1.137,55,pick,-0.740,-0.740,-0.740,0.000,0.000,0.000
1605136336404299008,10.0.1.137,55,pick,-0.750,-0.750,-0.750,0.000,0.000,0.000
1605136337406299136,10.0.1.137,51,pick,-0.760,-0.760,-0.760,0.000,0.000,0.000
1605136338394327040,10.0.1.137,35,pick,-0.770,-0.770,-0.770,0.000,0.000,0.000
1605136340001593088,10.0.1.137,639,move_up,-0.750,-0.750,-0.750,0.000,0.000,0.000
1605136341863863040,10.0.1.137,631,move_up,-0.730,-0.730,-0.730,0.000,0.000,0.000
1605136343730696960,10.0.1.137,740,move_up,-0.710,-0.710,-0.710,0.000,0.000,0.000
1605136345332283136,10.0.1.137,495,move_up,-0.690,-0.690,-0.690,0.000,0.000,0.000
1605136347154331904,10.0.1.137,660,move_up,-0.670,-0.670,-0.670,0.000,0.000,0.000
1605136348930601984,10.0.1.137,588,move_up,-0.650,-0.650,-0.650,0.000,0.000,0.000
1605136350551474944,10.0.1.137,592,move_up,-0.630,-0.630,-0.630,0.000,0.000,0.000
1605136352241873152,10.0.1.137,572,move_up,-0.610,-0.610,-0.610,0.000,0.000,0.000
1605136353949409024,10.0.1.137,645,move_up,-0.590,-0.590,-0.590,0.000,0.000,0.000
1605136355564165120,10.0.1.137,549,move_up,-0.570,-0.570,-0.570,0.000,0.000,0.000
1605136357525150976,10.0.1.137,899,move_up,-0.550,-0.550,-0.550,0.000,0.000,0.000
1605136359132917760,10.0.1.137,527,move_up,-0.530,-0.530,-0.530,0.000,0.000,0.000
1605136360824152832,10.0.1.137,537,move_up,-0.510,-0.510,-0.510,0.000,0.000,0.000
1605136362571991808,10.0.1.137,692,move_up,-0.490,-0.490,-0.490,0.000,0.000,0.000
1605136364498107904,10.0.1.137,630,move_up,-0.470,-0.470,-0.470,0.000,0.000,0.000
1605136366082062848,10.0.1.137,471,move_up,-0.450,-0.450,-0.450,0.000,0.000,0.000
1605136367813093888,10.0.1.137,518,move_up,-0.430,-0.430,-0.430,0.000,0.000,0.000
1605136369397900032,10.0.1.137,524,move_up,-0.410,-0.410,-0.410,0.000,0.000,0.000
1605136370973295872,10.0.1.137,521,move_up,-0.390,-0.390,-0.390,0.000,0.000,0.000
1605136372616334848,10.0.1.137,556,move_up,-0.370,-0.370,-0.370,0.000,0.000,0.000
1605136374249788928,10.0.1.137,555,move_up,-0.350,-0.350,-0.350,0.000,0.000,0.000
1605136376011294976,10.0.1.137,655,move_up,-0.330,-0.330,-0.330,0.000,0.000,0.000
1605136377960743936,10.0.1.137,823,move_up,-0.310,-0.310,-0.310,0.000,0.000,0.000
1605136380160502784,10.0.1.137,1137,move_up,-0.290,-0.290,-0.290,0.000,0.000,0.000
1605136381690187008,10.0.1.137,473,move_up,-0.270,-0.270,-0.270,0.000,0.000,0.000
1605136383380806912,10.0.1.137,557,move_up,-0.250,-0.250,-0.250,0.000,0.000,0.000
1605136385247845888,10.0.1.137,644,move_up,-0.230,-0.230,-0.230,0.000,0.000,0.000
1605136387259133952,10.0.1.137,579,move_up,-0.210,-0.210,-0.210,0.000,0.000,0.000
1605136389007085056,10.0.1.137,642,move_up,-0.190,-0.190,-0.190,0.000,0.000,0.000
1605136390252285952,10.0.1.137,52,place,-0.180,-0.180,-0.180,0.000,0.000,0.000
1605136391242875136,10.0.1.137,42,place,-0.170,-0.170,-0.170,0.000,0.000,0.000
1605136392255898112,10.0.1.137,53,place,-0.160,-0.160,-0.160,0.000,0.000,0.000
1605136393259844096,10.0.1.137,57,place,-0.150,-0.150,-0.150,0.000,0.000,0.000
1605136394285427200,10.0.1.137,78,place,-0.140,-0.140,-0.140,0.000,0.000,0.000
1605136395249066240,10.0.1.137,41,place,-0.130,-0.130,-0.130,0.000,0.000,0.000
1605136396263741952,10.0.1.137,54,place,-0.120,-0.120,-0.120,0.000,0.000,0.000
1605136398286192896,10.0.1.137,71,place,-0.100,-0.100,-0.100,0.000,0.000,0.000
1605136400277378048,10.0.1.137,60,place,-0.080,-0.080,-0.080,0.000,0.000,0.000
1605136402301739008,10.0.1.137,72,place,-0.060,-0.060,-0.060,0.000,0.000,0.000
1605136404286993152,10.0.1.137,39,place,-0.040,-0.040,-0.040,0.000,0.000,0.000
1605136406292313088,10.0.1.137,40,place,-0.020,-0.020,-0.020,0.000,0.000,0.000
1605136407315815936,10.0.1.137,56,place,-0.010,-0.010,-0.010,0.000,0.000,0.000
1605136408318607104,10.0.1.137,56,place,0.000,0.000,0.000,0.000,0.000,0.000
1605136409864505088,10.0.1.137,600,move_down,-0.020,-0.020,-0.020,0.000,0.000,0.000
1605136411581659136,10.0.1.137,490,move_down,-0.040,-0.040,-0.040,0.000,0.000,0.000
1605136413312180992,10.0.1.137,648,move_down,-0.060,-0.060,-0.060,0.000,0.000,0.000
1605136415763668992,10.0.1.137,986,move_down,-0.080,-0.080,-0.080,0.000,0.000,0.000
1605136417538025984,10.0.1.137,612,move_down,-0.100,-0.100,-0.100,0.000,0.000,0.000
1605136419032875008,10.0.1.137,497,move_down,-0.120,-0.120,-0.120,0.000,0.000,0.000
1605136420749676032,10.0.1.137,642,move_down,-0.140,-0.140,-0.140,0.000,0.000,0.000
1605136422498696960,10.0.1.137,636,move_down,-0.160,-0.160,-0.160,0.000,0.000,0.000
1605136424303159040,10.0.1.137,641,move_down,-0.180,-0.180,-0.180,0.000,0.000,0.000
1605136426073338880,10.0.1.137,526,move_down,-0.200,-0.200,-0.200,0.000,0.000,0.000
1605136427727163904,10.0.1.137,611,move_down,-0.220,-0.220,-0.220,0.000,0.000,0.000
1605136429379137024,10.0.1.137,564,move_down,-0.240,-0.240,-0.240,0.000,0.000,0.000
1605136430907373824,10.0.1.137,468,move_down,-0.260,-0.260,-0.260,0.000,0.000,0.000
1605136433053565952,10.0.1.137,749,move_down,-0.280,-0.280,-0.280,0.000,0.000,0.000
1605136434838539008,10.0.1.137,638,move_down,-0.300,-0.300,-0.300,0.000,0.000,0.000
1605136436479460096,10.0.1.137,575,move_down,-0.320,-0.320,-0.320,0.000,0.000,0.000
1605136438260741888,10.0.1.137,657,move_down,-0.340,-0.340,-0.340,0.000,0.000,0.000
1605136439949498880,10.0.1.137,558,move_down,-0.360,-0.360,-0.360,0.000,0.000,0.000
1605136441951847168,10.0.1.137,815,move_down,-0.380,-0.380,-0.380,0.000,0.000,0.000
1605136443689379072,10.0.1.137,656,move_down,-0.400,-0.400,-0.400,0.000,0.000,0.000
1605136445866134784,10.0.1.137,983,move_down,-0.420,-0.420,-0.420,0.000,0.000,0.000
1605136447578473216,10.0.1.137,493,move_down,-0.440,-0.440,-0.440,0.000,0.000,0.000
1605136449580545792,10.0.1.137,926,move_down,-0.460,-0.460,-0.460,0.000,0.000,0.000
1605136451623650048,10.0.1.137,948,move_down,-0.480,-0.480,-0.480,0.000,0.000,0.000
1605136453828683008,10.0.1.137,1149,move_down,-0.500,-0.500,-0.500,0.000,0.000,0.000
1605136455552578048,10.0.1.137,529,move_down,-0.520,-0.520,-0.520,0.000,0.000,0.000
1605136457161332992,10.0.1.137,553,move_down,-0.540,-0.540,-0.540,0.000,0.000,0.000
1605136459123698944,10.0.1.137,808,move_down,-0.560,-0.560,-0.560,0.000,0.000,0.000
1605136460743277056,10.0.1.137,518,move_down,-0.580,-0.580,-0.580,0.000,0.000,0.000
1605136461934843904,10.0.1.137,54,pick,-0.590,-0.590,-0.590,0.000,0.000,0.000
1605136462973107200,10.0.1.137,80,pick,-0.600,-0.600,-0.600,0.000,0.000,0.000
1605136463932449024,10.0.1.137,38,pick,-0.610,-0.610,-0.610,0.000,0.000,0.000
1605136464950382080,10.0.1.137,48,pick,-0.620,-0.620,-0.620,0.000,0.000,0.000
1605136465954449920,10.0.1.137,51,pick,-0.630,-0.630,-0.630,0.000,0.000,0.000
1605136466955288832,10.0.1.137,40,pick,-0.640,-0.640,-0.640,0.000,0.000,0.000
1605136467979726080,10.0.1.137,64,pick,-0.650,-0.650,-0.650,0.000,0.000,0.000
1605136468977313024,10.0.1.137,44,pick,-0.660,-0.660,-0.660,0.000,0.000,0.000
1605136469980654080,10.0.1.137,43,pick,-0.670,-0.670,-0.670,0.000,0.000,0.000
1605136470981192192,10.0.1.137,43,pick,-0.680,-0.680,-0.680,0.000,0.000,0.000
1605136472026295040,10.0.1.137,85,pick,-0.690,-0.690,-0.690,0.000,0.000,0.000
1605136472992326144,10.0.1.137,48,pick,-0.700,-0.700,-0.700,0.000,0.000,0.000
1605136473984990976,10.0.1.137,39,pick,-0.710,-0.710,-0.710,0.000,0.000,0.000
1605136474999326976,10.0.1.137,53,pick,-0.720,-0.720,-0.720,0.000,0.000,0.000
1605136475999442176,10.0.1.137,48,pick,-0.730,-0.730,-0.730,0.000,0.000,0.000
1605136477013832192,10.0.1.137,56,pick,-0.740,-0.740,-0.740,0.000,0.000,0.000
1605136478025387008,10.0.1.137,59,pick,-0.750,-0.750,-0.750,0.000,0.000,0.000
1605136479055185920,10.0.1.137,87,pick,-0.760,-0.760,-0.760,0.000,0.000,0.000
1605136480037966848,10.0.1.137,69,pick,-0.770,-0.770,-0.770,0.000,0.000,0.000
1605136481767972096,10.0.1.137,788,move_up,-0.750,-0.750,-0.750,0.000,0.000,0.000
1605136483570120960,10.0.1.137,590,move_up,-0.730,-0.730,-0.730,0.000,0.000,0.000
1605136485348818176,10.0.1.137,689,move_up,-0.710,-0.710,-0.710,0.000,0.000,0.000
1605136486851751168,10.0.1.137,448,move_up,-0.690,-0.690,-0.690,0.000,0.000,0.000
1605136488714107904,10.0.1.137,772,move_up,-0.670,-0.670,-0.670,0.000,0.000,0.000
1605136490323395072,10.0.1.137,546,move_up,-0.650,-0.650,-0.650,0.000,0.000,0.000
1605136492278928896,10.0.1.137,729,move_up,-0.630,-0.630,-0.630,0.000,0.000,0.000
1605136494368014080,10.0.1.137,961,move_up,-0.610,-0.610,-0.610,0.000,0.000,0.000
1605136495882630144,10.0.1.137,465,move_up,-0.590,-0.590,-0.590,0.000,0.000,0.000
1605136497565088000,10.0.1.137,531,move_up,-0.570,-0.570,-0.570,0.000,0.000,0.000
1605136499457377024,10.0.1.137,565,move_up,-0.550,-0.550,-0.550,0.000,0.000,0.000
1605136501146203136,10.0.1.137,522,move_up,-0.530,-0.530,-0.530,0.000,0.000,0.000
1605136502825476864,10.0.1.137,594,move_up,-0.510,-0.510,-0.510,0.000,0.000,0.000
1605136504890065920,10.0.1.137,1017,move_up,-0.490,-0.490,-0.490,0.000,0.000,0.000
1605136506840977920,10.0.1.137,839,move_up,-0.470,-0.470,-0.470,0.000,0.000,0.000
1605136508458523136,10.0.1.137,570,move_up,-0.450,-0.450,-0.450,0.000,0.000,0.000
1605136510127944960,10.0.1.137,556,move_up,-0.430,-0.430,-0.430,0.000,0.000,0.000
1605136511883879936,10.0.1.137,589,move_up,-0.410,-0.410,-0.410,0.000,0.000,0.000
1605136513872257024,10.0.1.137,821,move_up,-0.390,-0.390,-0.390,0.000,0.000,0.000
1605136515734225920,10.0.1.137,664,move_up,-0.370,-0.370,-0.370,0.000,0.000,0.000
1605136517660089088,10.0.1.137,834,move_up,-0.350,-0.350,-0.350,0.000,0.000,0.000
1605136519268403968,10.0.1.137,490,move_up,-0.330,-0.330,-0.330,0.000,0.000,0.000
1605136521004318976,10.0.1.137,616,move_up,-0.310,-0.310,-0.310,0.000,0.000,0.000
1605136522923287040,10.0.1.137,665,move_up,-0.290,-0.290,-0.290,0.000,0.000,0.000
1605136524657987072,10.0.1.137,575,move_up,-0.270,-0.270,-0.270,0.000,0.000,0.000
1605136526428963840,10.0.1.137,589,move_up,-0.250,-0.250,-0.250,0.000,0.000,0.000
1605136528036151808,10.0.1.137,500,move_up,-0.230,-0.230,-0.230,0.000,0.000,0.000
1605136529567169024,10.0.1.137,507,move_up,-0.210,-0.210,-0.210,0.000,0.000,0.000
1605136531375761152,10.0.1.137,749,move_up,-0.190,-0.190,-0.190,0.000,0.000,0.000
1605136532500660992,10.0.1.137,43,place,-0.180,-0.180,-0.180,0.000,0.000,0.000
1605136534567936000,10.0.1.137,78,place,-0.160,-0.160,-0.160,0.000,0.000,0.000
1605136535540560128,10.0.1.137,50,place,-0.150,-0.150,-0.150,0.000,0.000,0.000
1605136538573625088,10.0.1.137,81,place,-0.120,-0.120,-0.120,0.000,0.000,0.000
1605136540555915008,10.0.1.137,45,place,-0.100,-0.100,-0.100,0.000,0.000,0.000
1605136541576823040,10.0.1.137,58,place,-0.090,-0.090,-0.090,0.000,0.000,0.000
1605136542552464896,10.0.1.137,32,place,-0.080,-0.080,-0.080,0.000,0.000,0.000
1605136543598606080,10.0.1.137,77,place,-0.070,-0.070,-0.070,0.000,0.000,0.000
1605136544582761984,10.0.1.137,54,place,-0.060,-0.060,-0.060,0.000,0.000,0.000
1605136545582798848,10.0.1.137,52,place,-0.050,-0.050,-0.050,0.000,0.000,0.000
1605136546578574848,10.0.1.137,47,place,-0.040,-0.040,-0.040,0.000,0.000,0.000
1605136548570275072,10.0.1.137,36,place,-0.020,-0.020,-0.020,0.000,0.000,0.000
1605136549576067072,10.0.1.137,40,place,-0.010,-0.010,-0.010,0.000,0.000,0.000
1605136550589960192,10.0.1.137,53,place,0.000,0.000,0.000,0.000,0.000,0.000
1605136552053401088,10.0.1.137,510,move_down,-0.020,-0.020,-0.020,0.000,0.000,0.000
1605136553722752000,10.0.1.137,581,move_down,-0.040,-0.040,-0.040,0.000,0.000,0.000
1605136555420238080,10.0.1.137,609,move_down,-0.060,-0.060,-0.060,0.000,0.000,0.000
1605136557069752064,10.0.1.137,552,move_down,-0.080,-0.080,-0.080,0.000,0.000,0.000
1605136558854563072,10.0.1.137,569,move_down,-0.100,-0.100,-0.100,0.000,0.000,0.000
1605136560343795968,10.0.1.137,443,move_down,-0.120,-0.120,-0.120,0.000,0.000,0.000
1605136562161024000,10.0.1.137,659,move_down,-0.140,-0.140,-0.140,0.000,0.000,0.000
1605136563678881024,10.0.1.137,500,move_down,-0.160,-0.160,-0.160,0.000,0.000,0.000
1605136565421765120,10.0.1.137,626,move_down,-0.180,-0.180,-0.180,0.000,0.000,0.000
1605136567343848960,10.0.1.137,645,move_down,-0.200,-0.200,-0.200,0.000,0.000,0.000
1605136569100727040,10.0.1.137,713,move_down,-0.220,-0.220,-0.220,0.000,0.000,0.000
1605136570644180992,10.0.1.137,501,move_down,-0.240,-0.240,-0.240,0.000,0.000,0.000
1605136572285890048,10.0.1.137,526,move_down,-0.260,-0.260,-0.260,0.000,0.000,0.000
1605136573975482880,10.0.1.137,646,move_down,-0.280,-0.280,-0.280,0.000,0.000,0.000
1605136576027574016,10.0.1.137,930,move_down,-0.300,-0.300,-0.300,0.000,0.000,0.000
1605136577928046848,10.0.1.137,664,move_down,-0.320,-0.320,-0.320,0.000,0.000,0.000
1605136579686511104,10.0.1.137,708,move_down,-0.340,-0.340,-0.340,0.000,0.000,0.000
1605136581648487936,10.0.1.137,883,move_down,-0.360,-0.360,-0.360,0.000,0.000,0.000
1605136583146164992,10.0.1.137,426,move_down,-0.380,-0.380,-0.380,0.000,0.000,0.000
1605136585312840960,10.0.1.137,1087,move_down,-0.400,-0.400,-0.400,0.000,0.000,0.000
1605136586899159808,10.0.1.137,504,move_down,-0.420,-0.420,-0.420,0.000,0.000,0.000
1605136588710705920,10.0.1.137,535,move_down,-0.440,-0.440,-0.440,0.000,0.000,0.000
1605136590342632960,10.0.1.137,567,move_down,-0.460,-0.460,-0.460,0.000,0.000,0.000
1605136592088430848,10.0.1.137,637,move_down,-0.480,-0.480,-0.480,0.000,0.000,0.000
1605136593924902912,10.0.1.137,644,move_down,-0.500,-0.500,-0.500,0.000,0.000,0.000
1605136595521681152,10.0.1.137,484,move_down,-0.520,-0.520,-0.520,0.000,0.000,0.000
1605136597155395072,10.0.1.137,516,move_down,-0.540,-0.540,-0.540,0.000,0.000,0.000
1605136599187731968,10.0.1.137,1037,move_down,-0.560,-0.560,-0.560,0.000,0.000,0.000
1605136600948343040,10.0.1.137,659,move_down,-0.580,-0.580,-0.580,0.000,0.000,0.000
1605136602117661952,10.0.1.137,46,pick,-0.590,-0.590,-0.590,0.000,0.000,0.000
1605136603127929856,10.0.1.137,51,pick,-0.600,-0.600,-0.600,0.000,0.000,0.000
1605136604134251008,10.0.1.137,56,pick,-0.610,-0.610,-0.610,0.000,0.000,0.000
1605136605133532160,10.0.1.137,51,pick,-0.620,-0.620,-0.620,0.000,0.000,0.000
1605136606130872064,10.0.1.137,47,pick,-0.630,-0.630,-0.630,0.000,0.000,0.000
1605136607144556032,10.0.1.137,53,pick,-0.640,-0.640,-0.640,0.000,0.000,0.000
1605136608138982144,10.0.1.137,46,pick,-0.650,-0.650,-0.650,0.000,0.000,0.000
1605136609140331008,10.0.1.137,47,pick,-0.660,-0.660,-0.660,0.000,0.000,0.000
1605136610181236992,10.0.1.137,82,pick,-0.670,-0.670,-0.670,0.000,0.000,0.000
1605136611156691200,10.0.1.137,46,pick,-0.680,-0.680,-0.680,0.000,0.000,0.000
1605136612156807936,10.0.1.137,45,pick,-0.690,-0.690,-0.690,0.000,0.000,0.000
1605136613154252032,10.0.1.137,42,pick,-0.700,-0.700,-0.700,0.000,0.000,0.000
1605136614167237888,10.0.1.137,53,pick,-0.710,-0.710,-0.710,0.000,0.000,0.000
1605136615155177984,10.0.1.137,40,pick,-0.720,-0.720,-0.720,0.000,0.000,0.000
1605136616159719936,10.0.1.137,44,pick,-0.730,-0.730,-0.730,0.000,0.000,0.000
1605136617159286016,10.0.1.137,42,pick,-0.740,-0.740,-0.740,0.000,0.000,0.000
1605136618184783104,10.0.1.137,59,pick,-0.750,-0.750,-0.750,0.000,0.000,0.000
1605136619205246976,10.0.1.137,73,pick,-0.760,-0.760,-0.760,0.000,0.000,0.000
1605136620191654912,10.0.1.137,60,pick,-0.770,-0.770,-0.770,0.000,0.000,0.000
1605136621865644032,10.0.1.137,729,move_up,-0.750,-0.750,-0.750,0.000,0.000,0.000
1605136623474685952,10.0.1.137,551,move_up,-0.730,-0.730,-0.730,0.000,0.000,0.000
1605136625100972800,10.0.1.137,568,move_up,-0.710,-0.710,-0.710,0.000,0.000,0.000
1605136626871969024,10.0.1.137,670,move_up,-0.690,-0.690,-0.690,0.000,0.000,0.000
1605136628488219136,10.0.1.137,534,move_up,-0.670,-0.670,-0.670,0.000,0.000,0.000
1605136630153410048,10.0.1.137,573,move_up,-0.650,-0.650,-0.650,0.000,0.000,0.000
1605136631880794880,10.0.1.137,659,move_up,-0.630,-0.630,-0.630,0.000,0.000,0.000
1605136633462473984,10.0.1.137,472,move_up,-0.610,-0.610,-0.610,0.000,0.000,0.000
1605136635092196096,10.0.1.137,555,move_up,-0.590,-0.590,-0.590,0.000,0.000,0.000
1605136636818284032,10.0.1.137,615,move_up,-0.570,-0.570,-0.570,0.000,0.000,0.000
1605136638520384000,10.0.1.137,597,move_up,-0.550,-0.550,-0.550,0.000,0.000,0.000
1605136640433267200,10.0.1.137,631,move_up,-0.530,-0.530,-0.530,0.000,0.000,0.000
1605136642154311936,10.0.1.137,649,move_up,-0.510,-0.510,-0.510,0.000,0.000,0.000
1605136643777362176,10.0.1.137,495,move_up,-0.490,-0.490,-0.490,0.000,0.000,0.000
1605136645496238080,10.0.1.137,587,move_up,-0.470,-0.470,-0.470,0.000,0.000,0.000
1605136647346108928,10.0.1.137,708,move_up,-0.450,-0.450,-0.450,0.000,0.000,0.000
1605136649201195008,10.0.1.137,679,move_up,-0.430,-0.430,-0.430,0.000,0.000,0.000
1605136650878107136,10.0.1.137,560,move_up,-0.410,-0.410,-0.410,0.000,0.000,0.000
1605136652598426112,10.0.1.137,568,move_up,-0.390,-0.390,-0.390,0.000,0.000,0.000
1605136654418857216,10.0.1.137,703,move_up,-0.370,-0.370,-0.370,0.000,0.000,0.000
1605136656213913088,10.0.1.137,659,move_up,-0.350,-0.350,-0.350,0.000,0.000,0.000
1605136658119149056,10.0.1.137,811,move_up,-0.330,-0.330,-0.330,0.000,0.000,0.000
1605136659871325952,10.0.1.137,578,move_up,-0.310,-0.310,-0.310,0.000,0.000,0.000
1605136661506071040,10.0.1.137,608,move_up,-0.290,-0.290,-0.290,0.000,0.000,0.000
1605136663343270144,10.0.1.137,716,move_up,-0.270,-0.270,-0.270,0.000,0.000,0.000
1605136665128344064,10.0.1.137,590,move_up,-0.250,-0.250,-0.250,0.000,0.000,0.000
1605136666952550912,10.0.1.137,779,move_up,-0.230,-0.230,-0.230,0.000,0.000,0.000
1605136668790275072,10.0.1.137,625,move_up,-0.210,-0.210,-0.210,0.000,0.000,0.000
1605136670476069888,10.0.1.137,551,move_up,-0.190,-0.190,-0.190,0.000,0.000,0.000
1605136671805843200,10.0.1.137,53,place,-0.180,-0.180,-0.180,0.000,0.000,0.000
1605136672825174016,10.0.1.137,71,place,-0.170,-0.170,-0.170,0.000,0.000,0.000
1605136673794091008,10.0.1.137,38,place,-0.160,-0.160,-0.160,0.000,0.000,0.000
1605136674825449984,10.0.1.137,66,place,-0.150,-0.150,-0.150,0.000,0.000,0.000
1605136675796587008,10.0.1.137,37,place,-0.140,-0.140,-0.140,0.000,0.000,0.000
1605136677848299008,10.0.1.137,75,place,-0.120,-0.120,-0.120,0.000,0.000,0.000
1605136678820346112,10.0.1.137,46,place,-0.110,-0.110,-0.110,0.000,0.000,0.000
1605136679817019904,10.0.1.137,42,place,-0.100,-0.100,-0.100,0.000,0.000,0.000
1605136680852843008,10.0.1.137,73,place,-0.090,-0.090,-0.090,0.000,0.000,0.000
1605136681876544000,10.0.1.137,96,place,-0.080,-0.080,-0.080,0.000,0.000,0.000
1605136683844121856,10.0.1.137,49,place,-0.060,-0.060,-0.060,0.000,0.000,0.000
1605136684856276992,10.0.1.137,60,place,-0.050,-0.050,-0.050,0.000,0.000,0.000
1605136685846020096,10.0.1.137,44,place,-0.040,-0.040,-0.040,0.000,0.000,0.000
1605136688857964032,10.0.1.137,48,place,-0.010,-0.010,-0.010,0.000,0.000,0.000
1605136689861754880,10.0.1.137,51,place,0.000,0.000,0.000,0.000,0.000,0.000
1605136691503077120,10.0.1.137,691,move_down,-0.020,-0.020,-0.020,0.000,0.000,0.000
1605136693260747008,10.0.1.137,633,move_down,-0.040,-0.040,-0.040,0.000,0.000,0.000
1605136695200606208,10.0.1.137,806,move_down,-0.060,-0.060,-0.060,0.000,0.000,0.000
1605136696700678144,10.0.1.137,454,move_down,-0.080,-0.080,-0.080,0.000,0.000,0.000
1605136698209837824,10.0.1.137,484,move_down,-0.100,-0.100,-0.100,0.000,0.000,0.000
1605136699936819968,10.0.1.137,476,move_down,-0.120,-0.120,-0.120,0.000,0.000,0.000
1605136701492367872,10.0.1.137,459,move_down,-0.140,-0.140,-0.140,0.000,0.000,0.000
1605136703146249984,10.0.1.137,552,move_down,-0.160,-0.160,-0.160,0.000,0.000,0.000
1605136704863899904,10.0.1.137,589,move_down,-0.180,-0.180,-0.180,0.000,0.000,0.000
1605136706822530048,10.0.1.137,693,move_down,-0.200,-0.200,-0.200,0.000,0.000,0.000
1605136708475394048,10.0.1.137,619,move_down,-0.220,-0.220,-0.220,0.000,0.000,0.000
1605136710136281088,10.0.1.137,587,move_down,-0.240,-0.240,-0.240,0.000,0.000,0.000
1605136712379465984,10.0.1.137,1196,move_down,-0.260,-0.260,-0.260,0.000,0.000,0.000
1605136714373498880,10.0.1.137,820,move_down,-0.280,-0.280,-0.280,0.000,0.000,0.000
1605136716108314112,10.0.1.137,463,move_down,-0.300,-0.300,-0.300,0.000,0.000,0.000
1605136717788646912,10.0.1.137,592,move_down,-0.320,-0.320,-0.320,0.000,0.000,0.000
1605136719748350976,10.0.1.137,870,move_down,-0.340,-0.340,-0.340,0.000,0.000,0.000
1605136721409310208,10.0.1.137,607,move_down,-0.360,-0.360,-0.360,0.000,0.000,0.000
1605136723089011968,10.0.1.137,622,move_down,-0.380,-0.380,-0.380,0.000,0.000,0.000
1605136724808728832,10.0.1.137,585,move_down,-0.400,-0.400,-0.400,0.000,0.000,0.000
1605136726444683008,10.0.1.137,605,move_down,-0.420,-0.420,-0.420,0.000,0.000,0.000
1605136728103864832,10.0.1.137,567,move_down,-0.440,-0.440,-0.440,0.000,0.000,0.000
1605136729760937984,10.0.1.137,514,move_down,-0.460,-0.460,-0.460,0.000,0.000,0.000
1605136731607443200,10.0.1.137,699,move_down,-0.480,-0.480,-0.480,0.000,0.000,0.000
1605136733330365952,10.0.1.137,582,move_down,-0.500,-0.500,-0.500,0.000,0.000,0.000
1605136735187395072,10.0.1.137,754,move_down,-0.520,-0.520,-0.520,0.000,0.000,0.000
1605136737203838208,10.0.1.137,687,move_down,-0.540,-0.540,-0.540,0.000,0.000,0.000
1605136738867027968,10.0.1.137,579,move_down,-0.560,-0.560,-0.560,0.000,0.000,0.000
1605136740457830912,10.0.1.137,502,move_down,-0.580,-0.580,-0.580,0.000,0.000,0.000
1605136741802819840,10.0.1.137,61,pick,-0.590,-0.590,-0.590,0.000,0.000,0.000
1605136743823118848,10.0.1.137,79,pick,-0.610,-0.610,-0.610,0.000,0.000,0.000
1605136744832328192,10.0.1.137,87,pick,-0.620,-0.620,-0.620,0.000,0.000,0.000
1605136745812398080,10.0.1.137,58,pick,-0.630,-0.630,-0.630,0.000,0.000,0.000
1605136746807491072,10.0.1.137,49,pick,-0.640,-0.640,-0.640,0.000,0.000,0.000
1605136747842210048,10.0.1.137,61,pick,-0.650,-0.650,-0.650,0.000,0.000,0.000
1605136749840264192,10.0.1.137,56,pick,-0.670,-0.670,-0.670,0.000,0.000,0.000
1605136750832982016,10.0.1.137,42,pick,-0.680,-0.680,-0.680,0.000,0.000,0.000
1605136751828544000,10.0.1.137,37,pick,-0.690,-0.690,-0.690,0.000,0.000,0.000
1605136752843038976,10.0.1.137,48,pick,-0.700,-0.700,-0.700,0.000,0.000,0.000
1605136753863316992,10.0.1.137,63,pick,-0.710,-0.710,-0.710,0.000,0.000,0.000
1605136754847286016,10.0.1.137,42,pick,-0.720,-0.720,-0.720,0.000,0.000,0.000
1605136755860638976,10.0.1.137,54,pick,-0.730,-0.730,-0.730,0.000,0.000,0.000
1605136757870598912,10.0.1.137,49,pick,-0.750,-0.750,-0.750,0.000,0.000,0.000
1605136759879229184,10.0.1.137,51,pick,-0.770,-0.770,-0.770,0.000,0.000,0.000
1605136761595788032,10.0.1.137,766,move_up,-0.750,-0.750,-0.750,0.000,0.000,0.000
1605136763271319040,10.0.1.137,582,move_up,-0.730,-0.730,-0.730,0.000,0.000,0.000
1605136765040692992,10.0.1.137,583,move_up,-0.710,-0.710,-0.710,0.000,0.000,0.000
1605136766690145024,10.0.1.137,603,move_up,-0.690,-0.690,-0.690,0.000,0.000,0.000
1605136768378729216,10.0.1.137,523,move_up,-0.670,-0.670,-0.670,0.000,0.000,0.000
1605136770389251072,10.0.1.137,609,move_up,-0.650,-0.650,-0.650,0.000,0.000,0.000
1605136771974206976,10.0.1.137,511,move_up,-0.630,-0.630,-0.630,0.000,0.000,0.000
1605136773672158976,10.0.1.137,474,move_up,-0.610,-0.610,-0.610,0.000,0.000,0.000
1605136775368493056,10.0.1.137,588,move_up,-0.590,-0.590,-0.590,0.000,0.000,0.000
1605136777089984000,10.0.1.137,534,move_up,-0.570,-0.570,-0.570,0.000,0.000,0.000
1605136778755371008,10.0.1.137,561,move_up,-0.550,-0.550,-0.550,0.000,0.000,0.000
1605136780490494976,10.0.1.137,584,move_up,-0.530,-0.530,-0.530,0.000,0.000,0.000
1605136782149061888,10.0.1.137,485,move_up,-0.510,-0.510,-0.510,0.000,0.000,0.000
1605136783932622080,10.0.1.137,655,move_up,-0.490,-0.490,-0.490,0.000,0.000,0.000
1605136785564687872,10.0.1.137,629,move_up,-0.470,-0.470,-0.470,0.000,0.000,0.000
1605136787311045888,10.0.1.137,642,move_up,-0.450,-0.450,-0.450,0.000,0.000,0.000
1605136789291822080,10.0.1.137,872,move_up,-0.430,-0.430,-0.430,0.000,0.000,0.000
1605136791309600000,10.0.1.137,1030,move_up,-0.410,-0.410,-0.410,0.000,0.000,0.000
1605136793117934848,10.0.1.137,634,move_up,-0.390,-0.390,-0.390,0.000,0.000,0.000
1605136794920985856,10.0.1.137,600,move_up,-0.370,-0.370,-0.370,0.000,0.000,0.000
1605136796666060800,10.0.1.137,570,move_up,-0.350,-0.350,-0.350,0.000,0.000,0.000
1605136798421735168,10.0.1.137,602,move_up,-0.330,-0.330,-0.330,0.000,0.000,0.000
1605136800099710976,10.0.1.137,516,move_up,-0.310,-0.310,-0.310,0.000,0.000,0.000
1605136802110950912,10.0.1.137,798,move_up,-0.290,-0.290,-0.290,0.000,0.000,0.000
1605136804077021952,10.0.1.137,768,move_up,-0.270,-0.270,-0.270,0.000,0.000,0.000
1605136805856214016,10.0.1.137,515,move_up,-0.250,-0.250,-0.250,0.000,0.000,0.000
1605136807763704064,10.0.1.137,772,move_up,-0.230,-0.230,-0.230,0.000,0.000,0.000
1605136809433114880,10.0.1.137,520,move_up,-0.210,-0.210,-0.210,0.000,0.000,0.000
1605136811041884928,10.0.1.137,500,move_up,-0.190,-0.190,-0.190,0.000,0.000,0.000
1605136812178868992,10.0.1.137,33,place,-0.180,-0.180,-0.180,0.000,0.000,0.000
1605136814204293120,10.0.1.137,56,place,-0.160,-0.160,-0.160,0.000,0.000,0.000
1605136815194703104,10.0.1.137,46,place,-0.150,-0.150,-0.150,0.000,0.000,0.000
1605136817213136896,10.0.1.137,41,place,-0.130,-0.130,-0.130,0.000,0.000,0.000
1605136821240648960,10.0.1.137,42,place,-0.090,-0.090,-0.090,0.000,0.000,0.000
1605136822242758912,10.0.1.137,42,place,-0.080,-0.080,-0.080,0.000,0.000,0.000
1605136824296771072,10.0.1.137,93,place,-0.060,-0.060,-0.060,0.000,0.000,0.000
1605136827286430976,10.0.1.137,59,place,-0.030,-0.030,-0.030,0.000,0.000,0.000
1605136828309259008,10.0.1.137,73,place,-0.020,-0.020,-0.020,0.000,0.000,0.000
1605136829309299968,10.0.1.137,56,place,-0.010,-0.010,-0.010,0.000,0.000,0.000
1605136831721422848,10.0.1.137,457,move_down,-0.020,-0.020,-0.020,0.000,0.000,0.000
1605136833386766848,10.0.1.137,620,move_down,-0.040,-0.040,-0.040,0.000,0.000,0.000
1605136835346582784,10.0.1.137,911,move_down,-0.060,-0.060,-0.060,0.000,0.000,0.000
1605136837182811136,10.0.1.137,723,move_down,-0.080,-0.080,-0.080,0.000,0.000,0.000
1605136839035009024,10.0.1.137,729,move_down,-0.100,-0.100,-0.100,0.000,0.000,0.000
1605136840765808128,10.0.1.137,591,move_down,-0.120,-0.120,-0.120,0.000,0.000,0.000
1605136842486095872,10.0.1.137,665,move_down,-0.140,-0.140,-0.140,0.000,0.000,0.000
1605136844288824064,10.0.1.137,684,move_down,-0.160,-0.160,-0.160,0.000,0.000,0.000
1605136846007802880,10.0.1.137,530,move_down,-0.180,-0.180,-0.180,0.000,0.000,0.000
1605136847650699008,10.0.1.137,541,move_down,-0.200,-0.200,-0.200,0.000,0.000,0.000
1605136849497849856,10.0.1.137,797,move_down,-0.220,-0.220,-0.220,0.000,0.000,0.000
1605136851144561920,10.0.1.137,537,move_down,-0.240,-0.240,-0.240,0.000,0.000,0.000
1605136852988989184,10.0.1.137,554,move_down,-0.260,-0.260,-0.260,0.000,0.000,0.000
1605136854576227840,10.0.1.137,472,move_down,-0.280,-0.280,-0.280,0.000,0.000,0.000
1605136856204502016,10.0.1.137,578,move_down,-0.300,-0.300,-0.300,0.000,0.000,0.000
1605136857884891904,10.0.1.137,632,move_down,-0.320,-0.320,-0.320,0.000,0.000,0.000
1605136859538515200,10.0.1.137,586,move_down,-0.340,-0.340,-0.340,0.000,0.000,0.000
1605136861423993088,10.0.1.137,498,move_down,-0.360,-0.360,-0.360,0.000,0.000,0.000
1605136863129547008,10.0.1.137,612,move_down,-0.380,-0.380,-0.380,0.000,0.000,0.000
1605136864930743808,10.0.1.137,584,move_down,-0.400,-0.400,-0.400,0.000,0.000,0.000
1605136866641566976,10.0.1.137,608,move_down,-0.420,-0.420,-0.420,0.000,0.000,0.000
1605136868304655104,10.0.1.137,580,move_down,-0.440,-0.440,-0.440,0.000,0.000,0.000
1605136870212984064,10.0.1.137,591,move_down,-0.460,-0.460,-0.460,0.000,0.000,0.000
1605136871881520896,10.0.1.137,566,move_down,-0.480,-0.480,-0.480,0.000,0.000,0.000
1605136873713561088,10.0.1.137,681,move_down,-0.500,-0.500,-0.500,0.000,0.000,0.000
1605136875317795072,10.0.1.137,526,move_down,-0.520,-0.520,-0.520,0.000,0.000,0.000
1605136877265376000,10.0.1.137,756,move_down,-0.540,-0.540,-0.540,0.000,0.000,0.000
1605136878964669952,10.0.1.137,674,move_down,-0.560,-0.560,-0.560,0.000,0.000,0.000
1605136880627254016,10.0.1.137,449,move_down,-0.580,-0.580,-0.580,0.000,0.000,0.000
1605136881933955840,10.0.1.137,47,pick,-0.590,-0.590,-0.590,0.000,0.000,0.000
1605136882947348224,10.0.1.137,57,pick,-0.600,-0.600,-0.600,0.000,0.000,0.000
1605136883950789888,10.0.1.137,57,pick,-0.610,-0.610,-0.610,0.000,0.000,0.000
1605136884944506880,10.0.1.137,49,pick,-0.620,-0.620,-0.620,0.000,0.000,0.000
1605136885950404864,10.0.1.137,54,pick,-0.630,-0.630,-0.630,0.000,0.000,0.000
1605136886944197888,10.0.1.137,47,pick,-0.640,-0.640,-0.640,0.000,0.000,0.000
1605136887946436864,10.0.1.137,48,pick,-0.650,-0.650,-0.650,0.000,0.000,0.000
1605136888942838784,10.0.1.137,43,pick,-0.660,-0.660,-0.660,0.000,0.000,0.000
1605136889959340032,10.0.1.137,47,pick,-0.670,-0.670,-0.670,0.000,0.000,0.000
1605136892977443072,10.0.1.137,60,pick,-0.700,-0.700,-0.700,0.000,0.000,0.000
1605136893970434048,10.0.1.137,48,pick,-0.710,-0.710,-0.710,0.000,0.000,0.000
1605136894991465984,10.0.1.137,51,pick,-0.720,-0.720,-0.720,0.000,0.000,0.000
1605136896995329024,10.0.1.137,47,pick,-0.740,-0.740,-0.740,0.000,0.000,0.000
1605136897997011968,10.0.1.137,48,pick,-0.750,-0.750,-0.750,0.000,0.000,0.000
1605136899011009024,10.0.1.137,60,pick,-0.760,-0.760,-0.760,0.000,0.000,0.000
1605136899996359168,10.0.1.137,44,pick,-0.770,-0.770,-0.770,0.000,0.000,0.000
1605136901511096064,10.0.1.137,558,move_up,-0.750,-0.750,-0.750,0.000,0.000,0.000
1605136903243713024,10.0.1.137,546,move_up,-0.730,-0.730,-0.730,0.000,0.000,0.000
1605136905177561088,10.0.1.137,805,move_up,-0.710,-0.710,-0.710,0.000,0.000,0.000
1605136907095680000,10.0.1.137,832,move_up,-0.690,-0.690,-0.690,0.000,0.000,0.000
1605136908928239104,10.0.1.137,662,move_up,-0.670,-0.670,-0.670,0.000,0.000,0.000
1605136910637449984,10.0.1.137,636,move_up,-0.650,-0.650,-0.650,0.000,0.000,0.000
1605136912682908928,10.0.1.137,883,move_up,-0.630,-0.630,-0.630,0.000,0.000,0.000
1605136914312091136,10.0.1.137,580,move_up,-0.610,-0.610,-0.610,0.000,0.000,0.000
1605136915976069888,10.0.1.137,572,move_up,-0.590,-0.590,-0.590,0.000,0.000,0.000
1605136917769032960,10.0.1.137,628,move_up,-0.570,-0.570,-0.570,0.000,0.000,0.000
1605136919590033152,10.0.1.137,612,move_up,-0.550,-0.550,-0.550,0.000,0.000,0.000
1605136921696152832,10.0.1.137,862,move_up,-0.530,-0.530,-0.530,0.000,0.000,0.000
1605136923496987136,10.0.1.137,714,move_up,-0.510,-0.510,-0.510,0.000,0.000,0.000
1605136925275410944,10.0.1.137,713,move_up,-0.490,-0.490,-0.490,0.000,0.000,0.000
1605136927244556032,10.0.1.137,841,move_up,-0.470,-0.470,-0.470,0.000,0.000,0.000
1605136929042125056,10.0.1.137,649,move_up,-0.450,-0.450,-0.450,0.000,0.000,0.000
1605136930813287936,10.0.1.137,494,move_up,-0.430,-0.430,-0.430,0.000,0.000,0.000
1605136932471277056,10.0.1.137,559,move_up,-0.410,-0.410,-0.410,0.000,0.000,0.000
1605136934124960000,10.0.1.137,556,move_up,-0.390,-0.390,-0.390,0.000,0.000,0.000
1605136935797869056,10.0.1.137,486,move_up,-0.370,-0.370,-0.370,0.000,0.000,0.000
1605136937459866112,10.0.1.137,533,move_up,-0.350,-0.350,-0.350,0.000,0.000,0.000
1605136939544348928,10.0.1.137,1011,move_up,-0.330,-0.330,-0.330,0.000,0.000,0.000
1605136941478671104,10.0.1.137,714,move_up,-0.310,-0.310,-0.310,0.000,0.000,0.000
1605136943097085952,10.0.1.137,485,move_up,-0.290,-0.290,-0.290,0.000,0.000,0.000
1605136944883657984,10.0.1.137,712,move_up,-0.270,-0.270,-0.270,0.000,0.000,0.000
1605136946678967040,10.0.1.137,623,move_up,-0.250,-0.250,-0.250,0.000,0.000,0.000
1605136948255922944,10.0.1.137,512,move_up,-0.230,-0.230,-0.230,0.000,0.000,0.000
1605136950028779008,10.0.1.137,701,move_up,-0.210,-0.210,-0.210,0.000,0.000,0.000
1605136951788919808,10.0.1.137,653,move_up,-0.190,-0.190,-0.190,0.000,0.000,0.000
1605136952952569856,10.0.1.137,50,place,-0.180,-0.180,-0.180,0.000,0.000,0.000
1605136953958791936,10.0.1.137,52,place,-0.170,-0.170,-0.170,0.000,0.000,0.000
1605136954973281024,10.0.1.137,66,place,-0.160,-0.160,-0.160,0.000,0.000,0.000
1605136955958908160,10.0.1.137,51,place,-0.150,-0.150,-0.150,0.000,0.000,0.000
1605136956975023104,10.0.1.137,64,place,-0.140,-0.140,-0.140,0.000,0.000,0.000
1605136958970328064,10.0.1.137,50,place,-0.120,-0.120,-0.120,0.000,0.000,0.000
1605136959966770944,10.0.1.137,46,place,-0.110,-0.110,-0.110,0.000,0.000,0.000
1605136960993152000,10.0.1.137,70,place,-0.100,-0.100,-0.100,0.000,0.000,0.000
1605136961985409024,10.0.1.137,60,place,-0.090,-0.090,-0.090,0.000,0.000,0.000
1605136962999780864,10.0.1.137,73,place,-0.080,-0.080,-0.080,0.000,0.000,0.000
1605136966005712896,10.0.1.137,61,place,-0.050,-0.050,-0.050,0.000,0.000,0.000
1605136967059833088,10.0.1.137,105,place,-0.040,-0.040,-0.040,0.000,0.000,0.000
1605136968005733120,10.0.1.137,50,place,-0.030,-0.030,-0.030,0.000,0.000,0.000
1605136969006835968,10.0.1.137,47,place,-0.020,-0.020,-0.020,0.000,0.000,0.000
1605136970035206144,10.0.1.137,69,place,-0.010,-0.010,-0.010,0.000,0.000,0.000
1605136971078761984,10.0.1.137,100,place,0.000,0.000,0.000,0.000,0.000,0.000
1605136972649107968,10.0.1.137,669,move_down,-0.020,-0.020,-0.020,0.000,0.000,0.000
1605136974345084928,10.0.1.137,581,move_down,-0.040,-0.040,-0.040,0.000,0.000,0.000
1605136975815748864,10.0.1.137,479,move_down,-0.060,-0.060,-0.060,0.000,0.000,0.000
1605136977526844928,10.0.1.137,615,move_down,-0.080,-0.080,-0.080,0.000,0.000,0.000
1605136979136656128,10.0.1.137,541,move_down,-0.100,-0.100,-0.100,0.000,0.000,0.000
1605136980993037056,10.0.1.137,621,move_down,-0.120,-0.120,-0.120,0.000,0.000,0.000
1605136982908646144,10.0.1.137,616,move_down,-0.140,-0.140,-0.140,0.000,0.000,0.000
1605136984729600000,10.0.1.137,616,move_down,-0.160,-0.160,-0.160,0.000,0.000,0.000
1605136986544562944,10.0.1.137,533,move_down,-0.180,-0.180,-0.180,0.000,0.000,0.000
1605136988409032960,10.0.1.137,689,move_down,-0.200,-0.200,-0.200,0.000,0.000,0.000
1605136990150626048,10.0.1.137,707,move_down,-0.220,-0.220,-0.220,0.000,0.000,0.000
1605136991745913856,10.0.1.137,551,move_down,-0.240,-0.240,-0.240,0.000,0.000,0.000
1605136993721573120,10.0.1.137,921,move_down,-0.260,-0.260,-0.260,0.000,0.000,0.000
1605136995408704000,10.0.1.137,595,move_down,-0.280,-0.280,-0.280,0.000,0.000,0.000
1605136997035034880,10.0.1.137,612,move_down,-0.300,-0.300,-0.300,0.000,0.000,0.000
1605136998780911872,10.0.1.137,572,move_down,-0.320,-0.320,-0.320,0.000,0.000,0.000
1605137000435719936,10.0.1.137,552,move_down,-0.340,-0.340,-0.340,0.000,0.000,0.000
1605137002259571200,10.0.1.137,690,move_down,-0.360,-0.360,-0.360,0.000,0.000,0.000
1605137004434055936,10.0.1.137,867,move_down,-0.380,-0.380,-0.380,0.000,0.000,0.000
1605137006160509952,10.0.1.137,644,move_down,-0.400,-0.400,-0.400,0.000,0.000,0.000
1605137007779781120,10.0.1.137,550,move_down,-0.420,-0.420,-0.420,0.000,0.000,0.000
1605137009669363968,10.0.1.137,791,move_down,-0.440,-0.440,-0.440,0.000,0.000,0.000
1605137011537614080,10.0.1.137,734,move_down,-0.460,-0.460,-0.460,0.000,0.000,0.000
1605137013124600832,10.0.1.137,473,move_down,-0.480,-0.480,-0.480,0.000,0.000,0.000
1605137014839415040,10.0.1.137,534,move_down,-0.500,-0.500,-0.500,0.000,0.000,0.000
1605137016482753024,10.0.1.137,569,move_down,-0.520,-0.520,-0.520,0.000,0.000,0.000
1605137018139550976,10.0.1.137,576,move_down,-0.540,-0.540,-0.540,0.000,0.000,0.000
1605137019909868032,10.0.1.137,718,move_down,-0.560,-0.560,-0.560,0.000,0.000,0.000
1605137021610985984,10.0.1.137,605,move_down,-0.580,-0.580,-0.580,0.000,0.000,0.000
1605137022834373888,10.0.1.137,79,pick,-0.590,-0.590,-0.590,0.000,0.000,0.000
1605137023809814016,10.0.1.137,44,pick,-0.600,-0.600,-0.600,0.000,0.000,0.000
1605137025861052928,10.0.1.137,57,pick,-0.620,-0.620,-0.620,0.000,0.000,0.000
1605137026853307136,10.0.1.137,47,pick,-0.630,-0.630,-0.630,0.000,0.000,0.000
1605137027850939904,10.0.1.137,43,pick,-0.640,-0.640,-0.640,0.000,0.000,0.000
1605137028858023936,10.0.1.137,50,pick,-0.650,-0.650,-0.650,0.000,0.000,0.000
1605137029882297088,10.0.1.137,67,pick,-0.660,-0.660,-0.660,0.000,0.000,0.000
1605137030872720896,10.0.1.137,52,pick,-0.670,-0.670,-0.670,0.000,0.000,0.000
1605137031885252864,10.0.1.137,63,pick,-0.680,-0.680,-0.680,0.000,0.000,0.000
1605137032905992960,10.0.1.137,83,pick,-0.690,-0.690,-0.690,0.000,0.000,0.000
1605137033872282112,10.0.1.137,48,pick,-0.700,-0.700,-0.700,0.000,0.000,0.000
1605137034907983104,10.0.1.137,73,pick,-0.710,-0.710,-0.710,0.000,0.000,0.000
1605137035881094912,10.0.1.137,44,pick,-0.720,-0.720,-0.720,0.000,0.000,0.000
1605137036884326912,10.0.1.137,42,pick,-0.730,-0.730,-0.730,0.000,0.000,0.000
1605137038908441088,10.0.1.137,54,pick,-0.750,-0.750,-0.750,0.000,0.000,0.000
1605137039983387904,10.0.1.137,61,pick,-0.760,-0.760,-0.760,0.000,0.000,0.000
1605137040958380032,10.0.1.137,32,pick,-0.770,-0.770,-0.770,0.000,0.000,0.000
1605137042647790080,10.0.1.137,720,move_up,-0.750,-0.750,-0.750,0.000,0.000,0.000
1605137044761862912,10.0.1.137,969,move_up,-0.730,-0.730,-0.730,0.000,0.000,0.000
1605137046840198144,10.0.1.137,912,move_up,-0.710,-0.710,-0.710,0.000,0.000,0.000
1605137048621860096,10.0.1.137,725,move_up,-0.690,-0.690,-0.690,0.000,0.000,0.000
1605137050363084032,10.0.1.137,738,move_up,-0.670,-0.670,-0.670,0.000,0.000,0.000
1605137052121128960,10.0.1.137,678,move_up,-0.650,-0.650,-0.650,0.000,0.000,0.000
1605137054212413184,10.0.1.137,898,move_up,-0.630,-0.630,-0.630,0.000,0.000,0.000
1605137056416955904,10.0.1.137,841,move_up,-0.610,-0.610,-0.610,0.000,0.000,0.000
1605137058504546048,10.0.1.137,870,move_up,-0.590,-0.590,-0.590,0.000,0.000,0.000
1605137060487579136,10.0.1.137,882,move_up,-0.570,-0.570,-0.570,0.000,0.000,0.000
1605137062083673088,10.0.1.137,490,move_up,-0.550,-0.550,-0.550,0.000,0.000,0.000
1605137063758584064,10.0.1.137,538,move_up,-0.530,-0.530,-0.530,0.000,0.000,0.000
1605137065543351040,10.0.1.137,680,move_up,-0.510,-0.510,-0.510,0.000,0.000,0.000
1605137067148147968,10.0.1.137,584,move_up,-0.490,-0.490,-0.490,0.000,0.000,0.000
1605137068785326080,10.0.1.137,534,move_up,-0.470,-0.470,-0.470,0.000,0.000,0.000
1605137070329704960,10.0.1.137,498,move_up,-0.450,-0.450,-0.450,0.000,0.000,0.000
1605137072114095872,10.0.1.137,713,move_up,-0.430,-0.430,-0.430,0.000,0.000,0.000
1605137073951997952,10.0.1.137,766,move_up,-0.410,-0.410,-0.410,0.000,0.000,0.000
1605137076057534976,10.0.1.137,977,move_up,-0.390,-0.390,-0.390,0.000,0.000,0.000
1605137077874007040,10.0.1.137,609,move_up,-0.370,-0.370,-0.370,0.000,0.000,0.000
1605137079983072000,10.0.1.137,706,move_up,-0.350,-0.350,-0.350,0.000,0.000,0.000
1605137081720581888,10.0.1.137,620,move_up,-0.330,-0.330,-0.330,0.000,0.000,0.000
1605137083456823040,10.0.1.137,653,move_up,-0.310,-0.310,-0.310,0.000,0.000,0.000
1605137085405172992,10.0.1.137,862,move_up,-0.290,-0.290,-0.290,0.000,0.000,0.000
1605137087109149952,10.0.1.137,567,move_up,-0.270,-0.270,-0.270,0.000,0.000,0.000
1605137088984105216,10.0.1.137,766,move_up,-0.250,-0.250,-0.250,0.000,0.000,0.000
1605137090859833856,10.0.1.137,860,move_up,-0.230,-0.230,-0.230,0.000,0.000,0.000
1605137092806895104,10.0.1.137,903,move_up,-0.210,-0.210,-0.210,0.000,0.000,0.000
1605137094740880896,10.0.1.137,714,move_up,-0.190,-0.190,-0.190,0.000,0.000,0.000
1605137095872359936,10.0.1.137,54,place,-0.180,-0.180,-0.180,0.000,0.000,0.000
1605137096879812096,10.0.1.137,62,place,-0.170,-0.170,-0.170,0.000,0.000,0.000
1605137098874789888,10.0.1.137,52,place,-0.150,-0.150,-0.150,0.000,0.000,0.000
1605137100888360960,10.0.1.137,57,place,-0.130,-0.130,-0.130,0.000,0.000,0.000
1605137101893299200,10.0.1.137,54,place,-0.120,-0.120,-0.120,0.000,0.000,0.000
1605137103969293056,10.0.1.137,78,place,-0.100,-0.100,-0.100,0.000,0.000,0.000
1605137104967365120,10.0.1.137,73,place,-0.090,-0.090,-0.090,0.000,0.000,0.000
1605137106944267008,10.0.1.137,46,place,-0.070,-0.070,-0.070,0.000,0.000,0.000
1605137107958220032,10.0.1.137,57,place,-0.060,-0.060,-0.060,0.000,0.000,0.000
1605137108948087040,10.0.1.137,44,place,-0.050,-0.050,-0.050,0.000,0.000,0.000
1605137111981971968,10.0.1.137,53,place,-0.020,-0.020,-0.020,0.000,0.000,0.000
1605137112980848128,10.0.1.137,46,place,-0.010,-0.010,-0.010,0.000,0.000,0.000
1605137113989515008,10.0.1.137,53,place,0.000,0.000,0.000,0.000,0.000,0.000
1605137115607762944,10.0.1.137,668,move_down,-0.020,-0.020,-0.020,0.000,0.000,0.000
1605137117432656896,10.0.1.137,623,move_down,-0.040,-0.040,-0.040,0.000,0.000,0.000
1605137119333669888,10.0.1.137,792,move_down,-0.060,-0.060,-0.060,0.000,0.000,0.000
1605137121432466944,10.0.1.137,918,move_down,-0.080,-0.080,-0.080,0.000,0.000,0.000
1605137123172049152,10.0.1.137,711,move_down,-0.100,-0.100,-0.100,0.000,0.000,0.000
1605137124995671040,10.0.1.137,680,move_down,-0.120,-0.120,-0.120,0.000,0.000,0.000
1605137126601252096,10.0.1.137,562,move_down,-0.140,-0.140,-0.140,0.000,0.000,0.000
1605137128181366016,10.0.1.137,560,move_down,-0.160,-0.160,-0.160,0.000,0.000,0.000
1605137129928644864,10.0.1.137,643,move_down,-0.180,-0.180,-0.180,0.000,0.000,0.000
1605137131781757952,10.0.1.137,749,move_down,-0.200,-0.200,-0.200,0.000,0.000,0.000
1605137133740020992,10.0.1.137,681,move_down,-0.220,-0.220,-0.220,0.000,0.000,0.000
1605137135532864000,10.0.1.137,631,move_down,-0.240,-0.240,-0.240,0.000,0.000,0.000
1605137137218818048,10.0.1.137,538,move_down,-0.260,-0.260,-0.260,0.000,0.000,0.000
1605137139212140032,10.0.1.137,747,move_down,-0.280,-0.280,-0.280,0.000,0.000,0.000
1605137140882891008,10.0.1.137,532,move_down,-0.300,-0.300,-0.300,0.000,0.000,0.000
1605137142567467008,10.0.1.137,493,move_down,-0.320,-0.320,-0.320,0.000,0.000,0.000
1605137144395108096,10.0.1.137,512,move_down,-0.340,-0.340,-0.340,0.000,0.000,0.000
1605137146422684928,10.0.1.137,947,move_down,-0.360,-0.360,-0.360,0.000,0.000,0.000
1605137148144498176,10.0.1.137,637,move_down,-0.380,-0.380,-0.380,0.000,0.000,0.000
1605137149981616128,10.0.1.137,702,move_down,-0.400,-0.400,-0.400,0.000,0.000,0.000
1605137151753657088,10.0.1.137,682,move_down,-0.420,-0.420,-0.420,0.000,0.000,0.000
1605137153545214976,10.0.1.137,689,move_down,-0.440,-0.440,-0.440,0.000,0.000,0.000
1605137155355283968,10.0.1.137,611,move_down,-0.460,-0.460,-0.460,0.000,0.000,0.000
1605137157284326144,10.0.1.137,740,move_down,-0.480,-0.480,-0.480,0.000,0.000,0.000
1605137158938530048,10.0.1.137,544,move_down,-0.500,-0.500,-0.500,0.000,0.000,0.000
1605137160504168960,10.0.1.137,476,move_down,-0.520,-0.520,-0.520,0.000,0.000,0.000
1605137162426166016,10.0.1.137,735,move_down,-0.540,-0.540,-0.540,0.000,0.000,0.000
1605137164084260096,10.0.1.137,518,move_down,-0.560,-0.560,-0.560,0.000,0.000,0.000
1605137165921519104,10.0.1.137,753,move_down,-0.580,-0.580,-0.580,0.000,0.000,0.000
1605137167140815872,10.0.1.137,56,pick,-0.590,-0.590,-0.590,0.000,0.000,0.000
1605137168136585984,10.0.1.137,49,pick,-0.600,-0.600,-0.600,0.000,0.000,0.000
1605137170148317184,10.0.1.137,49,pick,-0.620,-0.620,-0.620,0.000,0.000,0.000
1605137171157286912,10.0.1.137,50,pick,-0.630,-0.630,-0.630,0.000,0.000,0.000
1605137173151906048,10.0.1.137,43,pick,-0.650,-0.650,-0.650,0.000,0.000,0.000
1605137174196430848,10.0.1.137,84,pick,-0.660,-0.660,-0.660,0.000,0.000,0.000
1605137175162388992,10.0.1.137,48,pick,-0.670,-0.670,-0.670,0.000,0.000,0.000
1605137176164413952,10.0.1.137,47,pick,-0.680,-0.680,-0.680,0.000,0.000,0.000
1605137179192220928,10.0.1.137,61,pick,-0.710,-0.710,-0.710,0.000,0.000,0.000
1605137181207910912,10.0.1.137,66,pick,-0.730,-0.730,-0.730,0.000,0.000,0.000
1605137183194729216,10.0.1.137,51,pick,-0.750,-0.750,-0.750,0.000,0.000,0.000
1605137184199346944,10.0.1.137,50,pick,-0.760,-0.760,-0.760,0.000,0.000,0.000
1605137185202619136,10.0.1.137,52,pick,-0.770,-0.770,-0.770,0.000,0.000,0.000
1605137186684300800,10.0.1.137,527,move_up,-0.750,-0.750,-0.750,0.000,0.000,0.000
1605137188294902016,10.0.1.137,502,move_up,-0.730,-0.730,-0.730,0.000,0.000,0.000
1605137190049773824,10.0.1.137,569,move_up,-0.710,-0.710,-0.710,0.000,0.000,0.000
1605137191751244032,10.0.1.137,592,move_up,-0.690,-0.690,-0.690,0.000,0.000,0.000
1605137193687240960,10.0.1.137,800,move_up,-0.670,-0.670,-0.670,0.000,0.000,0.000
1605137195545965824,10.0.1.137,782,move_up,-0.650,-0.650,-0.650,0.000,0.000,0.000
1605137197727327232,10.0.1.137,782,move_up,-0.630,-0.630,-0.630,0.000,0.000,0.000
1605137199441106944,10.0.1.137,650,move_up,-0.610,-0.610,-0.610,0.000,0.000,0.000
1605137201309494016,10.0.1.137,593,move_up,-0.590,-0.590,-0.590,0.000,0.000,0.000
1605137203174454016,10.0.1.137,742,move_up,-0.570,-0.570,-0.570,0.000,0.000,0.000
1605137205394382080,10.0.1.137,967,move_up,-0.550,-0.550,-0.550,0.000,0.000,0.000
1605137207078380032,10.0.1.137,601,move_up,-0.530,-0.530,-0.530,0.000,0.000,0.000
1605137208768142848,10.0.1.137,552,move_up,-0.510,-0.510,-0.510,0.000,0.000,0.000
1605137210634983168,10.0.1.137,659,move_up,-0.490,-0.490,-0.490,0.000,0.000,0.000
1605137212220158208,10.0.1.137,526,move_up,-0.470,-0.470,-0.470,0.000,0.000,0.000
1605137213868620032,10.0.1.137,573,move_up,-0.450,-0.450,-0.450,0.000,0.000,0.000
1605137215902309888,10.0.1.137,832,move_up,-0.430,-0.430,-0.430,0.000,0.000,0.000
1605137217667869952,10.0.1.137,634,move_up,-0.410,-0.410,-0.410,0.000,0.000,0.000
1605137219384560128,10.0.1.137,651,move_up,-0.390,-0.390,-0.390,0.000,0.000,0.000
1605137221442060032,10.0.1.137,929,move_up,-0.370,-0.370,-0.370,0.000,0.000,0.000
1605137223226126848,10.0.1.137,617,move_up,-0.350,-0.350,-0.350,0.000,0.000,0.000
1605137224961689856,10.0.1.137,587,move_up,-0.330,-0.330,-0.330,0.000,0.000,0.000
1605137226657111040,10.0.1.137,644,move_up,-0.310,-0.310,-0.310,0.000,0.000,0.000
1605137228222007040,10.0.1.137,486,move_up,-0.290,-0.290,-0.290,0.000,0.000,0.000
1605137230116015872,10.0.1.137,775,move_up,-0.270,-0.270,-0.270,0.000,0.000,0.000
1605137232103218944,10.0.1.137,553,move_up,-0.250,-0.250,-0.250,0.000,0.000,0.000
1605137233798173952,10.0.1.137,519,move_up,-0.230,-0.230,-0.230,0.000,0.000,0.000
1605137235508001024,10.0.1.137,555,move_up,-0.210,-0.210,-0.210,0.000,0.000,0.000
1605137237167022080,10.0.1.137,587,move_up,-0.190,-0.190,-0.190,0.000,0.000,0.000
1605137240361145856,10.0.1.137,64,place,-0.160,-0.160,-0.160,0.000,0.000,0.000
1605137241357146112,10.0.1.137,59,place,-0.150,-0.150,-0.150,0.000,0.000,0.000
1605137242356101888,10.0.1.137,49,place,-0.140,-0.140,-0.140,0.000,0.000,0.000
1605137243345876992,10.0.1.137,32,place,-0.130,-0.130,-0.130,0.000,0.000,0.000
1605137245412986880,10.0.1.137,76,place,-0.110,-0.110,-0.110,0.000,0.000,0.000
1605137246400043008,10.0.1.137,62,place,-0.100,-0.100,-0.100,0.000,0.000,0.000
1605137247402951936,10.0.1.137,41,place,-0.090,-0.090,-0.090,0.000,0.000,0.000
1605137248406099200,10.0.1.137,38,place,-0.080,-0.080,-0.080,0.000,0.000,0.000
1605137249463005184,10.0.1.137,85,place,-0.070,-0.070,-0.070,0.000,0.000,0.000
1605137250461719040,10.0.1.137,82,place,-0.060,-0.060,-0.060,0.000,0.000,0.000
1605137251464286208,10.0.1.137,83,place,-0.050,-0.050,-0.050,0.000,0.000,0.000
1605137252448878080,10.0.1.137,66,place,-0.040,-0.040,-0.040,0.000,0.000,0.000
1605137253437192960,10.0.1.137,51,place,-0.030,-0.030,-0.030,0.000,0.000,0.000
1605137254461570048,10.0.1.137,74,place,-0.020,-0.020,-0.020,0.000,0.000,0.000
1605137256443772928,10.0.1.137,52,place,0.000,0.000,0.000,0.000,0.000,0.000
1605137258113718016,10.0.1.137,721,move_down,-0.020,-0.020,-0.020,0.000,0.000,0.000
1605137260100590080,10.0.1.137,810,move_down,-0.040,-0.040,-0.040,0.000,0.000,0.000
1605137262098776064,10.0.1.137,700,move_down,-0.060,-0.060,-0.060,0.000,0.000,0.000
1605137263673100032,10.0.1.137,474,move_down,-0.080,-0.080,-0.080,0.000,0.000,0.000
1605137265563384064,10.0.1.137,789,move_down,-0.100,-0.100,-0.100,0.000,0.000,0.000
1605137267189511936,10.0.1.137,485,move_down,-0.120,-0.120,-0.120,0.000,0.000,0.000
1605137268878912000,10.0.1.137,616,move_down,-0.140,-0.140,-0.140,0.000,0.000,0.000
1605137270686959872,10.0.1.137,656,move_down,-0.160,-0.160,-0.160,0.000,0.000,0.000
1605137272461716992,10.0.1.137,641,move_down,-0.180,-0.180,-0.180,0.000,0.000,0.000
1605137274188452096,10.0.1.137,510,move_down,-0.200,-0.200,-0.200,0.000,0.000,0.000
1605137275787548928,10.0.1.137,549,move_down,-0.220,-0.220,-0.220,0.000,0.000,0.000
1605137277822539008,10.0.1.137,616,move_down,-0.240,-0.240,-0.240,0.000,0.000,0.000
1605137279407540992,10.0.1.137,499,move_down,-0.260,-0.260,-0.260,0.000,0.000,0.000
1605137281022627072,10.0.1.137,524,move_down,-0.280,-0.280,-0.280,0.000,0.000,0.000
1605137282662372096,10.0.1.137,569,move_down,-0.300,-0.300,-0.300,0.000,0.000,0.000
1605137284632950016,10.0.1.137,827,move_down,-0.320,-0.320,-0.320,0.000,0.000,0.000
1605137286272697856,10.0.1.137,495,move_down,-0.340,-0.340,-0.340,0.000,0.000,0.000
1605137288041842944,10.0.1.137,534,move_down,-0.360,-0.360,-0.360,0.000,0.000,0.000
1605137289863572992,10.0.1.137,731,move_down,-0.380,-0.380,-0.380,0.000,0.000,0.000
1605137291492700160,10.0.1.137,535,move_down,-0.400,-0.400,-0.400,0.000,0.000,0.000
1605137293350023936,10.0.1.137,687,move_down,-0.420,-0.420,-0.420,0.000,0.000,0.000
1605137295504448000,10.0.1.137,896,move_down,-0.440,-0.440,-0.440,0.000,0.000,0.000
1605137297143559936,10.0.1.137,529,move_down,-0.460,-0.460,-0.460,0.000,0.000,0.000
1605137298944345856,10.0.1.137,671,move_down,-0.480,-0.480,-0.480,0.000,0.000,0.000
1605137300569509120,10.0.1.137,533,move_down,-0.500,-0.500,-0.500,0.000,0.000,0.000
1605137302136858112,10.0.1.137,513,move_down,-0.520,-0.520,-0.520,0.000,0.000,0.000
1605137303775757056,10.0.1.137,538,move_down,-0.540,-0.540,-0.540,0.000,0.000,0.000
1605137305435625984,10.0.1.137,612,move_down,-0.560,-0.560,-0.560,0.000,0.000,0.000
1605137307233961984,10.0.1.137,600,move_down,-0.580,-0.580,-0.580,0.000,0.000,0.000
1605137309466350080,10.0.1.137,75,pick,-0.600,-0.600,-0.600,0.000,0.000,0.000
1605137310490331904,10.0.1.137,98,pick,-0.610,-0.610,-0.610,0.000,0.000,0.000
1605137311445468928,10.0.1.137,52,pick,-0.620,-0.620,-0.620,0.000,0.000,0.000
1605137312514319872,10.0.1.137,99,pick,-0.630,-0.630,-0.630,0.000,0.000,0.000
1605137313495453952,10.0.1.137,72,pick,-0.640,-0.640,-0.640,0.000,0.000,0.000
1605137314474778880,10.0.1.137,49,pick,-0.650,-0.650,-0.650,0.000,0.000,0.000
1605137315482643968,10.0.1.137,56,pick,-0.660,-0.660,-0.660,0.000,0.000,0.000
1605137316490354176,10.0.1.137,62,pick,-0.670,-0.670,-0.670,0.000,0.000,0.000
1605137317496356864,10.0.1.137,67,pick,-0.680,-0.680,-0.680,0.000,0.000,0.000
1605137318476824064,10.0.1.137,45,pick,-0.690,-0.690,-0.690,0.000,0.000,0.000
1605137319492400896,10.0.1.137,53,pick,-0.700,-0.700,-0.700,0.000,0.000,0.000
1605137320505139200,10.0.1.137,54,pick,-0.710,-0.710,-0.710,0.000,0.000,0.000
1605137321513750016,10.0.1.137,49,pick,-0.720,-0.720,-0.720,0.000,0.000,0.000
1605137322517038080,10.0.1.137,50,pick,-0.730,-0.730,-0.730,0.000,0.000,0.000
1605137323553544960,10.0.1.137,45,pick,-0.740,-0.740,-0.740,0.000,0.000,0.000
1605137324578507776,10.0.1.137,62,pick,-0.750,-0.750,-0.750,0.000,0.000,0.000
1605137326583332096,10.0.1.137,56,pick,-0.770,-0.770,-0.770,0.000,0.000,0.000
1605137328052686848,10.0.1.137,524,move_up,-0.750,-0.750,-0.750,0.000,0.000,0.000
1605137329875319040,10.0.1.137,741,move_up,-0.730,-0.730,-0.730,0.000,0.000,0.000
1605137331632241920,10.0.1.137,587,move_up,-0.710,-0.710,-0.710,0.000,0.000,0.000
1605137333546345984,10.0.1.137,809,move_up,-0.690,-0.690,-0.690,0.000,0.000,0.000
1605137335491465216,10.0.1.137,739,move_up,-0.670,-0.670,-0.670,0.000,0.000,0.000
1605137337370203904,10.0.1.137,649,move_up,-0.650,-0.650,-0.650,0.000,0.000,0.000
1605137339418308096,10.0.1.137,682,move_up,-0.630,-0.630,-0.630,0.000,0.000,0.000
1605137341077080064,10.0.1.137,600,move_up,-0.610,-0.610,-0.610,0.000,0.000,0.000
1605137342818372096,10.0.1.137,503,move_up,-0.590,-0.590,-0.590,0.000,0.000,0.000
1605137344486174208,10.0.1.137,520,move_up,-0.570,-0.570,-0.570,0.000,0.000,0.000
1605137346291068928,10.0.1.137,729,move_up,-0.550,-0.550,-0.550,0.000,0.000,0.000
1605137347888197888,10.0.1.137,555,move_up,-0.530,-0.530,-0.530,0.000,0.000,0.000
1605137349846193920,10.0.1.137,655,move_up,-0.510,-0.510,-0.510,0.000,0.000,0.000
1605137351882214912,10.0.1.137,854,move_up,-0.490,-0.490,-0.490,0.000,0.000,0.000
1605137353528642048,10.0.1.137,578,move_up,-0.470,-0.470,-0.470,0.000,0.000,0.000
1605137355318244864,10.0.1.137,664,move_up,-0.450,-0.450,-0.450,0.000,0.000,0.000
1605137356991590144,10.0.1.137,561,move_up,-0.430,-0.430,-0.430,0.000,0.000,0.000
1605137358917921024,10.0.1.137,581,move_up,-0.410,-0.410,-0.410,0.000,0.000,0.000
1605137360764059136,10.0.1.137,734,move_up,-0.390,-0.390,-0.390,0.000,0.000,0.000
1605137362506976000,10.0.1.137,710,move_up,-0.370,-0.370,-0.370,0.000,0.000,0.000
1605137364107933952,10.0.1.137,524,move_up,-0.350,-0.350,-0.350,0.000,0.000,0.000
1605137365860002048,10.0.1.137,696,move_up,-0.330,-0.330,-0.330,0.000,0.000,0.000
1605137367753117184,10.0.1.137,669,move_up,-0.310,-0.310,-0.310,0.000,0.000,0.000
1605137369511961856,10.0.1.137,686,move_up,-0.290,-0.290,-0.290,0.000,0.000,0.000
1605137371476509184,10.0.1.137,861,move_up,-0.270,-0.270,-0.270,0.000,0.000,0.000
1605137373110351104,10.0.1.137,516,move_up,-0.250,-0.250,-0.250,0.000,0.000,0.000
1605137374820835072,10.0.1.137,605,move_up,-0.230,-0.230,-0.230,0.000,0.000,0.000
1605137376833969152,10.0.1.137,691,move_up,-0.210,-0.210,-0.210,0.000,0.000,0.000
1605137378868390912,10.0.1.137,875,move_up,-0.190,-0.190,-0.190,0.000,0.000,0.000
1605137380014056960,10.0.1.137,49,place,-0.180,-0.180,-0.180,0.000,0.000,0.000
1605137381030135040,10.0.1.137,54,place,-0.170,-0.170,-0.170,0.000,0.000,0.000
1605137382045700096,10.0.1.137,62,place,-0.160,-0.160,-0.160,0.000,0.000,0.000
1605137383022937088,10.0.1.137,38,place,-0.150,-0.150,-0.150,0.000,0.000,0.000
1605137384038131968,10.0.1.137,52,place,-0.140,-0.140,-0.140,0.000,0.000,0.000
1605137385057914112,10.0.1.137,63,place,-0.130,-0.130,-0.130,0.000,0.000,0.000
1605137386052791040,10.0.1.137,45,place,-0.120,-0.120,-0.120,0.000,0.000,0.000
1605137387062750208,10.0.1.137,53,place,-0.110,-0.110,-0.110,0.000,0.000,0.000
1605137389066056960,10.0.1.137,44,place,-0.090,-0.090,-0.090,0.000,0.000,0.000
1605137390064184832,10.0.1.137,41,place,-0.080,-0.080,-0.080,0.000,0.000,0.000
1605137391057292032,10.0.1.137,31,place,-0.070,-0.070,-0.070,0.000,0.000,0.000
1605137392088936192,10.0.1.137,48,place,-0.060,-0.060,-0.060,0.000,0.000,0.000
1605137393086756864,10.0.1.137,45,place,-0.050,-0.050,-0.050,0.000,0.000,0.000
1605137394093150976,10.0.1.137,47,place,-0.040,-0.040,-0.040,0.000,0.000,0.000
1605137396109532160,10.0.1.137,55,place,-0.020,-0.020,-0.020,0.000,0.000,0.000
1605137399100208896,10.0.1.137,32,move_down,-0.020,-0.020,-0.020,0.000,0.000,0.000
1605137401141777152,10.0.1.137,549,move_down,-0.040,-0.040,-0.040,0.000,0.000,0.000
1605137403079596032,10.0.1.137,809,move_down,-0.060,-0.060,-0.060,0.000,0.000,0.000
1605137404928865024,10.0.1.137,674,move_down,-0.080,-0.080,-0.080,0.000,0.000,0.000
1605137406522598912,10.0.1.137,482,move_down,-0.100,-0.100,-0.100,0.000,0.000,0.000
1605137408607196160,10.0.1.137,994,move_down,-0.120,-0.120,-0.120,0.000,0.000,0.000
1605137410554706944,10.0.1.137,796,move_down,-0.140,-0.140,-0.140,0.000,0.000,0.000
1605137412374763008,10.0.1.137,626,move_down,-0.160,-0.160,-0.160,0.000,0.000,0.000
1605137414139550976,10.0.1.137,537,move_down,-0.180,-0.180,-0.180,0.000,0.000,0.000
1605137415757587968,10.0.1.137,547,move_down,-0.200,-0.200,-0.200,0.000,0.000,0.000
1605137417484549888,10.0.1.137,639,move_down,-0.220,-0.220,-0.220,0.000,0.000,0.000
1605137419227072000,10.0.1.137,679,move_down,-0.240,-0.240,-0.240,0.000,0.000,0.000
1605137421147631872,10.0.1.137,658,move_down,-0.260,-0.260,-0.260,0.000,0.000,0.000
1605137423115526912,10.0.1.137,810,move_down,-0.280,-0.280,-0.280,0.000,0.000,0.000
1605137424772710912,10.0.1.137,523,move_down,-0.300,-0.300,-0.300,0.000,0.000,0.000
1605137426556459776,10.0.1.137,697,move_down,-0.320,-0.320,-0.320,0.000,0.000,0.000
1605137428475891968,10.0.1.137,711,move_down,-0.340,-0.340,-0.340,0.000,0.000,0.000
1605137430018623232,10.0.1.137,512,move_down,-0.360,-0.360,-0.360,0.000,0.000,0.000
1605137431899063040,10.0.1.137,633,move_down,-0.380,-0.380,-0.380,0.000,0.000,0.000
1605137433872168192,10.0.1.137,832,move_down,-0.400,-0.400,-0.400,0.000,0.000,0.000
1605137435375866880,10.0.1.137,505,move_down,-0.420,-0.420,-0.420,0.000,0.000,0.000
1605137437021758976,10.0.1.137,557,move_down,-0.440,-0.440,-0.440,0.000,0.000,0.000
1605137438809679872,10.0.1.137,674,move_down,-0.460,-0.460,-0.460,0.000,0.000,0.000
1605137440820416000,10.0.1.137,682,move_down,-0.480,-0.480,-0.480,0.000,0.000,0.000
1605137442860444160,10.0.1.137,521,move_down,-0.500,-0.500,-0.500,0.000,0.000,0.000
1605137444652812032,10.0.1.137,750,move_down,-0.520,-0.520,-0.520,0.000,0.000,0.000
1605137446469199872,10.0.1.137,658,move_down,-0.540,-0.540,-0.540,0.000,0.000,0.000
1605137448392411904,10.0.1.137,564,move_down,-0.560,-0.560,-0.560,0.000,0.000,0.000
1605137450115612928,10.0.1.137,619,move_down,-0.580,-0.580,-0.580,0.000,0.000,0.000
1605137451416604160,10.0.1.137,56,pick,-0.590,-0.590,-0.590,0.000,0.000,0.000
1605137453446300928,10.0.1.137,82,pick,-0.610,-0.610,-0.610,0.000,0.000,0.000
1605137456457390080,10.0.1.137,57,pick,-0.640,-0.640,-0.640,0.000,0.000,0.000
1605137457495552000,10.0.1.137,91,pick,-0.650,-0.650,-0.650,0.000,0.000,0.000
1605137458494441984,10.0.1.137,88,pick,-0.660,-0.660,-0.660,0.000,0.000,0.000
1605137460483563008,10.0.1.137,53,pick,-0.680,-0.680,-0.680,0.000,0.000,0.000
1605137461487771136,10.0.1.137,53,pick,-0.690,-0.690,-0.690,0.000,0.000,0.000
1605137463538480128,10.0.1.137,58,pick,-0.710,-0.710,-0.710,0.000,0.000,0.000
1605137465538196992,10.0.1.137,42,pick,-0.730,-0.730,-0.730,0.000,0.000,0.000
1605137466526566144,10.0.1.137,29,pick,-0.740,-0.740,-0.740,0.000,0.000,0.000
1605137468558640128,10.0.1.137,58,pick,-0.760,-0.760,-0.760,0.000,0.000,0.000
1605137469555365120,10.0.1.137,54,pick,-0.770,-0.770,-0.770,0.000,0.000,0.000
1605137471115316992,10.0.1.137,612,move_up,-0.750,-0.750,-0.750,0.000,0.000,0.000
1605137472856809984,10.0.1.137,625,move_up,-0.730,-0.730,-0.730,0.000,0.000,0.000
1605137474572870912,10.0.1.137,609,move_up,-0.710,-0.710,-0.710,0.000,0.000,0.000
1605137476265743872,10.0.1.137,543,move_up,-0.690,-0.690,-0.690,0.000,0.000,0.000
1605137478248840192,10.0.1.137,749,move_up,-0.670,-0.670,-0.670,0.000,0.000,0.000
1605137480085676032,10.0.1.137,736,move_up,-0.650,-0.650,-0.650,0.000,0.000,0.000
1605137481861033984,10.0.1.137,569,move_up,-0.630,-0.630,-0.630,0.000,0.000,0.000
1605137483899364864,10.0.1.137,841,move_up,-0.610,-0.610,-0.610,0.000,0.000,0.000
1605137485838382080,10.0.1.137,767,move_up,-0.590,-0.590,-0.590,0.000,0.000,0.000
1605137487743798016,10.0.1.137,738,move_up,-0.570,-0.570,-0.570,0.000,0.000,0.000
1605137489685403136,10.0.1.137,771,move_up,-0.550,-0.550,-0.550,0.000,0.000,0.000
1605137491506043904,10.0.1.137,728,move_up,-0.530,-0.530,-0.530,0.000,0.000,0.000
1605137493536022016,10.0.1.137,743,move_up,-0.510,-0.510,-0.510,0.000,0.000,0.000
1605137495159373056,10.0.1.137,518,move_up,-0.490,-0.490,-0.490,0.000,0.000,0.000
1605137496828099840,10.0.1.137,599,move_up,-0.470,-0.470,-0.470,0.000,0.000,0.000
1605137498458139904,10.0.1.137,482,move_up,-0.450,-0.450,-0.450,0.000,0.000,0.000
1605137500250385152,10.0.1.137,540,move_up,-0.430,-0.430,-0.430,0.000,0.000,0.000
1605137502213399808,10.0.1.137,893,move_up,-0.410,-0.410,-0.410,0.000,0.000,0.000
1605137504008615936,10.0.1.137,597,move_up,-0.390,-0.390,-0.390,0.000,0.000,0.000
1605137506087974912,10.0.1.137,687,move_up,-0.370,-0.370,-0.370,0.000,0.000,0.000
1605137507677163008,10.0.1.137,493,move_up,-0.350,-0.350,-0.350,0.000,0.000,0.000
1605137509509100800,10.0.1.137,521,move_up,-0.330,-0.330,-0.330,0.000,0.000,0.000
1605137511376302080,10.0.1.137,584,move_up,-0.310,-0.310,-0.310,0.000,0.000,0.000
1605137513155410944,10.0.1.137,585,move_up,-0.290,-0.290,-0.290,0.000,0.000,0.000
1605137515386742016,10.0.1.137,811,move_up,-0.270,-0.270,-0.270,0.000,0.000,0.000
1605137517117809152,10.0.1.137,581,move_up,-0.250,-0.250,-0.250,0.000,0.000,0.000
1605137518758979072,10.0.1.137,520,move_up,-0.230,-0.230,-0.230,0.000,0.000,0.000
1605137520438277888,10.0.1.137,584,move_up,-0.210,-0.210,-0.210,0.000,0.000,0.000
1605137522350946048,10.0.1.137,785,move_up,-0.190,-0.190,-0.190,0.000,0.000,0.000
1605137523435378176,10.0.1.137,55,place,-0.180,-0.180,-0.180,0.000,0.000,0.000
1605137524430764032,10.0.1.137,40,place,-0.170,-0.170,-0.170,0.000,0.000,0.000
1605137525475041024,10.0.1.137,83,place,-0.160,-0.160,-0.160,0.000,0.000,0.000
1605137526460557056,10.0.1.137,64,place,-0.150,-0.150,-0.150,0.000,0.000,0.000
1605137527482094080,10.0.1.137,83,place,-0.140,-0.140,-0.140,0.000,0.000,0.000
1605137528451281152,10.0.1.137,51,place,-0.130,-0.130,-0.130,0.000,0.000,0.000
1605137529508817920,10.0.1.137,108,place,-0.120,-0.120,-0.120,0.000,0.000,0.000
1605137530478960896,10.0.1.137,78,place,-0.110,-0.110,-0.110,0.000,0.000,0.000
1605137531487926016,10.0.1.137,76,place,-0.100,-0.100,-0.100,0.000,0.000,0.000
1605137534478821120,10.0.1.137,46,place,-0.070,-0.070,-0.070,0.000,0.000,0.000
1605137535504910848,10.0.1.137,53,place,-0.060,-0.060,-0.060,0.000,0.000,0.000
1605137536545243136,10.0.1.137,58,place,-0.050,-0.050,-0.050,0.000,0.000,0.000
1605137537534132992,10.0.1.137,42,place,-0.040,-0.040,-0.040,0.000,0.000,0.000
1605137538555003904,10.0.1.137,44,place,-0.030,-0.030,-0.030,0.000,0.000,0.000
1605137539648119808,10.0.1.137,45,place,-0.020,-0.020,-0.020,0.000,0.000,0.000
1605137540673711104,10.0.1.137,62,place,-0.010,-0.010,-0.010,0.000,0.000,0.000
1605137541655832064,10.0.1.137,44,place,0.000,0.000,0.000,0.000,0.000,0.000
1605137543242796032,10.0.1.137,630,move_down,-0.020,-0.020,-0.020,0.000,0.000,0.000
1605137544978717952,10.0.1.137,540,move_down,-0.040,-0.040,-0.040,0.000,0.000,0.000
1605137546936980992,10.0.1.137,745,move_down,-0.060,-0.060,-0.060,0.000,0.000,0.000
1605137548545001984,10.0.1.137,512,move_down,-0.080,-0.080,-0.080,0.000,0.000,0.000
1605137550326057984,10.0.1.137,596,move_down,-0.100,-0.100,-0.100,0.000,0.000,0.000
1605137551974868992,10.0.1.137,495,move_down,-0.120,-0.120,-0.120,0.000,0.000,0.000
1605137553733441024,10.0.1.137,604,move_down,-0.140,-0.140,-0.140,0.000,0.000,0.000
1605137555469619968,10.0.1.137,585,move_down,-0.160,-0.160,-0.160,0.000,0.000,0.000
1605137557454668032,10.0.1.137,908,move_down,-0.180,-0.180,-0.180,0.000,0.000,0.000
1605137559195997952,10.0.1.137,557,move_down,-0.200,-0.200,-0.200,0.000,0.000,0.000
1605137560771771904,10.0.1.137,548,move_down,-0.220,-0.220,-0.220,0.000,0.000,0.000
1605137562544020992,10.0.1.137,693,move_down,-0.240,-0.240,-0.240,0.000,0.000,0.000
1605137564204935168,10.0.1.137,657,move_down,-0.260,-0.260,-0.260,0.000,0.000,0.000
1605137566242903040,10.0.1.137,922,move_down,-0.280,-0.280,-0.280,0.000,0.000,0.000
1605137567964119808,10.0.1.137,600,move_down,-0.300,-0.300,-0.300,0.000,0.000,0.000
1605137569624697088,10.0.1.137,599,move_down,-0.320,-0.320,-0.320,0.000,0.000,0.000
1605137571289577984,10.0.1.137,502,move_down,-0.340,-0.340,-0.340,0.000,0.000,0.000
1605137573172014848,10.0.1.137,759,move_down,-0.360,-0.360,-0.360,0.000,0.000,0.000
1605137574841889024,10.0.1.137,588,move_down,-0.380,-0.380,-0.380,0.000,0.000,0.000
1605137576519414784,10.0.1.137,497,move_down,-0.400,-0.400,-0.400,0.000,0.000,0.000
1605137578110519040,10.0.1.137,514,move_down,-0.420,-0.420,-0.420,0.000,0.000,0.000
1605137579806093824,10.0.1.137,548,move_down,-0.440,-0.440,-0.440,0.000,0.000,0.000
1605137581679881216,10.0.1.137,696,move_down,-0.460,-0.460,-0.460,0.000,0.000,0.000
1605137583335008000,10.0.1.137,580,move_down,-0.480,-0.480,-0.480,0.000,0.000,0.000
1605137585457349120,10.0.1.137,999,move_down,-0.500,-0.500,-0.500,0.000,0.000,0.000
1605137587633869056,10.0.1.137,952,move_down,-0.520,-0.520,-0.520,0.000,0.000,0.000
1605137590190701056,10.0.1.137,1135,move_down,-0.540,-0.540,-0.540,0.000,0.000,0.000
1605137592213388800,10.0.1.137,933,move_down,-0.560,-0.560,-0.560,0.000,0.000,0.000
1605137594075218944,10.0.1.137,551,move_down,-0.580,-0.580,-0.580,0.000,0.000,0.000
1605137596251672064,10.0.1.137,43,pick,-0.600,-0.600,-0.600,0.000,0.000,0.000
1605137599293519872,10.0.1.137,74,pick,-0.630,-0.630,-0.630,0.000,0.000,0.000
1605137600308283136,10.0.1.137,83,pick,-0.640,-0.640,-0.640,0.000,0.000,0.000
1605137601267792896,10.0.1.137,40,pick,-0.650,-0.650,-0.650,0.000,0.000,0.000
1605137602277262080,10.0.1.137,49,pick,-0.660,-0.660,-0.660,0.000,0.000,0.000
1605137603287858944,10.0.1.137,58,pick,-0.670,-0.670,-0.670,0.000,0.000,0.000
1605137605331234048,10.0.1.137,81,pick,-0.690,-0.690,-0.690,0.000,0.000,0.000
1605137606312248064,10.0.1.137,60,pick,-0.700,-0.700,-0.700,0.000,0.000,0.000
1605137607294606080,10.0.1.137,38,pick,-0.710,-0.710,-0.710,0.000,0.000,0.000
1605137608342578944,10.0.1.137,68,pick,-0.720,-0.720,-0.720,0.000,0.000,0.000
1605137609329519872,10.0.1.137,51,pick,-0.730,-0.730,-0.730,0.000,0.000,0.000
1605137610330020864,10.0.1.137,50,pick,-0.740,-0.740,-0.740,0.000,0.000,0.000
1605137612397217024,10.0.1.137,81,pick,-0.760,-0.760,-0.760,0.000,0.000,0.000
1605137613371222016,10.0.1.137,43,pick,-0.770,-0.770,-0.770,0.000,0.000,0.000
1605137614931399168,10.0.1.137,591,move_up,-0.750,-0.750,-0.750,0.000,0.000,0.000
1605137616540177152,10.0.1.137,528,move_up,-0.730,-0.730,-0.730,0.000,0.000,0.000
1605137618322163968,10.0.1.137,731,move_up,-0.710,-0.710,-0.710,0.000,0.000,0.000
1605137620032270080,10.0.1.137,656,move_up,-0.690,-0.690,-0.690,0.000,0.000,0.000
1605137621762712064,10.0.1.137,520,move_up,-0.670,-0.670,-0.670,0.000,0.000,0.000
1605137623788072192,10.0.1.137,653,move_up,-0.650,-0.650,-0.650,0.000,0.000,0.000
1605137625525053952,10.0.1.137,594,move_up,-0.630,-0.630,-0.630,0.000,0.000,0.000
1605137627294616064,10.0.1.137,637,move_up,-0.610,-0.610,-0.610,0.000,0.000,0.000
