milangroshev/digital-twin-scalability/logs/run2-3600s/10.0.1.140.csv
timestamp,node,latency,action,joint_1,joint_2,joint_3,joint_4,joint_5,joint_6
1605139384950472192,10.0.1.140,2015,,0.000,0.000,0.000,0.000,0.000,0.000
1605139394073123840,10.0.1.140,2713,move_down,-0.060,-0.060,-0.060,0.000,0.000,0.000
1605139395798720000,10.0.1.140,542,move_down,-0.080,-0.080,-0.080,0.000,0.000,0.000
1605139397531485184,10.0.1.140,661,move_down,-0.100,-0.100,-0.100,0.000,0.000,0.000
1605139399611154944,10.0.1.140,959,move_down,-0.120,-0.120,-0.120,0.000,0.000,0.000
1605139401733767936,10.0.1.140,1066,move_down,-0.140,-0.140,-0.140,0.000,0.000,0.000
1605139403522862848,10.0.1.140,725,move_down,-0.160,-0.160,-0.160,0.000,0.000,0.000
1605139405476248064,10.0.1.140,718,move_down,-0.180,-0.180,-0.180,0.000,0.000,0.000
1605139407171108864,10.0.1.140,667,move_down,-0.200,-0.200,-0.200,0.000,0.000,0.000
1605139408960145920,10.0.1.140,709,move_down,-0.220,-0.220,-0.220,0.000,0.000,0.000
1605139411201796096,10.0.1.140,1187,move_down,-0.240,-0.240,-0.240,0.000,0.000,0.000
1605139412919070976,10.0.1.140,643,move_down,-0.260,-0.260,-0.260,0.000,0.000,0.000
1605139414888462080,10.0.1.140,845,move_down,-0.280,-0.280,-0.280,0.000,0.000,0.000
1605139417156209920,10.0.1.140,878,move_down,-0.300,-0.300,-0.300,0.000,0.000,0.000
1605139418903156992,10.0.1.140,585,move_down,-0.320,-0.320,-0.320,0.000,0.000,0.000
1605139420547815936,10.0.1.140,532,move_down,-0.340,-0.340,-0.340,0.000,0.000,0.000
1605139422598885888,10.0.1.140,930,move_down,-0.360,-0.360,-0.360,0.000,0.000,0.000
1605139425182745088,10.0.1.140,1170,move_down,-0.380,-0.380,-0.380,0.000,0.000,0.000
1605139426942846976,10.0.1.140,532,move_down,-0.400,-0.400,-0.400,0.000,0.000,0.000
1605139428738348032,10.0.1.140,711,move_down,-0.420,-0.420,-0.420,0.000,0.000,0.000
1605139430551649024,10.0.1.140,642,move_down,-0.440,-0.440,-0.440,0.000,0.000,0.000
1605139432515055872,10.0.1.140,842,move_down,-0.460,-0.460,-0.460,0.000,0.000,0.000
1605139434467591168,10.0.1.140,852,move_down,-0.480,-0.480,-0.480,0.000,0.000,0.000
1605139436321628160,10.0.1.140,720,move_down,-0.500,-0.500,-0.500,0.000,0.000,0.000
1605139438236759808,10.0.1.140,794,move_down,-0.520,-0.520,-0.520,0.000,0.000,0.000
1605139440355886848,10.0.1.140,858,move_down,-0.540,-0.540,-0.540,0.000,0.000,0.000
1605139442212888832,10.0.1.140,592,move_down,-0.560,-0.560,-0.560,0.000,0.000,0.000
1605139444369543936,10.0.1.140,1077,move_down,-0.580,-0.580,-0.580,0.000,0.000,0.000
1605139446177726976,10.0.1.140,676,move_down,-0.600,-0.600,-0.600,0.000,0.000,0.000
1605139448228296960,10.0.1.140,864,move_down,-0.620,-0.620,-0.620,0.000,0.000,0.000
1605139449512835072,10.0.1.140,68,pick,-0.630,-0.630,-0.630,0.000,0.000,0.000
1605139453575824128,10.0.1.140,125,pick,-0.670,-0.670,-0.670,0.000,0.000,0.000
1605139456493608960,10.0.1.140,38,pick,-0.700,-0.700,-0.700,0.000,0.000,0.000
1605139457508073984,10.0.1.140,52,pick,-0.710,-0.710,-0.710,0.000,0.000,0.000
1605139460510798080,10.0.1.140,49,pick,-0.740,-0.740,-0.740,0.000,0.000,0.000
1605139461510961152,10.0.1.140,43,pick,-0.750,-0.750,-0.750,0.000,0.000,0.000
1605139462519067904,10.0.1.140,50,pick,-0.760,-0.760,-0.760,0.000,0.000,0.000
1605139464507981056,10.0.1.140,32,pick,-0.780,-0.780,-0.780,0.000,0.000,0.000
1605139465511233024,10.0.1.140,34,pick,-0.790,-0.790,-0.790,0.000,0.000,0.000
1605139466529198848,10.0.1.140,49,pick,-0.800,-0.800,-0.800,0.000,0.000,0.000
1605139467532233984,10.0.1.140,50,pick,-0.810,-0.810,-0.810,0.000,0.000,0.000
1605139469121038848,10.0.1.140,638,move_up,-0.790,-0.790,-0.790,0.000,0.000,0.000
1605139470958461952,10.0.1.140,562,move_up,-0.770,-0.770,-0.770,0.000,0.000,0.000
1605139472821278976,10.0.1.140,766,move_up,-0.750,-0.750,-0.750,0.000,0.000,0.000
1605139474578323968,10.0.1.140,623,move_up,-0.730,-0.730,-0.730,0.000,0.000,0.000
1605139476604325120,10.0.1.140,612,move_up,-0.710,-0.710,-0.710,0.000,0.000,0.000
1605139478431372800,10.0.1.140,673,move_up,-0.690,-0.690,-0.690,0.000,0.000,0.000
1605139480016621056,10.0.1.140,532,move_up,-0.670,-0.670,-0.670,0.000,0.000,0.000
1605139481858464000,10.0.1.140,734,move_up,-0.650,-0.650,-0.650,0.000,0.000,0.000
1605139483589072896,10.0.1.140,691,move_up,-0.630,-0.630,-0.630,0.000,0.000,0.000
1605139485369522944,10.0.1.140,635,move_up,-0.610,-0.610,-0.610,0.000,0.000,0.000
1605139487066683904,10.0.1.140,696,move_up,-0.590,-0.590,-0.590,0.000,0.000,0.000
1605139488820205824,10.0.1.140,583,move_up,-0.570,-0.570,-0.570,0.000,0.000,0.000
1605139490688457984,10.0.1.140,800,move_up,-0.550,-0.550,-0.550,0.000,0.000,0.000
1605139492339984896,10.0.1.140,640,move_up,-0.530,-0.530,-0.530,0.000,0.000,0.000
1605139494040476928,10.0.1.140,624,move_up,-0.510,-0.510,-0.510,0.000,0.000,0.000
1605139495995390976,10.0.1.140,644,move_up,-0.490,-0.490,-0.490,0.000,0.000,0.000
1605139497801280000,10.0.1.140,816,move_up,-0.470,-0.470,-0.470,0.000,0.000,0.000
1605139499491645952,10.0.1.140,595,move_up,-0.450,-0.450,-0.450,0.000,0.000,0.000
1605139501310486016,10.0.1.140,738,move_up,-0.430,-0.430,-0.430,0.000,0.000,0.000
1605139503348561920,10.0.1.140,968,move_up,-0.410,-0.410,-0.410,0.000,0.000,0.000
1605139505072623104,10.0.1.140,722,move_up,-0.390,-0.390,-0.390,0.000,0.000,0.000
1605139506946456832,10.0.1.140,829,move_up,-0.370,-0.370,-0.370,0.000,0.000,0.000
1605139508611824896,10.0.1.140,600,move_up,-0.350,-0.350,-0.350,0.000,0.000,0.000
1605139511097379840,10.0.1.140,1385,move_up,-0.330,-0.330,-0.330,0.000,0.000,0.000
1605139513169693952,10.0.1.140,977,move_up,-0.310,-0.310,-0.310,0.000,0.000,0.000
1605139514958313984,10.0.1.140,543,move_up,-0.290,-0.290,-0.290,0.000,0.000,0.000
1605139516736498944,10.0.1.140,744,move_up,-0.270,-0.270,-0.270,0.000,0.000,0.000
1605139518423247104,10.0.1.140,643,move_up,-0.250,-0.250,-0.250,0.000,0.000,0.000
1605139520759030016,10.0.1.140,1141,move_up,-0.230,-0.230,-0.230,0.000,0.000,0.000
1605139521859756032,10.0.1.140,64,place,-0.220,-0.220,-0.220,0.000,0.000,0.000
1605139522867289088,10.0.1.140,66,place,-0.210,-0.210,-0.210,0.000,0.000,0.000
1605139523848162816,10.0.1.140,45,place,-0.200,-0.200,-0.200,0.000,0.000,0.000
1605139524844306944,10.0.1.140,40,place,-0.190,-0.190,-0.190,0.000,0.000,0.000
1605139525853185024,10.0.1.140,47,place,-0.180,-0.180,-0.180,0.000,0.000,0.000
1605139526866417920,10.0.1.140,55,place,-0.170,-0.170,-0.170,0.000,0.000,0.000
1605139527855639040,10.0.1.140,44,place,-0.160,-0.160,-0.160,0.000,0.000,0.000
1605139529862505984,10.0.1.140,40,place,-0.140,-0.140,-0.140,0.000,0.000,0.000
1605139530881995008,10.0.1.140,55,place,-0.130,-0.130,-0.130,0.000,0.000,0.000
1605139533873125120,10.0.1.140,41,place,-0.100,-0.100,-0.100,0.000,0.000,0.000
1605139534885630976,10.0.1.140,52,place,-0.090,-0.090,-0.090,0.000,0.000,0.000
1605139535891404032,10.0.1.140,57,place,-0.080,-0.080,-0.080,0.000,0.000,0.000
1605139536883364864,10.0.1.140,48,place,-0.070,-0.070,-0.070,0.000,0.000,0.000
1605139537901664000,10.0.1.140,61,place,-0.060,-0.060,-0.060,0.000,0.000,0.000
1605139538907342080,10.0.1.140,63,place,-0.050,-0.050,-0.050,0.000,0.000,0.000
1605139539889300992,10.0.1.140,40,place,-0.040,-0.040,-0.040,0.000,0.000,0.000
1605139541905133056,10.0.1.140,1054,move_down,-0.060,-0.060,-0.060,0.000,0.000,0.000
1605139544204744192,10.0.1.140,1158,move_down,-0.080,-0.080,-0.080,0.000,0.000,0.000
1605139545903979008,10.0.1.140,558,move_down,-0.100,-0.100,-0.100,0.000,0.000,0.000
1605139547706653184,10.0.1.140,646,move_down,-0.120,-0.120,-0.120,0.000,0.000,0.000
1605139550067136000,10.0.1.140,1078,move_down,-0.140,-0.140,-0.140,0.000,0.000,0.000
1605139551714977024,10.0.1.140,508,move_down,-0.160,-0.160,-0.160,0.000,0.000,0.000
1605139553370649088,10.0.1.140,526,move_down,-0.180,-0.180,-0.180,0.000,0.000,0.000
1605139555948003072,10.0.1.140,902,move_down,-0.200,-0.200,-0.200,0.000,0.000,0.000
1605139557816636928,10.0.1.140,791,move_down,-0.220,-0.220,-0.220,0.000,0.000,0.000
1605139559610057216,10.0.1.140,761,move_down,-0.240,-0.240,-0.240,0.000,0.000,0.000
1605139561415954944,10.0.1.140,722,move_down,-0.260,-0.260,-0.260,0.000,0.000,0.000
1605139563090127104,10.0.1.140,620,move_down,-0.280,-0.280,-0.280,0.000,0.000,0.000
1605139564925974016,10.0.1.140,795,move_down,-0.300,-0.300,-0.300,0.000,0.000,0.000
1605139566792929792,10.0.1.140,667,move_down,-0.320,-0.320,-0.320,0.000,0.000,0.000
1605139568663232000,10.0.1.140,515,move_down,-0.340,-0.340,-0.340,0.000,0.000,0.000
1605139570473133056,10.0.1.140,697,move_down,-0.360,-0.360,-0.360,0.000,0.000,0.000
1605139572198712064,10.0.1.140,678,move_down,-0.380,-0.380,-0.380,0.000,0.000,0.000
1605139574040339968,10.0.1.140,785,move_down,-0.400,-0.400,-0.400,0.000,0.000,0.000
1605139575723858176,10.0.1.140,597,move_down,-0.420,-0.420,-0.420,0.000,0.000,0.000
1605139577661158144,10.0.1.140,551,move_down,-0.440,-0.440,-0.440,0.000,0.000,0.000
1605139579737063936,10.0.1.140,955,move_down,-0.460,-0.460,-0.460,0.000,0.000,0.000
1605139581440689920,10.0.1.140,627,move_down,-0.480,-0.480,-0.480,0.000,0.000,0.000
1605139583106030080,10.0.1.140,610,move_down,-0.500,-0.500,-0.500,0.000,0.000,0.000
1605139584670361088,10.0.1.140,456,move_down,-0.520,-0.520,-0.520,0.000,0.000,0.000
1605139586404713984,10.0.1.140,583,move_down,-0.540,-0.540,-0.540,0.000,0.000,0.000
1605139588149833984,10.0.1.140,712,move_down,-0.560,-0.560,-0.560,0.000,0.000,0.000
1605139590274780160,10.0.1.140,945,move_down,-0.580,-0.580,-0.580,0.000,0.000,0.000
1605139591825778944,10.0.1.140,506,move_down,-0.600,-0.600,-0.600,0.000,0.000,0.000
1605139593594942976,10.0.1.140,735,move_down,-0.620,-0.620,-0.620,0.000,0.000,0.000
1605139594807030016,10.0.1.140,46,pick,-0.630,-0.630,-0.630,0.000,0.000,0.000
1605139595816155904,10.0.1.140,50,pick,-0.640,-0.640,-0.640,0.000,0.000,0.000
1605139596813314048,10.0.1.140,46,pick,-0.650,-0.650,-0.650,0.000,0.000,0.000
1605139597820961024,10.0.1.140,49,pick,-0.660,-0.660,-0.660,0.000,0.000,0.000
1605139599846054912,10.0.1.140,70,pick,-0.680,-0.680,-0.680,0.000,0.000,0.000
1605139600826492928,10.0.1.140,42,pick,-0.690,-0.690,-0.690,0.000,0.000,0.000
1605139603839788800,10.0.1.140,44,pick,-0.720,-0.720,-0.720,0.000,0.000,0.000
1605139604842392064,10.0.1.140,45,pick,-0.730,-0.730,-0.730,0.000,0.000,0.000
1605139605872100096,10.0.1.140,64,pick,-0.740,-0.740,-0.740,0.000,0.000,0.000
1605139606862128896,10.0.1.140,52,pick,-0.750,-0.750,-0.750,0.000,0.000,0.000
1605139607851872000,10.0.1.140,41,pick,-0.760,-0.760,-0.760,0.000,0.000,0.000
1605139609873977856,10.0.1.140,53,pick,-0.780,-0.780,-0.780,0.000,0.000,0.000
1605139610874081024,10.0.1.140,46,pick,-0.790,-0.790,-0.790,0.000,0.000,0.000
1605139611891623936,10.0.1.140,62,pick,-0.800,-0.800,-0.800,0.000,0.000,0.000
1605139612892175872,10.0.1.140,62,pick,-0.810,-0.810,-0.810,0.000,0.000,0.000
1605139614540483840,10.0.1.140,708,move_up,-0.790,-0.790,-0.790,0.000,0.000,0.000
1605139616274693120,10.0.1.140,588,move_up,-0.770,-0.770,-0.770,0.000,0.000,0.000
1605139618240669952,10.0.1.140,855,move_up,-0.750,-0.750,-0.750,0.000,0.000,0.000
1605139620154423040,10.0.1.140,866,move_up,-0.730,-0.730,-0.730,0.000,0.000,0.000
1605139621699870976,10.0.1.140,489,move_up,-0.710,-0.710,-0.710,0.000,0.000,0.000
1605139623751246848,10.0.1.140,833,move_up,-0.690,-0.690,-0.690,0.000,0.000,0.000
1605139625530587904,10.0.1.140,761,move_up,-0.670,-0.670,-0.670,0.000,0.000,0.000
1605139627174472192,10.0.1.140,559,move_up,-0.650,-0.650,-0.650,0.000,0.000,0.000
1605139628767303936,10.0.1.140,537,move_up,-0.630,-0.630,-0.630,0.000,0.000,0.000
1605139630515956992,10.0.1.140,668,move_up,-0.610,-0.610,-0.610,0.000,0.000,0.000
1605139632799350016,10.0.1.140,954,move_up,-0.590,-0.590,-0.590,0.000,0.000,0.000
1605139634866379008,10.0.1.140,946,move_up,-0.570,-0.570,-0.570,0.000,0.000,0.000
1605139636682522112,10.0.1.140,725,move_up,-0.550,-0.550,-0.550,0.000,0.000,0.000
1605139638431735040,10.0.1.140,692,move_up,-0.530,-0.530,-0.530,0.000,0.000,0.000
1605139640218056960,10.0.1.140,714,move_up,-0.510,-0.510,-0.510,0.000,0.000,0.000
1605139641768375040,10.0.1.140,529,move_up,-0.490,-0.490,-0.490,0.000,0.000,0.000
1605139644218352128,10.0.1.140,1235,move_up,-0.470,-0.470,-0.470,0.000,0.000,0.000
1605139646086213120,10.0.1.140,618,move_up,-0.450,-0.450,-0.450,0.000,0.000,0.000
1605139647916503808,10.0.1.140,734,move_up,-0.430,-0.430,-0.430,0.000,0.000,0.000
1605139650088388864,10.0.1.140,1045,move_up,-0.410,-0.410,-0.410,0.000,0.000,0.000
1605139652026628096,10.0.1.140,817,move_up,-0.390,-0.390,-0.390,0.000,0.000,0.000
1605139653910294016,10.0.1.140,797,move_up,-0.370,-0.370,-0.370,0.000,0.000,0.000
1605139655593381888,10.0.1.140,614,move_up,-0.350,-0.350,-0.350,0.000,0.000,0.000
1605139657266236928,10.0.1.140,577,move_up,-0.330,-0.330,-0.330,0.000,0.000,0.000
1605139658961041920,10.0.1.140,593,move_up,-0.310,-0.310,-0.310,0.000,0.000,0.000
1605139660752270848,10.0.1.140,692,move_up,-0.290,-0.290,-0.290,0.000,0.000,0.000
1605139662778465024,10.0.1.140,949,move_up,-0.270,-0.270,-0.270,0.000,0.000,0.000
1605139664563249152,10.0.1.140,693,move_up,-0.250,-0.250,-0.250,0.000,0.000,0.000
1605139666824201216,10.0.1.140,623,move_up,-0.230,-0.230,-0.230,0.000,0.000,0.000
1605139667934310912,10.0.1.140,50,place,-0.220,-0.220,-0.220,0.000,0.000,0.000
1605139668949286912,10.0.1.140,61,place,-0.210,-0.210,-0.210,0.000,0.000,0.000
1605139669960495872,10.0.1.140,70,place,-0.200,-0.200,-0.200,0.000,0.000,0.000
1605139670963618048,10.0.1.140,68,place,-0.190,-0.190,-0.190,0.000,0.000,0.000
1605139671964827136,10.0.1.140,60,place,-0.180,-0.180,-0.180,0.000,0.000,0.000
1605139673989317888,10.0.1.140,72,place,-0.160,-0.160,-0.160,0.000,0.000,0.000
1605139674984990976,10.0.1.140,66,place,-0.150,-0.150,-0.150,0.000,0.000,0.000
1605139675986609920,10.0.1.140,66,place,-0.140,-0.140,-0.140,0.000,0.000,0.000
1605139676978264064,10.0.1.140,56,place,-0.130,-0.130,-0.130,0.000,0.000,0.000
1605139677988556032,10.0.1.140,42,place,-0.120,-0.120,-0.120,0.000,0.000,0.000
1605139679027817984,10.0.1.140,64,place,-0.110,-0.110,-0.110,0.000,0.000,0.000
1605139682044436992,10.0.1.140,66,place,-0.080,-0.080,-0.080,0.000,0.000,0.000
1605139683027764992,10.0.1.140,44,place,-0.070,-0.070,-0.070,0.000,0.000,0.000
1605139684068436992,10.0.1.140,81,place,-0.060,-0.060,-0.060,0.000,0.000,0.000
1605139685034497024,10.0.1.140,41,place,-0.050,-0.050,-0.050,0.000,0.000,0.000
1605139686041299968,10.0.1.140,46,place,-0.040,-0.040,-0.040,0.000,0.000,0.000
1605139688035124992,10.0.1.140,1034,move_down,-0.060,-0.060,-0.060,0.000,0.000,0.000
1605139689552331008,10.0.1.140,484,move_down,-0.080,-0.080,-0.080,0.000,0.000,0.000
1605139691591329024,10.0.1.140,923,move_down,-0.100,-0.100,-0.100,0.000,0.000,0.000
1605139693561115904,10.0.1.140,659,move_down,-0.120,-0.120,-0.120,0.000,0.000,0.000
1605139695342178048,10.0.1.140,686,move_down,-0.140,-0.140,-0.140,0.000,0.000,0.000
1605139696861696000,10.0.1.140,533,move_down,-0.160,-0.160,-0.160,0.000,0.000,0.000
1605139698493236992,10.0.1.140,583,move_down,-0.180,-0.180,-0.180,0.000,0.000,0.000
1605139700256794880,10.0.1.140,680,move_down,-0.200,-0.200,-0.200,0.000,0.000,0.000
1605139702057056000,10.0.1.140,502,move_down,-0.220,-0.220,-0.220,0.000,0.000,0.000
1605139703904957952,10.0.1.140,759,move_down,-0.240,-0.240,-0.240,0.000,0.000,0.000
1605139705531799040,10.0.1.140,560,move_down,-0.260,-0.260,-0.260,0.000,0.000,0.000
1605139707614587136,10.0.1.140,974,move_down,-0.280,-0.280,-0.280,0.000,0.000,0.000
1605139709571863808,10.0.1.140,790,move_down,-0.300,-0.300,-0.300,0.000,0.000,0.000
1605139711190469888,10.0.1.140,542,move_down,-0.320,-0.320,-0.320,0.000,0.000,0.000
1605139713561101056,10.0.1.140,1260,move_down,-0.340,-0.340,-0.340,0.000,0.000,0.000
1605139715152004096,10.0.1.140,581,move_down,-0.360,-0.360,-0.360,0.000,0.000,0.000
1605139716933305856,10.0.1.140,723,move_down,-0.380,-0.380,-0.380,0.000,0.000,0.000
1605139718881659904,10.0.1.140,860,move_down,-0.400,-0.400,-0.400,0.000,0.000,0.000
1605139721479075072,10.0.1.140,1405,move_down,-0.420,-0.420,-0.420,0.000,0.000,0.000
1605139723177031936,10.0.1.140,623,move_down,-0.440,-0.440,-0.440,0.000,0.000,0.000
1605139725065923840,10.0.1.140,816,move_down,-0.460,-0.460,-0.460,0.000,0.000,0.000
1605139726661544960,10.0.1.140,524,move_down,-0.480,-0.480,-0.480,0.000,0.000,0.000
1605139728550013184,10.0.1.140,648,move_down,-0.500,-0.500,-0.500,0.000,0.000,0.000
1605139730585236992,10.0.1.140,993,move_down,-0.520,-0.520,-0.520,0.000,0.000,0.000
1605139733160355072,10.0.1.140,1397,move_down,-0.540,-0.540,-0.540,0.000,0.000,0.000
1605139735195821056,10.0.1.140,941,move_down,-0.560,-0.560,-0.560,0.000,0.000,0.000
1605139736937037824,10.0.1.140,639,move_down,-0.580,-0.580,-0.580,0.000,0.000,0.000
1605139738545965824,10.0.1.140,498,move_down,-0.600,-0.600,-0.600,0.000,0.000,0.000
1605139740297681920,10.0.1.140,639,move_down,-0.620,-0.620,-0.620,0.000,0.000,0.000
1605139743833901824,10.0.1.140,52,pick,-0.650,-0.650,-0.650,0.000,0.000,0.000
1605139744875752960,10.0.1.140,79,pick,-0.660,-0.660,-0.660,0.000,0.000,0.000
1605139745859759104,10.0.1.140,56,pick,-0.670,-0.670,-0.670,0.000,0.000,0.000
1605139746851705088,10.0.1.140,46,pick,-0.680,-0.680,-0.680,0.000,0.000,0.000
1605139747868627968,10.0.1.140,62,pick,-0.690,-0.690,-0.690,0.000,0.000,0.000
1605139748852185856,10.0.1.140,44,pick,-0.700,-0.700,-0.700,0.000,0.000,0.000
1605139749869713152,10.0.1.140,58,pick,-0.710,-0.710,-0.710,0.000,0.000,0.000
1605139750875377920,10.0.1.140,61,pick,-0.720,-0.720,-0.720,0.000,0.000,0.000
1605139752883527168,10.0.1.140,51,pick,-0.740,-0.740,-0.740,0.000,0.000,0.000
1605139754904830976,10.0.1.140,53,pick,-0.760,-0.760,-0.760,0.000,0.000,0.000
1605139755898266112,10.0.1.140,46,pick,-0.770,-0.770,-0.770,0.000,0.000,0.000
1605139756923002880,10.0.1.140,69,pick,-0.780,-0.780,-0.780,0.000,0.000,0.000
1605139757964828928,10.0.1.140,92,pick,-0.790,-0.790,-0.790,0.000,0.000,0.000
1605139758916696064,10.0.1.140,43,pick,-0.800,-0.800,-0.800,0.000,0.000,0.000
1605139759949528832,10.0.1.140,73,pick,-0.810,-0.810,-0.810,0.000,0.000,0.000
1605139761541955072,10.0.1.140,663,move_up,-0.790,-0.790,-0.790,0.000,0.000,0.000
1605139763581556992,10.0.1.140,978,move_up,-0.770,-0.770,-0.770,0.000,0.000,0.000
1605139765780758016,10.0.1.140,1066,move_up,-0.750,-0.750,-0.750,0.000,0.000,0.000
1605139767908838144,10.0.1.140,722,move_up,-0.730,-0.730,-0.730,0.000,0.000,0.000
1605139769647083008,10.0.1.140,675,move_up,-0.710,-0.710,-0.710,0.000,0.000,0.000
1605139771525722880,10.0.1.140,821,move_up,-0.690,-0.690,-0.690,0.000,0.000,0.000
1605139773644766976,10.0.1.140,1009,move_up,-0.670,-0.670,-0.670,0.000,0.000,0.000
1605139775356625920,10.0.1.140,578,move_up,-0.650,-0.650,-0.650,0.000,0.000,0.000
1605139777514007040,10.0.1.140,1055,move_up,-0.630,-0.630,-0.630,0.000,0.000,0.000
1605139779483290880,10.0.1.140,845,move_up,-0.610,-0.610,-0.610,0.000,0.000,0.000
1605139781355972096,10.0.1.140,688,move_up,-0.590,-0.590,-0.590,0.000,0.000,0.000
1605139783344600832,10.0.1.140,890,move_up,-0.570,-0.570,-0.570,0.000,0.000,0.000
1605139785057369088,10.0.1.140,610,move_up,-0.550,-0.550,-0.550,0.000,0.000,0.000
1605139786724122112,10.0.1.140,505,move_up,-0.530,-0.530,-0.530,0.000,0.000,0.000
1605139788716439040,10.0.1.140,756,move_up,-0.510,-0.510,-0.510,0.000,0.000,0.000
1605139790602361856,10.0.1.140,754,move_up,-0.490,-0.490,-0.490,0.000,0.000,0.000
1605139792461547008,10.0.1.140,635,move_up,-0.470,-0.470,-0.470,0.000,0.000,0.000
1605139794268369920,10.0.1.140,700,move_up,-0.450,-0.450,-0.450,0.000,0.000,0.000
1605139796127290112,10.0.1.140,814,move_up,-0.430,-0.430,-0.430,0.000,0.000,0.000
1605139798148376064,10.0.1.140,895,move_up,-0.410,-0.410,-0.410,0.000,0.000,0.000
1605139800076239104,10.0.1.140,811,move_up,-0.390,-0.390,-0.390,0.000,0.000,0.000
1605139802190228992,10.0.1.140,1046,move_up,-0.370,-0.370,-0.370,0.000,0.000,0.000
1605139804046060032,10.0.1.140,765,move_up,-0.350,-0.350,-0.350,0.000,0.000,0.000
1605139805683303168,10.0.1.140,547,move_up,-0.330,-0.330,-0.330,0.000,0.000,0.000
1605139807326240000,10.0.1.140,543,move_up,-0.310,-0.310,-0.310,0.000,0.000,0.000
1605139809054252032,10.0.1.140,616,move_up,-0.290,-0.290,-0.290,0.000,0.000,0.000
1605139810727569152,10.0.1.140,530,move_up,-0.270,-0.270,-0.270,0.000,0.000,0.000
1605139812511739904,10.0.1.140,689,move_up,-0.250,-0.250,-0.250,0.000,0.000,0.000
1605139814374223872,10.0.1.140,661,move_up,-0.230,-0.230,-0.230,0.000,0.000,0.000
1605139817517317120,10.0.1.140,69,place,-0.200,-0.200,-0.200,0.000,0.000,0.000
1605139818507289856,10.0.1.140,57,place,-0.190,-0.190,-0.190,0.000,0.000,0.000
1605139819503736064,10.0.1.140,53,place,-0.180,-0.180,-0.180,0.000,0.000,0.000
1605139822537414912,10.0.1.140,65,place,-0.150,-0.150,-0.150,0.000,0.000,0.000
1605139823525140992,10.0.1.140,53,place,-0.140,-0.140,-0.140,0.000,0.000,0.000
1605139825527250944,10.0.1.140,51,place,-0.120,-0.120,-0.120,0.000,0.000,0.000
1605139827523412992,10.0.1.140,45,place,-0.100,-0.100,-0.100,0.000,0.000,0.000
1605139828534092032,10.0.1.140,54,place,-0.090,-0.090,-0.090,0.000,0.000,0.000
1605139829594949120,10.0.1.140,115,place,-0.080,-0.080,-0.080,0.000,0.000,0.000
1605139830521178880,10.0.1.140,38,place,-0.070,-0.070,-0.070,0.000,0.000,0.000
1605139831534498816,10.0.1.140,48,place,-0.060,-0.060,-0.060,0.000,0.000,0.000
1605139832528105984,10.0.1.140,41,place,-0.050,-0.050,-0.050,0.000,0.000,0.000
1605139833544918016,10.0.1.140,57,place,-0.040,-0.040,-0.040,0.000,0.000,0.000
1605139835227149056,10.0.1.140,730,move_down,-0.060,-0.060,-0.060,0.000,0.000,0.000
1605139837405734144,10.0.1.140,890,move_down,-0.080,-0.080,-0.080,0.000,0.000,0.000
1605139839470160896,10.0.1.140,944,move_down,-0.100,-0.100,-0.100,0.000,0.000,0.000
1605139841097363968,10.0.1.140,511,move_down,-0.120,-0.120,-0.120,0.000,0.000,0.000
1605139843376615936,10.0.1.140,1214,move_down,-0.140,-0.140,-0.140,0.000,0.000,0.000
1605139845246705152,10.0.1.140,764,move_down,-0.160,-0.160,-0.160,0.000,0.000,0.000
1605139846974132992,10.0.1.140,627,move_down,-0.180,-0.180,-0.180,0.000,0.000,0.000
1605139848720259840,10.0.1.140,578,move_down,-0.200,-0.200,-0.200,0.000,0.000,0.000
1605139850559003136,10.0.1.140,767,move_down,-0.220,-0.220,-0.220,0.000,0.000,0.000
1605139852295913984,10.0.1.140,636,move_down,-0.240,-0.240,-0.240,0.000,0.000,0.000
1605139854178082048,10.0.1.140,801,move_down,-0.260,-0.260,-0.260,0.000,0.000,0.000
1605139855978132992,10.0.1.140,686,move_down,-0.280,-0.280,-0.280,0.000,0.000,0.000
1605139857638475776,10.0.1.140,558,move_down,-0.300,-0.300,-0.300,0.000,0.000,0.000
1605139859648641024,10.0.1.140,849,move_down,-0.320,-0.320,-0.320,0.000,0.000,0.000
1605139861191813120,10.0.1.140,552,move_down,-0.340,-0.340,-0.340,0.000,0.000,0.000
1605139862847692032,10.0.1.140,608,move_down,-0.360,-0.360,-0.360,0.000,0.000,0.000
1605139864943526144,10.0.1.140,994,move_down,-0.380,-0.380,-0.380,0.000,0.000,0.000
1605139866769829888,10.0.1.140,725,move_down,-0.400,-0.400,-0.400,0.000,0.000,0.000
1605139868907939072,10.0.1.140,956,move_down,-0.420,-0.420,-0.420,0.000,0.000,0.000
1605139870707612160,10.0.1.140,710,move_down,-0.440,-0.440,-0.440,0.000,0.000,0.000
1605139873113576960,10.0.1.140,1100,move_down,-0.460,-0.460,-0.460,0.000,0.000,0.000
1605139874787051008,10.0.1.140,520,move_down,-0.480,-0.480,-0.480,0.000,0.000,0.000
1605139876415576832,10.0.1.140,537,move_down,-0.500,-0.500,-0.500,0.000,0.000,0.000
1605139878076972032,10.0.1.140,590,move_down,-0.520,-0.520,-0.520,0.000,0.000,0.000
1605139879787379968,10.0.1.140,617,move_down,-0.540,-0.540,-0.540,0.000,0.000,0.000
1605139881615995904,10.0.1.140,564,move_down,-0.560,-0.560,-0.560,0.000,0.000,0.000
1605139883183281920,10.0.1.140,455,move_down,-0.580,-0.580,-0.580,0.000,0.000,0.000
1605139884956732928,10.0.1.140,685,move_down,-0.600,-0.600,-0.600,0.000,0.000,0.000
1605139886896243968,10.0.1.140,853,move_down,-0.620,-0.620,-0.620,0.000,0.000,0.000
1605139888088229888,10.0.1.140,94,pick,-0.630,-0.630,-0.630,0.000,0.000,0.000
1605139889044491008,10.0.1.140,48,pick,-0.640,-0.640,-0.640,0.000,0.000,0.000
1605139891021349888,10.0.1.140,22,pick,-0.660,-0.660,-0.660,0.000,0.000,0.000
1605139892062638080,10.0.1.140,60,pick,-0.670,-0.670,-0.670,0.000,0.000,0.000
1605139893135681024,10.0.1.140,73,pick,-0.680,-0.680,-0.680,0.000,0.000,0.000
1605139894134592000,10.0.1.140,59,pick,-0.690,-0.690,-0.690,0.000,0.000,0.000
1605139895117381120,10.0.1.140,41,pick,-0.700,-0.700,-0.700,0.000,0.000,0.000
1605139896114895104,10.0.1.140,38,pick,-0.710,-0.710,-0.710,0.000,0.000,0.000
1605139897138290944,10.0.1.140,58,pick,-0.720,-0.720,-0.720,0.000,0.000,0.000
1605139898175760128,10.0.1.140,94,pick,-0.730,-0.730,-0.730,0.000,0.000,0.000
1605139899122706944,10.0.1.140,38,pick,-0.740,-0.740,-0.740,0.000,0.000,0.000
1605139900152128000,10.0.1.140,63,pick,-0.750,-0.750,-0.750,0.000,0.000,0.000
1605139901129092096,10.0.1.140,39,pick,-0.760,-0.760,-0.760,0.000,0.000,0.000
1605139903147727104,10.0.1.140,38,pick,-0.780,-0.780,-0.780,0.000,0.000,0.000
1605139904151889920,10.0.1.140,38,pick,-0.790,-0.790,-0.790,0.000,0.000,0.000
1605139905170973952,10.0.1.140,51,pick,-0.800,-0.800,-0.800,0.000,0.000,0.000
1605139906177947904,10.0.1.140,46,pick,-0.810,-0.810,-0.810,0.000,0.000,0.000
1605139907730907904,10.0.1.140,595,move_up,-0.790,-0.790,-0.790,0.000,0.000,0.000
1605139910146800128,10.0.1.140,775,move_up,-0.770,-0.770,-0.770,0.000,0.000,0.000
1605139911840253952,10.0.1.140,620,move_up,-0.750,-0.750,-0.750,0.000,0.000,0.000
1605139913537026816,10.0.1.140,517,move_up,-0.730,-0.730,-0.730,0.000,0.000,0.000
1605139915703440896,10.0.1.140,1037,move_up,-0.710,-0.710,-0.710,0.000,0.000,0.000
1605139917391709952,10.0.1.140,604,move_up,-0.690,-0.690,-0.690,0.000,0.000,0.000
1605139919668435200,10.0.1.140,1049,move_up,-0.670,-0.670,-0.670,0.000,0.000,0.000
1605139921510473984,10.0.1.140,756,move_up,-0.650,-0.650,-0.650,0.000,0.000,0.000
1605139923140403968,10.0.1.140,596,move_up,-0.630,-0.630,-0.630,0.000,0.000,0.000
1605139924938656000,10.0.1.140,775,move_up,-0.610,-0.610,-0.610,0.000,0.000,0.000
1605139926989704960,10.0.1.140,909,move_up,-0.590,-0.590,-0.590,0.000,0.000,0.000
1605139929033811200,10.0.1.140,901,move_up,-0.570,-0.570,-0.570,0.000,0.000,0.000
1605139930830514944,10.0.1.140,725,move_up,-0.550,-0.550,-0.550,0.000,0.000,0.000
1605139932772151040,10.0.1.140,675,move_up,-0.530,-0.530,-0.530,0.000,0.000,0.000
1605139934475419904,10.0.1.140,659,move_up,-0.510,-0.510,-0.510,0.000,0.000,0.000
1605139936599598848,10.0.1.140,688,move_up,-0.490,-0.490,-0.490,0.000,0.000,0.000
1605139938328535040,10.0.1.140,564,move_up,-0.470,-0.470,-0.470,0.000,0.000,0.000
1605139939939470080,10.0.1.140,524,move_up,-0.450,-0.450,-0.450,0.000,0.000,0.000
1605139942030673920,10.0.1.140,728,move_up,-0.430,-0.430,-0.430,0.000,0.000,0.000
1605139944179558144,10.0.1.140,898,move_up,-0.410,-0.410,-0.410,0.000,0.000,0.000
1605139945898408960,10.0.1.140,631,move_up,-0.390,-0.390,-0.390,0.000,0.000,0.000
1605139947717218048,10.0.1.140,743,move_up,-0.370,-0.370,-0.370,0.000,0.000,0.000
1605139950018342144,10.0.1.140,1266,move_up,-0.350,-0.350,-0.350,0.000,0.000,0.000
1605139951603800064,10.0.1.140,511,move_up,-0.330,-0.330,-0.330,0.000,0.000,0.000
1605139953368793088,10.0.1.140,716,move_up,-0.310,-0.310,-0.310,0.000,0.000,0.000
1605139955137254912,10.0.1.140,602,move_up,-0.290,-0.290,-0.290,0.000,0.000,0.000
1605139956975483904,10.0.1.140,753,move_up,-0.270,-0.270,-0.270,0.000,0.000,0.000
1605139958649400832,10.0.1.140,600,move_up,-0.250,-0.250,-0.250,0.000,0.000,0.000
1605139960356782080,10.0.1.140,644,move_up,-0.230,-0.230,-0.230,0.000,0.000,0.000
1605139962508256000,10.0.1.140,60,place,-0.210,-0.210,-0.210,0.000,0.000,0.000
1605139964516030976,10.0.1.140,65,place,-0.190,-0.190,-0.190,0.000,0.000,0.000
1605139965573038080,10.0.1.140,79,place,-0.180,-0.180,-0.180,0.000,0.000,0.000
1605139966573255168,10.0.1.140,75,place,-0.170,-0.170,-0.170,0.000,0.000,0.000
1605139967542393088,10.0.1.140,43,place,-0.160,-0.160,-0.160,0.000,0.000,0.000
1605139968550785024,10.0.1.140,42,place,-0.150,-0.150,-0.150,0.000,0.000,0.000
1605139969591311872,10.0.1.140,81,place,-0.140,-0.140,-0.140,0.000,0.000,0.000
1605139970583555072,10.0.1.140,69,place,-0.130,-0.130,-0.130,0.000,0.000,0.000
1605139971581235968,10.0.1.140,65,place,-0.120,-0.120,-0.120,0.000,0.000,0.000
1605139973581171968,10.0.1.140,61,place,-0.100,-0.100,-0.100,0.000,0.000,0.000
1605139975606036992,10.0.1.140,77,place,-0.080,-0.080,-0.080,0.000,0.000,0.000
1605139976584419072,10.0.1.140,50,place,-0.070,-0.070,-0.070,0.000,0.000,0.000
1605139977602816000,10.0.1.140,67,place,-0.060,-0.060,-0.060,0.000,0.000,0.000
1605139978584937984,10.0.1.140,40,place,-0.050,-0.050,-0.050,0.000,0.000,0.000
1605139979617108224,10.0.1.140,62,place,-0.040,-0.040,-0.040,0.000,0.000,0.000
1605139981293147136,10.0.1.140,737,move_down,-0.060,-0.060,-0.060,0.000,0.000,0.000
1605139982999165184,10.0.1.140,650,move_down,-0.080,-0.080,-0.080,0.000,0.000,0.000
1605139984639337984,10.0.1.140,552,move_down,-0.100,-0.100,-0.100,0.000,0.000,0.000
1605139986336278016,10.0.1.140,513,move_down,-0.120,-0.120,-0.120,0.000,0.000,0.000
1605139988313018112,10.0.1.140,805,move_down,-0.140,-0.140,-0.140,0.000,0.000,0.000
1605139989992924928,10.0.1.140,528,move_down,-0.160,-0.160,-0.160,0.000,0.000,0.000
1605139992007154944,10.0.1.140,922,move_down,-0.180,-0.180,-0.180,0.000,0.000,0.000
1605139993809562880,10.0.1.140,693,move_down,-0.200,-0.200,-0.200,0.000,0.000,0.000
1605139995680419072,10.0.1.140,585,move_down,-0.220,-0.220,-0.220,0.000,0.000,0.000
1605139997585190912,10.0.1.140,851,move_down,-0.240,-0.240,-0.240,0.000,0.000,0.000
1605139999285305856,10.0.1.140,632,move_down,-0.260,-0.260,-0.260,0.000,0.000,0.000
1605140001088547072,10.0.1.140,752,move_down,-0.280,-0.280,-0.280,0.000,0.000,0.000
1605140002816091904,10.0.1.140,635,move_down,-0.300,-0.300,-0.300,0.000,0.000,0.000
1605140004728392960,10.0.1.140,774,move_down,-0.320,-0.320,-0.320,0.000,0.000,0.000
1605140006430530048,10.0.1.140,573,move_down,-0.340,-0.340,-0.340,0.000,0.000,0.000
1605140008199672064,10.0.1.140,657,move_down,-0.360,-0.360,-0.360,0.000,0.000,0.000
1605140010111123968,10.0.1.140,495,move_down,-0.380,-0.380,-0.380,0.000,0.000,0.000
1605140012063793920,10.0.1.140,843,move_down,-0.400,-0.400,-0.400,0.000,0.000,0.000
1605140014387579904,10.0.1.140,1267,move_down,-0.420,-0.420,-0.420,0.000,0.000,0.000
1605140016433810944,10.0.1.140,889,move_down,-0.440,-0.440,-0.440,0.000,0.000,0.000
1605140018356975104,10.0.1.140,681,move_down,-0.460,-0.460,-0.460,0.000,0.000,0.000
1605140019908601088,10.0.1.140,485,move_down,-0.480,-0.480,-0.480,0.000,0.000,0.000
1605140021711787008,10.0.1.140,617,move_down,-0.500,-0.500,-0.500,0.000,0.000,0.000
1605140023755533824,10.0.1.140,776,move_down,-0.520,-0.520,-0.520,0.000,0.000,0.000
1605140025376002048,10.0.1.140,533,move_down,-0.540,-0.540,-0.540,0.000,0.000,0.000
1605140027425685760,10.0.1.140,934,move_down,-0.560,-0.560,-0.560,0.000,0.000,0.000
1605140029357947136,10.0.1.140,814,move_down,-0.580,-0.580,-0.580,0.000,0.000,0.000
1605140031087174912,10.0.1.140,604,move_down,-0.600,-0.600,-0.600,0.000,0.000,0.000
1605140032782273024,10.0.1.140,609,move_down,-0.620,-0.620,-0.620,0.000,0.000,0.000
1605140034010637056,10.0.1.140,66,pick,-0.630,-0.630,-0.630,0.000,0.000,0.000
1605140035005891072,10.0.1.140,61,pick,-0.640,-0.640,-0.640,0.000,0.000,0.000
1605140035988003072,10.0.1.140,42,pick,-0.650,-0.650,-0.650,0.000,0.000,0.000
1605140037001607936,10.0.1.140,49,pick,-0.660,-0.660,-0.660,0.000,0.000,0.000
1605140038021796096,10.0.1.140,56,pick,-0.670,-0.670,-0.670,0.000,0.000,0.000
1605140039040011008,10.0.1.140,68,pick,-0.680,-0.680,-0.680,0.000,0.000,0.000
1605140040049655808,10.0.1.140,77,pick,-0.690,-0.690,-0.690,0.000,0.000,0.000
1605140042025022976,10.0.1.140,42,pick,-0.710,-0.710,-0.710,0.000,0.000,0.000
1605140043034739968,10.0.1.140,51,pick,-0.720,-0.720,-0.720,0.000,0.000,0.000
1605140044032745984,10.0.1.140,39,pick,-0.730,-0.730,-0.730,0.000,0.000,0.000
1605140045043689984,10.0.1.140,48,pick,-0.740,-0.740,-0.740,0.000,0.000,0.000
1605140046039416064,10.0.1.140,43,pick,-0.750,-0.750,-0.750,0.000,0.000,0.000
1605140047109894144,10.0.1.140,113,pick,-0.760,-0.760,-0.760,0.000,0.000,0.000
1605140048036088832,10.0.1.140,37,pick,-0.770,-0.770,-0.770,0.000,0.000,0.000
1605140049060941824,10.0.1.140,56,pick,-0.780,-0.780,-0.780,0.000,0.000,0.000
1605140050063622912,10.0.1.140,57,pick,-0.790,-0.790,-0.790,0.000,0.000,0.000
1605140051083134976,10.0.1.140,75,pick,-0.800,-0.800,-0.800,0.000,0.000,0.000
1605140053512249088,10.0.1.140,494,move_up,-0.790,-0.790,-0.790,0.000,0.000,0.000
1605140055430919936,10.0.1.140,843,move_up,-0.770,-0.770,-0.770,0.000,0.000,0.000
1605140057156975872,10.0.1.140,673,move_up,-0.750,-0.750,-0.750,0.000,0.000,0.000
1605140058965603072,10.0.1.140,680,move_up,-0.730,-0.730,-0.730,0.000,0.000,0.000
1605140060921582848,10.0.1.140,862,move_up,-0.710,-0.710,-0.710,0.000,0.000,0.000
1605140062614468096,10.0.1.140,570,move_up,-0.690,-0.690,-0.690,0.000,0.000,0.000
1605140064864484096,10.0.1.140,660,move_up,-0.670,-0.670,-0.670,0.000,0.000,0.000
1605140066513516800,10.0.1.140,559,move_up,-0.650,-0.650,-0.650,0.000,0.000,0.000
1605140068095735040,10.0.1.140,488,move_up,-0.630,-0.630,-0.630,0.000,0.000,0.000
1605140069975558144,10.0.1.140,783,move_up,-0.610,-0.610,-0.610,0.000,0.000,0.000
1605140072237794048,10.0.1.140,991,move_up,-0.590,-0.590,-0.590,0.000,0.000,0.000
1605140074221438976,10.0.1.140,939,move_up,-0.570,-0.570,-0.570,0.000,0.000,0.000
1605140075868439040,10.0.1.140,530,move_up,-0.550,-0.550,-0.550,0.000,0.000,0.000
1605140077509424896,10.0.1.140,527,move_up,-0.530,-0.530,-0.530,0.000,0.000,0.000
1605140079135554048,10.0.1.140,552,move_up,-0.510,-0.510,-0.510,0.000,0.000,0.000
1605140081284352000,10.0.1.140,1053,move_up,-0.490,-0.490,-0.490,0.000,0.000,0.000
1605140082952759040,10.0.1.140,626,move_up,-0.470,-0.470,-0.470,0.000,0.000,0.000
1605140085011343104,10.0.1.140,830,move_up,-0.450,-0.450,-0.450,0.000,0.000,0.000
1605140086620130048,10.0.1.140,569,move_up,-0.430,-0.430,-0.430,0.000,0.000,0.000
1605140092329325056,10.0.1.140,768,move_up,-0.410,-0.410,-0.410,0.000,0.000,0.000
1605140094206285056,10.0.1.140,538,move_up,-0.390,-0.390,-0.390,0.000,0.000,0.000
1605140095946306816,10.0.1.140,632,move_up,-0.370,-0.370,-0.370,0.000,0.000,0.000
1605140097631392000,10.0.1.140,581,move_up,-0.350,-0.350,-0.350,0.000,0.000,0.000
1605140099458348032,10.0.1.140,679,move_up,-0.330,-0.330,-0.330,0.000,0.000,0.000
1605140101164177920,10.0.1.140,550,move_up,-0.310,-0.310,-0.310,0.000,0.000,0.000
1605140103066551040,10.0.1.140,741,move_up,-0.290,-0.290,-0.290,0.000,0.000,0.000
1605140104880297984,10.0.1.140,741,move_up,-0.270,-0.270,-0.270,0.000,0.000,0.000
1605140106649457920,10.0.1.140,676,move_up,-0.250,-0.250,-0.250,0.000,0.000,0.000
1605140108462188032,10.0.1.140,750,move_up,-0.230,-0.230,-0.230,0.000,0.000,0.000
1605140109783729152,10.0.1.140,33,place,-0.220,-0.220,-0.220,0.000,0.000,0.000
1605140110787710976,10.0.1.140,36,place,-0.210,-0.210,-0.210,0.000,0.000,0.000
1605140111825152000,10.0.1.140,70,place,-0.200,-0.200,-0.200,0.000,0.000,0.000
1605140113812647168,10.0.1.140,50,place,-0.180,-0.180,-0.180,0.000,0.000,0.000
1605140114821425920,10.0.1.140,56,place,-0.170,-0.170,-0.170,0.000,0.000,0.000
1605140115812290048,10.0.1.140,46,place,-0.160,-0.160,-0.160,0.000,0.000,0.000
1605140116816449024,10.0.1.140,49,place,-0.150,-0.150,-0.150,0.000,0.000,0.000
1605140119811773952,10.0.1.140,41,place,-0.120,-0.120,-0.120,0.000,0.000,0.000
1605140120817379840,10.0.1.140,46,place,-0.110,-0.110,-0.110,0.000,0.000,0.000
1605140121819702016,10.0.1.140,47,place,-0.100,-0.100,-0.100,0.000,0.000,0.000
1605140122812264960,10.0.1.140,38,place,-0.090,-0.090,-0.090,0.000,0.000,0.000
1605140123826598912,10.0.1.140,51,place,-0.080,-0.080,-0.080,0.000,0.000,0.000
1605140125838052864,10.0.1.140,58,place,-0.060,-0.060,-0.060,0.000,0.000,0.000
1605140128810949120,10.0.1.140,11,move_down,-0.060,-0.060,-0.060,0.000,0.000,0.000
1605140131147128064,10.0.1.140,659,move_down,-0.080,-0.080,-0.080,0.000,0.000,0.000
1605140132829163008,10.0.1.140,588,move_down,-0.100,-0.100,-0.100,0.000,0.000,0.000
1605140134688399104,10.0.1.140,772,move_down,-0.120,-0.120,-0.120,0.000,0.000,0.000
1605140136339097088,10.0.1.140,557,move_down,-0.140,-0.140,-0.140,0.000,0.000,0.000
1605140138010999808,10.0.1.140,561,move_down,-0.160,-0.160,-0.160,0.000,0.000,0.000
1605140139692284160,10.0.1.140,612,move_down,-0.180,-0.180,-0.180,0.000,0.000,0.000
1605140141894848000,10.0.1.140,801,move_down,-0.200,-0.200,-0.200,0.000,0.000,0.000
1605140143907185152,10.0.1.140,800,move_down,-0.220,-0.220,-0.220,0.000,0.000,0.000
1605140145605513216,10.0.1.140,593,move_down,-0.240,-0.240,-0.240,0.000,0.000,0.000
1605140147744129792,10.0.1.140,1074,move_down,-0.260,-0.260,-0.260,0.000,0.000,0.000
1605140149547084032,10.0.1.140,777,move_down,-0.280,-0.280,-0.280,0.000,0.000,0.000
1605140151235588096,10.0.1.140,556,move_down,-0.300,-0.300,-0.300,0.000,0.000,0.000
1605140152964545024,10.0.1.140,582,move_down,-0.320,-0.320,-0.320,0.000,0.000,0.000
1605140154615236096,10.0.1.140,531,move_down,-0.340,-0.340,-0.340,0.000,0.000,0.000
1605140156435281920,10.0.1.140,622,move_down,-0.360,-0.360,-0.360,0.000,0.000,0.000
1605140159550270208,10.0.1.140,1811,move_down,-0.380,-0.380,-0.380,0.000,0.000,0.000
1605140161414311936,10.0.1.140,527,move_down,-0.400,-0.400,-0.400,0.000,0.000,0.000
1605140163111002880,10.0.1.140,608,move_down,-0.420,-0.420,-0.420,0.000,0.000,0.000
1605140164738054912,10.0.1.140,534,move_down,-0.440,-0.440,-0.440,0.000,0.000,0.000
1605140166494884096,10.0.1.140,562,move_down,-0.460,-0.460,-0.460,0.000,0.000,0.000
1605140168787650048,10.0.1.140,900,move_down,-0.480,-0.480,-0.480,0.000,0.000,0.000
1605140170644568064,10.0.1.140,781,move_down,-0.500,-0.500,-0.500,0.000,0.000,0.000
1605140172509810944,10.0.1.140,791,move_down,-0.520,-0.520,-0.520,0.000,0.000,0.000
1605140174739881984,10.0.1.140,1140,move_down,-0.540,-0.540,-0.540,0.000,0.000,0.000
1605140176707825920,10.0.1.140,599,move_down,-0.560,-0.560,-0.560,0.000,0.000,0.000
1605140178372752896,10.0.1.140,594,move_down,-0.580,-0.580,-0.580,0.000,0.000,0.000
1605140180437225216,10.0.1.140,961,move_down,-0.600,-0.600,-0.600,0.000,0.000,0.000
1605140182081026048,10.0.1.140,596,move_down,-0.620,-0.620,-0.620,0.000,0.000,0.000
1605140183186724864,10.0.1.140,40,pick,-0.630,-0.630,-0.630,0.000,0.000,0.000
1605140184227973888,10.0.1.140,70,pick,-0.640,-0.640,-0.640,0.000,0.000,0.000
1605140185226814976,10.0.1.140,65,pick,-0.650,-0.650,-0.650,0.000,0.000,0.000
1605140186204075008,10.0.1.140,41,pick,-0.660,-0.660,-0.660,0.000,0.000,0.000
1605140187216263936,10.0.1.140,44,pick,-0.670,-0.670,-0.670,0.000,0.000,0.000
1605140188279998976,10.0.1.140,106,pick,-0.680,-0.680,-0.680,0.000,0.000,0.000
1605140189212655104,10.0.1.140,38,pick,-0.690,-0.690,-0.690,0.000,0.000,0.000
1605140190226729984,10.0.1.140,47,pick,-0.700,-0.700,-0.700,0.000,0.000,0.000
1605140192252527872,10.0.1.140,71,pick,-0.720,-0.720,-0.720,0.000,0.000,0.000
1605140193257602816,10.0.1.140,74,pick,-0.730,-0.730,-0.730,0.000,0.000,0.000
1605140194257654784,10.0.1.140,74,pick,-0.740,-0.740,-0.740,0.000,0.000,0.000
1605140195249326080,10.0.1.140,54,pick,-0.750,-0.750,-0.750,0.000,0.000,0.000
1605140196232001024,10.0.1.140,36,pick,-0.760,-0.760,-0.760,0.000,0.000,0.000
1605140197243926016,10.0.1.140,46,pick,-0.770,-0.770,-0.770,0.000,0.000,0.000
1605140198259741184,10.0.1.140,58,pick,-0.780,-0.780,-0.780,0.000,0.000,0.000
1605140199271867904,10.0.1.140,67,pick,-0.790,-0.790,-0.790,0.000,0.000,0.000
1605140201296550912,10.0.1.140,89,pick,-0.810,-0.810,-0.810,0.000,0.000,0.000
1605140202906811904,10.0.1.140,699,move_up,-0.790,-0.790,-0.790,0.000,0.000,0.000
1605140204476641792,10.0.1.140,507,move_up,-0.770,-0.770,-0.770,0.000,0.000,0.000
1605140206878278912,10.0.1.140,873,move_up,-0.750,-0.750,-0.750,0.000,0.000,0.000
1605140208555993088,10.0.1.140,607,move_up,-0.730,-0.730,-0.730,0.000,0.000,0.000
1605140210612782080,10.0.1.140,658,move_up,-0.710,-0.710,-0.710,0.000,0.000,0.000
1605140212759068928,10.0.1.140,739,move_up,-0.690,-0.690,-0.690,0.000,0.000,0.000
1605140214596805120,10.0.1.140,771,move_up,-0.670,-0.670,-0.670,0.000,0.000,0.000
1605140216120739840,10.0.1.140,474,move_up,-0.650,-0.650,-0.650,0.000,0.000,0.000
1605140218063982080,10.0.1.140,768,move_up,-0.630,-0.630,-0.630,0.000,0.000,0.000
1605140219900673024,10.0.1.140,737,move_up,-0.610,-0.610,-0.610,0.000,0.000,0.000
1605140221934500864,10.0.1.140,906,move_up,-0.590,-0.590,-0.590,0.000,0.000,0.000
1605140223778868992,10.0.1.140,753,move_up,-0.570,-0.570,-0.570,0.000,0.000,0.000
1605140225510687232,10.0.1.140,652,move_up,-0.550,-0.550,-0.550,0.000,0.000,0.000
1605140227468456960,10.0.1.140,852,move_up,-0.530,-0.530,-0.530,0.000,0.000,0.000
1605140229277177088,10.0.1.140,587,move_up,-0.510,-0.510,-0.510,0.000,0.000,0.000
1605140231093511936,10.0.1.140,527,move_up,-0.490,-0.490,-0.490,0.000,0.000,0.000
1605140232837321984,10.0.1.140,718,move_up,-0.470,-0.470,-0.470,0.000,0.000,0.000
1605140234691820032,10.0.1.140,809,move_up,-0.450,-0.450,-0.450,0.000,0.000,0.000
1605140236655069184,10.0.1.140,568,move_up,-0.430,-0.430,-0.430,0.000,0.000,0.000
1605140238576252928,10.0.1.140,906,move_up,-0.410,-0.410,-0.410,0.000,0.000,0.000
1605140240745320960,10.0.1.140,1043,move_up,-0.390,-0.390,-0.390,0.000,0.000,0.000
1605140242551439104,10.0.1.140,760,move_up,-0.370,-0.370,-0.370,0.000,0.000,0.000
1605140244473637120,10.0.1.140,866,move_up,-0.350,-0.350,-0.350,0.000,0.000,0.000
1605140246481193984,10.0.1.140,679,move_up,-0.330,-0.330,-0.330,0.000,0.000,0.000
1605140248284238080,10.0.1.140,708,move_up,-0.310,-0.310,-0.310,0.000,0.000,0.000
1605140249919101952,10.0.1.140,634,move_up,-0.290,-0.290,-0.290,0.000,0.000,0.000
1605140251734624000,10.0.1.140,756,move_up,-0.270,-0.270,-0.270,0.000,0.000,0.000
1605140253460905984,10.0.1.140,624,move_up,-0.250,-0.250,-0.250,0.000,0.000,0.000
1605140255237071872,10.0.1.140,731,move_up,-0.230,-0.230,-0.230,0.000,0.000,0.000
1605140256276382976,10.0.1.140,42,place,-0.220,-0.220,-0.220,0.000,0.000,0.000
1605140257278196224,10.0.1.140,43,place,-0.210,-0.210,-0.210,0.000,0.000,0.000
1605140258282951168,10.0.1.140,47,place,-0.200,-0.200,-0.200,0.000,0.000,0.000
1605140259296393984,10.0.1.140,56,place,-0.190,-0.190,-0.190,0.000,0.000,0.000
1605140260294635008,10.0.1.140,43,place,-0.180,-0.180,-0.180,0.000,0.000,0.000
1605140261287168000,10.0.1.140,35,place,-0.170,-0.170,-0.170,0.000,0.000,0.000
1605140262316321024,10.0.1.140,60,place,-0.160,-0.160,-0.160,0.000,0.000,0.000
1605140266361506816,10.0.1.140,75,place,-0.120,-0.120,-0.120,0.000,0.000,0.000
1605140267329864960,10.0.1.140,42,place,-0.110,-0.110,-0.110,0.000,0.000,0.000
1605140268339034112,10.0.1.140,51,place,-0.100,-0.100,-0.100,0.000,0.000,0.000
1605140269336056064,10.0.1.140,40,place,-0.090,-0.090,-0.090,0.000,0.000,0.000
1605140271354068992,10.0.1.140,50,place,-0.070,-0.070,-0.070,0.000,0.000,0.000
1605140272363873024,10.0.1.140,57,place,-0.060,-0.060,-0.060,0.000,0.000,0.000
1605140273359108864,10.0.1.140,51,place,-0.050,-0.050,-0.050,0.000,0.000,0.000
1605140274356329984,10.0.1.140,44,place,-0.040,-0.040,-0.040,0.000,0.000,0.000
1605140275934034176,10.0.1.140,610,move_down,-0.060,-0.060,-0.060,0.000,0.000,0.000
1605140277895067904,10.0.1.140,663,move_down,-0.080,-0.080,-0.080,0.000,0.000,0.000
1605140279732024832,10.0.1.140,776,move_down,-0.100,-0.100,-0.100,0.000,0.000,0.000
1605140281714510848,10.0.1.140,679,move_down,-0.120,-0.120,-0.120,0.000,0.000,0.000
1605140283508155136,10.0.1.140,634,move_down,-0.140,-0.140,-0.140,0.000,0.000,0.000
1605140285544678912,10.0.1.140,976,move_down,-0.160,-0.160,-0.160,0.000,0.000,0.000
1605140287512239872,10.0.1.140,867,move_down,-0.180,-0.180,-0.180,0.000,0.000,0.000
1605140289430827008,10.0.1.140,691,move_down,-0.200,-0.200,-0.200,0.000,0.000,0.000
1605140291217966080,10.0.1.140,689,move_down,-0.220,-0.220,-0.220,0.000,0.000,0.000
1605140293137028864,10.0.1.140,874,move_down,-0.240,-0.240,-0.240,0.000,0.000,0.000
1605140295011127040,10.0.1.140,717,move_down,-0.260,-0.260,-0.260,0.000,0.000,0.000
1605140297123145984,10.0.1.140,966,move_down,-0.280,-0.280,-0.280,0.000,0.000,0.000
1605140298826448896,10.0.1.140,630,move_down,-0.300,-0.300,-0.300,0.000,0.000,0.000
1605140300749088000,10.0.1.140,621,move_down,-0.320,-0.320,-0.320,0.000,0.000,0.000
1605140302565170176,10.0.1.140,745,move_down,-0.340,-0.340,-0.340,0.000,0.000,0.000
1605140304238970112,10.0.1.140,625,move_down,-0.360,-0.360,-0.360,0.000,0.000,0.000
1605140306569755904,10.0.1.140,1206,move_down,-0.380,-0.380,-0.380,0.000,0.000,0.000
1605140308216995840,10.0.1.140,507,move_down,-0.400,-0.400,-0.400,0.000,0.000,0.000
1605140310133558016,10.0.1.140,677,move_down,-0.420,-0.420,-0.420,0.000,0.000,0.000
1605140312030662912,10.0.1.140,778,move_down,-0.440,-0.440,-0.440,0.000,0.000,0.000
1605140314015175168,10.0.1.140,875,move_down,-0.460,-0.460,-0.460,0.000,0.000,0.000
1605140316142798848,10.0.1.140,735,move_down,-0.480,-0.480,-0.480,0.000,0.000,0.000
1605140317821590784,10.0.1.140,611,move_down,-0.500,-0.500,-0.500,0.000,0.000,0.000
1605140319609766912,10.0.1.140,756,move_down,-0.520,-0.520,-0.520,0.000,0.000,0.000
1605140321900793088,10.0.1.140,646,move_down,-0.540,-0.540,-0.540,0.000,0.000,0.000
1605140323671917824,10.0.1.140,698,move_down,-0.560,-0.560,-0.560,0.000,0.000,0.000
1605140325372605184,10.0.1.140,608,move_down,-0.580,-0.580,-0.580,0.000,0.000,0.000
1605140327041605120,10.0.1.140,601,move_down,-0.600,-0.600,-0.600,0.000,0.000,0.000
1605140328906814976,10.0.1.140,721,move_down,-0.620,-0.620,-0.620,0.000,0.000,0.000
1605140330074151936,10.0.1.140,69,pick,-0.630,-0.630,-0.630,0.000,0.000,0.000
1605140331057140224,10.0.1.140,51,pick,-0.640,-0.640,-0.640,0.000,0.000,0.000
1605140332058896896,10.0.1.140,51,pick,-0.650,-0.650,-0.650,0.000,0.000,0.000
1605140333076560896,10.0.1.140,63,pick,-0.660,-0.660,-0.660,0.000,0.000,0.000
1605140334079938048,10.0.1.140,65,pick,-0.670,-0.670,-0.670,0.000,0.000,0.000
1605140335065833216,10.0.1.140,44,pick,-0.680,-0.680,-0.680,0.000,0.000,0.000
1605140337096867072,10.0.1.140,46,pick,-0.700,-0.700,-0.700,0.000,0.000,0.000
1605140338108780032,10.0.1.140,57,pick,-0.710,-0.710,-0.710,0.000,0.000,0.000
1605140342109113856,10.0.1.140,39,pick,-0.750,-0.750,-0.750,0.000,0.000,0.000
1605140343113676032,10.0.1.140,42,pick,-0.760,-0.760,-0.760,0.000,0.000,0.000
1605140345144156928,10.0.1.140,64,pick,-0.780,-0.780,-0.780,0.000,0.000,0.000
1605140346122668032,10.0.1.140,41,pick,-0.790,-0.790,-0.790,0.000,0.000,0.000
1605140347134702848,10.0.1.140,51,pick,-0.800,-0.800,-0.800,0.000,0.000,0.000
1605140349706845952,10.0.1.140,591,move_up,-0.790,-0.790,-0.790,0.000,0.000,0.000
1605140351838949888,10.0.1.140,863,move_up,-0.770,-0.770,-0.770,0.000,0.000,0.000
1605140353531739904,10.0.1.140,626,move_up,-0.750,-0.750,-0.750,0.000,0.000,0.000
1605140355307987968,10.0.1.140,628,move_up,-0.730,-0.730,-0.730,0.000,0.000,0.000
1605140357047864832,10.0.1.140,557,move_up,-0.710,-0.710,-0.710,0.000,0.000,0.000
1605140358780605184,10.0.1.140,623,move_up,-0.690,-0.690,-0.690,0.000,0.000,0.000
1605140360749445888,10.0.1.140,799,move_up,-0.670,-0.670,-0.670,0.000,0.000,0.000
1605140362636382208,10.0.1.140,676,move_up,-0.650,-0.650,-0.650,0.000,0.000,0.000
1605140364390543872,10.0.1.140,740,move_up,-0.630,-0.630,-0.630,0.000,0.000,0.000
1605140366451142912,10.0.1.140,675,move_up,-0.610,-0.610,-0.610,0.000,0.000,0.000
1605140368136521984,10.0.1.140,576,move_up,-0.590,-0.590,-0.590,0.000,0.000,0.000
1605140370073506048,10.0.1.140,721,move_up,-0.570,-0.570,-0.570,0.000,0.000,0.000
1605140372160386048,10.0.1.140,885,move_up,-0.550,-0.550,-0.550,0.000,0.000,0.000
1605140374002624000,10.0.1.140,782,move_up,-0.530,-0.530,-0.530,0.000,0.000,0.000
1605140376073498112,10.0.1.140,917,move_up,-0.510,-0.510,-0.510,0.000,0.000,0.000
1605140377914433024,10.0.1.140,703,move_up,-0.490,-0.490,-0.490,0.000,0.000,0.000
1605140379803280128,10.0.1.140,861,move_up,-0.470,-0.470,-0.470,0.000,0.000,0.000
1605140381506381056,10.0.1.140,653,move_up,-0.450,-0.450,-0.450,0.000,0.000,0.000
1605140383226226176,10.0.1.140,601,move_up,-0.430,-0.430,-0.430,0.000,0.000,0.000
1605140385119316224,10.0.1.140,750,move_up,-0.410,-0.410,-0.410,0.000,0.000,0.000
1605140386931988992,10.0.1.140,676,move_up,-0.390,-0.390,-0.390,0.000,0.000,0.000
1605140388743465984,10.0.1.140,554,move_up,-0.370,-0.370,-0.370,0.000,0.000,0.000
1605140390898446080,10.0.1.140,1031,move_up,-0.350,-0.350,-0.350,0.000,0.000,0.000
1605140396154259968,10.0.1.140,967,move_up,-0.330,-0.330,-0.330,0.000,0.000,0.000
1605140397960075008,10.0.1.140,720,move_up,-0.310,-0.310,-0.310,0.000,0.000,0.000
1605140399747288832,10.0.1.140,697,move_up,-0.290,-0.290,-0.290,0.000,0.000,0.000
1605140401514455040,10.0.1.140,678,move_up,-0.270,-0.270,-0.270,0.000,0.000,0.000
1605140403201360896,10.0.1.140,610,move_up,-0.250,-0.250,-0.250,0.000,0.000,0.000
1605140404981824000,10.0.1.140,606,move_up,-0.230,-0.230,-0.230,0.000,0.000,0.000
1605140406102968832,10.0.1.140,46,place,-0.220,-0.220,-0.220,0.000,0.000,0.000
1605140408123291904,10.0.1.140,57,place,-0.200,-0.200,-0.200,0.000,0.000,0.000
1605140409130689024,10.0.1.140,62,place,-0.190,-0.190,-0.190,0.000,0.000,0.000
1605140410117360128,10.0.1.140,48,place,-0.180,-0.180,-0.180,0.000,0.000,0.000
1605140411164043008,10.0.1.140,77,place,-0.170,-0.170,-0.170,0.000,0.000,0.000
1605140413133176064,10.0.1.140,42,place,-0.150,-0.150,-0.150,0.000,0.000,0.000
1605140415134257152,10.0.1.140,38,place,-0.130,-0.130,-0.130,0.000,0.000,0.000
1605140416182660096,10.0.1.140,85,place,-0.120,-0.120,-0.120,0.000,0.000,0.000
1605140418171684096,10.0.1.140,63,place,-0.100,-0.100,-0.100,0.000,0.000,0.000
1605140419166196992,10.0.1.140,56,place,-0.090,-0.090,-0.090,0.000,0.000,0.000
1605140420170594816,10.0.1.140,59,place,-0.080,-0.080,-0.080,0.000,0.000,0.000
1605140422174059008,10.0.1.140,60,place,-0.060,-0.060,-0.060,0.000,0.000,0.000
1605140423186363904,10.0.1.140,51,place,-0.050,-0.050,-0.050,0.000,0.000,0.000
1605140424222455040,10.0.1.140,86,place,-0.040,-0.040,-0.040,0.000,0.000,0.000
1605140425832355072,10.0.1.140,695,move_down,-0.060,-0.060,-0.060,0.000,0.000,0.000
1605140427812035072,10.0.1.140,898,move_down,-0.080,-0.080,-0.080,0.000,0.000,0.000
1605140429792203776,10.0.1.140,877,move_down,-0.100,-0.100,-0.100,0.000,0.000,0.000
1605140431336018944,10.0.1.140,545,move_down,-0.120,-0.120,-0.120,0.000,0.000,0.000
1605140433071523840,10.0.1.140,605,move_down,-0.140,-0.140,-0.140,0.000,0.000,0.000
1605140435075539200,10.0.1.140,922,move_down,-0.160,-0.160,-0.160,0.000,0.000,0.000
1605140436824879872,10.0.1.140,677,move_down,-0.180,-0.180,-0.180,0.000,0.000,0.000
1605140439003778048,10.0.1.140,1076,move_down,-0.200,-0.200,-0.200,0.000,0.000,0.000
1605140443860446976,10.0.1.140,571,move_down,-0.220,-0.220,-0.220,0.000,0.000,0.000
1605140445571717120,10.0.1.140,678,move_down,-0.240,-0.240,-0.240,0.000,0.000,0.000
1605140447632603904,10.0.1.140,537,move_down,-0.260,-0.260,-0.260,0.000,0.000,0.000
1605140449614813184,10.0.1.140,753,move_down,-0.280,-0.280,-0.280,0.000,0.000,0.000
1605140451408950016,10.0.1.140,522,move_down,-0.300,-0.300,-0.300,0.000,0.000,0.000
1605140453116256000,10.0.1.140,612,move_down,-0.320,-0.320,-0.320,0.000,0.000,0.000
1605140454936354048,10.0.1.140,665,move_down,-0.340,-0.340,-0.340,0.000,0.000,0.000
1605140456521473024,10.0.1.140,535,move_down,-0.360,-0.360,-0.360,0.000,0.000,0.000
1605140458180939008,10.0.1.140,644,move_down,-0.380,-0.380,-0.380,0.000,0.000,0.000
1605140460005858048,10.0.1.140,537,move_down,-0.400,-0.400,-0.400,0.000,0.000,0.000
1605140461825221120,10.0.1.140,692,move_down,-0.420,-0.420,-0.420,0.000,0.000,0.000
1605140463949403904,10.0.1.140,1075,move_down,-0.440,-0.440,-0.440,0.000,0.000,0.000
1605140465633467904,10.0.1.140,557,move_down,-0.460,-0.460,-0.460,0.000,0.000,0.000
1605140467425033984,10.0.1.140,613,move_down,-0.480,-0.480,-0.480,0.000,0.000,0.000
1605140469152708096,10.0.1.140,531,move_down,-0.500,-0.500,-0.500,0.000,0.000,0.000
1605140471037452032,10.0.1.140,718,move_down,-0.520,-0.520,-0.520,0.000,0.000,0.000
1605140472960772096,10.0.1.140,842,move_down,-0.540,-0.540,-0.540,0.000,0.000,0.000
1605140474919375872,10.0.1.140,807,move_down,-0.560,-0.560,-0.560,0.000,0.000,0.000
1605140477106040064,10.0.1.140,1076,move_down,-0.580,-0.580,-0.580,0.000,0.000,0.000
1605140479009207040,10.0.1.140,862,move_down,-0.600,-0.600,-0.600,0.000,0.000,0.000
1605140480723874048,10.0.1.140,607,move_down,-0.620,-0.620,-0.620,0.000,0.000,0.000
1605140482892955904,10.0.1.140,52,pick,-0.640,-0.640,-0.640,0.000,0.000,0.000
1605140483954593792,10.0.1.140,67,pick,-0.650,-0.650,-0.650,0.000,0.000,0.000
1605140484958738944,10.0.1.140,71,pick,-0.660,-0.660,-0.660,0.000,0.000,0.000
1605140487940898048,10.0.1.140,40,pick,-0.690,-0.690,-0.690,0.000,0.000,0.000
1605140488945647104,10.0.1.140,44,pick,-0.700,-0.700,-0.700,0.000,0.000,0.000
1605140489964015872,10.0.1.140,61,pick,-0.710,-0.710,-0.710,0.000,0.000,0.000
1605140490938298112,10.0.1.140,34,pick,-0.720,-0.720,-0.720,0.000,0.000,0.000
1605140491961703168,10.0.1.140,54,pick,-0.730,-0.730,-0.730,0.000,0.000,0.000
1605140494007194880,10.0.1.140,88,pick,-0.750,-0.750,-0.750,0.000,0.000,0.000
1605140494984196864,10.0.1.140,52,pick,-0.760,-0.760,-0.760,0.000,0.000,0.000
1605140495993841920,10.0.1.140,61,pick,-0.770,-0.770,-0.770,0.000,0.000,0.000
1605140497004733184,10.0.1.140,70,pick,-0.780,-0.780,-0.780,0.000,0.000,0.000
1605140497988806912,10.0.1.140,51,pick,-0.790,-0.790,-0.790,0.000,0.000,0.000
1605140498991537920,10.0.1.140,52,pick,-0.800,-0.800,-0.800,0.000,0.000,0.000
1605140500014630912,10.0.1.140,65,pick,-0.810,-0.810,-0.810,0.000,0.000,0.000
1605140501609050112,10.0.1.140,659,move_up,-0.790,-0.790,-0.790,0.000,0.000,0.000
1605140503590637824,10.0.1.140,876,move_up,-0.770,-0.770,-0.770,0.000,0.000,0.000
1605140505382525952,10.0.1.140,621,move_up,-0.750,-0.750,-0.750,0.000,0.000,0.000
1605140507025652992,10.0.1.140,511,move_up,-0.730,-0.730,-0.730,0.000,0.000,0.000
1605140508827598080,10.0.1.140,543,move_up,-0.710,-0.710,-0.710,0.000,0.000,0.000
1605140511130328064,10.0.1.140,940,move_up,-0.690,-0.690,-0.690,0.000,0.000,0.000
1605140512718735104,10.0.1.140,580,move_up,-0.670,-0.670,-0.670,0.000,0.000,0.000
1605140514426696960,10.0.1.140,596,move_up,-0.650,-0.650,-0.650,0.000,0.000,0.000
1605140516416979200,10.0.1.140,662,move_up,-0.630,-0.630,-0.630,0.000,0.000,0.000
1605140518755392000,10.0.1.140,1043,move_up,-0.610,-0.610,-0.610,0.000,0.000,0.000
1605140520377634048,10.0.1.140,578,move_up,-0.590,-0.590,-0.590,0.000,0.000,0.000
1605140522165026048,10.0.1.140,785,move_up,-0.570,-0.570,-0.570,0.000,0.000,0.000
1605140524008408064,10.0.1.140,750,move_up,-0.550,-0.550,-0.550,0.000,0.000,0.000
1605140525722390016,10.0.1.140,670,move_up,-0.530,-0.530,-0.530,0.000,0.000,0.000
1605140527360593152,10.0.1.140,575,move_up,-0.510,-0.510,-0.510,0.000,0.000,0.000
1605140529056422912,10.0.1.140,660,move_up,-0.490,-0.490,-0.490,0.000,0.000,0.000
1605140530786360064,10.0.1.140,618,move_up,-0.470,-0.470,-0.470,0.000,0.000,0.000
1605140532460280064,10.0.1.140,536,move_up,-0.450,-0.450,-0.450,0.000,0.000,0.000
1605140534148396032,10.0.1.140,620,move_up,-0.430,-0.430,-0.430,0.000,0.000,0.000
1605140535991267840,10.0.1.140,730,move_up,-0.410,-0.410,-0.410,0.000,0.000,0.000
1605140537892707072,10.0.1.140,722,move_up,-0.390,-0.390,-0.390,0.000,0.000,0.000
1605140540396434176,10.0.1.140,886,move_up,-0.370,-0.370,-0.370,0.000,0.000,0.000
1605140542416131072,10.0.1.140,861,move_up,-0.350,-0.350,-0.350,0.000,0.000,0.000
1605140544449150976,10.0.1.140,933,move_up,-0.330,-0.330,-0.330,0.000,0.000,0.000
1605140546352272896,10.0.1.140,881,move_up,-0.310,-0.310,-0.310,0.000,0.000,0.000
1605140548684758784,10.0.1.140,1093,move_up,-0.290,-0.290,-0.290,0.000,0.000,0.000
1605140550447862016,10.0.1.140,651,move_up,-0.270,-0.270,-0.270,0.000,0.000,0.000
1605140552548209920,10.0.1.140,892,move_up,-0.250,-0.250,-0.250,0.000,0.000,0.000
1605140554301182976,10.0.1.140,585,move_up,-0.230,-0.230,-0.230,0.000,0.000,0.000
1605140560474174976,10.0.1.140,45,place,-0.170,-0.170,-0.170,0.000,0.000,0.000
1605140563550162944,10.0.1.140,58,place,-0.140,-0.140,-0.140,0.000,0.000,0.000
1605140566579062016,10.0.1.140,73,place,-0.110,-0.110,-0.110,0.000,0.000,0.000
1605140567573390080,10.0.1.140,61,place,-0.100,-0.100,-0.100,0.000,0.000,0.000
1605140568563788800,10.0.1.140,50,place,-0.090,-0.090,-0.090,0.000,0.000,0.000
1605140569570173952,10.0.1.140,55,place,-0.080,-0.080,-0.080,0.000,0.000,0.000
1605140570560136192,10.0.1.140,44,place,-0.070,-0.070,-0.070,0.000,0.000,0.000
1605140571563896064,10.0.1.140,45,place,-0.060,-0.060,-0.060,0.000,0.000,0.000
1605140572571038976,10.0.1.140,51,place,-0.050,-0.050,-0.050,0.000,0.000,0.000
1605140573575830016,10.0.1.140,54,place,-0.040,-0.040,-0.040,0.000,0.000,0.000
1605140575314273024,10.0.1.140,792,move_down,-0.060,-0.060,-0.060,0.000,0.000,0.000
1605140577302501888,10.0.1.140,921,move_down,-0.080,-0.080,-0.080,0.000,0.000,0.000
1605140578951258880,10.0.1.140,575,move_down,-0.100,-0.100,-0.100,0.000,0.000,0.000
1605140580684933888,10.0.1.140,632,move_down,-0.120,-0.120,-0.120,0.000,0.000,0.000
1605140582262927104,10.0.1.140,552,move_down,-0.140,-0.140,-0.140,0.000,0.000,0.000
1605140584259921152,10.0.1.140,970,move_down,-0.160,-0.160,-0.160,0.000,0.000,0.000
1605140586385964032,10.0.1.140,1042,move_down,-0.180,-0.180,-0.180,0.000,0.000,0.000
1605140588653019904,10.0.1.140,1083,move_down,-0.200,-0.200,-0.200,0.000,0.000,0.000
1605140590458172160,10.0.1.140,565,move_down,-0.220,-0.220,-0.220,0.000,0.000,0.000
1605140592121520128,10.0.1.140,609,move_down,-0.240,-0.240,-0.240,0.000,0.000,0.000
1605140593904532992,10.0.1.140,669,move_down,-0.260,-0.260,-0.260,0.000,0.000,0.000
1605140595607084032,10.0.1.140,528,move_down,-0.280,-0.280,-0.280,0.000,0.000,0.000
1605140597881974016,10.0.1.140,828,move_down,-0.300,-0.300,-0.300,0.000,0.000,0.000
1605140599754323968,10.0.1.140,723,move_down,-0.320,-0.320,-0.320,0.000,0.000,0.000
1605140601437398016,10.0.1.140,567,move_down,-0.340,-0.340,-0.340,0.000,0.000,0.000
1605140603243196928,10.0.1.140,722,move_down,-0.360,-0.360,-0.360,0.000,0.000,0.000
1605140604943094016,10.0.1.140,589,move_down,-0.380,-0.380,-0.380,0.000,0.000,0.000
1605140606696508928,10.0.1.140,691,move_down,-0.400,-0.400,-0.400,0.000,0.000,0.000
1605140608513756160,10.0.1.140,737,move_down,-0.420,-0.420,-0.420,0.000,0.000,0.000
1605140610303709952,10.0.1.140,658,move_down,-0.440,-0.440,-0.440,0.000,0.000,0.000
1605140612096667136,10.0.1.140,686,move_down,-0.460,-0.460,-0.460,0.000,0.000,0.000
1605140614272722944,10.0.1.140,1142,move_down,-0.480,-0.480,-0.480,0.000,0.000,0.000
1605140616043982080,10.0.1.140,608,move_down,-0.500,-0.500,-0.500,0.000,0.000,0.000
1605140617647015168,10.0.1.140,570,move_down,-0.520,-0.520,-0.520,0.000,0.000,0.000
1605140619366871040,10.0.1.140,669,move_down,-0.540,-0.540,-0.540,0.000,0.000,0.000
1605140621298705152,10.0.1.140,733,move_down,-0.560,-0.560,-0.560,0.000,0.000,0.000
1605140623192729856,10.0.1.140,873,move_down,-0.580,-0.580,-0.580,0.000,0.000,0.000
1605140625213867008,10.0.1.140,846,move_down,-0.600,-0.600,-0.600,0.000,0.000,0.000
1605140626976865024,10.0.1.140,669,move_down,-0.620,-0.620,-0.620,0.000,0.000,0.000
1605140628169463040,10.0.1.140,65,pick,-0.630,-0.630,-0.630,0.000,0.000,0.000
1605140629223028992,10.0.1.140,84,pick,-0.640,-0.640,-0.640,0.000,0.000,0.000
1605140631187175936,10.0.1.140,36,pick,-0.660,-0.660,-0.660,0.000,0.000,0.000
1605140632235649024,10.0.1.140,78,pick,-0.670,-0.670,-0.670,0.000,0.000,0.000
1605140634236706048,10.0.1.140,68,pick,-0.690,-0.690,-0.690,0.000,0.000,0.000
1605140635223678208,10.0.1.140,54,pick,-0.700,-0.700,-0.700,0.000,0.000,0.000
1605140636220199168,10.0.1.140,41,pick,-0.710,-0.710,-0.710,0.000,0.000,0.000
1605140637251307008,10.0.1.140,71,pick,-0.720,-0.720,-0.720,0.000,0.000,0.000
1605140638229617152,10.0.1.140,48,pick,-0.730,-0.730,-0.730,0.000,0.000,0.000
1605140639235584000,10.0.1.140,53,pick,-0.740,-0.740,-0.740,0.000,0.000,0.000
1605140640228158976,10.0.1.140,44,pick,-0.750,-0.750,-0.750,0.000,0.000,0.000
1605140641293129984,10.0.1.140,105,pick,-0.760,-0.760,-0.760,0.000,0.000,0.000
1605140642248896000,10.0.1.140,57,pick,-0.770,-0.770,-0.770,0.000,0.000,0.000
1605140643238818048,10.0.1.140,46,pick,-0.780,-0.780,-0.780,0.000,0.000,0.000
1605140644252814080,10.0.1.140,54,pick,-0.790,-0.790,-0.790,0.000,0.000,0.000
1605140645255811072,10.0.1.140,56,pick,-0.800,-0.800,-0.800,0.000,0.000,0.000
1605140646259453952,10.0.1.140,45,pick,-0.810,-0.810,-0.810,0.000,0.000,0.000
1605140648231909888,10.0.1.140,1017,move_up,-0.790,-0.790,-0.790,0.000,0.000,0.000
1605140649874684928,10.0.1.140,534,move_up,-0.770,-0.770,-0.770,0.000,0.000,0.000
1605140651622398976,10.0.1.140,688,move_up,-0.750,-0.750,-0.750,0.000,0.000,0.000
1605140653663917056,10.0.1.140,836,move_up,-0.730,-0.730,-0.730,0.000,0.000,0.000
1605140655884253952,10.0.1.140,1162,move_up,-0.710,-0.710,-0.710,0.000,0.000,0.000
1605140657829328128,10.0.1.140,869,move_up,-0.690,-0.690,-0.690,0.000,0.000,0.000
1605140659581186048,10.0.1.140,637,move_up,-0.670,-0.670,-0.670,0.000,0.000,0.000
1605140661260431104,10.0.1.140,613,move_up,-0.650,-0.650,-0.650,0.000,0.000,0.000
1605140662963644928,10.0.1.140,627,move_up,-0.630,-0.630,-0.630,0.000,0.000,0.000
1605140664719049984,10.0.1.140,655,move_up,-0.610,-0.610,-0.610,0.000,0.000,0.000
1605140666712385792,10.0.1.140,548,move_up,-0.590,-0.590,-0.590,0.000,0.000,0.000
1605140668573467904,10.0.1.140,700,move_up,-0.570,-0.570,-0.570,0.000,0.000,0.000
1605140670250616064,10.0.1.140,558,move_up,-0.550,-0.550,-0.550,0.000,0.000,0.000
1605140672063791104,10.0.1.140,769,move_up,-0.530,-0.530,-0.530,0.000,0.000,0.000
1605140673762917888,10.0.1.140,613,move_up,-0.510,-0.510,-0.510,0.000,0.000,0.000
1605140675503998976,10.0.1.140,606,move_up,-0.490,-0.490,-0.490,0.000,0.000,0.000
1605140677633515008,10.0.1.140,752,move_up,-0.470,-0.470,-0.470,0.000,0.000,0.000
1605140679550599936,10.0.1.140,714,move_up,-0.450,-0.450,-0.450,0.000,0.000,0.000
1605140681574130176,10.0.1.140,857,move_up,-0.430,-0.430,-0.430,0.000,0.000,0.000
1605140683541181952,10.0.1.140,837,move_up,-0.410,-0.410,-0.410,0.000,0.000,0.000
1605140685421485824,10.0.1.140,797,move_up,-0.390,-0.390,-0.390,0.000,0.000,0.000
1605140687589792000,10.0.1.140,1001,move_up,-0.370,-0.370,-0.370,0.000,0.000,0.000
1605140689280803072,10.0.1.140,601,move_up,-0.350,-0.350,-0.350,0.000,0.000,0.000
1605140690942755072,10.0.1.140,530,move_up,-0.330,-0.330,-0.330,0.000,0.000,0.000
1605140692960582144,10.0.1.140,853,move_up,-0.310,-0.310,-0.310,0.000,0.000,0.000
1605140694903308032,10.0.1.140,635,move_up,-0.290,-0.290,-0.290,0.000,0.000,0.000
1605140697133902080,10.0.1.140,995,move_up,-0.270,-0.270,-0.270,0.000,0.000,0.000
1605140699385122048,10.0.1.140,1067,move_up,-0.250,-0.250,-0.250,0.000,0.000,0.000
1605140701060643840,10.0.1.140,537,move_up,-0.230,-0.230,-0.230,0.000,0.000,0.000
1605140702231713024,10.0.1.140,56,place,-0.220,-0.220,-0.220,0.000,0.000,0.000
1605140704242428160,10.0.1.140,55,place,-0.200,-0.200,-0.200,0.000,0.000,0.000
1605140709247389952,10.0.1.140,34,place,-0.150,-0.150,-0.150,0.000,0.000,0.000
1605140710255176960,10.0.1.140,40,place,-0.140,-0.140,-0.140,0.000,0.000,0.000
1605140711262320896,10.0.1.140,42,place,-0.130,-0.130,-0.130,0.000,0.000,0.000
1605140712271446016,10.0.1.140,47,place,-0.120,-0.120,-0.120,0.000,0.000,0.000
1605140714298160128,10.0.1.140,56,place,-0.100,-0.100,-0.100,0.000,0.000,0.000
1605140716276071936,10.0.1.140,31,place,-0.080,-0.080,-0.080,0.000,0.000,0.000
1605140717341107968,10.0.1.140,89,place,-0.070,-0.070,-0.070,0.000,0.000,0.000
1605140718307363072,10.0.1.140,55,place,-0.060,-0.060,-0.060,0.000,0.000,0.000
1605140719319822080,10.0.1.140,62,place,-0.050,-0.050,-0.050,0.000,0.000,0.000
1605140721766260992,10.0.1.140,483,move_down,-0.060,-0.060,-0.060,0.000,0.000,0.000
1605140723535059968,10.0.1.140,683,move_down,-0.080,-0.080,-0.080,0.000,0.000,0.000
1605140725251040000,10.0.1.140,569,move_down,-0.100,-0.100,-0.100,0.000,0.000,0.000
1605140727103945984,10.0.1.140,676,move_down,-0.120,-0.120,-0.120,0.000,0.000,0.000
1605140729398080000,10.0.1.140,1255,move_down,-0.140,-0.140,-0.140,0.000,0.000,0.000
1605140731614750976,10.0.1.140,1047,move_down,-0.160,-0.160,-0.160,0.000,0.000,0.000
1605140733509133056,10.0.1.140,847,move_down,-0.180,-0.180,-0.180,0.000,0.000,0.000
1605140735280003072,10.0.1.140,640,move_down,-0.200,-0.200,-0.200,0.000,0.000,0.000
1605140736966907904,10.0.1.140,543,move_down,-0.220,-0.220,-0.220,0.000,0.000,0.000
1605140738998889984,10.0.1.140,866,move_down,-0.240,-0.240,-0.240,0.000,0.000,0.000
1605140740853492992,10.0.1.140,695,move_down,-0.260,-0.260,-0.260,0.000,0.000,0.000
1605140742540966144,10.0.1.140,595,move_down,-0.280,-0.280,-0.280,0.000,0.000,0.000
1605140744173772032,10.0.1.140,557,move_down,-0.300,-0.300,-0.300,0.000,0.000,0.000
1605140746480678144,10.0.1.140,1145,move_down,-0.320,-0.320,-0.320,0.000,0.000,0.000
1605140748027838976,10.0.1.140,528,move_down,-0.340,-0.340,-0.340,0.000,0.000,0.000
1605140749972398080,10.0.1.140,739,move_down,-0.360,-0.360,-0.360,0.000,0.000,0.000
1605140751567246080,10.0.1.140,563,move_down,-0.380,-0.380,-0.380,0.000,0.000,0.000
1605140753418076928,10.0.1.140,673,move_down,-0.400,-0.400,-0.400,0.000,0.000,0.000
1605140755249459968,10.0.1.140,547,move_down,-0.420,-0.420,-0.420,0.000,0.000,0.000
1605140757489214976,10.0.1.140,1135,move_down,-0.440,-0.440,-0.440,0.000,0.000,0.000
1605140759563254016,10.0.1.140,1007,move_down,-0.460,-0.460,-0.460,0.000,0.000,0.000
1605140762139072000,10.0.1.140,860,move_down,-0.480,-0.480,-0.480,0.000,0.000,0.000
1605140763847781888,10.0.1.140,579,move_down,-0.500,-0.500,-0.500,0.000,0.000,0.000
1605140765707346944,10.0.1.140,736,move_down,-0.520,-0.520,-0.520,0.000,0.000,0.000
1605140767874953984,10.0.1.140,1048,move_down,-0.540,-0.540,-0.540,0.000,0.000,0.000
1605140769570235136,10.0.1.140,590,move_down,-0.560,-0.560,-0.560,0.000,0.000,0.000
1605140771457132032,10.0.1.140,703,move_down,-0.580,-0.580,-0.580,0.000,0.000,0.000
1605140773254725888,10.0.1.140,679,move_down,-0.600,-0.600,-0.600,0.000,0.000,0.000
1605140774849230080,10.0.1.140,523,move_down,-0.620,-0.620,-0.620,0.000,0.000,0.000
1605140776046832128,10.0.1.140,50,pick,-0.630,-0.630,-0.630,0.000,0.000,0.000
1605140777065188864,10.0.1.140,62,pick,-0.640,-0.640,-0.640,0.000,0.000,0.000
1605140778072901120,10.0.1.140,69,pick,-0.650,-0.650,-0.650,0.000,0.000,0.000
1605140779106403072,10.0.1.140,101,pick,-0.660,-0.660,-0.660,0.000,0.000,0.000
1605140782079834880,10.0.1.140,63,pick,-0.690,-0.690,-0.690,0.000,0.000,0.000
1605140784085223936,10.0.1.140,45,pick,-0.710,-0.710,-0.710,0.000,0.000,0.000
1605140785113629184,10.0.1.140,72,pick,-0.720,-0.720,-0.720,0.000,0.000,0.000
1605140786105745920,10.0.1.140,63,pick,-0.730,-0.730,-0.730,0.000,0.000,0.000
1605140788134302976,10.0.1.140,50,pick,-0.750,-0.750,-0.750,0.000,0.000,0.000
1605140789142461184,10.0.1.140,53,pick,-0.760,-0.760,-0.760,0.000,0.000,0.000
1605140791163863040,10.0.1.140,57,pick,-0.780,-0.780,-0.780,0.000,0.000,0.000
1605140792165366784,10.0.1.140,54,pick,-0.790,-0.790,-0.790,0.000,0.000,0.000
1605140793180694016,10.0.1.140,57,pick,-0.800,-0.800,-0.800,0.000,0.000,0.000
1605140794202920960,10.0.1.140,77,pick,-0.810,-0.810,-0.810,0.000,0.000,0.000
1605140795878222080,10.0.1.140,752,move_up,-0.790,-0.790,-0.790,0.000,0.000,0.000
1605140797604915968,10.0.1.140,608,move_up,-0.770,-0.770,-0.770,0.000,0.000,0.000
1605140799446969088,10.0.1.140,706,move_up,-0.750,-0.750,-0.750,0.000,0.000,0.000
1605140801604599040,10.0.1.140,578,move_up,-0.730,-0.730,-0.730,0.000,0.000,0.000
1605140803417278976,10.0.1.140,625,move_up,-0.710,-0.710,-0.710,0.000,0.000,0.000
1605140805268517120,10.0.1.140,699,move_up,-0.690,-0.690,-0.690,0.000,0.000,0.000
1605140807256313088,10.0.1.140,874,move_up,-0.670,-0.670,-0.670,0.000,0.000,0.000
1605140809121972992,10.0.1.140,820,move_up,-0.650,-0.650,-0.650,0.000,0.000,0.000
1605140810839333888,10.0.1.140,609,move_up,-0.630,-0.630,-0.630,0.000,0.000,0.000
1605140812630316032,10.0.1.140,547,move_up,-0.610,-0.610,-0.610,0.000,0.000,0.000
1605140814671854080,10.0.1.140,878,move_up,-0.590,-0.590,-0.590,0.000,0.000,0.000
1605140816399560960,10.0.1.140,635,move_up,-0.570,-0.570,-0.570,0.000,0.000,0.000
1605140818118324992,10.0.1.140,540,move_up,-0.550,-0.550,-0.550,0.000,0.000,0.000
1605140819933427968,10.0.1.140,744,move_up,-0.530,-0.530,-0.530,0.000,0.000,0.000
1605140821547810048,10.0.1.140,529,move_up,-0.510,-0.510,-0.510,0.000,0.000,0.000
1605140823922614016,10.0.1.140,1161,move_up,-0.490,-0.490,-0.490,0.000,0.000,0.000
1605140825605117184,10.0.1.140,630,move_up,-0.470,-0.470,-0.470,0.000,0.000,0.000
1605140827638262016,10.0.1.140,931,move_up,-0.450,-0.450,-0.450,0.000,0.000,0.000
1605140829481515008,10.0.1.140,710,move_up,-0.430,-0.430,-0.430,0.000,0.000,0.000
1605140831351692800,10.0.1.140,746,move_up,-0.410,-0.410,-0.410,0.000,0.000,0.000
1605140833515991040,10.0.1.140,761,move_up,-0.390,-0.390,-0.390,0.000,0.000,0.000
1605140835326796032,10.0.1.140,776,move_up,-0.370,-0.370,-0.370,0.000,0.000,0.000
1605140837275444992,10.0.1.140,678,move_up,-0.350,-0.350,-0.350,0.000,0.000,0.000
1605140839126582016,10.0.1.140,705,move_up,-0.330,-0.330,-0.330,0.000,0.000,0.000
1605140840982598912,10.0.1.140,715,move_up,-0.310,-0.310,-0.310,0.000,0.000,0.000
1605140842959305984,10.0.1.140,683,move_up,-0.290,-0.290,-0.290,0.000,0.000,0.000
1605140844620193024,10.0.1.140,623,move_up,-0.270,-0.270,-0.270,0.000,0.000,0.000
1605140846709423104,10.0.1.140,946,move_up,-0.250,-0.250,-0.250,0.000,0.000,0.000
1605140848909050112,10.0.1.140,916,move_up,-0.230,-0.230,-0.230,0.000,0.000,0.000
1605140850126818816,10.0.1.140,56,place,-0.220,-0.220,-0.220,0.000,0.000,0.000
1605140852138569216,10.0.1.140,48,place,-0.200,-0.200,-0.200,0.000,0.000,0.000
1605140854148220928,10.0.1.140,55,place,-0.180,-0.180,-0.180,0.000,0.000,0.000
1605140855139463936,10.0.1.140,46,place,-0.170,-0.170,-0.170,0.000,0.000,0.000
1605140856149059072,10.0.1.140,52,place,-0.160,-0.160,-0.160,0.000,0.000,0.000
1605140857156979968,10.0.1.140,59,place,-0.150,-0.150,-0.150,0.000,0.000,0.000
1605140859170094080,10.0.1.140,65,place,-0.130,-0.130,-0.130,0.000,0.000,0.000
1605140860169861120,10.0.1.140,59,place,-0.120,-0.120,-0.120,0.000,0.000,0.000
1605140861167201024,10.0.1.140,55,place,-0.110,-0.110,-0.110,0.000,0.000,0.000
1605140863187459840,10.0.1.140,46,place,-0.090,-0.090,-0.090,0.000,0.000,0.000
1605140864192928000,10.0.1.140,47,place,-0.080,-0.080,-0.080,0.000,0.000,0.000
1605140865218029056,10.0.1.140,72,place,-0.070,-0.070,-0.070,0.000,0.000,0.000
1605140867204193024,10.0.1.140,52,place,-0.050,-0.050,-0.050,0.000,0.000,0.000
1605140868202932992,10.0.1.140,50,place,-0.040,-0.040,-0.040,0.000,0.000,0.000
1605140869628375040,10.0.1.140,473,move_down,-0.060,-0.060,-0.060,0.000,0.000,0.000
1605140871422278912,10.0.1.140,536,move_down,-0.080,-0.080,-0.080,0.000,0.000,0.000
1605140873035849984,10.0.1.140,517,move_down,-0.100,-0.100,-0.100,0.000,0.000,0.000
1605140874885111040,10.0.1.140,773,move_down,-0.120,-0.120,-0.120,0.000,0.000,0.000
1605140876635750144,10.0.1.140,591,move_down,-0.140,-0.140,-0.140,0.000,0.000,0.000
1605140879266002944,10.0.1.140,1481,move_down,-0.160,-0.160,-0.160,0.000,0.000,0.000
1605140881603190784,10.0.1.140,1013,move_down,-0.180,-0.180,-0.180,0.000,0.000,0.000
1605140883705370880,10.0.1.140,895,move_down,-0.200,-0.200,-0.200,0.000,0.000,0.000
1605140885645998080,10.0.1.140,768,move_down,-0.220,-0.220,-0.220,0.000,0.000,0.000
1605140887426945024,10.0.1.140,656,move_down,-0.240,-0.240,-0.240,0.000,0.000,0.000
1605140889369789952,10.0.1.140,804,move_down,-0.260,-0.260,-0.260,0.000,0.000,0.000
1605140891119548928,10.0.1.140,539,move_down,-0.280,-0.280,-0.280,0.000,0.000,0.000
1605140893253587968,10.0.1.140,800,move_down,-0.300,-0.300,-0.300,0.000,0.000,0.000
1605140895268588032,10.0.1.140,887,move_down,-0.320,-0.320,-0.320,0.000,0.000,0.000
1605140897287712000,10.0.1.140,954,move_down,-0.340,-0.340,-0.340,0.000,0.000,0.000
1605140899170039808,10.0.1.140,730,move_down,-0.360,-0.360,-0.360,0.000,0.000,0.000
1605140900994905088,10.0.1.140,731,move_down,-0.380,-0.380,-0.380,0.000,0.000,0.000
1605140902597003008,10.0.1.140,480,move_down,-0.400,-0.400,-0.400,0.000,0.000,0.000
1605140904316792064,10.0.1.140,632,move_down,-0.420,-0.420,-0.420,0.000,0.000,0.000
1605140906113188864,10.0.1.140,676,move_down,-0.440,-0.440,-0.440,0.000,0.000,0.000
1605140908005188096,10.0.1.140,772,move_down,-0.460,-0.460,-0.460,0.000,0.000,0.000
1605140910053672960,10.0.1.140,776,move_down,-0.480,-0.480,-0.480,0.000,0.000,0.000
1605140911882788864,10.0.1.140,661,move_down,-0.500,-0.500,-0.500,0.000,0.000,0.000
1605140913527873024,10.0.1.140,519,move_down,-0.520,-0.520,-0.520,0.000,0.000,0.000
1605140915165195008,10.0.1.140,564,move_down,-0.540,-0.540,-0.540,0.000,0.000,0.000
1605140917101218048,10.0.1.140,661,move_down,-0.560,-0.560,-0.560,0.000,0.000,0.000
1605140918923603968,10.0.1.140,727,move_down,-0.580,-0.580,-0.580,0.000,0.000,0.000
1605140921386203136,10.0.1.140,1255,move_down,-0.600,-0.600,-0.600,0.000,0.000,0.000
1605140923301742080,10.0.1.140,753,move_down,-0.620,-0.620,-0.620,0.000,0.000,0.000
1605140928451631104,10.0.1.140,58,pick,-0.670,-0.670,-0.670,0.000,0.000,0.000
1605140929439692032,10.0.1.140,45,pick,-0.680,-0.680,-0.680,0.000,0.000,0.000
1605140930479618048,10.0.1.140,73,pick,-0.690,-0.690,-0.690,0.000,0.000,0.000
1605140932458843904,10.0.1.140,49,pick,-0.710,-0.710,-0.710,0.000,0.000,0.000
1605140933447643904,10.0.1.140,35,pick,-0.720,-0.720,-0.720,0.000,0.000,0.000
1605140934511462912,10.0.1.140,94,pick,-0.730,-0.730,-0.730,0.000,0.000,0.000
1605140937502437120,10.0.1.140,60,pick,-0.760,-0.760,-0.760,0.000,0.000,0.000
1605140938495953920,10.0.1.140,52,pick,-0.770,-0.770,-0.770,0.000,0.000,0.000
1605140939500228864,10.0.1.140,50,pick,-0.780,-0.780,-0.780,0.000,0.000,0.000
1605140941555911936,10.0.1.140,98,pick,-0.800,-0.800,-0.800,0.000,0.000,0.000
1605140942517451008,10.0.1.140,45,pick,-0.810,-0.810,-0.810,0.000,0.000,0.000
1605140943950465024,10.0.1.140,476,move_up,-0.790,-0.790,-0.790,0.000,0.000,0.000
1605140945895014144,10.0.1.140,835,move_up,-0.770,-0.770,-0.770,0.000,0.000,0.000
1605140947597865984,10.0.1.140,662,move_up,-0.750,-0.750,-0.750,0.000,0.000,0.000
1605140949308450048,10.0.1.140,647,move_up,-0.730,-0.730,-0.730,0.000,0.000,0.000
1605140951100615936,10.0.1.140,598,move_up,-0.710,-0.710,-0.710,0.000,0.000,0.000
1605140952748506112,10.0.1.140,592,move_up,-0.690,-0.690,-0.690,0.000,0.000,0.000
1605140954586652160,10.0.1.140,697,move_up,-0.670,-0.670,-0.670,0.000,0.000,0.000
1605140956751808000,10.0.1.140,982,move_up,-0.650,-0.650,-0.650,0.000,0.000,0.000
1605140958428281088,10.0.1.140,574,move_up,-0.630,-0.630,-0.630,0.000,0.000,0.000
1605140960220009216,10.0.1.140,763,move_up,-0.610,-0.610,-0.610,0.000,0.000,0.000
1605140961961304832,10.0.1.140,671,move_up,-0.590,-0.590,-0.590,0.000,0.000,0.000
1605140964073526016,10.0.1.140,913,move_up,-0.570,-0.570,-0.570,0.000,0.000,0.000
1605140965875307008,10.0.1.140,492,move_up,-0.550,-0.550,-0.550,0.000,0.000,0.000
1605140967410459904,10.0.1.140,524,move_up,-0.530,-0.530,-0.530,0.000,0.000,0.000
1605140969123200768,10.0.1.140,474,move_up,-0.510,-0.510,-0.510,0.000,0.000,0.000
1605140970856615168,10.0.1.140,625,move_up,-0.490,-0.490,-0.490,0.000,0.000,0.000
1605140972941865984,10.0.1.140,1018,move_up,-0.470,-0.470,-0.470,0.000,0.000,0.000
1605140975140499200,10.0.1.140,1030,move_up,-0.450,-0.450,-0.450,0.000,0.000,0.000
1605140976883294208,10.0.1.140,575,move_up,-0.430,-0.430,-0.430,0.000,0.000,0.000
1605140978733400064,10.0.1.140,738,move_up,-0.410,-0.410,-0.410,0.000,0.000,0.000
1605140980867639040,10.0.1.140,927,move_up,-0.390,-0.390,-0.390,0.000,0.000,0.000
1605140982567763968,10.0.1.140,614,move_up,-0.370,-0.370,-0.370,0.000,0.000,0.000
1605140984519318016,10.0.1.140,757,move_up,-0.350,-0.350,-0.350,0.000,0.000,0.000
1605140986459589888,10.0.1.140,829,move_up,-0.330,-0.330,-0.330,0.000,0.000,0.000
1605140988307311104,10.0.1.140,761,move_up,-0.310,-0.310,-0.310,0.000,0.000,0.000
1605140990876293888,10.0.1.140,1110,move_up,-0.290,-0.290,-0.290,0.000,0.000,0.000
1605140993082420224,10.0.1.140,1000,move_up,-0.270,-0.270,-0.270,0.000,0.000,0.000
1605140994613970944,10.0.1.140,514,move_up,-0.250,-0.250,-0.250,0.000,0.000,0.000
1605140996342931968,10.0.1.140,592,move_up,-0.230,-0.230,-0.230,0.000,0.000,0.000
1605140998938072832,10.0.1.140,47,place,-0.210,-0.210,-0.210,0.000,0.000,0.000
1605141000009076992,10.0.1.140,51,place,-0.200,-0.200,-0.200,0.000,0.000,0.000
1605141001011858944,10.0.1.140,49,place,-0.190,-0.190,-0.190,0.000,0.000,0.000
1605141003018940928,10.0.1.140,51,place,-0.170,-0.170,-0.170,0.000,0.000,0.000
1605141006045750016,10.0.1.140,66,place,-0.140,-0.140,-0.140,0.000,0.000,0.000
1605141007062277120,10.0.1.140,66,place,-0.130,-0.130,-0.130,0.000,0.000,0.000
1605141008055805952,10.0.1.140,52,place,-0.120,-0.120,-0.120,0.000,0.000,0.000
1605141011080100096,10.0.1.140,66,place,-0.090,-0.090,-0.090,0.000,0.000,0.000
1605141012121198848,10.0.1.140,101,place,-0.080,-0.080,-0.080,0.000,0.000,0.000
1605141013067361024,10.0.1.140,46,place,-0.070,-0.070,-0.070,0.000,0.000,0.000
1605141014062083840,10.0.1.140,37,place,-0.060,-0.060,-0.060,0.000,0.000,0.000
1605141016074866176,10.0.1.140,41,place,-0.040,-0.040,-0.040,0.000,0.000,0.000
1605141017864909824,10.0.1.140,830,move_down,-0.060,-0.060,-0.060,0.000,0.000,0.000
1605141019850246912,10.0.1.140,882,move_down,-0.080,-0.080,-0.080,0.000,0.000,0.000
1605141021524129024,10.0.1.140,558,move_down,-0.100,-0.100,-0.100,0.000,0.000,0.000
1605141023291014912,10.0.1.140,552,move_down,-0.120,-0.120,-0.120,0.000,0.000,0.000
1605141025203758080,10.0.1.140,656,move_down,-0.140,-0.140,-0.140,0.000,0.000,0.000
1605141027119021824,10.0.1.140,573,move_down,-0.160,-0.160,-0.160,0.000,0.000,0.000
1605141028888406016,10.0.1.140,620,move_down,-0.180,-0.180,-0.180,0.000,0.000,0.000
1605141031172786944,10.0.1.140,1134,move_down,-0.200,-0.200,-0.200,0.000,0.000,0.000
1605141033110060032,10.0.1.140,906,move_down,-0.220,-0.220,-0.220,0.000,0.000,0.000
1605141034999394048,10.0.1.140,835,move_down,-0.240,-0.240,-0.240,0.000,0.000,0.000
1605141036913912064,10.0.1.140,834,move_down,-0.260,-0.260,-0.260,0.000,0.000,0.000
1605141038968323072,10.0.1.140,865,move_down,-0.280,-0.280,-0.280,0.000,0.000,0.000
1605141040773967872,10.0.1.140,676,move_down,-0.300,-0.300,-0.300,0.000,0.000,0.000
1605141042744442112,10.0.1.140,819,move_down,-0.320,-0.320,-0.320,0.000,0.000,0.000
1605141044630678784,10.0.1.140,579,move_down,-0.340,-0.340,-0.340,0.000,0.000,0.000
1605141046592392960,10.0.1.140,729,move_down,-0.360,-0.360,-0.360,0.000,0.000,0.000
1605141048412122112,10.0.1.140,595,move_down,-0.380,-0.380,-0.380,0.000,0.000,0.000
1605141050184640000,10.0.1.140,562,move_down,-0.400,-0.400,-0.400,0.000,0.000,0.000
1605141052090894848,10.0.1.140,790,move_down,-0.420,-0.420,-0.420,0.000,0.000,0.000
1605141054251024896,10.0.1.140,1051,move_down,-0.440,-0.440,-0.440,0.000,0.000,0.000
1605141056142880000,10.0.1.140,856,move_down,-0.460,-0.460,-0.460,0.000,0.000,0.000
1605141058035537920,10.0.1.140,698,move_down,-0.480,-0.480,-0.480,0.000,0.000,0.000
1605141060068640000,10.0.1.140,1025,move_down,-0.500,-0.500,-0.500,0.000,0.000,0.000
1605141061807801088,10.0.1.140,632,move_down,-0.520,-0.520,-0.520,0.000,0.000,0.000
1605141063903404032,10.0.1.140,824,move_down,-0.540,-0.540,-0.540,0.000,0.000,0.000
1605141065706497792,10.0.1.140,714,move_down,-0.560,-0.560,-0.560,0.000,0.000,0.000
1605141067570215936,10.0.1.140,770,move_down,-0.580,-0.580,-0.580,0.000,0.000,0.000
1605141069299653120,10.0.1.140,595,move_down,-0.600,-0.600,-0.600,0.000,0.000,0.000
1605141071086082048,10.0.1.140,715,move_down,-0.620,-0.620,-0.620,0.000,0.000,0.000
1605141072196378880,10.0.1.140,39,pick,-0.630,-0.630,-0.630,0.000,0.000,0.000
1605141073243664128,10.0.1.140,86,pick,-0.640,-0.640,-0.640,0.000,0.000,0.000
1605141076214725120,10.0.1.140,33,pick,-0.670,-0.670,-0.670,0.000,0.000,0.000
1605141077243851008,10.0.1.140,61,pick,-0.680,-0.680,-0.680,0.000,0.000,0.000
1605141078260504064,10.0.1.140,75,pick,-0.690,-0.690,-0.690,0.000,0.000,0.000
1605141079236498176,10.0.1.140,44,pick,-0.700,-0.700,-0.700,0.000,0.000,0.000
1605141080244421120,10.0.1.140,49,pick,-0.710,-0.710,-0.710,0.000,0.000,0.000
1605141081237652992,10.0.1.140,42,pick,-0.720,-0.720,-0.720,0.000,0.000,0.000
1605141082240803840,10.0.1.140,43,pick,-0.730,-0.730,-0.730,0.000,0.000,0.000
1605141083286152960,10.0.1.140,82,pick,-0.740,-0.740,-0.740,0.000,0.000,0.000
1605141084281876992,10.0.1.140,77,pick,-0.750,-0.750,-0.750,0.000,0.000,0.000
1605141087299866880,10.0.1.140,84,pick,-0.780,-0.780,-0.780,0.000,0.000,0.000
1605141088261938176,10.0.1.140,44,pick,-0.790,-0.790,-0.790,0.000,0.000,0.000
1605141089261154816,10.0.1.140,42,pick,-0.800,-0.800,-0.800,0.000,0.000,0.000
1605141090256920064,10.0.1.140,36,pick,-0.810,-0.810,-0.810,0.000,0.000,0.000
1605141091941508096,10.0.1.140,719,move_up,-0.790,-0.790,-0.790,0.000,0.000,0.000
1605141093720505856,10.0.1.140,642,move_up,-0.770,-0.770,-0.770,0.000,0.000,0.000
1605141095594521088,10.0.1.140,750,move_up,-0.750,-0.750,-0.750,0.000,0.000,0.000
1605141097361675008,10.0.1.140,474,move_up,-0.730,-0.730,-0.730,0.000,0.000,0.000
1605141099005768960,10.0.1.140,632,move_up,-0.710,-0.710,-0.710,0.000,0.000,0.000
1605141100742345216,10.0.1.140,589,move_up,-0.690,-0.690,-0.690,0.000,0.000,0.000
1605141102660707072,10.0.1.140,547,move_up,-0.670,-0.670,-0.670,0.000,0.000,0.000
1605141104573640192,10.0.1.140,833,move_up,-0.650,-0.650,-0.650,0.000,0.000,0.000
1605141106303320832,10.0.1.140,502,move_up,-0.630,-0.630,-0.630,0.000,0.000,0.000
1605141107995651072,10.0.1.140,598,move_up,-0.610,-0.610,-0.610,0.000,0.000,0.000
1605141109847828992,10.0.1.140,749,move_up,-0.590,-0.590,-0.590,0.000,0.000,0.000
1605141111815060992,10.0.1.140,520,move_up,-0.570,-0.570,-0.570,0.000,0.000,0.000
1605141113832067072,10.0.1.140,914,move_up,-0.550,-0.550,-0.550,0.000,0.000,0.000
1605141115553368064,10.0.1.140,594,move_up,-0.530,-0.530,-0.530,0.000,0.000,0.000
1605141117783973888,10.0.1.140,1038,move_up,-0.510,-0.510,-0.510,0.000,0.000,0.000
1605141119511262976,10.0.1.140,660,move_up,-0.490,-0.490,-0.490,0.000,0.000,0.000
1605141121628129024,10.0.1.140,924,move_up,-0.470,-0.470,-0.470,0.000,0.000,0.000
1605141123500215040,10.0.1.140,712,move_up,-0.450,-0.450,-0.450,0.000,0.000,0.000
1605141125633811968,10.0.1.140,1096,move_up,-0.430,-0.430,-0.430,0.000,0.000,0.000
1605141127844105984,10.0.1.140,1097,move_up,-0.410,-0.410,-0.410,0.000,0.000,0.000
1605141129630462976,10.0.1.140,569,move_up,-0.390,-0.390,-0.390,0.000,0.000,0.000
1605141131384940032,10.0.1.140,666,move_up,-0.370,-0.370,-0.370,0.000,0.000,0.000
1605141133123673856,10.0.1.140,549,move_up,-0.350,-0.350,-0.350,0.000,0.000,0.000
1605141135120860160,10.0.1.140,823,move_up,-0.330,-0.330,-0.330,0.000,0.000,0.000
1605141137365001984,10.0.1.140,589,move_up,-0.310,-0.310,-0.310,0.000,0.000,0.000
1605141139196934912,10.0.1.140,722,move_up,-0.290,-0.290,-0.290,0.000,0.000,0.000
1605141140969771008,10.0.1.140,656,move_up,-0.270,-0.270,-0.270,0.000,0.000,0.000
1605141142801521152,10.0.1.140,669,move_up,-0.250,-0.250,-0.250,0.000,0.000,0.000
1605141144615879168,10.0.1.140,646,move_up,-0.230,-0.230,-0.230,0.000,0.000,0.000
1605141145743374080,10.0.1.140,45,place,-0.220,-0.220,-0.220,0.000,0.000,0.000
1605141146760849920,10.0.1.140,56,place,-0.210,-0.210,-0.210,0.000,0.000,0.000
1605141147760043008,10.0.1.140,54,place,-0.200,-0.200,-0.200,0.000,0.000,0.000
1605141148764869888,10.0.1.140,57,place,-0.190,-0.190,-0.190,0.000,0.000,0.000
1605141149768420096,10.0.1.140,59,place,-0.180,-0.180,-0.180,0.000,0.000,0.000
1605141151781442048,10.0.1.140,68,place,-0.160,-0.160,-0.160,0.000,0.000,0.000
1605141152797792000,10.0.1.140,83,place,-0.150,-0.150,-0.150,0.000,0.000,0.000
1605141153795932928,10.0.1.140,76,place,-0.140,-0.140,-0.140,0.000,0.000,0.000
1605141154763780096,10.0.1.140,43,place,-0.130,-0.130,-0.130,0.000,0.000,0.000
1605141155786626048,10.0.1.140,56,place,-0.120,-0.120,-0.120,0.000,0.000,0.000
1605141156793620224,10.0.1.140,61,place,-0.110,-0.110,-0.110,0.000,0.000,0.000
1605141157802868992,10.0.1.140,63,place,-0.100,-0.100,-0.100,0.000,0.000,0.000
1605141158777116928,10.0.1.140,34,place,-0.090,-0.090,-0.090,0.000,0.000,0.000
1605141159801702912,10.0.1.140,54,place,-0.080,-0.080,-0.080,0.000,0.000,0.000
1605141160864783104,10.0.1.140,77,place,-0.070,-0.070,-0.070,0.000,0.000,0.000
1605141161903488000,10.0.1.140,111,place,-0.060,-0.060,-0.060,0.000,0.000,0.000
1605141162840399872,10.0.1.140,47,place,-0.050,-0.050,-0.050,0.000,0.000,0.000
1605141163846513920,10.0.1.140,44,place,-0.040,-0.040,-0.040,0.000,0.000,0.000
1605141165599375104,10.0.1.140,793,move_down,-0.060,-0.060,-0.060,0.000,0.000,0.000
1605141167954531072,10.0.1.140,1272,move_down,-0.080,-0.080,-0.080,0.000,0.000,0.000
1605141169751086080,10.0.1.140,567,move_down,-0.100,-0.100,-0.100,0.000,0.000,0.000
1605141171643556096,10.0.1.140,774,move_down,-0.120,-0.120,-0.120,0.000,0.000,0.000
1605141173503202816,10.0.1.140,787,move_down,-0.140,-0.140,-0.140,0.000,0.000,0.000
1605141175390849024,10.0.1.140,751,move_down,-0.160,-0.160,-0.160,0.000,0.000,0.000
1605141177455842048,10.0.1.140,970,move_down,-0.180,-0.180,-0.180,0.000,0.000,0.000
1605141179148365056,10.0.1.140,639,move_down,-0.200,-0.200,-0.200,0.000,0.000,0.000
1605141180772538880,10.0.1.140,562,move_down,-0.220,-0.220,-0.220,0.000,0.000,0.000
1605141182862512128,10.0.1.140,1003,move_down,-0.240,-0.240,-0.240,0.000,0.000,0.000
1605141184875425024,10.0.1.140,755,move_down,-0.260,-0.260,-0.260,0.000,0.000,0.000
1605141186527911936,10.0.1.140,568,move_down,-0.280,-0.280,-0.280,0.000,0.000,0.000
1605141188551273984,10.0.1.140,769,move_down,-0.300,-0.300,-0.300,0.000,0.000,0.000
1605141190718144768,10.0.1.140,927,move_down,-0.320,-0.320,-0.320,0.000,0.000,0.000
1605141192509156096,10.0.1.140,589,move_down,-0.340,-0.340,-0.340,0.000,0.000,0.000
1605141194283427072,10.0.1.140,624,move_down,-0.360,-0.360,-0.360,0.000,0.000,0.000
1605141196856905984,10.0.1.140,1262,move_down,-0.380,-0.380,-0.380,0.000,0.000,0.000
1605141198824101888,10.0.1.140,886,move_down,-0.400,-0.400,-0.400,0.000,0.000,0.000
1605141200784300032,10.0.1.140,817,move_down,-0.420,-0.420,-0.420,0.000,0.000,0.000
1605141202602929152,10.0.1.140,737,move_down,-0.440,-0.440,-0.440,0.000,0.000,0.000
1605141204378548992,10.0.1.140,597,move_down,-0.460,-0.460,-0.460,0.000,0.000,0.000
1605141206903924992,10.0.1.140,1128,move_down,-0.480,-0.480,-0.480,0.000,0.000,0.000
1605141209062886912,10.0.1.140,1088,move_down,-0.500,-0.500,-0.500,0.000,0.000,0.000
1605141210718530048,10.0.1.140,492,move_down,-0.520,-0.520,-0.520,0.000,0.000,0.000
1605141212505325056,10.0.1.140,591,move_down,-0.540,-0.540,-0.540,0.000,0.000,0.000
1605141214245212928,10.0.1.140,580,move_down,-0.560,-0.560,-0.560,0.000,0.000,0.000
1605141216146795008,10.0.1.140,782,move_down,-0.580,-0.580,-0.580,0.000,0.000,0.000
1605141218165698048,10.0.1.140,927,move_down,-0.600,-0.600,-0.600,0.000,0.000,0.000
1605141219862013952,10.0.1.140,604,move_down,-0.620,-0.620,-0.620,0.000,0.000,0.000
1605141221119106048,10.0.1.140,60,pick,-0.630,-0.630,-0.630,0.000,0.000,0.000
1605141222114601984,10.0.1.140,51,pick,-0.640,-0.640,-0.640,0.000,0.000,0.000
1605141223128832000,10.0.1.140,65,pick,-0.650,-0.650,-0.650,0.000,0.000,0.000
1605141224105671936,10.0.1.140,39,pick,-0.660,-0.660,-0.660,0.000,0.000,0.000
1605141227171896832,10.0.1.140,78,pick,-0.690,-0.690,-0.690,0.000,0.000,0.000
1605141228158126080,10.0.1.140,62,pick,-0.700,-0.700,-0.700,0.000,0.000,0.000
1605141229252931072,10.0.1.140,147,pick,-0.710,-0.710,-0.710,0.000,0.000,0.000
1605141231215589120,10.0.1.140,91,pick,-0.730,-0.730,-0.730,0.000,0.000,0.000
1605141232181848064,10.0.1.140,57,pick,-0.740,-0.740,-0.740,0.000,0.000,0.000
1605141233193468160,10.0.1.140,68,pick,-0.750,-0.750,-0.750,0.000,0.000,0.000
1605141234185112832,10.0.1.140,51,pick,-0.760,-0.760,-0.760,0.000,0.000,0.000
1605141235186225920,10.0.1.140,48,pick,-0.770,-0.770,-0.770,0.000,0.000,0.000
1605141236229571072,10.0.1.140,81,pick,-0.780,-0.780,-0.780,0.000,0.000,0.000
1605141237198450176,10.0.1.140,46,pick,-0.790,-0.790,-0.790,0.000,0.000,0.000
1605141238221443840,10.0.1.140,67,pick,-0.800,-0.800,-0.800,0.000,0.000,0.000
1605141239199848960,10.0.1.140,44,pick,-0.810,-0.810,-0.810,0.000,0.000,0.000
1605141240811919872,10.0.1.140,643,move_up,-0.790,-0.790,-0.790,0.000,0.000,0.000
1605141242559710976,10.0.1.140,31,move_down,-0.790,-0.790,-0.790,0.000,0.000,0.000
1605141244613057024,10.0.1.140,540,move_down,-0.810,-0.810,-0.810,0.000,0.000,0.000
1605141246338372864,10.0.1.140,642,move_down,-0.830,-0.830,-0.830,0.000,0.000,0.000
