milangroshev/digital-twin-scalability/logs/run2-3600s/10.0.1.128.csv
timestamp,node,latency,action,joint_1,joint_2,joint_3,joint_4,joint_5,joint_6
1605124669667109888,10.0.1.128,2023,,0.000,0.000,0.000,0.000,0.000,0.000
1605124672373285888,10.0.1.128,725,move_down,-0.020,-0.020,-0.020,0.000,0.000,0.000
1605124673911087104,10.0.1.128,452,move_down,-0.040,-0.040,-0.040,0.000,0.000,0.000
1605124675386033920,10.0.1.128,423,move_down,-0.060,-0.060,-0.060,0.000,0.000,0.000
1605124676844248064,10.0.1.128,397,move_down,-0.080,-0.080,-0.080,0.000,0.000,0.000
1605124678325506048,10.0.1.128,454,move_down,-0.100,-0.100,-0.100,0.000,0.000,0.000
1605124679747087872,10.0.1.128,392,move_down,-0.120,-0.120,-0.120,0.000,0.000,0.000
1605124681215034880,10.0.1.128,401,move_down,-0.140,-0.140,-0.140,0.000,0.000,0.000
1605124682682904832,10.0.1.128,427,move_down,-0.160,-0.160,-0.160,0.000,0.000,0.000
1605124684137042944,10.0.1.128,387,move_down,-0.180,-0.180,-0.180,0.000,0.000,0.000
1605124685611994880,10.0.1.128,424,move_down,-0.200,-0.200,-0.200,0.000,0.000,0.000
1605124687086224128,10.0.1.128,414,move_down,-0.220,-0.220,-0.220,0.000,0.000,0.000
1605124688512044032,10.0.1.128,418,move_down,-0.240,-0.240,-0.240,0.000,0.000,0.000
1605124689983855872,10.0.1.128,405,move_down,-0.260,-0.260,-0.260,0.000,0.000,0.000
1605124691487278848,10.0.1.128,421,move_down,-0.280,-0.280,-0.280,0.000,0.000,0.000
1605124692906892032,10.0.1.128,401,move_down,-0.300,-0.300,-0.300,0.000,0.000,0.000
1605124694387671040,10.0.1.128,428,move_down,-0.320,-0.320,-0.320,0.000,0.000,0.000
1605124695827305984,10.0.1.128,375,move_down,-0.340,-0.340,-0.340,0.000,0.000,0.000
1605124697295450880,10.0.1.128,422,move_down,-0.360,-0.360,-0.360,0.000,0.000,0.000
1605124698814508032,10.0.1.128,439,move_down,-0.380,-0.380,-0.380,0.000,0.000,0.000
1605124700313847040,10.0.1.128,402,move_down,-0.400,-0.400,-0.400,0.000,0.000,0.000
1605124701765306112,10.0.1.128,402,move_down,-0.420,-0.420,-0.420,0.000,0.000,0.000
1605124703264396032,10.0.1.128,405,move_down,-0.440,-0.440,-0.440,0.000,0.000,0.000
1605124704785024768,10.0.1.128,441,move_down,-0.460,-0.460,-0.460,0.000,0.000,0.000
1605124706256966144,10.0.1.128,421,move_down,-0.480,-0.480,-0.480,0.000,0.000,0.000
1605124707734582784,10.0.1.128,387,move_down,-0.500,-0.500,-0.500,0.000,0.000,0.000
1605124709184890880,10.0.1.128,372,move_down,-0.520,-0.520,-0.520,0.000,0.000,0.000
1605124710640404992,10.0.1.128,415,move_down,-0.540,-0.540,-0.540,0.000,0.000,0.000
1605124712133799168,10.0.1.128,430,move_down,-0.560,-0.560,-0.560,0.000,0.000,0.000
1605124713624073984,10.0.1.128,418,move_down,-0.580,-0.580,-0.580,0.000,0.000,0.000
1605124714749094912,10.0.1.128,44,pick,-0.590,-0.590,-0.590,0.000,0.000,0.000
1605124715756804864,10.0.1.128,49,pick,-0.600,-0.600,-0.600,0.000,0.000,0.000
1605124716744263936,10.0.1.128,36,pick,-0.610,-0.610,-0.610,0.000,0.000,0.000
1605124717745825024,10.0.1.128,36,pick,-0.620,-0.620,-0.620,0.000,0.000,0.000
1605124718770454016,10.0.1.128,51,pick,-0.630,-0.630,-0.630,0.000,0.000,0.000
1605124719770075136,10.0.1.128,49,pick,-0.640,-0.640,-0.640,0.000,0.000,0.000
1605124720767405056,10.0.1.128,44,pick,-0.650,-0.650,-0.650,0.000,0.000,0.000
1605124721790038016,10.0.1.128,63,pick,-0.660,-0.660,-0.660,0.000,0.000,0.000
1605124722765690112,10.0.1.128,37,pick,-0.670,-0.670,-0.670,0.000,0.000,0.000
1605124723765067008,10.0.1.128,35,pick,-0.680,-0.680,-0.680,0.000,0.000,0.000
1605124724769120000,10.0.1.128,38,pick,-0.690,-0.690,-0.690,0.000,0.000,0.000
1605124725765774848,10.0.1.128,33,pick,-0.700,-0.700,-0.700,0.000,0.000,0.000
1605124726773875968,10.0.1.128,41,pick,-0.710,-0.710,-0.710,0.000,0.000,0.000
1605124727782499072,10.0.1.128,48,pick,-0.720,-0.720,-0.720,0.000,0.000,0.000
1605124728786385920,10.0.1.128,51,pick,-0.730,-0.730,-0.730,0.000,0.000,0.000
1605124729789688064,10.0.1.128,54,pick,-0.740,-0.740,-0.740,0.000,0.000,0.000
1605124730784667136,10.0.1.128,47,pick,-0.750,-0.750,-0.750,0.000,0.000,0.000
1605124731790644992,10.0.1.128,52,pick,-0.760,-0.760,-0.760,0.000,0.000,0.000
1605124732783824896,10.0.1.128,44,pick,-0.770,-0.770,-0.770,0.000,0.000,0.000
1605124734149355776,10.0.1.128,407,move_up,-0.750,-0.750,-0.750,0.000,0.000,0.000
1605124735577065984,10.0.1.128,411,move_up,-0.730,-0.730,-0.730,0.000,0.000,0.000
1605124737084445952,10.0.1.128,420,move_up,-0.710,-0.710,-0.710,0.000,0.000,0.000
1605124738554689792,10.0.1.128,375,move_up,-0.690,-0.690,-0.690,0.000,0.000,0.000
1605124740034054912,10.0.1.128,407,move_up,-0.670,-0.670,-0.670,0.000,0.000,0.000
1605124741495297792,10.0.1.128,384,move_up,-0.650,-0.650,-0.650,0.000,0.000,0.000
1605124742976197888,10.0.1.128,369,move_up,-0.630,-0.630,-0.630,0.000,0.000,0.000
1605124744458131200,10.0.1.128,402,move_up,-0.610,-0.610,-0.610,0.000,0.000,0.000
1605124745954214144,10.0.1.128,413,move_up,-0.590,-0.590,-0.590,0.000,0.000,0.000
1605124747445595136,10.0.1.128,412,move_up,-0.570,-0.570,-0.570,0.000,0.000,0.000
1605124748955360000,10.0.1.128,407,move_up,-0.550,-0.550,-0.550,0.000,0.000,0.000
1605124750379343104,10.0.1.128,401,move_up,-0.530,-0.530,-0.530,0.000,0.000,0.000
1605124751877126912,10.0.1.128,415,move_up,-0.510,-0.510,-0.510,0.000,0.000,0.000
1605124753365019136,10.0.1.128,430,move_up,-0.490,-0.490,-0.490,0.000,0.000,0.000
1605124754874226176,10.0.1.128,416,move_up,-0.470,-0.470,-0.470,0.000,0.000,0.000
1605124756345805824,10.0.1.128,404,move_up,-0.450,-0.450,-0.450,0.000,0.000,0.000
1605124757828397056,10.0.1.128,405,move_up,-0.430,-0.430,-0.430,0.000,0.000,0.000
1605124759329441024,10.0.1.128,388,move_up,-0.410,-0.410,-0.410,0.000,0.000,0.000
1605124760804774912,10.0.1.128,419,move_up,-0.390,-0.390,-0.390,0.000,0.000,0.000
1605124762266573824,10.0.1.128,390,move_up,-0.370,-0.370,-0.370,0.000,0.000,0.000
1605124763728135936,10.0.1.128,411,move_up,-0.350,-0.350,-0.350,0.000,0.000,0.000
1605124765174355968,10.0.1.128,381,move_up,-0.330,-0.330,-0.330,0.000,0.000,0.000
1605124766614629120,10.0.1.128,394,move_up,-0.310,-0.310,-0.310,0.000,0.000,0.000
1605124768111598848,10.0.1.128,406,move_up,-0.290,-0.290,-0.290,0.000,0.000,0.000
1605124769556097024,10.0.1.128,381,move_up,-0.270,-0.270,-0.270,0.000,0.000,0.000
1605124771035373824,10.0.1.128,414,move_up,-0.250,-0.250,-0.250,0.000,0.000,0.000
1605124772514589952,10.0.1.128,416,move_up,-0.230,-0.230,-0.230,0.000,0.000,0.000
1605124773998665216,10.0.1.128,408,move_up,-0.210,-0.210,-0.210,0.000,0.000,0.000
1605124775539175936,10.0.1.128,465,move_up,-0.190,-0.190,-0.190,0.000,0.000,0.000
1605124776636596992,10.0.1.128,33,place,-0.180,-0.180,-0.180,0.000,0.000,0.000
1605124777662427904,10.0.1.128,57,place,-0.170,-0.170,-0.170,0.000,0.000,0.000
1605124778661259008,10.0.1.128,55,place,-0.160,-0.160,-0.160,0.000,0.000,0.000
1605124779661426944,10.0.1.128,54,place,-0.150,-0.150,-0.150,0.000,0.000,0.000
1605124780664684032,10.0.1.128,54,place,-0.140,-0.140,-0.140,0.000,0.000,0.000
1605124781656378112,10.0.1.128,44,place,-0.130,-0.130,-0.130,0.000,0.000,0.000
1605124782655896832,10.0.1.128,42,place,-0.120,-0.120,-0.120,0.000,0.000,0.000
1605124783672132096,10.0.1.128,57,place,-0.110,-0.110,-0.110,0.000,0.000,0.000
1605124784664606976,10.0.1.128,47,place,-0.100,-0.100,-0.100,0.000,0.000,0.000
1605124785657769984,10.0.1.128,39,place,-0.090,-0.090,-0.090,0.000,0.000,0.000
1605124786662630144,10.0.1.128,43,place,-0.080,-0.080,-0.080,0.000,0.000,0.000
1605124787658027776,10.0.1.128,37,place,-0.070,-0.070,-0.070,0.000,0.000,0.000
1605124788661223936,10.0.1.128,38,place,-0.060,-0.060,-0.060,0.000,0.000,0.000
1605124789654665984,10.0.1.128,31,place,-0.050,-0.050,-0.050,0.000,0.000,0.000
1605124790680455936,10.0.1.128,55,place,-0.040,-0.040,-0.040,0.000,0.000,0.000
1605124791677978112,10.0.1.128,51,place,-0.030,-0.030,-0.030,0.000,0.000,0.000
1605124792680847872,10.0.1.128,53,place,-0.020,-0.020,-0.020,0.000,0.000,0.000
1605124793681832192,10.0.1.128,53,place,-0.010,-0.010,-0.010,0.000,0.000,0.000
1605124794674813952,10.0.1.128,45,place,0.000,0.000,0.000,0.000,0.000,0.000
1605124796070415104,10.0.1.128,439,move_down,-0.020,-0.020,-0.020,0.000,0.000,0.000
1605124797527270912,10.0.1.128,407,move_down,-0.040,-0.040,-0.040,0.000,0.000,0.000
1605124798960700160,10.0.1.128,392,move_down,-0.060,-0.060,-0.060,0.000,0.000,0.000
1605124800411094016,10.0.1.128,407,move_down,-0.080,-0.080,-0.080,0.000,0.000,0.000
1605124801936460032,10.0.1.128,465,move_down,-0.100,-0.100,-0.100,0.000,0.000,0.000
1605124803407092992,10.0.1.128,416,move_down,-0.120,-0.120,-0.120,0.000,0.000,0.000
1605124804854824192,10.0.1.128,386,move_down,-0.140,-0.140,-0.140,0.000,0.000,0.000
1605124806375486976,10.0.1.128,386,move_down,-0.160,-0.160,-0.160,0.000,0.000,0.000
1605124807864660992,10.0.1.128,430,move_down,-0.180,-0.180,-0.180,0.000,0.000,0.000
1605124809319169024,10.0.1.128,432,move_down,-0.200,-0.200,-0.200,0.000,0.000,0.000
1605124810835581952,10.0.1.128,445,move_down,-0.220,-0.220,-0.220,0.000,0.000,0.000
1605124812316574208,10.0.1.128,411,move_down,-0.240,-0.240,-0.240,0.000,0.000,0.000
1605124813728804096,10.0.1.128,405,move_down,-0.260,-0.260,-0.260,0.000,0.000,0.000
1605124815248257024,10.0.1.128,441,move_down,-0.280,-0.280,-0.280,0.000,0.000,0.000
1605124816716474112,10.0.1.128,399,move_down,-0.300,-0.300,-0.300,0.000,0.000,0.000
1605124818173970944,10.0.1.128,410,move_down,-0.320,-0.320,-0.320,0.000,0.000,0.000
1605124819706991872,10.0.1.128,457,move_down,-0.340,-0.340,-0.340,0.000,0.000,0.000
1605124821143447040,10.0.1.128,436,move_down,-0.360,-0.360,-0.360,0.000,0.000,0.000
1605124822708240128,10.0.1.128,479,move_down,-0.380,-0.380,-0.380,0.000,0.000,0.000
1605124824204963840,10.0.1.128,439,move_down,-0.400,-0.400,-0.400,0.000,0.000,0.000
1605124825821841920,10.0.1.128,567,move_down,-0.420,-0.420,-0.420,0.000,0.000,0.000
1605124827361006080,10.0.1.128,480,move_down,-0.440,-0.440,-0.440,0.000,0.000,0.000
1605124828792849920,10.0.1.128,365,move_down,-0.460,-0.460,-0.460,0.000,0.000,0.000
1605124830333743104,10.0.1.128,488,move_down,-0.480,-0.480,-0.480,0.000,0.000,0.000
1605124831834065920,10.0.1.128,446,move_down,-0.500,-0.500,-0.500,0.000,0.000,0.000
1605124833293068800,10.0.1.128,409,move_down,-0.520,-0.520,-0.520,0.000,0.000,0.000
1605124834793800960,10.0.1.128,416,move_down,-0.540,-0.540,-0.540,0.000,0.000,0.000
1605124836321579008,10.0.1.128,458,move_down,-0.560,-0.560,-0.560,0.000,0.000,0.000
1605124837772984064,10.0.1.128,406,move_down,-0.580,-0.580,-0.580,0.000,0.000,0.000
1605124838913911040,10.0.1.128,50,pick,-0.590,-0.590,-0.590,0.000,0.000,0.000
1605124839920680960,10.0.1.128,55,pick,-0.600,-0.600,-0.600,0.000,0.000,0.000
1605124840932805888,10.0.1.128,65,pick,-0.610,-0.610,-0.610,0.000,0.000,0.000
1605124841923239936,10.0.1.128,54,pick,-0.620,-0.620,-0.620,0.000,0.000,0.000
1605124842912942848,10.0.1.128,42,pick,-0.630,-0.630,-0.630,0.000,0.000,0.000
1605124844913592064,10.0.1.128,39,pick,-0.650,-0.650,-0.650,0.000,0.000,0.000
1605124845925615104,10.0.1.128,49,pick,-0.660,-0.660,-0.660,0.000,0.000,0.000
1605124846937185024,10.0.1.128,59,pick,-0.670,-0.670,-0.670,0.000,0.000,0.000
1605124847935847168,10.0.1.128,53,pick,-0.680,-0.680,-0.680,0.000,0.000,0.000
1605124848923665152,10.0.1.128,40,pick,-0.690,-0.690,-0.690,0.000,0.000,0.000
1605124849933595904,10.0.1.128,48,pick,-0.700,-0.700,-0.700,0.000,0.000,0.000
1605124850932712960,10.0.1.128,46,pick,-0.710,-0.710,-0.710,0.000,0.000,0.000
1605124851933515008,10.0.1.128,39,pick,-0.720,-0.720,-0.720,0.000,0.000,0.000
1605124852937256960,10.0.1.128,41,pick,-0.730,-0.730,-0.730,0.000,0.000,0.000
1605124853951973888,10.0.1.128,49,pick,-0.740,-0.740,-0.740,0.000,0.000,0.000
1605124854951992064,10.0.1.128,48,pick,-0.750,-0.750,-0.750,0.000,0.000,0.000
1605124855960665856,10.0.1.128,55,pick,-0.760,-0.760,-0.760,0.000,0.000,0.000
1605124858293966080,10.0.1.128,386,move_up,-0.750,-0.750,-0.750,0.000,0.000,0.000
1605124859713041920,10.0.1.128,373,move_up,-0.730,-0.730,-0.730,0.000,0.000,0.000
1605124861232065792,10.0.1.128,436,move_up,-0.710,-0.710,-0.710,0.000,0.000,0.000
1605124862741755904,10.0.1.128,468,move_up,-0.690,-0.690,-0.690,0.000,0.000,0.000
1605124864201927936,10.0.1.128,397,move_up,-0.670,-0.670,-0.670,0.000,0.000,0.000
1605124865681971968,10.0.1.128,411,move_up,-0.650,-0.650,-0.650,0.000,0.000,0.000
1605124867202903040,10.0.1.128,440,move_up,-0.630,-0.630,-0.630,0.000,0.000,0.000
1605124868661355008,10.0.1.128,404,move_up,-0.610,-0.610,-0.610,0.000,0.000,0.000
1605124870112279040,10.0.1.128,433,move_up,-0.590,-0.590,-0.590,0.000,0.000,0.000
1605124871581378816,10.0.1.128,385,move_up,-0.570,-0.570,-0.570,0.000,0.000,0.000
1605124873021677056,10.0.1.128,376,move_up,-0.550,-0.550,-0.550,0.000,0.000,0.000
1605124874521451008,10.0.1.128,430,move_up,-0.530,-0.530,-0.530,0.000,0.000,0.000
1605124875943019008,10.0.1.128,357,move_up,-0.510,-0.510,-0.510,0.000,0.000,0.000
1605124877425949184,10.0.1.128,428,move_up,-0.490,-0.490,-0.490,0.000,0.000,0.000
1605124878945944064,10.0.1.128,431,move_up,-0.470,-0.470,-0.470,0.000,0.000,0.000
1605124880465778176,10.0.1.128,412,move_up,-0.450,-0.450,-0.450,0.000,0.000,0.000
1605124881931229184,10.0.1.128,408,move_up,-0.430,-0.430,-0.430,0.000,0.000,0.000
1605124883396837120,10.0.1.128,391,move_up,-0.410,-0.410,-0.410,0.000,0.000,0.000
1605124884917752064,10.0.1.128,468,move_up,-0.390,-0.390,-0.390,0.000,0.000,0.000
1605124886417350144,10.0.1.128,413,move_up,-0.370,-0.370,-0.370,0.000,0.000,0.000
1605124887893997056,10.0.1.128,362,move_up,-0.350,-0.350,-0.350,0.000,0.000,0.000
1605124889378050048,10.0.1.128,465,move_up,-0.330,-0.330,-0.330,0.000,0.000,0.000
1605124890899044864,10.0.1.128,435,move_up,-0.310,-0.310,-0.310,0.000,0.000,0.000
1605124892357649152,10.0.1.128,400,move_up,-0.290,-0.290,-0.290,0.000,0.000,0.000
1605124893828388864,10.0.1.128,418,move_up,-0.270,-0.270,-0.270,0.000,0.000,0.000
1605124895302944000,10.0.1.128,375,move_up,-0.250,-0.250,-0.250,0.000,0.000,0.000
1605124896811735040,10.0.1.128,452,move_up,-0.230,-0.230,-0.230,0.000,0.000,0.000
1605124898290360064,10.0.1.128,414,move_up,-0.210,-0.210,-0.210,0.000,0.000,0.000
1605124899747354880,10.0.1.128,359,move_up,-0.190,-0.190,-0.190,0.000,0.000,0.000
1605124900868338176,10.0.1.128,32,place,-0.180,-0.180,-0.180,0.000,0.000,0.000
1605124901887478016,10.0.1.128,50,place,-0.170,-0.170,-0.170,0.000,0.000,0.000
1605124902889584128,10.0.1.128,51,place,-0.160,-0.160,-0.160,0.000,0.000,0.000
1605124903888050176,10.0.1.128,48,place,-0.150,-0.150,-0.150,0.000,0.000,0.000
1605124904892535808,10.0.1.128,51,place,-0.140,-0.140,-0.140,0.000,0.000,0.000
1605124905891596032,10.0.1.128,46,place,-0.130,-0.130,-0.130,0.000,0.000,0.000
1605124906887543040,10.0.1.128,41,place,-0.120,-0.120,-0.120,0.000,0.000,0.000
1605124908889793024,10.0.1.128,38,place,-0.100,-0.100,-0.100,0.000,0.000,0.000
1605124909901492992,10.0.1.128,49,place,-0.090,-0.090,-0.090,0.000,0.000,0.000
1605124910906227968,10.0.1.128,53,place,-0.080,-0.080,-0.080,0.000,0.000,0.000
1605124911893032960,10.0.1.128,39,place,-0.070,-0.070,-0.070,0.000,0.000,0.000
1605124912908857088,10.0.1.128,54,place,-0.060,-0.060,-0.060,0.000,0.000,0.000
1605124913892047872,10.0.1.128,36,place,-0.050,-0.050,-0.050,0.000,0.000,0.000
1605124914910361088,10.0.1.128,53,place,-0.040,-0.040,-0.040,0.000,0.000,0.000
1605124915910422016,10.0.1.128,52,place,-0.030,-0.030,-0.030,0.000,0.000,0.000
1605124916907748864,10.0.1.128,48,place,-0.020,-0.020,-0.020,0.000,0.000,0.000
1605124917943703808,10.0.1.128,82,place,-0.010,-0.010,-0.010,0.000,0.000,0.000
1605124918908105984,10.0.1.128,45,place,0.000,0.000,0.000,0.000,0.000,0.000
1605124920304222976,10.0.1.128,439,move_down,-0.020,-0.020,-0.020,0.000,0.000,0.000
1605124921778848768,10.0.1.128,421,move_down,-0.040,-0.040,-0.040,0.000,0.000,0.000
1605124923228199936,10.0.1.128,417,move_down,-0.060,-0.060,-0.060,0.000,0.000,0.000
1605124924730087936,10.0.1.128,431,move_down,-0.080,-0.080,-0.080,0.000,0.000,0.000
1605124926157224960,10.0.1.128,395,move_down,-0.100,-0.100,-0.100,0.000,0.000,0.000
1605124927641448960,10.0.1.128,399,move_down,-0.120,-0.120,-0.120,0.000,0.000,0.000
1605124929211639808,10.0.1.128,483,move_down,-0.140,-0.140,-0.140,0.000,0.000,0.000
1605124930692541952,10.0.1.128,419,move_down,-0.160,-0.160,-0.160,0.000,0.000,0.000
1605124932183490048,10.0.1.128,426,move_down,-0.180,-0.180,-0.180,0.000,0.000,0.000
1605124933742185216,10.0.1.128,487,move_down,-0.200,-0.200,-0.200,0.000,0.000,0.000
1605124935211017984,10.0.1.128,413,move_down,-0.220,-0.220,-0.220,0.000,0.000,0.000
1605124936720946176,10.0.1.128,445,move_down,-0.240,-0.240,-0.240,0.000,0.000,0.000
1605124938206041088,10.0.1.128,424,move_down,-0.260,-0.260,-0.260,0.000,0.000,0.000
1605124939710923008,10.0.1.128,446,move_down,-0.280,-0.280,-0.280,0.000,0.000,0.000
1605124941211142144,10.0.1.128,427,move_down,-0.300,-0.300,-0.300,0.000,0.000,0.000
1605124942751805184,10.0.1.128,477,move_down,-0.320,-0.320,-0.320,0.000,0.000,0.000
1605124944152178176,10.0.1.128,397,move_down,-0.340,-0.340,-0.340,0.000,0.000,0.000
1605124945706042880,10.0.1.128,483,move_down,-0.360,-0.360,-0.360,0.000,0.000,0.000
1605124947212418048,10.0.1.128,411,move_down,-0.380,-0.380,-0.380,0.000,0.000,0.000
1605124948796858112,10.0.1.128,463,move_down,-0.400,-0.400,-0.400,0.000,0.000,0.000
1605124950264324864,10.0.1.128,439,move_down,-0.420,-0.420,-0.420,0.000,0.000,0.000
1605124951724718080,10.0.1.128,397,move_down,-0.440,-0.440,-0.440,0.000,0.000,0.000
1605124953187737856,10.0.1.128,407,move_down,-0.460,-0.460,-0.460,0.000,0.000,0.000
1605124954748210944,10.0.1.128,456,move_down,-0.480,-0.480,-0.480,0.000,0.000,0.000
1605124956201505792,10.0.1.128,372,move_down,-0.500,-0.500,-0.500,0.000,0.000,0.000
1605124957696156928,10.0.1.128,433,move_down,-0.520,-0.520,-0.520,0.000,0.000,0.000
1605124959194411008,10.0.1.128,419,move_down,-0.540,-0.540,-0.540,0.000,0.000,0.000
1605124960672337152,10.0.1.128,412,move_down,-0.560,-0.560,-0.560,0.000,0.000,0.000
1605124962202284032,10.0.1.128,438,move_down,-0.580,-0.580,-0.580,0.000,0.000,0.000
1605124963291304192,10.0.1.128,45,pick,-0.590,-0.590,-0.590,0.000,0.000,0.000
1605124965304331008,10.0.1.128,38,pick,-0.610,-0.610,-0.610,0.000,0.000,0.000
1605124966313421056,10.0.1.128,46,pick,-0.620,-0.620,-0.620,0.000,0.000,0.000
1605124967304993024,10.0.1.128,36,pick,-0.630,-0.630,-0.630,0.000,0.000,0.000
1605124968305360128,10.0.1.128,35,pick,-0.640,-0.640,-0.640,0.000,0.000,0.000
1605124969325515008,10.0.1.128,54,pick,-0.650,-0.650,-0.650,0.000,0.000,0.000
1605124970320316928,10.0.1.128,47,pick,-0.660,-0.660,-0.660,0.000,0.000,0.000
1605124971310671104,10.0.1.128,36,pick,-0.670,-0.670,-0.670,0.000,0.000,0.000
1605124972309783808,10.0.1.128,34,pick,-0.680,-0.680,-0.680,0.000,0.000,0.000
1605124973333374976,10.0.1.128,50,pick,-0.690,-0.690,-0.690,0.000,0.000,0.000
1605124974327028992,10.0.1.128,42,pick,-0.700,-0.700,-0.700,0.000,0.000,0.000
1605124975328372992,10.0.1.128,42,pick,-0.710,-0.710,-0.710,0.000,0.000,0.000
1605124976328679168,10.0.1.128,37,pick,-0.720,-0.720,-0.720,0.000,0.000,0.000
1605124977334496000,10.0.1.128,42,pick,-0.730,-0.730,-0.730,0.000,0.000,0.000
1605124978329463040,10.0.1.128,35,pick,-0.740,-0.740,-0.740,0.000,0.000,0.000
1605124979328753920,10.0.1.128,32,pick,-0.750,-0.750,-0.750,0.000,0.000,0.000
1605124980329652992,10.0.1.128,31,pick,-0.760,-0.760,-0.760,0.000,0.000,0.000
1605124981348062976,10.0.1.128,48,pick,-0.770,-0.770,-0.770,0.000,0.000,0.000
1605124982742994176,10.0.1.128,442,move_up,-0.750,-0.750,-0.750,0.000,0.000,0.000
1605124984158177024,10.0.1.128,401,move_up,-0.730,-0.730,-0.730,0.000,0.000,0.000
1605124985729943040,10.0.1.128,480,move_up,-0.710,-0.710,-0.710,0.000,0.000,0.000
1605124987220984832,10.0.1.128,441,move_up,-0.690,-0.690,-0.690,0.000,0.000,0.000
1605124988699880960,10.0.1.128,406,move_up,-0.670,-0.670,-0.670,0.000,0.000,0.000
1605124990219393024,10.0.1.128,469,move_up,-0.650,-0.650,-0.650,0.000,0.000,0.000
1605124991743328000,10.0.1.128,429,move_up,-0.630,-0.630,-0.630,0.000,0.000,0.000
1605124993229739008,10.0.1.128,425,move_up,-0.610,-0.610,-0.610,0.000,0.000,0.000
1605124994658394112,10.0.1.128,358,move_up,-0.590,-0.590,-0.590,0.000,0.000,0.000
1605124996222115072,10.0.1.128,434,move_up,-0.570,-0.570,-0.570,0.000,0.000,0.000
1605124997700408832,10.0.1.128,404,move_up,-0.550,-0.550,-0.550,0.000,0.000,0.000
1605124999190126848,10.0.1.128,406,move_up,-0.530,-0.530,-0.530,0.000,0.000,0.000
1605125000684928768,10.0.1.128,422,move_up,-0.510,-0.510,-0.510,0.000,0.000,0.000
1605125002158912000,10.0.1.128,436,move_up,-0.490,-0.490,-0.490,0.000,0.000,0.000
1605125003600003840,10.0.1.128,396,move_up,-0.470,-0.470,-0.470,0.000,0.000,0.000
1605125005069422848,10.0.1.128,422,move_up,-0.450,-0.450,-0.450,0.000,0.000,0.000
1605125006507334912,10.0.1.128,436,move_up,-0.430,-0.430,-0.430,0.000,0.000,0.000
1605125007959116032,10.0.1.128,389,move_up,-0.410,-0.410,-0.410,0.000,0.000,0.000
1605125009428788992,10.0.1.128,405,move_up,-0.390,-0.390,-0.390,0.000,0.000,0.000
1605125010950045952,10.0.1.128,449,move_up,-0.370,-0.370,-0.370,0.000,0.000,0.000
1605125012321063936,10.0.1.128,362,move_up,-0.350,-0.350,-0.350,0.000,0.000,0.000
1605125013835289856,10.0.1.128,441,move_up,-0.330,-0.330,-0.330,0.000,0.000,0.000
1605125015264900864,10.0.1.128,405,move_up,-0.310,-0.310,-0.310,0.000,0.000,0.000
1605125016779215104,10.0.1.128,375,move_up,-0.290,-0.290,-0.290,0.000,0.000,0.000
1605125018262742016,10.0.1.128,435,move_up,-0.270,-0.270,-0.270,0.000,0.000,0.000
1605125019756102144,10.0.1.128,402,move_up,-0.250,-0.250,-0.250,0.000,0.000,0.000
1605125021272530176,10.0.1.128,439,move_up,-0.230,-0.230,-0.230,0.000,0.000,0.000
1605125022731446016,10.0.1.128,418,move_up,-0.210,-0.210,-0.210,0.000,0.000,0.000
1605125024198000896,10.0.1.128,389,move_up,-0.190,-0.190,-0.190,0.000,0.000,0.000
1605125025321059072,10.0.1.128,54,place,-0.180,-0.180,-0.180,0.000,0.000,0.000
1605125026310787840,10.0.1.128,42,place,-0.170,-0.170,-0.170,0.000,0.000,0.000
1605125027312838912,10.0.1.128,43,place,-0.160,-0.160,-0.160,0.000,0.000,0.000
1605125028314034944,10.0.1.128,43,place,-0.150,-0.150,-0.150,0.000,0.000,0.000
1605125030313106176,10.0.1.128,38,place,-0.130,-0.130,-0.130,0.000,0.000,0.000
1605125031314574848,10.0.1.128,37,place,-0.120,-0.120,-0.120,0.000,0.000,0.000
1605125032319112960,10.0.1.128,40,place,-0.110,-0.110,-0.110,0.000,0.000,0.000
1605125033334511872,10.0.1.128,52,place,-0.100,-0.100,-0.100,0.000,0.000,0.000
1605125034339901952,10.0.1.128,54,place,-0.090,-0.090,-0.090,0.000,0.000,0.000
1605125035333810944,10.0.1.128,46,place,-0.080,-0.080,-0.080,0.000,0.000,0.000
1605125036334510080,10.0.1.128,45,place,-0.070,-0.070,-0.070,0.000,0.000,0.000
1605125037336987136,10.0.1.128,47,place,-0.060,-0.060,-0.060,0.000,0.000,0.000
1605125038337984000,10.0.1.128,44,place,-0.050,-0.050,-0.050,0.000,0.000,0.000
1605125039333652992,10.0.1.128,38,place,-0.040,-0.040,-0.040,0.000,0.000,0.000
1605125040332696064,10.0.1.128,36,place,-0.030,-0.030,-0.030,0.000,0.000,0.000
1605125041332262912,10.0.1.128,35,place,-0.020,-0.020,-0.020,0.000,0.000,0.000
1605125042332060928,10.0.1.128,33,place,-0.010,-0.010,-0.010,0.000,0.000,0.000
1605125043351984896,10.0.1.128,50,place,0.000,0.000,0.000,0.000,0.000,0.000
1605125044703641856,10.0.1.128,400,move_down,-0.020,-0.020,-0.020,0.000,0.000,0.000
1605125046153677824,10.0.1.128,416,move_down,-0.040,-0.040,-0.040,0.000,0.000,0.000
1605125047659095040,10.0.1.128,444,move_down,-0.060,-0.060,-0.060,0.000,0.000,0.000
1605125049143086848,10.0.1.128,396,move_down,-0.080,-0.080,-0.080,0.000,0.000,0.000
1605125050634093056,10.0.1.128,413,move_down,-0.100,-0.100,-0.100,0.000,0.000,0.000
1605125052069726976,10.0.1.128,362,move_down,-0.120,-0.120,-0.120,0.000,0.000,0.000
1605125053487032064,10.0.1.128,395,move_down,-0.140,-0.140,-0.140,0.000,0.000,0.000
1605125054972484096,10.0.1.128,423,move_down,-0.160,-0.160,-0.160,0.000,0.000,0.000
1605125056496200960,10.0.1.128,464,move_down,-0.180,-0.180,-0.180,0.000,0.000,0.000
1605125057980504064,10.0.1.128,428,move_down,-0.200,-0.200,-0.200,0.000,0.000,0.000
1605125059486684928,10.0.1.128,421,move_down,-0.220,-0.220,-0.220,0.000,0.000,0.000
1605125061044462848,10.0.1.128,449,move_down,-0.240,-0.240,-0.240,0.000,0.000,0.000
1605125062592244992,10.0.1.128,525,move_down,-0.260,-0.260,-0.260,0.000,0.000,0.000
1605125064071856128,10.0.1.128,453,move_down,-0.280,-0.280,-0.280,0.000,0.000,0.000
1605125065563045120,10.0.1.128,424,move_down,-0.300,-0.300,-0.300,0.000,0.000,0.000
1605125067013530880,10.0.1.128,415,move_down,-0.320,-0.320,-0.320,0.000,0.000,0.000
1605125068452972032,10.0.1.128,420,move_down,-0.340,-0.340,-0.340,0.000,0.000,0.000
1605125069994383104,10.0.1.128,464,move_down,-0.360,-0.360,-0.360,0.000,0.000,0.000
1605125071514235904,10.0.1.128,518,move_down,-0.380,-0.380,-0.380,0.000,0.000,0.000
1605125072953345024,10.0.1.128,400,move_down,-0.400,-0.400,-0.400,0.000,0.000,0.000
1605125074433065984,10.0.1.128,441,move_down,-0.420,-0.420,-0.420,0.000,0.000,0.000
1605125075946970112,10.0.1.128,470,move_down,-0.440,-0.440,-0.440,0.000,0.000,0.000
1605125077412581888,10.0.1.128,443,move_down,-0.460,-0.460,-0.460,0.000,0.000,0.000
1605125078939308800,10.0.1.128,448,move_down,-0.480,-0.480,-0.480,0.000,0.000,0.000
1605125080400713984,10.0.1.128,426,move_down,-0.500,-0.500,-0.500,0.000,0.000,0.000
1605125081869085952,10.0.1.128,439,move_down,-0.520,-0.520,-0.520,0.000,0.000,0.000
1605125083342575104,10.0.1.128,397,move_down,-0.540,-0.540,-0.540,0.000,0.000,0.000
1605125084803766016,10.0.1.128,397,move_down,-0.560,-0.560,-0.560,0.000,0.000,0.000
1605125086291464192,10.0.1.128,423,move_down,-0.580,-0.580,-0.580,0.000,0.000,0.000
1605125087363589888,10.0.1.128,34,pick,-0.590,-0.590,-0.590,0.000,0.000,0.000
1605125088363301888,10.0.1.128,32,pick,-0.600,-0.600,-0.600,0.000,0.000,0.000
1605125089381737984,10.0.1.128,50,pick,-0.610,-0.610,-0.610,0.000,0.000,0.000
1605125090386404096,10.0.1.128,52,pick,-0.620,-0.620,-0.620,0.000,0.000,0.000
1605125091389396992,10.0.1.128,53,pick,-0.630,-0.630,-0.630,0.000,0.000,0.000
1605125092383572992,10.0.1.128,46,pick,-0.640,-0.640,-0.640,0.000,0.000,0.000
1605125093381459968,10.0.1.128,39,pick,-0.650,-0.650,-0.650,0.000,0.000,0.000
1605125094383033088,10.0.1.128,37,pick,-0.660,-0.660,-0.660,0.000,0.000,0.000
1605125095385261056,10.0.1.128,38,pick,-0.670,-0.670,-0.670,0.000,0.000,0.000
1605125096386078976,10.0.1.128,38,pick,-0.680,-0.680,-0.680,0.000,0.000,0.000
1605125097392313856,10.0.1.128,43,pick,-0.690,-0.690,-0.690,0.000,0.000,0.000
1605125098382384128,10.0.1.128,32,pick,-0.700,-0.700,-0.700,0.000,0.000,0.000
1605125099401829888,10.0.1.128,50,pick,-0.710,-0.710,-0.710,0.000,0.000,0.000
1605125100402071040,10.0.1.128,49,pick,-0.720,-0.720,-0.720,0.000,0.000,0.000
1605125101406354944,10.0.1.128,51,pick,-0.730,-0.730,-0.730,0.000,0.000,0.000
1605125102402560000,10.0.1.128,46,pick,-0.740,-0.740,-0.740,0.000,0.000,0.000
1605125103402162176,10.0.1.128,45,pick,-0.750,-0.750,-0.750,0.000,0.000,0.000
1605125104407591936,10.0.1.128,49,pick,-0.760,-0.760,-0.760,0.000,0.000,0.000
1605125105410765824,10.0.1.128,50,pick,-0.770,-0.770,-0.770,0.000,0.000,0.000
1605125106762466816,10.0.1.128,400,move_up,-0.750,-0.750,-0.750,0.000,0.000,0.000
1605125108243016960,10.0.1.128,386,move_up,-0.730,-0.730,-0.730,0.000,0.000,0.000
1605125109743168000,10.0.1.128,406,move_up,-0.710,-0.710,-0.710,0.000,0.000,0.000
1605125111278225920,10.0.1.128,450,move_up,-0.690,-0.690,-0.690,0.000,0.000,0.000
1605125112742261760,10.0.1.128,400,move_up,-0.670,-0.670,-0.670,0.000,0.000,0.000
1605125114278557952,10.0.1.128,454,move_up,-0.650,-0.650,-0.650,0.000,0.000,0.000
1605125115754129920,10.0.1.128,425,move_up,-0.630,-0.630,-0.630,0.000,0.000,0.000
1605125117325890048,10.0.1.128,482,move_up,-0.610,-0.610,-0.610,0.000,0.000,0.000
1605125118835695872,10.0.1.128,450,move_up,-0.590,-0.590,-0.590,0.000,0.000,0.000
1605125120302667008,10.0.1.128,408,move_up,-0.570,-0.570,-0.570,0.000,0.000,0.000
1605125121743346944,10.0.1.128,401,move_up,-0.550,-0.550,-0.550,0.000,0.000,0.000
1605125123252240896,10.0.1.128,423,move_up,-0.530,-0.530,-0.530,0.000,0.000,0.000
1605125124775144960,10.0.1.128,470,move_up,-0.510,-0.510,-0.510,0.000,0.000,0.000
1605125126299354112,10.0.1.128,452,move_up,-0.490,-0.490,-0.490,0.000,0.000,0.000
1605125127826193152,10.0.1.128,472,move_up,-0.470,-0.470,-0.470,0.000,0.000,0.000
1605125129293692160,10.0.1.128,395,move_up,-0.450,-0.450,-0.450,0.000,0.000,0.000
1605125130786961152,10.0.1.128,412,move_up,-0.430,-0.430,-0.430,0.000,0.000,0.000
1605125132273860096,10.0.1.128,374,move_up,-0.410,-0.410,-0.410,0.000,0.000,0.000
1605125133742556160,10.0.1.128,409,move_up,-0.390,-0.390,-0.390,0.000,0.000,0.000
1605125135192728064,10.0.1.128,404,move_up,-0.370,-0.370,-0.370,0.000,0.000,0.000
1605125136697676032,10.0.1.128,421,move_up,-0.350,-0.350,-0.350,0.000,0.000,0.000
1605125138142878976,10.0.1.128,400,move_up,-0.330,-0.330,-0.330,0.000,0.000,0.000
1605125139625739008,10.0.1.128,443,move_up,-0.310,-0.310,-0.310,0.000,0.000,0.000
1605125141143467776,10.0.1.128,407,move_up,-0.290,-0.290,-0.290,0.000,0.000,0.000
1605125142596888064,10.0.1.128,415,move_up,-0.270,-0.270,-0.270,0.000,0.000,0.000
1605125144133147904,10.0.1.128,485,move_up,-0.250,-0.250,-0.250,0.000,0.000,0.000
1605125145655979008,10.0.1.128,434,move_up,-0.230,-0.230,-0.230,0.000,0.000,0.000
1605125147217228800,10.0.1.128,509,move_up,-0.210,-0.210,-0.210,0.000,0.000,0.000
1605125148803424000,10.0.1.128,477,move_up,-0.190,-0.190,-0.190,0.000,0.000,0.000
1605125149903810048,10.0.1.128,65,place,-0.180,-0.180,-0.180,0.000,0.000,0.000
1605125150889024000,10.0.1.128,49,place,-0.170,-0.170,-0.170,0.000,0.000,0.000
1605125151902040064,10.0.1.128,60,place,-0.160,-0.160,-0.160,0.000,0.000,0.000
1605125152886668800,10.0.1.128,44,place,-0.150,-0.150,-0.150,0.000,0.000,0.000
1605125154897550080,10.0.1.128,51,place,-0.130,-0.130,-0.130,0.000,0.000,0.000
1605125155896164864,10.0.1.128,48,place,-0.120,-0.120,-0.120,0.000,0.000,0.000
1605125156904964096,10.0.1.128,57,place,-0.110,-0.110,-0.110,0.000,0.000,0.000
1605125157888726016,10.0.1.128,39,place,-0.100,-0.100,-0.100,0.000,0.000,0.000
1605125158886686208,10.0.1.128,36,place,-0.090,-0.090,-0.090,0.000,0.000,0.000
1605125159896393984,10.0.1.128,45,place,-0.080,-0.080,-0.080,0.000,0.000,0.000
1605125160927002880,10.0.1.128,69,place,-0.070,-0.070,-0.070,0.000,0.000,0.000
1605125161907845120,10.0.1.128,48,place,-0.060,-0.060,-0.060,0.000,0.000,0.000
1605125162901513216,10.0.1.128,41,place,-0.050,-0.050,-0.050,0.000,0.000,0.000
1605125163917681920,10.0.1.128,56,place,-0.040,-0.040,-0.040,0.000,0.000,0.000
1605125164921197056,10.0.1.128,58,place,-0.030,-0.030,-0.030,0.000,0.000,0.000
1605125165913891072,10.0.1.128,50,place,-0.020,-0.020,-0.020,0.000,0.000,0.000
1605125166915368192,10.0.1.128,50,place,-0.010,-0.010,-0.010,0.000,0.000,0.000
1605125167902982912,10.0.1.128,36,place,0.000,0.000,0.000,0.000,0.000,0.000
1605125169260756992,10.0.1.128,393,move_down,-0.020,-0.020,-0.020,0.000,0.000,0.000
1605125170746031104,10.0.1.128,422,move_down,-0.040,-0.040,-0.040,0.000,0.000,0.000
1605125172206452992,10.0.1.128,396,move_down,-0.060,-0.060,-0.060,0.000,0.000,0.000
1605125173723083008,10.0.1.128,445,move_down,-0.080,-0.080,-0.080,0.000,0.000,0.000
1605125175203944960,10.0.1.128,430,move_down,-0.100,-0.100,-0.100,0.000,0.000,0.000
1605125176632164096,10.0.1.128,404,move_down,-0.120,-0.120,-0.120,0.000,0.000,0.000
1605125178140198912,10.0.1.128,419,move_down,-0.140,-0.140,-0.140,0.000,0.000,0.000
1605125179733804032,10.0.1.128,484,move_down,-0.160,-0.160,-0.160,0.000,0.000,0.000
1605125181309218816,10.0.1.128,450,move_down,-0.180,-0.180,-0.180,0.000,0.000,0.000
1605125182762999040,10.0.1.128,391,move_down,-0.200,-0.200,-0.200,0.000,0.000,0.000
1605125184248837888,10.0.1.128,401,move_down,-0.220,-0.220,-0.220,0.000,0.000,0.000
1605125185795262208,10.0.1.128,407,move_down,-0.240,-0.240,-0.240,0.000,0.000,0.000
1605125187274316032,10.0.1.128,412,move_down,-0.260,-0.260,-0.260,0.000,0.000,0.000
1605125188731090944,10.0.1.128,432,move_down,-0.280,-0.280,-0.280,0.000,0.000,0.000
1605125190195542016,10.0.1.128,439,move_down,-0.300,-0.300,-0.300,0.000,0.000,0.000
1605125191713643008,10.0.1.128,446,move_down,-0.320,-0.320,-0.320,0.000,0.000,0.000
1605125193189608960,10.0.1.128,396,move_down,-0.340,-0.340,-0.340,0.000,0.000,0.000
1605125194776284928,10.0.1.128,472,move_down,-0.360,-0.360,-0.360,0.000,0.000,0.000
1605125196367618048,10.0.1.128,510,move_down,-0.380,-0.380,-0.380,0.000,0.000,0.000
1605125197807660032,10.0.1.128,385,move_down,-0.400,-0.400,-0.400,0.000,0.000,0.000
1605125199356903168,10.0.1.128,471,move_down,-0.420,-0.420,-0.420,0.000,0.000,0.000
1605125200894278912,10.0.1.128,479,move_down,-0.440,-0.440,-0.440,0.000,0.000,0.000
1605125202343058176,10.0.1.128,388,move_down,-0.460,-0.460,-0.460,0.000,0.000,0.000
1605125203864321024,10.0.1.128,432,move_down,-0.480,-0.480,-0.480,0.000,0.000,0.000
1605125205363998976,10.0.1.128,417,move_down,-0.500,-0.500,-0.500,0.000,0.000,0.000
1605125206897454080,10.0.1.128,433,move_down,-0.520,-0.520,-0.520,0.000,0.000,0.000
1605125208375336960,10.0.1.128,451,move_down,-0.540,-0.540,-0.540,0.000,0.000,0.000
1605125209863522048,10.0.1.128,414,move_down,-0.560,-0.560,-0.560,0.000,0.000,0.000
1605125211396059904,10.0.1.128,428,move_down,-0.580,-0.580,-0.580,0.000,0.000,0.000
1605125213541624064,10.0.1.128,45,pick,-0.600,-0.600,-0.600,0.000,0.000,0.000
1605125214533217792,10.0.1.128,35,pick,-0.610,-0.610,-0.610,0.000,0.000,0.000
1605125215554018048,10.0.1.128,47,pick,-0.620,-0.620,-0.620,0.000,0.000,0.000
1605125216554209024,10.0.1.128,46,pick,-0.630,-0.630,-0.630,0.000,0.000,0.000
1605125217549876992,10.0.1.128,41,pick,-0.640,-0.640,-0.640,0.000,0.000,0.000
1605125219548365056,10.0.1.128,36,pick,-0.660,-0.660,-0.660,0.000,0.000,0.000
1605125220558981888,10.0.1.128,44,pick,-0.670,-0.670,-0.670,0.000,0.000,0.000
1605125221585534208,10.0.1.128,64,pick,-0.680,-0.680,-0.680,0.000,0.000,0.000
1605125222571841024,10.0.1.128,49,pick,-0.690,-0.690,-0.690,0.000,0.000,0.000
1605125223571186176,10.0.1.128,47,pick,-0.700,-0.700,-0.700,0.000,0.000,0.000
1605125224571136000,10.0.1.128,36,pick,-0.710,-0.710,-0.710,0.000,0.000,0.000
1605125225571939840,10.0.1.128,36,pick,-0.720,-0.720,-0.720,0.000,0.000,0.000
1605125226572119040,10.0.1.128,34,pick,-0.730,-0.730,-0.730,0.000,0.000,0.000
1605125227581681920,10.0.1.128,43,pick,-0.740,-0.740,-0.740,0.000,0.000,0.000
1605125228590723072,10.0.1.128,50,pick,-0.750,-0.750,-0.750,0.000,0.000,0.000
1605125229546044160,10.0.1.128,-1,pick,-0.760,-0.760,-0.760,0.000,0.000,0.000
1605125230593228032,10.0.1.128,49,pick,-0.770,-0.770,-0.770,0.000,0.000,0.000
1605125231961288960,10.0.1.128,416,move_up,-0.750,-0.750,-0.750,0.000,0.000,0.000
1605125233456057088,10.0.1.128,430,move_up,-0.730,-0.730,-0.730,0.000,0.000,0.000
1605125234906498048,10.0.1.128,392,move_up,-0.710,-0.710,-0.710,0.000,0.000,0.000
1605125236389185792,10.0.1.128,428,move_up,-0.690,-0.690,-0.690,0.000,0.000,0.000
1605125237791117824,10.0.1.128,394,move_up,-0.670,-0.670,-0.670,0.000,0.000,0.000
1605125239289657088,10.0.1.128,444,move_up,-0.650,-0.650,-0.650,0.000,0.000,0.000
1605125240856328960,10.0.1.128,480,move_up,-0.630,-0.630,-0.630,0.000,0.000,0.000
1605125242310745088,10.0.1.128,383,move_up,-0.610,-0.610,-0.610,0.000,0.000,0.000
1605125243828316928,10.0.1.128,413,move_up,-0.590,-0.590,-0.590,0.000,0.000,0.000
1605125245343420928,10.0.1.128,421,move_up,-0.570,-0.570,-0.570,0.000,0.000,0.000
1605125246802226176,10.0.1.128,392,move_up,-0.550,-0.550,-0.550,0.000,0.000,0.000
1605125248321856000,10.0.1.128,454,move_up,-0.530,-0.530,-0.530,0.000,0.000,0.000
1605125249792519168,10.0.1.128,404,move_up,-0.510,-0.510,-0.510,0.000,0.000,0.000
1605125251322737920,10.0.1.128,455,move_up,-0.490,-0.490,-0.490,0.000,0.000,0.000
1605125252772613120,10.0.1.128,406,move_up,-0.470,-0.470,-0.470,0.000,0.000,0.000
1605125254262931968,10.0.1.128,417,move_up,-0.450,-0.450,-0.450,0.000,0.000,0.000
1605125255751522048,10.0.1.128,416,move_up,-0.430,-0.430,-0.430,0.000,0.000,0.000
1605125257292378880,10.0.1.128,418,move_up,-0.410,-0.410,-0.410,0.000,0.000,0.000
1605125258741692928,10.0.1.128,381,move_up,-0.390,-0.390,-0.390,0.000,0.000,0.000
1605125260274342912,10.0.1.128,439,move_up,-0.370,-0.370,-0.370,0.000,0.000,0.000
1605125261810224128,10.0.1.128,435,move_up,-0.350,-0.350,-0.350,0.000,0.000,0.000
1605125263324067072,10.0.1.128,441,move_up,-0.330,-0.330,-0.330,0.000,0.000,0.000
1605125264836425984,10.0.1.128,441,move_up,-0.310,-0.310,-0.310,0.000,0.000,0.000
1605125266332390144,10.0.1.128,440,move_up,-0.290,-0.290,-0.290,0.000,0.000,0.000
1605125267785659136,10.0.1.128,401,move_up,-0.270,-0.270,-0.270,0.000,0.000,0.000
1605125269326771968,10.0.1.128,435,move_up,-0.250,-0.250,-0.250,0.000,0.000,0.000
1605125270791992064,10.0.1.128,409,move_up,-0.230,-0.230,-0.230,0.000,0.000,0.000
1605125272293245184,10.0.1.128,425,move_up,-0.210,-0.210,-0.210,0.000,0.000,0.000
1605125273786206976,10.0.1.128,416,move_up,-0.190,-0.190,-0.190,0.000,0.000,0.000
1605125274911793920,10.0.1.128,38,place,-0.180,-0.180,-0.180,0.000,0.000,0.000
1605125275926610944,10.0.1.128,51,place,-0.170,-0.170,-0.170,0.000,0.000,0.000
1605125276930948096,10.0.1.128,43,place,-0.160,-0.160,-0.160,0.000,0.000,0.000
1605125277934350080,10.0.1.128,43,place,-0.150,-0.150,-0.150,0.000,0.000,0.000
1605125278929138944,10.0.1.128,37,place,-0.140,-0.140,-0.140,0.000,0.000,0.000
1605125279924282112,10.0.1.128,31,place,-0.130,-0.130,-0.130,0.000,0.000,0.000
1605125280944924160,10.0.1.128,50,place,-0.120,-0.120,-0.120,0.000,0.000,0.000
1605125281944439040,10.0.1.128,47,place,-0.110,-0.110,-0.110,0.000,0.000,0.000
1605125282945585920,10.0.1.128,47,place,-0.100,-0.100,-0.100,0.000,0.000,0.000
1605125283945195008,10.0.1.128,43,place,-0.090,-0.090,-0.090,0.000,0.000,0.000
1605125284981751040,10.0.1.128,67,place,-0.080,-0.080,-0.080,0.000,0.000,0.000
1605125285964901888,10.0.1.128,49,place,-0.070,-0.070,-0.070,0.000,0.000,0.000
1605125286965411072,10.0.1.128,48,place,-0.060,-0.060,-0.060,0.000,0.000,0.000
1605125287973370112,10.0.1.128,54,place,-0.050,-0.050,-0.050,0.000,0.000,0.000
1605125288966043904,10.0.1.128,46,place,-0.040,-0.040,-0.040,0.000,0.000,0.000
1605125289966169088,10.0.1.128,45,place,-0.030,-0.030,-0.030,0.000,0.000,0.000
1605125290965486080,10.0.1.128,43,place,-0.020,-0.020,-0.020,0.000,0.000,0.000
1605125291975429120,10.0.1.128,51,place,-0.010,-0.010,-0.010,0.000,0.000,0.000
1605125292966993152,10.0.1.128,42,place,0.000,0.000,0.000,0.000,0.000,0.000
1605125294350447872,10.0.1.128,424,move_down,-0.020,-0.020,-0.020,0.000,0.000,0.000
1605125295811929856,10.0.1.128,466,move_down,-0.040,-0.040,-0.040,0.000,0.000,0.000
1605125297309163008,10.0.1.128,443,move_down,-0.060,-0.060,-0.060,0.000,0.000,0.000
1605125298754801920,10.0.1.128,371,move_down,-0.080,-0.080,-0.080,0.000,0.000,0.000
1605125300264139776,10.0.1.128,400,move_down,-0.100,-0.100,-0.100,0.000,0.000,0.000
1605125301685303040,10.0.1.128,365,move_down,-0.120,-0.120,-0.120,0.000,0.000,0.000
1605125303119885056,10.0.1.128,382,move_down,-0.140,-0.140,-0.140,0.000,0.000,0.000
1605125304571175936,10.0.1.128,391,move_down,-0.160,-0.160,-0.160,0.000,0.000,0.000
1605125306046763008,10.0.1.128,439,move_down,-0.180,-0.180,-0.180,0.000,0.000,0.000
1605125307518428928,10.0.1.128,433,move_down,-0.200,-0.200,-0.200,0.000,0.000,0.000
1605125308978944000,10.0.1.128,428,move_down,-0.220,-0.220,-0.220,0.000,0.000,0.000
1605125310464143104,10.0.1.128,401,move_down,-0.240,-0.240,-0.240,0.000,0.000,0.000
1605125311911134976,10.0.1.128,434,move_down,-0.260,-0.260,-0.260,0.000,0.000,0.000
1605125313465953024,10.0.1.128,480,move_down,-0.280,-0.280,-0.280,0.000,0.000,0.000
1605125314864912128,10.0.1.128,391,move_down,-0.300,-0.300,-0.300,0.000,0.000,0.000
1605125316328193792,10.0.1.128,406,move_down,-0.320,-0.320,-0.320,0.000,0.000,0.000
1605125317769594880,10.0.1.128,416,move_down,-0.340,-0.340,-0.340,0.000,0.000,0.000
1605125319271769088,10.0.1.128,431,move_down,-0.360,-0.360,-0.360,0.000,0.000,0.000
1605125320771700992,10.0.1.128,426,move_down,-0.380,-0.380,-0.380,0.000,0.000,0.000
1605125322214162176,10.0.1.128,390,move_down,-0.400,-0.400,-0.400,0.000,0.000,0.000
1605125323684881920,10.0.1.128,410,move_down,-0.420,-0.420,-0.420,0.000,0.000,0.000
1605125325163042048,10.0.1.128,436,move_down,-0.440,-0.440,-0.440,0.000,0.000,0.000
1605125326611073024,10.0.1.128,391,move_down,-0.460,-0.460,-0.460,0.000,0.000,0.000
1605125328111834112,10.0.1.128,444,move_down,-0.480,-0.480,-0.480,0.000,0.000,0.000
1605125329632903168,10.0.1.128,444,move_down,-0.500,-0.500,-0.500,0.000,0.000,0.000
1605125331119393024,10.0.1.128,417,move_down,-0.520,-0.520,-0.520,0.000,0.000,0.000
1605125332600087040,10.0.1.128,467,move_down,-0.540,-0.540,-0.540,0.000,0.000,0.000
1605125334113259008,10.0.1.128,442,move_down,-0.560,-0.560,-0.560,0.000,0.000,0.000
1605125335584830976,10.0.1.128,406,move_down,-0.580,-0.580,-0.580,0.000,0.000,0.000
1605125337747648000,10.0.1.128,40,pick,-0.600,-0.600,-0.600,0.000,0.000,0.000
1605125338770544128,10.0.1.128,54,pick,-0.610,-0.610,-0.610,0.000,0.000,0.000
1605125339764184064,10.0.1.128,47,pick,-0.620,-0.620,-0.620,0.000,0.000,0.000
1605125340764259072,10.0.1.128,46,pick,-0.630,-0.630,-0.630,0.000,0.000,0.000
1605125341763789824,10.0.1.128,43,pick,-0.640,-0.640,-0.640,0.000,0.000,0.000
1605125342764977920,10.0.1.128,43,pick,-0.650,-0.650,-0.650,0.000,0.000,0.000
1605125343765175040,10.0.1.128,42,pick,-0.660,-0.660,-0.660,0.000,0.000,0.000
1605125344763153920,10.0.1.128,38,pick,-0.670,-0.670,-0.670,0.000,0.000,0.000
1605125345763817984,10.0.1.128,33,pick,-0.680,-0.680,-0.680,0.000,0.000,0.000
1605125346763830016,10.0.1.128,32,pick,-0.690,-0.690,-0.690,0.000,0.000,0.000
1605125347784812032,10.0.1.128,51,pick,-0.700,-0.700,-0.700,0.000,0.000,0.000
1605125348772342016,10.0.1.128,38,pick,-0.710,-0.710,-0.710,0.000,0.000,0.000
1605125349770267136,10.0.1.128,34,pick,-0.720,-0.720,-0.720,0.000,0.000,0.000
1605125350793338112,10.0.1.128,56,pick,-0.730,-0.730,-0.730,0.000,0.000,0.000
1605125351787158016,10.0.1.128,49,pick,-0.740,-0.740,-0.740,0.000,0.000,0.000
1605125352785748992,10.0.1.128,47,pick,-0.750,-0.750,-0.750,0.000,0.000,0.000
1605125353787600128,10.0.1.128,47,pick,-0.760,-0.760,-0.760,0.000,0.000,0.000
1605125354796226048,10.0.1.128,55,pick,-0.770,-0.770,-0.770,0.000,0.000,0.000
1605125356104895232,10.0.1.128,363,move_up,-0.750,-0.750,-0.750,0.000,0.000,0.000
1605125357579268864,10.0.1.128,418,move_up,-0.730,-0.730,-0.730,0.000,0.000,0.000
1605125359140849152,10.0.1.128,475,move_up,-0.710,-0.710,-0.710,0.000,0.000,0.000
1605125360628948992,10.0.1.128,413,move_up,-0.690,-0.690,-0.690,0.000,0.000,0.000
1605125362092876032,10.0.1.128,391,move_up,-0.670,-0.670,-0.670,0.000,0.000,0.000
1605125363562784000,10.0.1.128,398,move_up,-0.650,-0.650,-0.650,0.000,0.000,0.000
1605125365126776064,10.0.1.128,468,move_up,-0.630,-0.630,-0.630,0.000,0.000,0.000
1605125366600642816,10.0.1.128,404,move_up,-0.610,-0.610,-0.610,0.000,0.000,0.000
1605125368101125888,10.0.1.128,427,move_up,-0.590,-0.590,-0.590,0.000,0.000,0.000
1605125369611180032,10.0.1.128,407,move_up,-0.570,-0.570,-0.570,0.000,0.000,0.000
1605125371141056000,10.0.1.128,445,move_up,-0.550,-0.550,-0.550,0.000,0.000,0.000
1605125372627545088,10.0.1.128,416,move_up,-0.530,-0.530,-0.530,0.000,0.000,0.000
1605125374146426880,10.0.1.128,408,move_up,-0.510,-0.510,-0.510,0.000,0.000,0.000
1605125375579384064,10.0.1.128,383,move_up,-0.490,-0.490,-0.490,0.000,0.000,0.000
1605125377073064192,10.0.1.128,428,move_up,-0.470,-0.470,-0.470,0.000,0.000,0.000
1605125378571094016,10.0.1.128,395,move_up,-0.450,-0.450,-0.450,0.000,0.000,0.000
1605125379966211072,10.0.1.128,392,move_up,-0.430,-0.430,-0.430,0.000,0.000,0.000
1605125381467233024,10.0.1.128,437,move_up,-0.410,-0.410,-0.410,0.000,0.000,0.000
1605125382985538048,10.0.1.128,395,move_up,-0.390,-0.390,-0.390,0.000,0.000,0.000
1605125384447796224,10.0.1.128,410,move_up,-0.370,-0.370,-0.370,0.000,0.000,0.000
1605125386010287104,10.0.1.128,461,move_up,-0.350,-0.350,-0.350,0.000,0.000,0.000
1605125387492502016,10.0.1.128,447,move_up,-0.330,-0.330,-0.330,0.000,0.000,0.000
1605125388980508160,10.0.1.128,414,move_up,-0.310,-0.310,-0.310,0.000,0.000,0.000
1605125390543821056,10.0.1.128,452,move_up,-0.290,-0.290,-0.290,0.000,0.000,0.000
1605125392029751040,10.0.1.128,424,move_up,-0.270,-0.270,-0.270,0.000,0.000,0.000
1605125393546192896,10.0.1.128,433,move_up,-0.250,-0.250,-0.250,0.000,0.000,0.000
1605125395085359104,10.0.1.128,433,move_up,-0.230,-0.230,-0.230,0.000,0.000,0.000
1605125396688180992,10.0.1.128,529,move_up,-0.210,-0.210,-0.210,0.000,0.000,0.000
1605125398232566016,10.0.1.128,457,move_up,-0.190,-0.190,-0.190,0.000,0.000,0.000
1605125399409936896,10.0.1.128,35,place,-0.180,-0.180,-0.180,0.000,0.000,0.000
1605125400410126080,10.0.1.128,34,place,-0.170,-0.170,-0.170,0.000,0.000,0.000
1605125401415963904,10.0.1.128,39,place,-0.160,-0.160,-0.160,0.000,0.000,0.000
1605125402413228032,10.0.1.128,35,place,-0.150,-0.150,-0.150,0.000,0.000,0.000
1605125403435197184,10.0.1.128,56,place,-0.140,-0.140,-0.140,0.000,0.000,0.000
1605125404445116928,10.0.1.128,63,place,-0.130,-0.130,-0.130,0.000,0.000,0.000
1605125405431205120,10.0.1.128,48,place,-0.120,-0.120,-0.120,0.000,0.000,0.000
1605125406430080000,10.0.1.128,45,place,-0.110,-0.110,-0.110,0.000,0.000,0.000
1605125407430675968,10.0.1.128,44,place,-0.100,-0.100,-0.100,0.000,0.000,0.000
1605125408429660160,10.0.1.128,42,place,-0.090,-0.090,-0.090,0.000,0.000,0.000
1605125409431170816,10.0.1.128,42,place,-0.080,-0.080,-0.080,0.000,0.000,0.000
1605125410429924864,10.0.1.128,39,place,-0.070,-0.070,-0.070,0.000,0.000,0.000
1605125411440113920,10.0.1.128,45,place,-0.060,-0.060,-0.060,0.000,0.000,0.000
1605125412430560000,10.0.1.128,35,place,-0.050,-0.050,-0.050,0.000,0.000,0.000
1605125413452653824,10.0.1.128,51,place,-0.040,-0.040,-0.040,0.000,0.000,0.000
1605125414454853120,10.0.1.128,52,place,-0.030,-0.030,-0.030,0.000,0.000,0.000
1605125415450876928,10.0.1.128,46,place,-0.020,-0.020,-0.020,0.000,0.000,0.000
1605125416453351936,10.0.1.128,48,place,-0.010,-0.010,-0.010,0.000,0.000,0.000
1605125417460891136,10.0.1.128,54,place,0.000,0.000,0.000,0.000,0.000,0.000
1605125418821677824,10.0.1.128,412,move_down,-0.020,-0.020,-0.020,0.000,0.000,0.000
1605125420340150016,10.0.1.128,413,move_down,-0.040,-0.040,-0.040,0.000,0.000,0.000
1605125421816997120,10.0.1.128,410,move_down,-0.060,-0.060,-0.060,0.000,0.000,0.000
1605125423240358144,10.0.1.128,386,move_down,-0.080,-0.080,-0.080,0.000,0.000,0.000
1605125424761817856,10.0.1.128,438,move_down,-0.100,-0.100,-0.100,0.000,0.000,0.000
1605125426262365952,10.0.1.128,434,move_down,-0.120,-0.120,-0.120,0.000,0.000,0.000
1605125427774831104,10.0.1.128,441,move_down,-0.140,-0.140,-0.140,0.000,0.000,0.000
1605125429236002048,10.0.1.128,429,move_down,-0.160,-0.160,-0.160,0.000,0.000,0.000
1605125430775127040,10.0.1.128,446,move_down,-0.180,-0.180,-0.180,0.000,0.000,0.000
1605125432212171008,10.0.1.128,413,move_down,-0.200,-0.200,-0.200,0.000,0.000,0.000
1605125433733468928,10.0.1.128,451,move_down,-0.220,-0.220,-0.220,0.000,0.000,0.000
1605125435230732032,10.0.1.128,416,move_down,-0.240,-0.240,-0.240,0.000,0.000,0.000
1605125436761600000,10.0.1.128,425,move_down,-0.260,-0.260,-0.260,0.000,0.000,0.000
1605125438254014976,10.0.1.128,438,move_down,-0.280,-0.280,-0.280,0.000,0.000,0.000
1605125439717438976,10.0.1.128,412,move_down,-0.300,-0.300,-0.300,0.000,0.000,0.000
1605125441253899008,10.0.1.128,454,move_down,-0.320,-0.320,-0.320,0.000,0.000,0.000
1605125442761095936,10.0.1.128,439,move_down,-0.340,-0.340,-0.340,0.000,0.000,0.000
1605125444201910016,10.0.1.128,390,move_down,-0.360,-0.360,-0.360,0.000,0.000,0.000
1605125445760845824,10.0.1.128,415,move_down,-0.380,-0.380,-0.380,0.000,0.000,0.000
1605125447247808000,10.0.1.128,406,move_down,-0.400,-0.400,-0.400,0.000,0.000,0.000
1605125448742134016,10.0.1.128,392,move_down,-0.420,-0.420,-0.420,0.000,0.000,0.000
1605125450220630784,10.0.1.128,426,move_down,-0.440,-0.440,-0.440,0.000,0.000,0.000
1605125451750600960,10.0.1.128,426,move_down,-0.460,-0.460,-0.460,0.000,0.000,0.000
1605125453274828032,10.0.1.128,439,move_down,-0.480,-0.480,-0.480,0.000,0.000,0.000
1605125454734057984,10.0.1.128,440,move_down,-0.500,-0.500,-0.500,0.000,0.000,0.000
1605125456225805056,10.0.1.128,416,move_down,-0.520,-0.520,-0.520,0.000,0.000,0.000
1605125457720696064,10.0.1.128,429,move_down,-0.540,-0.540,-0.540,0.000,0.000,0.000
1605125459244265984,10.0.1.128,428,move_down,-0.560,-0.560,-0.560,0.000,0.000,0.000
1605125460734519040,10.0.1.128,394,move_down,-0.580,-0.580,-0.580,0.000,0.000,0.000
1605125461858799104,10.0.1.128,44,pick,-0.590,-0.590,-0.590,0.000,0.000,0.000
1605125462863660032,10.0.1.128,48,pick,-0.600,-0.600,-0.600,0.000,0.000,0.000
1605125463862241024,10.0.1.128,42,pick,-0.610,-0.610,-0.610,0.000,0.000,0.000
1605125464870345984,10.0.1.128,48,pick,-0.620,-0.620,-0.620,0.000,0.000,0.000
1605125465882797056,10.0.1.128,59,pick,-0.630,-0.630,-0.630,0.000,0.000,0.000
1605125466872515840,10.0.1.128,48,pick,-0.640,-0.640,-0.640,0.000,0.000,0.000
1605125469891756032,10.0.1.128,48,pick,-0.670,-0.670,-0.670,0.000,0.000,0.000
1605125471890487040,10.0.1.128,44,pick,-0.690,-0.690,-0.690,0.000,0.000,0.000
1605125474901280000,10.0.1.128,52,pick,-0.720,-0.720,-0.720,0.000,0.000,0.000
1605125475911653888,10.0.1.128,55,pick,-0.730,-0.730,-0.730,0.000,0.000,0.000
1605125476901725952,10.0.1.128,43,pick,-0.740,-0.740,-0.740,0.000,0.000,0.000
1605125477921067008,10.0.1.128,61,pick,-0.750,-0.750,-0.750,0.000,0.000,0.000
1605125478912882176,10.0.1.128,52,pick,-0.760,-0.760,-0.760,0.000,0.000,0.000
1605125479949057024,10.0.1.128,67,pick,-0.770,-0.770,-0.770,0.000,0.000,0.000
1605125481301538048,10.0.1.128,418,move_up,-0.750,-0.750,-0.750,0.000,0.000,0.000
1605125482763761920,10.0.1.128,427,move_up,-0.730,-0.730,-0.730,0.000,0.000,0.000
1605125484303457024,10.0.1.128,431,move_up,-0.710,-0.710,-0.710,0.000,0.000,0.000
1605125485782318080,10.0.1.128,419,move_up,-0.690,-0.690,-0.690,0.000,0.000,0.000
1605125487320965888,10.0.1.128,437,move_up,-0.670,-0.670,-0.670,0.000,0.000,0.000
1605125488862301952,10.0.1.128,445,move_up,-0.650,-0.650,-0.650,0.000,0.000,0.000
1605125490365156864,10.0.1.128,423,move_up,-0.630,-0.630,-0.630,0.000,0.000,0.000
1605125491821057024,10.0.1.128,402,move_up,-0.610,-0.610,-0.610,0.000,0.000,0.000
1605125493294054144,10.0.1.128,391,move_up,-0.590,-0.590,-0.590,0.000,0.000,0.000
1605125494750215168,10.0.1.128,395,move_up,-0.570,-0.570,-0.570,0.000,0.000,0.000
1605125496309302016,10.0.1.128,474,move_up,-0.550,-0.550,-0.550,0.000,0.000,0.000
1605125497729523968,10.0.1.128,377,move_up,-0.530,-0.530,-0.530,0.000,0.000,0.000
1605125499265335040,10.0.1.128,467,move_up,-0.510,-0.510,-0.510,0.000,0.000,0.000
1605125500689980928,10.0.1.128,433,move_up,-0.490,-0.490,-0.490,0.000,0.000,0.000
1605125502236780032,10.0.1.128,451,move_up,-0.470,-0.470,-0.470,0.000,0.000,0.000
1605125503777426944,10.0.1.128,474,move_up,-0.450,-0.450,-0.450,0.000,0.000,0.000
1605125505338386176,10.0.1.128,469,move_up,-0.430,-0.430,-0.430,0.000,0.000,0.000
1605125506747521024,10.0.1.128,382,move_up,-0.410,-0.410,-0.410,0.000,0.000,0.000
1605125508302858240,10.0.1.128,448,move_up,-0.390,-0.390,-0.390,0.000,0.000,0.000
1605125509800096000,10.0.1.128,414,move_up,-0.370,-0.370,-0.370,0.000,0.000,0.000
1605125511296532992,10.0.1.128,445,move_up,-0.350,-0.350,-0.350,0.000,0.000,0.000
1605125512817030912,10.0.1.128,428,move_up,-0.330,-0.330,-0.330,0.000,0.000,0.000
1605125514253300992,10.0.1.128,388,move_up,-0.310,-0.310,-0.310,0.000,0.000,0.000
1605125515892407808,10.0.1.128,489,move_up,-0.290,-0.290,-0.290,0.000,0.000,0.000
1605125517351985920,10.0.1.128,393,move_up,-0.270,-0.270,-0.270,0.000,0.000,0.000
1605125518842255104,10.0.1.128,383,move_up,-0.250,-0.250,-0.250,0.000,0.000,0.000
1605125520342892800,10.0.1.128,404,move_up,-0.230,-0.230,-0.230,0.000,0.000,0.000
1605125521863630080,10.0.1.128,432,move_up,-0.210,-0.210,-0.210,0.000,0.000,0.000
1605125523333900032,10.0.1.128,357,move_up,-0.190,-0.190,-0.190,0.000,0.000,0.000
1605125524419169024,10.0.1.128,48,place,-0.180,-0.180,-0.180,0.000,0.000,0.000
1605125525412365056,10.0.1.128,39,place,-0.170,-0.170,-0.170,0.000,0.000,0.000
1605125526418065920,10.0.1.128,43,place,-0.160,-0.160,-0.160,0.000,0.000,0.000
1605125527414478080,10.0.1.128,38,place,-0.150,-0.150,-0.150,0.000,0.000,0.000
1605125528419305984,10.0.1.128,42,place,-0.140,-0.140,-0.140,0.000,0.000,0.000
1605125530419489024,10.0.1.128,39,place,-0.120,-0.120,-0.120,0.000,0.000,0.000
1605125531413327104,10.0.1.128,33,place,-0.110,-0.110,-0.110,0.000,0.000,0.000
1605125532413392128,10.0.1.128,31,place,-0.100,-0.100,-0.100,0.000,0.000,0.000
1605125533435569152,10.0.1.128,52,place,-0.090,-0.090,-0.090,0.000,0.000,0.000
1605125534431997952,10.0.1.128,47,place,-0.080,-0.080,-0.080,0.000,0.000,0.000
1605125535434927872,10.0.1.128,49,place,-0.070,-0.070,-0.070,0.000,0.000,0.000
1605125536434278912,10.0.1.128,47,place,-0.060,-0.060,-0.060,0.000,0.000,0.000
1605125537441956096,10.0.1.128,35,place,-0.050,-0.050,-0.050,0.000,0.000,0.000
1605125538470312960,10.0.1.128,62,place,-0.040,-0.040,-0.040,0.000,0.000,0.000
1605125539453361920,10.0.1.128,44,place,-0.030,-0.030,-0.030,0.000,0.000,0.000
1605125541452354816,10.0.1.128,39,place,-0.010,-0.010,-0.010,0.000,0.000,0.000
1605125542453548032,10.0.1.128,37,place,0.000,0.000,0.000,0.000,0.000,0.000
1605125543829172992,10.0.1.128,407,move_down,-0.020,-0.020,-0.020,0.000,0.000,0.000
1605125545302670080,10.0.1.128,395,move_down,-0.040,-0.040,-0.040,0.000,0.000,0.000
1605125546793049088,10.0.1.128,395,move_down,-0.060,-0.060,-0.060,0.000,0.000,0.000
1605125548306641152,10.0.1.128,446,move_down,-0.080,-0.080,-0.080,0.000,0.000,0.000
1605125549762993152,10.0.1.128,372,move_down,-0.100,-0.100,-0.100,0.000,0.000,0.000
1605125551247912960,10.0.1.128,436,move_down,-0.120,-0.120,-0.120,0.000,0.000,0.000
1605125552747726848,10.0.1.128,416,move_down,-0.140,-0.140,-0.140,0.000,0.000,0.000
1605125554267271168,10.0.1.128,427,move_down,-0.160,-0.160,-0.160,0.000,0.000,0.000
1605125555795404800,10.0.1.128,452,move_down,-0.180,-0.180,-0.180,0.000,0.000,0.000
1605125557294370048,10.0.1.128,397,move_down,-0.200,-0.200,-0.200,0.000,0.000,0.000
1605125558825104896,10.0.1.128,430,move_down,-0.220,-0.220,-0.220,0.000,0.000,0.000
1605125560314452992,10.0.1.128,396,move_down,-0.240,-0.240,-0.240,0.000,0.000,0.000
1605125561816755968,10.0.1.128,404,move_down,-0.260,-0.260,-0.260,0.000,0.000,0.000
1605125563289037056,10.0.1.128,423,move_down,-0.280,-0.280,-0.280,0.000,0.000,0.000
1605125564788356096,10.0.1.128,447,move_down,-0.300,-0.300,-0.300,0.000,0.000,0.000
1605125566341028096,10.0.1.128,458,move_down,-0.320,-0.320,-0.320,0.000,0.000,0.000
1605125567804744960,10.0.1.128,399,move_down,-0.340,-0.340,-0.340,0.000,0.000,0.000
1605125569227966976,10.0.1.128,403,move_down,-0.360,-0.360,-0.360,0.000,0.000,0.000
1605125570708486912,10.0.1.128,365,move_down,-0.380,-0.380,-0.380,0.000,0.000,0.000
1605125572220212992,10.0.1.128,391,move_down,-0.400,-0.400,-0.400,0.000,0.000,0.000
1605125573739067136,10.0.1.128,435,move_down,-0.420,-0.420,-0.420,0.000,0.000,0.000
1605125575300005888,10.0.1.128,466,move_down,-0.440,-0.440,-0.440,0.000,0.000,0.000
1605125576769985792,10.0.1.128,405,move_down,-0.460,-0.460,-0.460,0.000,0.000,0.000
1605125578293335040,10.0.1.128,449,move_down,-0.480,-0.480,-0.480,0.000,0.000,0.000
1605125579776295936,10.0.1.128,405,move_down,-0.500,-0.500,-0.500,0.000,0.000,0.000
1605125581218326016,10.0.1.128,386,move_down,-0.520,-0.520,-0.520,0.000,0.000,0.000
1605125582733884160,10.0.1.128,423,move_down,-0.540,-0.540,-0.540,0.000,0.000,0.000
1605125584147129088,10.0.1.128,393,move_down,-0.560,-0.560,-0.560,0.000,0.000,0.000
1605125585712976896,10.0.1.128,474,move_down,-0.580,-0.580,-0.580,0.000,0.000,0.000
1605125586817620992,10.0.1.128,58,pick,-0.590,-0.590,-0.590,0.000,0.000,0.000
1605125587811407104,10.0.1.128,51,pick,-0.600,-0.600,-0.600,0.000,0.000,0.000
1605125588808334080,10.0.1.128,46,pick,-0.610,-0.610,-0.610,0.000,0.000,0.000
1605125589814201088,10.0.1.128,51,pick,-0.620,-0.620,-0.620,0.000,0.000,0.000
1605125590808579072,10.0.1.128,44,pick,-0.630,-0.630,-0.630,0.000,0.000,0.000
1605125591808247040,10.0.1.128,42,pick,-0.640,-0.640,-0.640,0.000,0.000,0.000
1605125592807423232,10.0.1.128,40,pick,-0.650,-0.650,-0.650,0.000,0.000,0.000
1605125593822917888,10.0.1.128,55,pick,-0.660,-0.660,-0.660,0.000,0.000,0.000
1605125594810851072,10.0.1.128,42,pick,-0.670,-0.670,-0.670,0.000,0.000,0.000
1605125596817799168,10.0.1.128,45,pick,-0.690,-0.690,-0.690,0.000,0.000,0.000
1605125597824225024,10.0.1.128,49,pick,-0.700,-0.700,-0.700,0.000,0.000,0.000
1605125598818931200,10.0.1.128,43,pick,-0.710,-0.710,-0.710,0.000,0.000,0.000
1605125599827042048,10.0.1.128,50,pick,-0.720,-0.720,-0.720,0.000,0.000,0.000
1605125600820466944,10.0.1.128,42,pick,-0.730,-0.730,-0.730,0.000,0.000,0.000
1605125601826200064,10.0.1.128,46,pick,-0.740,-0.740,-0.740,0.000,0.000,0.000
1605125602822264832,10.0.1.128,41,pick,-0.750,-0.750,-0.750,0.000,0.000,0.000
1605125603831141120,10.0.1.128,49,pick,-0.760,-0.760,-0.760,0.000,0.000,0.000
1605125604841444864,10.0.1.128,54,pick,-0.770,-0.770,-0.770,0.000,0.000,0.000
1605125606215805952,10.0.1.128,425,move_up,-0.750,-0.750,-0.750,0.000,0.000,0.000
1605125607761803008,10.0.1.128,452,move_up,-0.730,-0.730,-0.730,0.000,0.000,0.000
1605125609281164032,10.0.1.128,419,move_up,-0.710,-0.710,-0.710,0.000,0.000,0.000
1605125610786725888,10.0.1.128,430,move_up,-0.690,-0.690,-0.690,0.000,0.000,0.000
1605125612275981056,10.0.1.128,407,move_up,-0.670,-0.670,-0.670,0.000,0.000,0.000
1605125613750217984,10.0.1.128,391,move_up,-0.650,-0.650,-0.650,0.000,0.000,0.000
1605125615257015040,10.0.1.128,430,move_up,-0.630,-0.630,-0.630,0.000,0.000,0.000
1605125616700669952,10.0.1.128,379,move_up,-0.610,-0.610,-0.610,0.000,0.000,0.000
1605125618160645120,10.0.1.128,400,move_up,-0.590,-0.590,-0.590,0.000,0.000,0.000
1605125619656166144,10.0.1.128,447,move_up,-0.570,-0.570,-0.570,0.000,0.000,0.000
1605125621134682880,10.0.1.128,410,move_up,-0.550,-0.550,-0.550,0.000,0.000,0.000
1605125622556827136,10.0.1.128,408,move_up,-0.530,-0.530,-0.530,0.000,0.000,0.000
1605125624053894144,10.0.1.128,411,move_up,-0.510,-0.510,-0.510,0.000,0.000,0.000
1605125625509172992,10.0.1.128,431,move_up,-0.490,-0.490,-0.490,0.000,0.000,0.000
1605125626965595904,10.0.1.128,434,move_up,-0.470,-0.470,-0.470,0.000,0.000,0.000
1605125628422821120,10.0.1.128,377,move_up,-0.450,-0.450,-0.450,0.000,0.000,0.000
1605125629903866112,10.0.1.128,410,move_up,-0.430,-0.430,-0.430,0.000,0.000,0.000
1605125631432549120,10.0.1.128,452,move_up,-0.410,-0.410,-0.410,0.000,0.000,0.000
1605125632926461952,10.0.1.128,431,move_up,-0.390,-0.390,-0.390,0.000,0.000,0.000
1605125634360249088,10.0.1.128,357,move_up,-0.370,-0.370,-0.370,0.000,0.000,0.000
1605125635933830144,10.0.1.128,451,move_up,-0.350,-0.350,-0.350,0.000,0.000,0.000
1605125637440553984,10.0.1.128,423,move_up,-0.330,-0.330,-0.330,0.000,0.000,0.000
1605125638965652992,10.0.1.128,454,move_up,-0.310,-0.310,-0.310,0.000,0.000,0.000
1605125640379859968,10.0.1.128,384,move_up,-0.290,-0.290,-0.290,0.000,0.000,0.000
1605125641830116864,10.0.1.128,391,move_up,-0.270,-0.270,-0.270,0.000,0.000,0.000
1605125643260435200,10.0.1.128,385,move_up,-0.250,-0.250,-0.250,0.000,0.000,0.000
1605125644761227008,10.0.1.128,396,move_up,-0.230,-0.230,-0.230,0.000,0.000,0.000
1605125646265548032,10.0.1.128,453,move_up,-0.210,-0.210,-0.210,0.000,0.000,0.000
1605125647774878976,10.0.1.128,437,move_up,-0.190,-0.190,-0.190,0.000,0.000,0.000
1605125648990647040,10.0.1.128,37,place,-0.180,-0.180,-0.180,0.000,0.000,0.000
1605125649990125056,10.0.1.128,33,place,-0.170,-0.170,-0.170,0.000,0.000,0.000
1605125650989701120,10.0.1.128,31,place,-0.160,-0.160,-0.160,0.000,0.000,0.000
1605125651991488000,10.0.1.128,32,place,-0.150,-0.150,-0.150,0.000,0.000,0.000
1605125653010596096,10.0.1.128,49,place,-0.140,-0.140,-0.140,0.000,0.000,0.000
1605125654011791104,10.0.1.128,49,place,-0.130,-0.130,-0.130,0.000,0.000,0.000
1605125655011001088,10.0.1.128,47,place,-0.120,-0.120,-0.120,0.000,0.000,0.000
1605125655999746048,10.0.1.128,34,place,-0.110,-0.110,-0.110,0.000,0.000,0.000
1605125657017083904,10.0.1.128,51,place,-0.100,-0.100,-0.100,0.000,0.000,0.000
1605125658018144000,10.0.1.128,51,place,-0.090,-0.090,-0.090,0.000,0.000,0.000
1605125659019796992,10.0.1.128,50,place,-0.080,-0.080,-0.080,0.000,0.000,0.000
1605125660016825088,10.0.1.128,45,place,-0.070,-0.070,-0.070,0.000,0.000,0.000
1605125661022077952,10.0.1.128,48,place,-0.060,-0.060,-0.060,0.000,0.000,0.000
1605125662016897792,10.0.1.128,42,place,-0.050,-0.050,-0.050,0.000,0.000,0.000
1605125664016210176,10.0.1.128,37,place,-0.030,-0.030,-0.030,0.000,0.000,0.000
1605125665039431168,10.0.1.128,52,place,-0.020,-0.020,-0.020,0.000,0.000,0.000
1605125666040313856,10.0.1.128,53,place,-0.010,-0.010,-0.010,0.000,0.000,0.000
1605125667038732032,10.0.1.128,51,place,0.000,0.000,0.000,0.000,0.000,0.000
1605125668376358912,10.0.1.128,388,move_down,-0.020,-0.020,-0.020,0.000,0.000,0.000
1605125669886318848,10.0.1.128,446,move_down,-0.040,-0.040,-0.040,0.000,0.000,0.000
1605125671395575040,10.0.1.128,412,move_down,-0.060,-0.060,-0.060,0.000,0.000,0.000
1605125672896781056,10.0.1.128,421,move_down,-0.080,-0.080,-0.080,0.000,0.000,0.000
1605125674365154048,10.0.1.128,423,move_down,-0.100,-0.100,-0.100,0.000,0.000,0.000
1605125675935544064,10.0.1.128,435,move_down,-0.120,-0.120,-0.120,0.000,0.000,0.000
1605125677471323904,10.0.1.128,448,move_down,-0.140,-0.140,-0.140,0.000,0.000,0.000
1605125678887314944,10.0.1.128,385,move_down,-0.160,-0.160,-0.160,0.000,0.000,0.000
1605125680374598912,10.0.1.128,386,move_down,-0.180,-0.180,-0.180,0.000,0.000,0.000
1605125681911917056,10.0.1.128,477,move_down,-0.200,-0.200,-0.200,0.000,0.000,0.000
1605125683462831872,10.0.1.128,429,move_down,-0.220,-0.220,-0.220,0.000,0.000,0.000
1605125684924314112,10.0.1.128,390,move_down,-0.240,-0.240,-0.240,0.000,0.000,0.000
1605125686412587008,10.0.1.128,400,move_down,-0.260,-0.260,-0.260,0.000,0.000,0.000
1605125687920774912,10.0.1.128,423,move_down,-0.280,-0.280,-0.280,0.000,0.000,0.000
1605125689360675072,10.0.1.128,386,move_down,-0.300,-0.300,-0.300,0.000,0.000,0.000
1605125690881644032,10.0.1.128,458,move_down,-0.320,-0.320,-0.320,0.000,0.000,0.000
1605125692350076928,10.0.1.128,401,move_down,-0.340,-0.340,-0.340,0.000,0.000,0.000
1605125693902060032,10.0.1.128,498,move_down,-0.360,-0.360,-0.360,0.000,0.000,0.000
1605125695380987904,10.0.1.128,408,move_down,-0.380,-0.380,-0.380,0.000,0.000,0.000
1605125696881942016,10.0.1.128,409,move_down,-0.400,-0.400,-0.400,0.000,0.000,0.000
1605125698360289024,10.0.1.128,432,move_down,-0.420,-0.420,-0.420,0.000,0.000,0.000
1605125699853923072,10.0.1.128,406,move_down,-0.440,-0.440,-0.440,0.000,0.000,0.000
1605125701369314048,10.0.1.128,393,move_down,-0.460,-0.460,-0.460,0.000,0.000,0.000
1605125702881144064,10.0.1.128,420,move_down,-0.480,-0.480,-0.480,0.000,0.000,0.000
1605125704396305152,10.0.1.128,424,move_down,-0.500,-0.500,-0.500,0.000,0.000,0.000
1605125705895580160,10.0.1.128,456,move_down,-0.520,-0.520,-0.520,0.000,0.000,0.000
1605125707453915136,10.0.1.128,468,move_down,-0.540,-0.540,-0.540,0.000,0.000,0.000
1605125709060424960,10.0.1.128,503,move_down,-0.560,-0.560,-0.560,0.000,0.000,0.000
1605125710481367040,10.0.1.128,392,move_down,-0.580,-0.580,-0.580,0.000,0.000,0.000
1605125711579920896,10.0.1.128,38,pick,-0.590,-0.590,-0.590,0.000,0.000,0.000
1605125712582215168,10.0.1.128,39,pick,-0.600,-0.600,-0.600,0.000,0.000,0.000
1605125713581065984,10.0.1.128,36,pick,-0.610,-0.610,-0.610,0.000,0.000,0.000
1605125714579302144,10.0.1.128,30,pick,-0.620,-0.620,-0.620,0.000,0.000,0.000
1605125715602646016,10.0.1.128,52,pick,-0.630,-0.630,-0.630,0.000,0.000,0.000
1605125716600041984,10.0.1.128,48,pick,-0.640,-0.640,-0.640,0.000,0.000,0.000
1605125717606054144,10.0.1.128,54,pick,-0.650,-0.650,-0.650,0.000,0.000,0.000
1605125718598990848,10.0.1.128,46,pick,-0.660,-0.660,-0.660,0.000,0.000,0.000
1605125719597816064,10.0.1.128,41,pick,-0.670,-0.670,-0.670,0.000,0.000,0.000
1605125720600163072,10.0.1.128,42,pick,-0.680,-0.680,-0.680,0.000,0.000,0.000
1605125721599006976,10.0.1.128,38,pick,-0.690,-0.690,-0.690,0.000,0.000,0.000
1605125722600121856,10.0.1.128,38,pick,-0.700,-0.700,-0.700,0.000,0.000,0.000
1605125723625277952,10.0.1.128,61,pick,-0.710,-0.710,-0.710,0.000,0.000,0.000
1605125724602473984,10.0.1.128,38,pick,-0.720,-0.720,-0.720,0.000,0.000,0.000
1605125725602534144,10.0.1.128,37,pick,-0.730,-0.730,-0.730,0.000,0.000,0.000
1605125726600882176,10.0.1.128,34,pick,-0.740,-0.740,-0.740,0.000,0.000,0.000
1605125727625096192,10.0.1.128,57,pick,-0.750,-0.750,-0.750,0.000,0.000,0.000
1605125728621510912,10.0.1.128,50,pick,-0.760,-0.760,-0.760,0.000,0.000,0.000
1605125729614106880,10.0.1.128,41,pick,-0.770,-0.770,-0.770,0.000,0.000,0.000
1605125731015299072,10.0.1.128,441,move_up,-0.750,-0.750,-0.750,0.000,0.000,0.000
1605125732551974144,10.0.1.128,429,move_up,-0.730,-0.730,-0.730,0.000,0.000,0.000
1605125734094626816,10.0.1.128,462,move_up,-0.710,-0.710,-0.710,0.000,0.000,0.000
1605125735590066944,10.0.1.128,413,move_up,-0.690,-0.690,-0.690,0.000,0.000,0.000
1605125737082198016,10.0.1.128,385,move_up,-0.670,-0.670,-0.670,0.000,0.000,0.000
1605125738604180992,10.0.1.128,425,move_up,-0.650,-0.650,-0.650,0.000,0.000,0.000
1605125740067857920,10.0.1.128,401,move_up,-0.630,-0.630,-0.630,0.000,0.000,0.000
1605125741575635968,10.0.1.128,392,move_up,-0.610,-0.610,-0.610,0.000,0.000,0.000
1605125743067329792,10.0.1.128,428,move_up,-0.590,-0.590,-0.590,0.000,0.000,0.000
1605125744590861056,10.0.1.128,412,move_up,-0.570,-0.570,-0.570,0.000,0.000,0.000
1605125746067471104,10.0.1.128,401,move_up,-0.550,-0.550,-0.550,0.000,0.000,0.000
1605125747545177088,10.0.1.128,420,move_up,-0.530,-0.530,-0.530,0.000,0.000,0.000
1605125749041709056,10.0.1.128,479,move_up,-0.510,-0.510,-0.510,0.000,0.000,0.000
1605125750539425024,10.0.1.128,457,move_up,-0.490,-0.490,-0.490,0.000,0.000,0.000
1605125752052790016,10.0.1.128,433,move_up,-0.470,-0.470,-0.470,0.000,0.000,0.000
1605125753577989120,10.0.1.128,437,move_up,-0.450,-0.450,-0.450,0.000,0.000,0.000
1605125755068958976,10.0.1.128,411,move_up,-0.430,-0.430,-0.430,0.000,0.000,0.000
1605125756654081024,10.0.1.128,556,move_up,-0.410,-0.410,-0.410,0.000,0.000,0.000
1605125758122117888,10.0.1.128,411,move_up,-0.390,-0.390,-0.390,0.000,0.000,0.000
1605125759627624960,10.0.1.128,429,move_up,-0.370,-0.370,-0.370,0.000,0.000,0.000
1605125761153094912,10.0.1.128,437,move_up,-0.350,-0.350,-0.350,0.000,0.000,0.000
1605125762612116992,10.0.1.128,359,move_up,-0.330,-0.330,-0.330,0.000,0.000,0.000
1605125764183837952,10.0.1.128,483,move_up,-0.310,-0.310,-0.310,0.000,0.000,0.000
1605125765792150016,10.0.1.128,485,move_up,-0.290,-0.290,-0.290,0.000,0.000,0.000
1605125767270643968,10.0.1.128,400,move_up,-0.270,-0.270,-0.270,0.000,0.000,0.000
1605125768788187904,10.0.1.128,434,move_up,-0.250,-0.250,-0.250,0.000,0.000,0.000
1605125770298574848,10.0.1.128,432,move_up,-0.230,-0.230,-0.230,0.000,0.000,0.000
1605125771761032192,10.0.1.128,380,move_up,-0.210,-0.210,-0.210,0.000,0.000,0.000
1605125773342648064,10.0.1.128,488,move_up,-0.190,-0.190,-0.190,0.000,0.000,0.000
1605125774465532160,10.0.1.128,52,place,-0.180,-0.180,-0.180,0.000,0.000,0.000
1605125776463671808,10.0.1.128,45,place,-0.160,-0.160,-0.160,0.000,0.000,0.000
1605125777460918784,10.0.1.128,42,place,-0.150,-0.150,-0.150,0.000,0.000,0.000
1605125778464243968,10.0.1.128,44,place,-0.140,-0.140,-0.140,0.000,0.000,0.000
1605125779464689920,10.0.1.128,43,place,-0.130,-0.130,-0.130,0.000,0.000,0.000
1605125780466908928,10.0.1.128,44,place,-0.120,-0.120,-0.120,0.000,0.000,0.000
1605125781478552064,10.0.1.128,54,place,-0.110,-0.110,-0.110,0.000,0.000,0.000
1605125782469326080,10.0.1.128,43,place,-0.100,-0.100,-0.100,0.000,0.000,0.000
1605125783465763072,10.0.1.128,38,place,-0.090,-0.090,-0.090,0.000,0.000,0.000
1605125784466586112,10.0.1.128,38,place,-0.080,-0.080,-0.080,0.000,0.000,0.000
1605125785465991936,10.0.1.128,36,place,-0.070,-0.070,-0.070,0.000,0.000,0.000
1605125786463614976,10.0.1.128,33,place,-0.060,-0.060,-0.060,0.000,0.000,0.000
1605125787485330944,10.0.1.128,52,place,-0.050,-0.050,-0.050,0.000,0.000,0.000
1605125788492707072,10.0.1.128,55,place,-0.040,-0.040,-0.040,0.000,0.000,0.000
1605125789480307200,10.0.1.128,41,place,-0.030,-0.030,-0.030,0.000,0.000,0.000
1605125790485701120,10.0.1.128,45,place,-0.020,-0.020,-0.020,0.000,0.000,0.000
1605125791482131968,10.0.1.128,40,place,-0.010,-0.010,-0.010,0.000,0.000,0.000
1605125792485056000,10.0.1.128,42,place,0.000,0.000,0.000,0.000,0.000,0.000
1605125793913317888,10.0.1.128,469,move_down,-0.020,-0.020,-0.020,0.000,0.000,0.000
1605125795335928832,10.0.1.128,376,move_down,-0.040,-0.040,-0.040,0.000,0.000,0.000
1605125796914767104,10.0.1.128,479,move_down,-0.060,-0.060,-0.060,0.000,0.000,0.000
1605125798396465152,10.0.1.128,409,move_down,-0.080,-0.080,-0.080,0.000,0.000,0.000
1605125799909368064,10.0.1.128,414,move_down,-0.100,-0.100,-0.100,0.000,0.000,0.000
1605125801374452992,10.0.1.128,425,move_down,-0.120,-0.120,-0.120,0.000,0.000,0.000
1605125802898785024,10.0.1.128,433,move_down,-0.140,-0.140,-0.140,0.000,0.000,0.000
1605125804363922176,10.0.1.128,447,move_down,-0.160,-0.160,-0.160,0.000,0.000,0.000
1605125805914476032,10.0.1.128,481,move_down,-0.180,-0.180,-0.180,0.000,0.000,0.000
1605125807364299008,10.0.1.128,375,move_down,-0.200,-0.200,-0.200,0.000,0.000,0.000
1605125808833395968,10.0.1.128,404,move_down,-0.220,-0.220,-0.220,0.000,0.000,0.000
1605125810322097920,10.0.1.128,438,move_down,-0.240,-0.240,-0.240,0.000,0.000,0.000
1605125811819740928,10.0.1.128,411,move_down,-0.260,-0.260,-0.260,0.000,0.000,0.000
1605125813277581824,10.0.1.128,440,move_down,-0.280,-0.280,-0.280,0.000,0.000,0.000
1605125814784404992,10.0.1.128,406,move_down,-0.300,-0.300,-0.300,0.000,0.000,0.000
1605125816249757952,10.0.1.128,419,move_down,-0.320,-0.320,-0.320,0.000,0.000,0.000
1605125817717355008,10.0.1.128,397,move_down,-0.340,-0.340,-0.340,0.000,0.000,0.000
1605125819184225024,10.0.1.128,385,move_down,-0.360,-0.360,-0.360,0.000,0.000,0.000
1605125820656294144,10.0.1.128,435,move_down,-0.380,-0.380,-0.380,0.000,0.000,0.000
1605125822134283008,10.0.1.128,419,move_down,-0.400,-0.400,-0.400,0.000,0.000,0.000
1605125823567333888,10.0.1.128,409,move_down,-0.420,-0.420,-0.420,0.000,0.000,0.000
1605125825025705984,10.0.1.128,416,move_down,-0.440,-0.440,-0.440,0.000,0.000,0.000
1605125826545492992,10.0.1.128,405,move_down,-0.460,-0.460,-0.460,0.000,0.000,0.000
1605125827994766848,10.0.1.128,401,move_down,-0.480,-0.480,-0.480,0.000,0.000,0.000
1605125829492090880,10.0.1.128,414,move_down,-0.500,-0.500,-0.500,0.000,0.000,0.000
1605125830985945088,10.0.1.128,417,move_down,-0.520,-0.520,-0.520,0.000,0.000,0.000
1605125832544805888,10.0.1.128,443,move_down,-0.540,-0.540,-0.540,0.000,0.000,0.000
1605125834110038016,10.0.1.128,464,move_down,-0.560,-0.560,-0.560,0.000,0.000,0.000
1605125835604280832,10.0.1.128,431,move_down,-0.580,-0.580,-0.580,0.000,0.000,0.000
1605125836744507904,10.0.1.128,35,pick,-0.590,-0.590,-0.590,0.000,0.000,0.000
1605125837747270144,10.0.1.128,37,pick,-0.600,-0.600,-0.600,0.000,0.000,0.000
1605125838744121088,10.0.1.128,32,pick,-0.610,-0.610,-0.610,0.000,0.000,0.000
1605125839744666112,10.0.1.128,31,pick,-0.620,-0.620,-0.620,0.000,0.000,0.000
1605125840752032000,10.0.1.128,35,pick,-0.630,-0.630,-0.630,0.000,0.000,0.000
1605125841770034944,10.0.1.128,51,pick,-0.640,-0.640,-0.640,0.000,0.000,0.000
1605125842765248000,10.0.1.128,38,pick,-0.650,-0.650,-0.650,0.000,0.000,0.000
1605125843773006848,10.0.1.128,44,pick,-0.660,-0.660,-0.660,0.000,0.000,0.000
1605125845769928960,10.0.1.128,35,pick,-0.680,-0.680,-0.680,0.000,0.000,0.000
1605125846769799936,10.0.1.128,34,pick,-0.690,-0.690,-0.690,0.000,0.000,0.000
1605125847771898112,10.0.1.128,35,pick,-0.700,-0.700,-0.700,0.000,0.000,0.000
1605125848784585984,10.0.1.128,45,pick,-0.710,-0.710,-0.710,0.000,0.000,0.000
1605125849782913024,10.0.1.128,42,pick,-0.720,-0.720,-0.720,0.000,0.000,0.000
1605125850781039872,10.0.1.128,39,pick,-0.730,-0.730,-0.730,0.000,0.000,0.000
1605125851791668992,10.0.1.128,48,pick,-0.740,-0.740,-0.740,0.000,0.000,0.000
1605125852790033152,10.0.1.128,45,pick,-0.750,-0.750,-0.750,0.000,0.000,0.000
1605125853787986944,10.0.1.128,42,pick,-0.760,-0.760,-0.760,0.000,0.000,0.000
1605125854788623104,10.0.1.128,41,pick,-0.770,-0.770,-0.770,0.000,0.000,0.000
1605125856209167104,10.0.1.128,459,move_up,-0.750,-0.750,-0.750,0.000,0.000,0.000
1605125857736150016,10.0.1.128,471,move_up,-0.730,-0.730,-0.730,0.000,0.000,0.000
1605125859297499904,10.0.1.128,478,move_up,-0.710,-0.710,-0.710,0.000,0.000,0.000
1605125860840329984,10.0.1.128,435,move_up,-0.690,-0.690,-0.690,0.000,0.000,0.000
1605125862381891840,10.0.1.128,450,move_up,-0.670,-0.670,-0.670,0.000,0.000,0.000
1605125863842767104,10.0.1.128,408,move_up,-0.650,-0.650,-0.650,0.000,0.000,0.000
1605125865424923904,10.0.1.128,450,move_up,-0.630,-0.630,-0.630,0.000,0.000,0.000
1605125866940582912,10.0.1.128,440,move_up,-0.610,-0.610,-0.610,0.000,0.000,0.000
1605125868320558080,10.0.1.128,382,move_up,-0.590,-0.590,-0.590,0.000,0.000,0.000
1605125869852260096,10.0.1.128,433,move_up,-0.570,-0.570,-0.570,0.000,0.000,0.000
1605125871370850048,10.0.1.128,454,move_up,-0.550,-0.550,-0.550,0.000,0.000,0.000
1605125872820632832,10.0.1.128,385,move_up,-0.530,-0.530,-0.530,0.000,0.000,0.000
1605125874350070016,10.0.1.128,419,move_up,-0.510,-0.510,-0.510,0.000,0.000,0.000
1605125875803566848,10.0.1.128,415,move_up,-0.490,-0.490,-0.490,0.000,0.000,0.000
1605125877325412096,10.0.1.128,425,move_up,-0.470,-0.470,-0.470,0.000,0.000,0.000
1605125878800929024,10.0.1.128,406,move_up,-0.450,-0.450,-0.450,0.000,0.000,0.000
1605125880260951040,10.0.1.128,387,move_up,-0.430,-0.430,-0.430,0.000,0.000,0.000
1605125881800105216,10.0.1.128,439,move_up,-0.410,-0.410,-0.410,0.000,0.000,0.000
1605125883343720960,10.0.1.128,458,move_up,-0.390,-0.390,-0.390,0.000,0.000,0.000
1605125884730884096,10.0.1.128,379,move_up,-0.370,-0.370,-0.370,0.000,0.000,0.000
1605125886273679104,10.0.1.128,442,move_up,-0.350,-0.350,-0.350,0.000,0.000,0.000
1605125887790313984,10.0.1.128,448,move_up,-0.330,-0.330,-0.330,0.000,0.000,0.000
1605125889305857792,10.0.1.128,418,move_up,-0.310,-0.310,-0.310,0.000,0.000,0.000
1605125890746396160,10.0.1.128,385,move_up,-0.290,-0.290,-0.290,0.000,0.000,0.000
1605125892336764160,10.0.1.128,460,move_up,-0.270,-0.270,-0.270,0.000,0.000,0.000
1605125893790625024,10.0.1.128,387,move_up,-0.250,-0.250,-0.250,0.000,0.000,0.000
1605125895335830016,10.0.1.128,452,move_up,-0.230,-0.230,-0.230,0.000,0.000,0.000
1605125896898086912,10.0.1.128,431,move_up,-0.210,-0.210,-0.210,0.000,0.000,0.000
1605125898390757120,10.0.1.128,414,move_up,-0.190,-0.190,-0.190,0.000,0.000,0.000
1605125899552606976,10.0.1.128,51,place,-0.180,-0.180,-0.180,0.000,0.000,0.000
1605125900552998912,10.0.1.128,50,place,-0.170,-0.170,-0.170,0.000,0.000,0.000
1605125901552654080,10.0.1.128,49,place,-0.160,-0.160,-0.160,0.000,0.000,0.000
1605125902552186880,10.0.1.128,47,place,-0.150,-0.150,-0.150,0.000,0.000,0.000
1605125903559792896,10.0.1.128,53,place,-0.140,-0.140,-0.140,0.000,0.000,0.000
1605125904552943872,10.0.1.128,45,place,-0.130,-0.130,-0.130,0.000,0.000,0.000
1605125905553267968,10.0.1.128,44,place,-0.120,-0.120,-0.120,0.000,0.000,0.000
1605125907556334080,10.0.1.128,45,place,-0.100,-0.100,-0.100,0.000,0.000,0.000
1605125908552438016,10.0.1.128,40,place,-0.090,-0.090,-0.090,0.000,0.000,0.000
1605125909557590016,10.0.1.128,44,place,-0.080,-0.080,-0.080,0.000,0.000,0.000
1605125911553884928,10.0.1.128,38,place,-0.060,-0.060,-0.060,0.000,0.000,0.000
1605125912554134016,10.0.1.128,37,place,-0.050,-0.050,-0.050,0.000,0.000,0.000
1605125913554331904,10.0.1.128,35,place,-0.040,-0.040,-0.040,0.000,0.000,0.000
1605125914558851072,10.0.1.128,38,place,-0.030,-0.030,-0.030,0.000,0.000,0.000
1605125915553953024,10.0.1.128,30,place,-0.020,-0.020,-0.020,0.000,0.000,0.000
1605125916573262080,10.0.1.128,48,place,-0.010,-0.010,-0.010,0.000,0.000,0.000
1605125917573115136,10.0.1.128,47,place,0.000,0.000,0.000,0.000,0.000,0.000
1605125919039424000,10.0.1.128,512,move_down,-0.020,-0.020,-0.020,0.000,0.000,0.000
1605125920534225920,10.0.1.128,437,move_down,-0.040,-0.040,-0.040,0.000,0.000,0.000
1605125922009639936,10.0.1.128,395,move_down,-0.060,-0.060,-0.060,0.000,0.000,0.000
1605125923496776192,10.0.1.128,431,move_down,-0.080,-0.080,-0.080,0.000,0.000,0.000
1605125924945548032,10.0.1.128,404,move_down,-0.100,-0.100,-0.100,0.000,0.000,0.000
1605125926502144000,10.0.1.128,460,move_down,-0.120,-0.120,-0.120,0.000,0.000,0.000
1605125927992407040,10.0.1.128,420,move_down,-0.140,-0.140,-0.140,0.000,0.000,0.000
1605125929612176896,10.0.1.128,515,move_down,-0.160,-0.160,-0.160,0.000,0.000,0.000
1605125931111728896,10.0.1.128,420,move_down,-0.180,-0.180,-0.180,0.000,0.000,0.000
1605125932630893056,10.0.1.128,433,move_down,-0.200,-0.200,-0.200,0.000,0.000,0.000
1605125934151420160,10.0.1.128,395,move_down,-0.220,-0.220,-0.220,0.000,0.000,0.000
1605125935698085120,10.0.1.128,436,move_down,-0.240,-0.240,-0.240,0.000,0.000,0.000
1605125937156618240,10.0.1.128,431,move_down,-0.260,-0.260,-0.260,0.000,0.000,0.000
1605125938693358848,10.0.1.128,433,move_down,-0.280,-0.280,-0.280,0.000,0.000,0.000
1605125940172361984,10.0.1.128,421,move_down,-0.300,-0.300,-0.300,0.000,0.000,0.000
1605125941693434880,10.0.1.128,438,move_down,-0.320,-0.320,-0.320,0.000,0.000,0.000
1605125943198628864,10.0.1.128,399,move_down,-0.340,-0.340,-0.340,0.000,0.000,0.000
1605125944755323904,10.0.1.128,441,move_down,-0.360,-0.360,-0.360,0.000,0.000,0.000
1605125946380297984,10.0.1.128,573,move_down,-0.380,-0.380,-0.380,0.000,0.000,0.000
1605125947872107008,10.0.1.128,403,move_down,-0.400,-0.400,-0.400,0.000,0.000,0.000
1605125949421478144,10.0.1.128,413,move_down,-0.420,-0.420,-0.420,0.000,0.000,0.000
1605125950921632000,10.0.1.128,425,move_down,-0.440,-0.440,-0.440,0.000,0.000,0.000
1605125952415208192,10.0.1.128,390,move_down,-0.460,-0.460,-0.460,0.000,0.000,0.000
1605125953956263936,10.0.1.128,486,move_down,-0.480,-0.480,-0.480,0.000,0.000,0.000
1605125955460130048,10.0.1.128,435,move_down,-0.500,-0.500,-0.500,0.000,0.000,0.000
1605125956902582784,10.0.1.128,379,move_down,-0.520,-0.520,-0.520,0.000,0.000,0.000
1605125958441734144,10.0.1.128,432,move_down,-0.540,-0.540,-0.540,0.000,0.000,0.000
1605125960033304832,10.0.1.128,479,move_down,-0.560,-0.560,-0.560,0.000,0.000,0.000
1605125961499613952,10.0.1.128,391,move_down,-0.580,-0.580,-0.580,0.000,0.000,0.000
1605125962639826176,10.0.1.128,56,pick,-0.590,-0.590,-0.590,0.000,0.000,0.000
1605125963633544960,10.0.1.128,49,pick,-0.600,-0.600,-0.600,0.000,0.000,0.000
1605125964635188992,10.0.1.128,45,pick,-0.610,-0.610,-0.610,0.000,0.000,0.000
1605125965633181952,10.0.1.128,40,pick,-0.620,-0.620,-0.620,0.000,0.000,0.000
1605125966635305984,10.0.1.128,40,pick,-0.630,-0.630,-0.630,0.000,0.000,0.000
1605125967637632000,10.0.1.128,41,pick,-0.640,-0.640,-0.640,0.000,0.000,0.000
1605125968632279040,10.0.1.128,34,pick,-0.650,-0.650,-0.650,0.000,0.000,0.000
1605125969655913216,10.0.1.128,52,pick,-0.660,-0.660,-0.660,0.000,0.000,0.000
1605125970654046976,10.0.1.128,49,pick,-0.670,-0.670,-0.670,0.000,0.000,0.000
1605125971653054976,10.0.1.128,47,pick,-0.680,-0.680,-0.680,0.000,0.000,0.000
1605125972660367104,10.0.1.128,53,pick,-0.690,-0.690,-0.690,0.000,0.000,0.000
1605125973663378944,10.0.1.128,54,pick,-0.700,-0.700,-0.700,0.000,0.000,0.000
1605125974664187904,10.0.1.128,54,pick,-0.710,-0.710,-0.710,0.000,0.000,0.000
1605125975656183040,10.0.1.128,45,pick,-0.720,-0.720,-0.720,0.000,0.000,0.000
1605125976657107200,10.0.1.128,44,pick,-0.730,-0.730,-0.730,0.000,0.000,0.000
1605125977651869184,10.0.1.128,37,pick,-0.740,-0.740,-0.740,0.000,0.000,0.000
1605125978657454080,10.0.1.128,41,pick,-0.750,-0.750,-0.750,0.000,0.000,0.000
1605125979653990144,10.0.1.128,34,pick,-0.760,-0.760,-0.760,0.000,0.000,0.000
1605125980677970944,10.0.1.128,56,pick,-0.770,-0.770,-0.770,0.000,0.000,0.000
1605125982023166976,10.0.1.128,400,move_up,-0.750,-0.750,-0.750,0.000,0.000,0.000
1605125983546925056,10.0.1.128,443,move_up,-0.730,-0.730,-0.730,0.000,0.000,0.000
1605125985070446080,10.0.1.128,427,move_up,-0.710,-0.710,-0.710,0.000,0.000,0.000
1605125986623027968,10.0.1.128,429,move_up,-0.690,-0.690,-0.690,0.000,0.000,0.000
1605125988115894016,10.0.1.128,413,move_up,-0.670,-0.670,-0.670,0.000,0.000,0.000
1605125989665972992,10.0.1.128,419,move_up,-0.650,-0.650,-0.650,0.000,0.000,0.000
1605125991148128000,10.0.1.128,392,move_up,-0.630,-0.630,-0.630,0.000,0.000,0.000
1605125992654012928,10.0.1.128,415,move_up,-0.610,-0.610,-0.610,0.000,0.000,0.000
1605125994121975040,10.0.1.128,355,move_up,-0.590,-0.590,-0.590,0.000,0.000,0.000
1605125995704057856,10.0.1.128,479,move_up,-0.570,-0.570,-0.570,0.000,0.000,0.000
1605125997219044864,10.0.1.128,446,move_up,-0.550,-0.550,-0.550,0.000,0.000,0.000
1605125998723083008,10.0.1.128,388,move_up,-0.530,-0.530,-0.530,0.000,0.000,0.000
1605126000271849984,10.0.1.128,456,move_up,-0.510,-0.510,-0.510,0.000,0.000,0.000
1605126001743238912,10.0.1.128,411,move_up,-0.490,-0.490,-0.490,0.000,0.000,0.000
1605126003255940864,10.0.1.128,409,move_up,-0.470,-0.470,-0.470,0.000,0.000,0.000
1605126004694765056,10.0.1.128,405,move_up,-0.450,-0.450,-0.450,0.000,0.000,0.000
1605126006262174976,10.0.1.128,445,move_up,-0.430,-0.430,-0.430,0.000,0.000,0.000
1605126007762798080,10.0.1.128,421,move_up,-0.410,-0.410,-0.410,0.000,0.000,0.000
1605126009208800000,10.0.1.128,387,move_up,-0.390,-0.390,-0.390,0.000,0.000,0.000
1605126010669563904,10.0.1.128,390,move_up,-0.370,-0.370,-0.370,0.000,0.000,0.000
1605126012227902976,10.0.1.128,455,move_up,-0.350,-0.350,-0.350,0.000,0.000,0.000
1605126013724559104,10.0.1.128,444,move_up,-0.330,-0.330,-0.330,0.000,0.000,0.000
1605126015151851008,10.0.1.128,385,move_up,-0.310,-0.310,-0.310,0.000,0.000,0.000
1605126016629003008,10.0.1.128,427,move_up,-0.290,-0.290,-0.290,0.000,0.000,0.000
1605126018151782912,10.0.1.128,413,move_up,-0.270,-0.270,-0.270,0.000,0.000,0.000
1605126019575201024,10.0.1.128,405,move_up,-0.250,-0.250,-0.250,0.000,0.000,0.000
1605126021120631808,10.0.1.128,472,move_up,-0.230,-0.230,-0.230,0.000,0.000,0.000
1605126022594531072,10.0.1.128,410,move_up,-0.210,-0.210,-0.210,0.000,0.000,0.000
1605126024065262080,10.0.1.128,390,move_up,-0.190,-0.190,-0.190,0.000,0.000,0.000
1605126025166632960,10.0.1.128,41,place,-0.180,-0.180,-0.180,0.000,0.000,0.000
1605126026160988928,10.0.1.128,31,place,-0.170,-0.170,-0.170,0.000,0.000,0.000
1605126027187401984,10.0.1.128,55,place,-0.160,-0.160,-0.160,0.000,0.000,0.000
1605126028182380032,10.0.1.128,41,place,-0.150,-0.150,-0.150,0.000,0.000,0.000
1605126029183881984,10.0.1.128,40,place,-0.140,-0.140,-0.140,0.000,0.000,0.000
1605126030181974016,10.0.1.128,36,place,-0.130,-0.130,-0.130,0.000,0.000,0.000
1605126031182123008,10.0.1.128,35,place,-0.120,-0.120,-0.120,0.000,0.000,0.000
1605126032181585152,10.0.1.128,33,place,-0.110,-0.110,-0.110,0.000,0.000,0.000
1605126033183437056,10.0.1.128,34,place,-0.100,-0.100,-0.100,0.000,0.000,0.000
1605126034209434880,10.0.1.128,58,place,-0.090,-0.090,-0.090,0.000,0.000,0.000
1605126035181255936,10.0.1.128,29,place,-0.080,-0.080,-0.080,0.000,0.000,0.000
1605126036204626176,10.0.1.128,50,place,-0.070,-0.070,-0.070,0.000,0.000,0.000
1605126037215396864,10.0.1.128,60,place,-0.060,-0.060,-0.060,0.000,0.000,0.000
1605126038205540864,10.0.1.128,49,place,-0.050,-0.050,-0.050,0.000,0.000,0.000
1605126039205108992,10.0.1.128,47,place,-0.040,-0.040,-0.040,0.000,0.000,0.000
1605126040207634944,10.0.1.128,48,place,-0.030,-0.030,-0.030,0.000,0.000,0.000
1605126041207972096,10.0.1.128,45,place,-0.020,-0.020,-0.020,0.000,0.000,0.000
1605126042204809984,10.0.1.128,40,place,-0.010,-0.010,-0.010,0.000,0.000,0.000
1605126043204430080,10.0.1.128,39,place,0.000,0.000,0.000,0.000,0.000,0.000
1605126044625798912,10.0.1.128,459,move_down,-0.020,-0.020,-0.020,0.000,0.000,0.000
1605126046156347904,10.0.1.128,449,move_down,-0.040,-0.040,-0.040,0.000,0.000,0.000
1605126047698393088,10.0.1.128,438,move_down,-0.060,-0.060,-0.060,0.000,0.000,0.000
1605126049174494976,10.0.1.128,414,move_down,-0.080,-0.080,-0.080,0.000,0.000,0.000
1605126050747361024,10.0.1.128,423,move_down,-0.100,-0.100,-0.100,0.000,0.000,0.000
1605126052264837888,10.0.1.128,404,move_down,-0.120,-0.120,-0.120,0.000,0.000,0.000
1605126053765507072,10.0.1.128,445,move_down,-0.140,-0.140,-0.140,0.000,0.000,0.000
1605126055365789952,10.0.1.128,487,move_down,-0.160,-0.160,-0.160,0.000,0.000,0.000
1605126056916423936,10.0.1.128,465,move_down,-0.180,-0.180,-0.180,0.000,0.000,0.000
1605126058438638848,10.0.1.128,429,move_down,-0.200,-0.200,-0.200,0.000,0.000,0.000
1605126059994145024,10.0.1.128,430,move_down,-0.220,-0.220,-0.220,0.000,0.000,0.000
1605126061545838080,10.0.1.128,462,move_down,-0.240,-0.240,-0.240,0.000,0.000,0.000
1605126063025403904,10.0.1.128,415,move_down,-0.260,-0.260,-0.260,0.000,0.000,0.000
1605126064537067008,10.0.1.128,407,move_down,-0.280,-0.280,-0.280,0.000,0.000,0.000
1605126066005033984,10.0.1.128,419,move_down,-0.300,-0.300,-0.300,0.000,0.000,0.000
1605126067544450048,10.0.1.128,438,move_down,-0.320,-0.320,-0.320,0.000,0.000,0.000
1605126069076986112,10.0.1.128,431,move_down,-0.340,-0.340,-0.340,0.000,0.000,0.000
1605126070616306176,10.0.1.128,415,move_down,-0.360,-0.360,-0.360,0.000,0.000,0.000
1605126072067316992,10.0.1.128,387,move_down,-0.380,-0.380,-0.380,0.000,0.000,0.000
1605126073605895936,10.0.1.128,432,move_down,-0.400,-0.400,-0.400,0.000,0.000,0.000
1605126075116678912,10.0.1.128,439,move_down,-0.420,-0.420,-0.420,0.000,0.000,0.000
1605126076587250944,10.0.1.128,434,move_down,-0.440,-0.440,-0.440,0.000,0.000,0.000
1605126078103266048,10.0.1.128,432,move_down,-0.460,-0.460,-0.460,0.000,0.000,0.000
1605126079576190976,10.0.1.128,423,move_down,-0.480,-0.480,-0.480,0.000,0.000,0.000
1605126081063264000,10.0.1.128,453,move_down,-0.500,-0.500,-0.500,0.000,0.000,0.000
1605126082516276992,10.0.1.128,386,move_down,-0.520,-0.520,-0.520,0.000,0.000,0.000
1605126084005228032,10.0.1.128,431,move_down,-0.540,-0.540,-0.540,0.000,0.000,0.000
1605126085507441152,10.0.1.128,412,move_down,-0.560,-0.560,-0.560,0.000,0.000,0.000
1605126087025313024,10.0.1.128,411,move_down,-0.580,-0.580,-0.580,0.000,0.000,0.000
1605126088184751104,10.0.1.128,37,pick,-0.590,-0.590,-0.590,0.000,0.000,0.000
1605126089186116864,10.0.1.128,37,pick,-0.600,-0.600,-0.600,0.000,0.000,0.000
1605126090185149952,10.0.1.128,35,pick,-0.610,-0.610,-0.610,0.000,0.000,0.000
1605126091204200960,10.0.1.128,52,pick,-0.620,-0.620,-0.620,0.000,0.000,0.000
1605126092184809984,10.0.1.128,32,pick,-0.630,-0.630,-0.630,0.000,0.000,0.000
1605126093208403200,10.0.1.128,54,pick,-0.640,-0.640,-0.640,0.000,0.000,0.000
1605126094185265920,10.0.1.128,29,pick,-0.650,-0.650,-0.650,0.000,0.000,0.000
1605126095205735936,10.0.1.128,48,pick,-0.660,-0.660,-0.660,0.000,0.000,0.000
1605126096205082880,10.0.1.128,46,pick,-0.670,-0.670,-0.670,0.000,0.000,0.000
1605126097205216768,10.0.1.128,45,pick,-0.680,-0.680,-0.680,0.000,0.000,0.000
1605126098205683968,10.0.1.128,44,pick,-0.690,-0.690,-0.690,0.000,0.000,0.000
1605126099206147840,10.0.1.128,43,pick,-0.700,-0.700,-0.700,0.000,0.000,0.000
1605126100208168960,10.0.1.128,44,pick,-0.710,-0.710,-0.710,0.000,0.000,0.000
1605126101208403200,10.0.1.128,43,pick,-0.720,-0.720,-0.720,0.000,0.000,0.000
1605126102211443968,10.0.1.128,44,pick,-0.730,-0.730,-0.730,0.000,0.000,0.000
1605126103205698048,10.0.1.128,36,pick,-0.740,-0.740,-0.740,0.000,0.000,0.000
1605126104207240960,10.0.1.128,36,pick,-0.750,-0.750,-0.750,0.000,0.000,0.000
1605126105205411840,10.0.1.128,32,pick,-0.760,-0.760,-0.760,0.000,0.000,0.000
1605126106211291136,10.0.1.128,37,pick,-0.770,-0.770,-0.770,0.000,0.000,0.000
1605126107565551104,10.0.1.128,390,move_up,-0.750,-0.750,-0.750,0.000,0.000,0.000
1605126109128493056,10.0.1.128,467,move_up,-0.730,-0.730,-0.730,0.000,0.000,0.000
1605126110575186944,10.0.1.128,379,move_up,-0.710,-0.710,-0.710,0.000,0.000,0.000
1605126112092140032,10.0.1.128,452,move_up,-0.690,-0.690,-0.690,0.000,0.000,0.000
1605126113555316992,10.0.1.128,419,move_up,-0.670,-0.670,-0.670,0.000,0.000,0.000
1605126115045774080,10.0.1.128,407,move_up,-0.650,-0.650,-0.650,0.000,0.000,0.000
1605126116525437952,10.0.1.128,387,move_up,-0.630,-0.630,-0.630,0.000,0.000,0.000
1605126118006299904,10.0.1.128,386,move_up,-0.610,-0.610,-0.610,0.000,0.000,0.000
1605126119558089984,10.0.1.128,431,move_up,-0.590,-0.590,-0.590,0.000,0.000,0.000
1605126121207336960,10.0.1.128,549,move_up,-0.570,-0.570,-0.570,0.000,0.000,0.000
1605126122733805824,10.0.1.128,452,move_up,-0.550,-0.550,-0.550,0.000,0.000,0.000
1605126124270972928,10.0.1.128,414,move_up,-0.530,-0.530,-0.530,0.000,0.000,0.000
1605126125871804928,10.0.1.128,512,move_up,-0.510,-0.510,-0.510,0.000,0.000,0.000
1605126127586946048,10.0.1.128,546,move_up,-0.490,-0.490,-0.490,0.000,0.000,0.000
1605126129176187904,10.0.1.128,453,move_up,-0.470,-0.470,-0.470,0.000,0.000,0.000
1605126130713185024,10.0.1.128,446,move_up,-0.450,-0.450,-0.450,0.000,0.000,0.000
1605126132204971008,10.0.1.128,404,move_up,-0.430,-0.430,-0.430,0.000,0.000,0.000
1605126133724060928,10.0.1.128,428,move_up,-0.410,-0.410,-0.410,0.000,0.000,0.000
1605126135194489088,10.0.1.128,405,move_up,-0.390,-0.390,-0.390,0.000,0.000,0.000
1605126136689208064,10.0.1.128,421,move_up,-0.370,-0.370,-0.370,0.000,0.000,0.000
1605126138214034176,10.0.1.128,428,move_up,-0.350,-0.350,-0.350,0.000,0.000,0.000
1605126139734674944,10.0.1.128,460,move_up,-0.330,-0.330,-0.330,0.000,0.000,0.000
1605126141159593984,10.0.1.128,388,move_up,-0.310,-0.310,-0.310,0.000,0.000,0.000
1605126142719022080,10.0.1.128,460,move_up,-0.290,-0.290,-0.290,0.000,0.000,0.000
1605126144226324992,10.0.1.128,422,move_up,-0.270,-0.270,-0.270,0.000,0.000,0.000
1605126145674897920,10.0.1.128,366,move_up,-0.250,-0.250,-0.250,0.000,0.000,0.000
1605126147214504960,10.0.1.128,437,move_up,-0.230,-0.230,-0.230,0.000,0.000,0.000
1605126148749835008,10.0.1.128,434,move_up,-0.210,-0.210,-0.210,0.000,0.000,0.000
1605126150267183104,10.0.1.128,410,move_up,-0.190,-0.190,-0.190,0.000,0.000,0.000
1605126151424052992,10.0.1.128,42,place,-0.180,-0.180,-0.180,0.000,0.000,0.000
1605126152436909824,10.0.1.128,54,place,-0.170,-0.170,-0.170,0.000,0.000,0.000
1605126153424587008,10.0.1.128,40,place,-0.160,-0.160,-0.160,0.000,0.000,0.000
1605126154426673920,10.0.1.128,41,place,-0.150,-0.150,-0.150,0.000,0.000,0.000
1605126155426112768,10.0.1.128,39,place,-0.140,-0.140,-0.140,0.000,0.000,0.000
1605126156426714880,10.0.1.128,39,place,-0.130,-0.130,-0.130,0.000,0.000,0.000
1605126157425852928,10.0.1.128,37,place,-0.120,-0.120,-0.120,0.000,0.000,0.000
1605126158426166016,10.0.1.128,35,place,-0.110,-0.110,-0.110,0.000,0.000,0.000
1605126159425564928,10.0.1.128,34,place,-0.100,-0.100,-0.100,0.000,0.000,0.000
1605126160459856128,10.0.1.128,61,place,-0.090,-0.090,-0.090,0.000,0.000,0.000
1605126161444850944,10.0.1.128,45,place,-0.080,-0.080,-0.080,0.000,0.000,0.000
1605126162478768128,10.0.1.128,79,place,-0.070,-0.070,-0.070,0.000,0.000,0.000
1605126163445470976,10.0.1.128,44,place,-0.060,-0.060,-0.060,0.000,0.000,0.000
1605126164457078016,10.0.1.128,54,place,-0.050,-0.050,-0.050,0.000,0.000,0.000
1605126165440131072,10.0.1.128,36,place,-0.040,-0.040,-0.040,0.000,0.000,0.000
1605126166449316864,10.0.1.128,44,place,-0.030,-0.030,-0.030,0.000,0.000,0.000
1605126167455923968,10.0.1.128,48,place,-0.020,-0.020,-0.020,0.000,0.000,0.000
1605126168446358016,10.0.1.128,36,place,-0.010,-0.010,-0.010,0.000,0.000,0.000
1605126169473400064,10.0.1.128,61,place,0.000,0.000,0.000,0.000,0.000,0.000
1605126170816504064,10.0.1.128,403,move_down,-0.020,-0.020,-0.020,0.000,0.000,0.000
1605126172405182976,10.0.1.128,467,move_down,-0.040,-0.040,-0.040,0.000,0.000,0.000
1605126173916691968,10.0.1.128,467,move_down,-0.060,-0.060,-0.060,0.000,0.000,0.000
1605126175429239040,10.0.1.128,465,move_down,-0.080,-0.080,-0.080,0.000,0.000,0.000
1605126176942620928,10.0.1.128,436,move_down,-0.100,-0.100,-0.100,0.000,0.000,0.000
1605126178441798912,10.0.1.128,400,move_down,-0.120,-0.120,-0.120,0.000,0.000,0.000
1605126179955222016,10.0.1.128,418,move_down,-0.140,-0.140,-0.140,0.000,0.000,0.000
1605126181494930944,10.0.1.128,433,move_down,-0.160,-0.160,-0.160,0.000,0.000,0.000
1605126182942194944,10.0.1.128,374,move_down,-0.180,-0.180,-0.180,0.000,0.000,0.000
1605126184512902144,10.0.1.128,482,move_down,-0.200,-0.200,-0.200,0.000,0.000,0.000
1605126186015418112,10.0.1.128,422,move_down,-0.220,-0.220,-0.220,0.000,0.000,0.000
1605126187561969920,10.0.1.128,382,move_down,-0.240,-0.240,-0.240,0.000,0.000,0.000
1605126189149327872,10.0.1.128,485,move_down,-0.260,-0.260,-0.260,0.000,0.000,0.000
1605126190602536960,10.0.1.128,410,move_down,-0.280,-0.280,-0.280,0.000,0.000,0.000
1605126192131305984,10.0.1.128,413,move_down,-0.300,-0.300,-0.300,0.000,0.000,0.000
1605126193600996096,10.0.1.128,425,move_down,-0.320,-0.320,-0.320,0.000,0.000,0.000
1605126195120605952,10.0.1.128,407,move_down,-0.340,-0.340,-0.340,0.000,0.000,0.000
1605126196640930816,10.0.1.128,408,move_down,-0.360,-0.360,-0.360,0.000,0.000,0.000
1605126198211250176,10.0.1.128,441,move_down,-0.380,-0.380,-0.380,0.000,0.000,0.000
1605126199781291008,10.0.1.128,410,move_down,-0.400,-0.400,-0.400,0.000,0.000,0.000
1605126201270715904,10.0.1.128,452,move_down,-0.420,-0.420,-0.420,0.000,0.000,0.000
1605126202741805056,10.0.1.128,416,move_down,-0.440,-0.440,-0.440,0.000,0.000,0.000
1605126204164016128,10.0.1.128,378,move_down,-0.460,-0.460,-0.460,0.000,0.000,0.000
1605126205666553088,10.0.1.128,426,move_down,-0.480,-0.480,-0.480,0.000,0.000,0.000
1605126207143469056,10.0.1.128,396,move_down,-0.500,-0.500,-0.500,0.000,0.000,0.000
1605126208594368000,10.0.1.128,389,move_down,-0.520,-0.520,-0.520,0.000,0.000,0.000
1605126210139558912,10.0.1.128,484,move_down,-0.540,-0.540,-0.540,0.000,0.000,0.000
1605126211716517888,10.0.1.128,509,move_down,-0.560,-0.560,-0.560,0.000,0.000,0.000
1605126213147618048,10.0.1.128,397,move_down,-0.580,-0.580,-0.580,0.000,0.000,0.000
1605126214266233856,10.0.1.128,51,pick,-0.590,-0.590,-0.590,0.000,0.000,0.000
1605126215266077952,10.0.1.128,50,pick,-0.600,-0.600,-0.600,0.000,0.000,0.000
1605126216265500160,10.0.1.128,48,pick,-0.610,-0.610,-0.610,0.000,0.000,0.000
1605126217267430144,10.0.1.128,49,pick,-0.620,-0.620,-0.620,0.000,0.000,0.000
1605126218269196032,10.0.1.128,49,pick,-0.630,-0.630,-0.630,0.000,0.000,0.000
1605126219261713152,10.0.1.128,40,pick,-0.640,-0.640,-0.640,0.000,0.000,0.000
1605126220258543872,10.0.1.128,36,pick,-0.650,-0.650,-0.650,0.000,0.000,0.000
1605126221269315072,10.0.1.128,45,pick,-0.660,-0.660,-0.660,0.000,0.000,0.000
1605126222258755072,10.0.1.128,33,pick,-0.670,-0.670,-0.670,0.000,0.000,0.000
1605126223273113856,10.0.1.128,46,pick,-0.680,-0.680,-0.680,0.000,0.000,0.000
1605126224282001920,10.0.1.128,54,pick,-0.690,-0.690,-0.690,0.000,0.000,0.000
1605126225292877824,10.0.1.128,63,pick,-0.700,-0.700,-0.700,0.000,0.000,0.000
1605126226287529984,10.0.1.128,57,pick,-0.710,-0.710,-0.710,0.000,0.000,0.000
1605126227267915008,10.0.1.128,36,pick,-0.720,-0.720,-0.720,0.000,0.000,0.000
1605126228266215936,10.0.1.128,33,pick,-0.730,-0.730,-0.730,0.000,0.000,0.000
1605126229266174976,10.0.1.128,31,pick,-0.740,-0.740,-0.740,0.000,0.000,0.000
1605126230288150016,10.0.1.128,51,pick,-0.750,-0.750,-0.750,0.000,0.000,0.000
1605126231290895104,10.0.1.128,49,pick,-0.760,-0.760,-0.760,0.000,0.000,0.000
1605126232281296128,10.0.1.128,39,pick,-0.770,-0.770,-0.770,0.000,0.000,0.000
1605126233698256128,10.0.1.128,454,move_up,-0.750,-0.750,-0.750,0.000,0.000,0.000
1605126235242917120,10.0.1.128,402,move_up,-0.730,-0.730,-0.730,0.000,0.000,0.000
1605126236714277120,10.0.1.128,372,move_up,-0.710,-0.710,-0.710,0.000,0.000,0.000
1605126238248940032,10.0.1.128,459,move_up,-0.690,-0.690,-0.690,0.000,0.000,0.000
1605126239795041024,10.0.1.128,389,move_up,-0.670,-0.670,-0.670,0.000,0.000,0.000
1605126241291099904,10.0.1.128,383,move_up,-0.650,-0.650,-0.650,0.000,0.000,0.000
1605126242730288128,10.0.1.128,404,move_up,-0.630,-0.630,-0.630,0.000,0.000,0.000
1605126244296983040,10.0.1.128,464,move_up,-0.610,-0.610,-0.610,0.000,0.000,0.000
1605126245789827072,10.0.1.128,423,move_up,-0.590,-0.590,-0.590,0.000,0.000,0.000
1605126247293568000,10.0.1.128,439,move_up,-0.570,-0.570,-0.570,0.000,0.000,0.000
1605126248740803840,10.0.1.128,351,move_up,-0.550,-0.550,-0.550,0.000,0.000,0.000
1605126250320588032,10.0.1.128,465,move_up,-0.530,-0.530,-0.530,0.000,0.000,0.000
1605126251801063168,10.0.1.128,418,move_up,-0.510,-0.510,-0.510,0.000,0.000,0.000
1605126253291232000,10.0.1.128,426,move_up,-0.490,-0.490,-0.490,0.000,0.000,0.000
1605126254877392128,10.0.1.128,477,move_up,-0.470,-0.470,-0.470,0.000,0.000,0.000
1605126256438149888,10.0.1.128,495,move_up,-0.450,-0.450,-0.450,0.000,0.000,0.000
1605126257864756992,10.0.1.128,422,move_up,-0.430,-0.430,-0.430,0.000,0.000,0.000
1605126259349512192,10.0.1.128,401,move_up,-0.410,-0.410,-0.410,0.000,0.000,0.000
1605126260988316928,10.0.1.128,517,move_up,-0.390,-0.390,-0.390,0.000,0.000,0.000
1605126262533480960,10.0.1.128,481,move_up,-0.370,-0.370,-0.370,0.000,0.000,0.000
1605126264006786048,10.0.1.128,394,move_up,-0.350,-0.350,-0.350,0.000,0.000,0.000
1605126265544802048,10.0.1.128,429,move_up,-0.330,-0.330,-0.330,0.000,0.000,0.000
1605126267109769216,10.0.1.128,463,move_up,-0.310,-0.310,-0.310,0.000,0.000,0.000
1605126268627036160,10.0.1.128,436,move_up,-0.290,-0.290,-0.290,0.000,0.000,0.000
1605126270142205952,10.0.1.128,435,move_up,-0.270,-0.270,-0.270,0.000,0.000,0.000
1605126271636931840,10.0.1.128,439,move_up,-0.250,-0.250,-0.250,0.000,0.000,0.000
1605126273192631040,10.0.1.128,471,move_up,-0.230,-0.230,-0.230,0.000,0.000,0.000
1605126274671684096,10.0.1.128,405,move_up,-0.210,-0.210,-0.210,0.000,0.000,0.000
1605126276099868928,10.0.1.128,425,move_up,-0.190,-0.190,-0.190,0.000,0.000,0.000
1605126277236062976,10.0.1.128,50,place,-0.180,-0.180,-0.180,0.000,0.000,0.000
1605126278256830976,10.0.1.128,69,place,-0.170,-0.170,-0.170,0.000,0.000,0.000
1605126279237984768,10.0.1.128,43,place,-0.160,-0.160,-0.160,0.000,0.000,0.000
1605126280240470016,10.0.1.128,44,place,-0.150,-0.150,-0.150,0.000,0.000,0.000
1605126281237273088,10.0.1.128,39,place,-0.140,-0.140,-0.140,0.000,0.000,0.000
1605126282242358016,10.0.1.128,42,place,-0.130,-0.130,-0.130,0.000,0.000,0.000
