milangroshev/digital-twin-scalability/logs/run2-3600s/10.0.1.131.csv
timestamp,node,latency,action,joint_1,joint_2,joint_3,joint_4,joint_5,joint_6
1605128346337025792,10.0.1.131,2017,,0.000,0.000,0.000,0.000,0.000,0.000
1605128349244535808,10.0.1.131,920,move_down,-0.020,-0.020,-0.020,0.000,0.000,0.000
1605128350801656064,10.0.1.131,476,move_down,-0.040,-0.040,-0.040,0.000,0.000,0.000
1605128352370466048,10.0.1.131,489,move_down,-0.060,-0.060,-0.060,0.000,0.000,0.000
1605128353939043072,10.0.1.131,475,move_down,-0.080,-0.080,-0.080,0.000,0.000,0.000
1605128355440921088,10.0.1.131,430,move_down,-0.100,-0.100,-0.100,0.000,0.000,0.000
1605128356937645824,10.0.1.131,439,move_down,-0.120,-0.120,-0.120,0.000,0.000,0.000
1605128358414769920,10.0.1.131,402,move_down,-0.140,-0.140,-0.140,0.000,0.000,0.000
1605128360241422848,10.0.1.131,582,move_down,-0.160,-0.160,-0.160,0.000,0.000,0.000
1605128361877635072,10.0.1.131,514,move_down,-0.180,-0.180,-0.180,0.000,0.000,0.000
1605128363409473024,10.0.1.131,427,move_down,-0.200,-0.200,-0.200,0.000,0.000,0.000
1605128364969899776,10.0.1.131,500,move_down,-0.220,-0.220,-0.220,0.000,0.000,0.000
1605128366443600896,10.0.1.131,405,move_down,-0.240,-0.240,-0.240,0.000,0.000,0.000
1605128368046674944,10.0.1.131,524,move_down,-0.260,-0.260,-0.260,0.000,0.000,0.000
1605128369608563968,10.0.1.131,495,move_down,-0.280,-0.280,-0.280,0.000,0.000,0.000
1605128371153323776,10.0.1.131,443,move_down,-0.300,-0.300,-0.300,0.000,0.000,0.000
1605128372641641984,10.0.1.131,420,move_down,-0.320,-0.320,-0.320,0.000,0.000,0.000
1605128374140073984,10.0.1.131,423,move_down,-0.340,-0.340,-0.340,0.000,0.000,0.000
1605128375658437888,10.0.1.131,501,move_down,-0.360,-0.360,-0.360,0.000,0.000,0.000
1605128377238279168,10.0.1.131,416,move_down,-0.380,-0.380,-0.380,0.000,0.000,0.000
1605128378777338112,10.0.1.131,513,move_down,-0.400,-0.400,-0.400,0.000,0.000,0.000
1605128380406644224,10.0.1.131,506,move_down,-0.420,-0.420,-0.420,0.000,0.000,0.000
1605128381923556096,10.0.1.131,449,move_down,-0.440,-0.440,-0.440,0.000,0.000,0.000
1605128383407485952,10.0.1.131,405,move_down,-0.460,-0.460,-0.460,0.000,0.000,0.000
1605128384913410816,10.0.1.131,479,move_down,-0.480,-0.480,-0.480,0.000,0.000,0.000
1605128386426711040,10.0.1.131,488,move_down,-0.500,-0.500,-0.500,0.000,0.000,0.000
1605128388152286976,10.0.1.131,663,move_down,-0.520,-0.520,-0.520,0.000,0.000,0.000
1605128389683963904,10.0.1.131,449,move_down,-0.540,-0.540,-0.540,0.000,0.000,0.000
1605128391244080128,10.0.1.131,497,move_down,-0.560,-0.560,-0.560,0.000,0.000,0.000
1605128392765573120,10.0.1.131,444,move_down,-0.580,-0.580,-0.580,0.000,0.000,0.000
1605128393905688064,10.0.1.131,42,pick,-0.590,-0.590,-0.590,0.000,0.000,0.000
1605128395938398976,10.0.1.131,62,pick,-0.610,-0.610,-0.610,0.000,0.000,0.000
1605128397937666816,10.0.1.131,59,pick,-0.630,-0.630,-0.630,0.000,0.000,0.000
1605128398946754048,10.0.1.131,65,pick,-0.640,-0.640,-0.640,0.000,0.000,0.000
1605128399930830080,10.0.1.131,48,pick,-0.650,-0.650,-0.650,0.000,0.000,0.000
1605128400934825984,10.0.1.131,51,pick,-0.660,-0.660,-0.660,0.000,0.000,0.000
1605128401915576064,10.0.1.131,30,pick,-0.670,-0.670,-0.670,0.000,0.000,0.000
1605128402937658112,10.0.1.131,50,pick,-0.680,-0.680,-0.680,0.000,0.000,0.000
1605128404937134080,10.0.1.131,47,pick,-0.700,-0.700,-0.700,0.000,0.000,0.000
1605128405972467968,10.0.1.131,72,pick,-0.710,-0.710,-0.710,0.000,0.000,0.000
1605128406957449984,10.0.1.131,52,pick,-0.720,-0.720,-0.720,0.000,0.000,0.000
1605128407960448000,10.0.1.131,53,pick,-0.730,-0.730,-0.730,0.000,0.000,0.000
1605128408953795840,10.0.1.131,46,pick,-0.740,-0.740,-0.740,0.000,0.000,0.000
1605128409960856832,10.0.1.131,52,pick,-0.750,-0.750,-0.750,0.000,0.000,0.000
1605128410962203904,10.0.1.131,52,pick,-0.760,-0.760,-0.760,0.000,0.000,0.000
1605128411956609024,10.0.1.131,45,pick,-0.770,-0.770,-0.770,0.000,0.000,0.000
1605128413366296064,10.0.1.131,453,move_up,-0.750,-0.750,-0.750,0.000,0.000,0.000
1605128414959567104,10.0.1.131,494,move_up,-0.730,-0.730,-0.730,0.000,0.000,0.000
1605128416435820032,10.0.1.131,440,move_up,-0.710,-0.710,-0.710,0.000,0.000,0.000
1605128418038268160,10.0.1.131,531,move_up,-0.690,-0.690,-0.690,0.000,0.000,0.000
1605128419536786176,10.0.1.131,435,move_up,-0.670,-0.670,-0.670,0.000,0.000,0.000
1605128421104759040,10.0.1.131,481,move_up,-0.650,-0.650,-0.650,0.000,0.000,0.000
1605128422703075840,10.0.1.131,530,move_up,-0.630,-0.630,-0.630,0.000,0.000,0.000
1605128424191639040,10.0.1.131,449,move_up,-0.610,-0.610,-0.610,0.000,0.000,0.000
1605128425800250880,10.0.1.131,525,move_up,-0.590,-0.590,-0.590,0.000,0.000,0.000
1605128427350820096,10.0.1.131,472,move_up,-0.570,-0.570,-0.570,0.000,0.000,0.000
1605128428916435968,10.0.1.131,496,move_up,-0.550,-0.550,-0.550,0.000,0.000,0.000
1605128430439182080,10.0.1.131,451,move_up,-0.530,-0.530,-0.530,0.000,0.000,0.000
1605128431983305984,10.0.1.131,508,move_up,-0.510,-0.510,-0.510,0.000,0.000,0.000
1605128433558120960,10.0.1.131,509,move_up,-0.490,-0.490,-0.490,0.000,0.000,0.000
1605128435100620032,10.0.1.131,474,move_up,-0.470,-0.470,-0.470,0.000,0.000,0.000
1605128436668559104,10.0.1.131,508,move_up,-0.450,-0.450,-0.450,0.000,0.000,0.000
1605128438247379968,10.0.1.131,515,move_up,-0.430,-0.430,-0.430,0.000,0.000,0.000
1605128439856355840,10.0.1.131,533,move_up,-0.410,-0.410,-0.410,0.000,0.000,0.000
1605128441421881856,10.0.1.131,436,move_up,-0.390,-0.390,-0.390,0.000,0.000,0.000
1605128442952718848,10.0.1.131,443,move_up,-0.370,-0.370,-0.370,0.000,0.000,0.000
1605128444534110976,10.0.1.131,496,move_up,-0.350,-0.350,-0.350,0.000,0.000,0.000
1605128446186466048,10.0.1.131,567,move_up,-0.330,-0.330,-0.330,0.000,0.000,0.000
1605128447733711104,10.0.1.131,496,move_up,-0.310,-0.310,-0.310,0.000,0.000,0.000
1605128449259175936,10.0.1.131,463,move_up,-0.290,-0.290,-0.290,0.000,0.000,0.000
1605128450761404160,10.0.1.131,415,move_up,-0.270,-0.270,-0.270,0.000,0.000,0.000
1605128452263617024,10.0.1.131,433,move_up,-0.250,-0.250,-0.250,0.000,0.000,0.000
1605128453729790976,10.0.1.131,403,move_up,-0.230,-0.230,-0.230,0.000,0.000,0.000
1605128455226118144,10.0.1.131,453,move_up,-0.210,-0.210,-0.210,0.000,0.000,0.000
1605128456858508032,10.0.1.131,618,move_up,-0.190,-0.190,-0.190,0.000,0.000,0.000
1605128457978508032,10.0.1.131,58,place,-0.180,-0.180,-0.180,0.000,0.000,0.000
1605128458979092992,10.0.1.131,44,place,-0.170,-0.170,-0.170,0.000,0.000,0.000
1605128459979844096,10.0.1.131,44,place,-0.160,-0.160,-0.160,0.000,0.000,0.000
1605128460975024896,10.0.1.131,37,place,-0.150,-0.150,-0.150,0.000,0.000,0.000
1605128462007253760,10.0.1.131,68,place,-0.140,-0.140,-0.140,0.000,0.000,0.000
1605128462982752000,10.0.1.131,43,place,-0.130,-0.130,-0.130,0.000,0.000,0.000
1605128464008729088,10.0.1.131,56,place,-0.120,-0.120,-0.120,0.000,0.000,0.000
1605128465015213056,10.0.1.131,61,place,-0.110,-0.110,-0.110,0.000,0.000,0.000
1605128466993978880,10.0.1.131,37,place,-0.090,-0.090,-0.090,0.000,0.000,0.000
1605128469011794944,10.0.1.131,50,place,-0.070,-0.070,-0.070,0.000,0.000,0.000
1605128470027126016,10.0.1.131,63,place,-0.060,-0.060,-0.060,0.000,0.000,0.000
1605128471025805056,10.0.1.131,58,place,-0.050,-0.050,-0.050,0.000,0.000,0.000
1605128472014792960,10.0.1.131,39,place,-0.040,-0.040,-0.040,0.000,0.000,0.000
1605128473027064064,10.0.1.131,50,place,-0.030,-0.030,-0.030,0.000,0.000,0.000
1605128474012577024,10.0.1.131,33,place,-0.020,-0.020,-0.020,0.000,0.000,0.000
1605128475024918016,10.0.1.131,45,place,-0.010,-0.010,-0.010,0.000,0.000,0.000
1605128476026861824,10.0.1.131,45,place,0.000,0.000,0.000,0.000,0.000,0.000
1605128477497814784,10.0.1.131,515,move_down,-0.020,-0.020,-0.020,0.000,0.000,0.000
1605128479148026880,10.0.1.131,506,move_down,-0.040,-0.040,-0.040,0.000,0.000,0.000
1605128480721291008,10.0.1.131,467,move_down,-0.060,-0.060,-0.060,0.000,0.000,0.000
1605128482310124032,10.0.1.131,489,move_down,-0.080,-0.080,-0.080,0.000,0.000,0.000
1605128483833096960,10.0.1.131,466,move_down,-0.100,-0.100,-0.100,0.000,0.000,0.000
1605128485385471232,10.0.1.131,442,move_down,-0.120,-0.120,-0.120,0.000,0.000,0.000
1605128487089364992,10.0.1.131,596,move_down,-0.140,-0.140,-0.140,0.000,0.000,0.000
1605128488636091904,10.0.1.131,505,move_down,-0.160,-0.160,-0.160,0.000,0.000,0.000
1605128490186059008,10.0.1.131,401,move_down,-0.180,-0.180,-0.180,0.000,0.000,0.000
1605128491885318144,10.0.1.131,612,move_down,-0.200,-0.200,-0.200,0.000,0.000,0.000
1605128493477734144,10.0.1.131,508,move_down,-0.220,-0.220,-0.220,0.000,0.000,0.000
1605128494991363072,10.0.1.131,448,move_down,-0.240,-0.240,-0.240,0.000,0.000,0.000
1605128496505073152,10.0.1.131,442,move_down,-0.260,-0.260,-0.260,0.000,0.000,0.000
1605128498083823872,10.0.1.131,502,move_down,-0.280,-0.280,-0.280,0.000,0.000,0.000
1605128499700850944,10.0.1.131,506,move_down,-0.300,-0.300,-0.300,0.000,0.000,0.000
1605128501253714176,10.0.1.131,454,move_down,-0.320,-0.320,-0.320,0.000,0.000,0.000
1605128502810669056,10.0.1.131,458,move_down,-0.340,-0.340,-0.340,0.000,0.000,0.000
1605128504501562112,10.0.1.131,486,move_down,-0.360,-0.360,-0.360,0.000,0.000,0.000
1605128505988132864,10.0.1.131,427,move_down,-0.380,-0.380,-0.380,0.000,0.000,0.000
1605128507689758976,10.0.1.131,585,move_down,-0.400,-0.400,-0.400,0.000,0.000,0.000
1605128509275686912,10.0.1.131,442,move_down,-0.420,-0.420,-0.420,0.000,0.000,0.000
1605128510834091008,10.0.1.131,522,move_down,-0.440,-0.440,-0.440,0.000,0.000,0.000
1605128512379180032,10.0.1.131,466,move_down,-0.460,-0.460,-0.460,0.000,0.000,0.000
1605128513894129152,10.0.1.131,466,move_down,-0.480,-0.480,-0.480,0.000,0.000,0.000
1605128515391736064,10.0.1.131,414,move_down,-0.500,-0.500,-0.500,0.000,0.000,0.000
1605128516886130176,10.0.1.131,406,move_down,-0.520,-0.520,-0.520,0.000,0.000,0.000
1605128518391552000,10.0.1.131,460,move_down,-0.540,-0.540,-0.540,0.000,0.000,0.000
1605128520031766016,10.0.1.131,526,move_down,-0.560,-0.560,-0.560,0.000,0.000,0.000
1605128521723283968,10.0.1.131,546,move_down,-0.580,-0.580,-0.580,0.000,0.000,0.000
1605128522853928192,10.0.1.131,75,pick,-0.590,-0.590,-0.590,0.000,0.000,0.000
1605128523816030976,10.0.1.131,36,pick,-0.600,-0.600,-0.600,0.000,0.000,0.000
1605128524837466112,10.0.1.131,56,pick,-0.610,-0.610,-0.610,0.000,0.000,0.000
1605128525833252864,10.0.1.131,51,pick,-0.620,-0.620,-0.620,0.000,0.000,0.000
1605128526835269888,10.0.1.131,51,pick,-0.630,-0.630,-0.630,0.000,0.000,0.000
1605128527827195904,10.0.1.131,43,pick,-0.640,-0.640,-0.640,0.000,0.000,0.000
1605128528833250048,10.0.1.131,48,pick,-0.650,-0.650,-0.650,0.000,0.000,0.000
1605128529833071104,10.0.1.131,47,pick,-0.660,-0.660,-0.660,0.000,0.000,0.000
1605128530834356992,10.0.1.131,47,pick,-0.670,-0.670,-0.670,0.000,0.000,0.000
1605128531844569856,10.0.1.131,56,pick,-0.680,-0.680,-0.680,0.000,0.000,0.000
1605128532836898048,10.0.1.131,48,pick,-0.690,-0.690,-0.690,0.000,0.000,0.000
1605128533839356928,10.0.1.131,49,pick,-0.700,-0.700,-0.700,0.000,0.000,0.000
1605128534847151872,10.0.1.131,55,pick,-0.710,-0.710,-0.710,0.000,0.000,0.000
1605128535865717760,10.0.1.131,65,pick,-0.720,-0.720,-0.720,0.000,0.000,0.000
1605128536845929984,10.0.1.131,44,pick,-0.730,-0.730,-0.730,0.000,0.000,0.000
1605128537834806016,10.0.1.131,32,pick,-0.740,-0.740,-0.740,0.000,0.000,0.000
1605128539846978816,10.0.1.131,38,pick,-0.760,-0.760,-0.760,0.000,0.000,0.000
1605128540858412032,10.0.1.131,40,pick,-0.770,-0.770,-0.770,0.000,0.000,0.000
1605128542361964032,10.0.1.131,542,move_up,-0.750,-0.750,-0.750,0.000,0.000,0.000
1605128543855804928,10.0.1.131,469,move_up,-0.730,-0.730,-0.730,0.000,0.000,0.000
1605128545415906816,10.0.1.131,505,move_up,-0.710,-0.710,-0.710,0.000,0.000,0.000
1605128547004854016,10.0.1.131,502,move_up,-0.690,-0.690,-0.690,0.000,0.000,0.000
1605128548459357952,10.0.1.131,417,move_up,-0.670,-0.670,-0.670,0.000,0.000,0.000
1605128549983758080,10.0.1.131,412,move_up,-0.650,-0.650,-0.650,0.000,0.000,0.000
1605128551409895936,10.0.1.131,397,move_up,-0.630,-0.630,-0.630,0.000,0.000,0.000
1605128552982380032,10.0.1.131,478,move_up,-0.610,-0.610,-0.610,0.000,0.000,0.000
1605128554479644928,10.0.1.131,433,move_up,-0.590,-0.590,-0.590,0.000,0.000,0.000
1605128556183203840,10.0.1.131,549,move_up,-0.570,-0.570,-0.570,0.000,0.000,0.000
1605128557768660992,10.0.1.131,510,move_up,-0.550,-0.550,-0.550,0.000,0.000,0.000
1605128559221231104,10.0.1.131,418,move_up,-0.530,-0.530,-0.530,0.000,0.000,0.000
1605128560800488960,10.0.1.131,487,move_up,-0.510,-0.510,-0.510,0.000,0.000,0.000
1605128562402771968,10.0.1.131,529,move_up,-0.490,-0.490,-0.490,0.000,0.000,0.000
1605128563982157056,10.0.1.131,483,move_up,-0.470,-0.470,-0.470,0.000,0.000,0.000
1605128565637095936,10.0.1.131,562,move_up,-0.450,-0.450,-0.450,0.000,0.000,0.000
1605128567152704000,10.0.1.131,411,move_up,-0.430,-0.430,-0.430,0.000,0.000,0.000
1605128568803155968,10.0.1.131,588,move_up,-0.410,-0.410,-0.410,0.000,0.000,0.000
1605128570279126016,10.0.1.131,418,move_up,-0.390,-0.390,-0.390,0.000,0.000,0.000
1605128571892227840,10.0.1.131,505,move_up,-0.370,-0.370,-0.370,0.000,0.000,0.000
1605128573471046912,10.0.1.131,526,move_up,-0.350,-0.350,-0.350,0.000,0.000,0.000
1605128575025865984,10.0.1.131,401,move_up,-0.330,-0.330,-0.330,0.000,0.000,0.000
1605128576677826048,10.0.1.131,558,move_up,-0.310,-0.310,-0.310,0.000,0.000,0.000
1605128578275382016,10.0.1.131,520,move_up,-0.290,-0.290,-0.290,0.000,0.000,0.000
1605128579764517120,10.0.1.131,395,move_up,-0.270,-0.270,-0.270,0.000,0.000,0.000
1605128581265944064,10.0.1.131,445,move_up,-0.250,-0.250,-0.250,0.000,0.000,0.000
1605128582770999040,10.0.1.131,405,move_up,-0.230,-0.230,-0.230,0.000,0.000,0.000
1605128584213228032,10.0.1.131,405,move_up,-0.210,-0.210,-0.210,0.000,0.000,0.000
1605128585763830784,10.0.1.131,458,move_up,-0.190,-0.190,-0.190,0.000,0.000,0.000
1605128586898242048,10.0.1.131,47,place,-0.180,-0.180,-0.180,0.000,0.000,0.000
1605128587891292160,10.0.1.131,39,place,-0.170,-0.170,-0.170,0.000,0.000,0.000
1605128588914132224,10.0.1.131,60,place,-0.160,-0.160,-0.160,0.000,0.000,0.000
1605128589918312960,10.0.1.131,63,place,-0.150,-0.150,-0.150,0.000,0.000,0.000
1605128590915233024,10.0.1.131,59,place,-0.140,-0.140,-0.140,0.000,0.000,0.000
1605128591904573952,10.0.1.131,45,place,-0.130,-0.130,-0.130,0.000,0.000,0.000
1605128592900032000,10.0.1.131,39,place,-0.120,-0.120,-0.120,0.000,0.000,0.000
1605128593901979904,10.0.1.131,40,place,-0.110,-0.110,-0.110,0.000,0.000,0.000
1605128594922018048,10.0.1.131,59,place,-0.100,-0.100,-0.100,0.000,0.000,0.000
1605128595904979968,10.0.1.131,41,place,-0.090,-0.090,-0.090,0.000,0.000,0.000
1605128596894597120,10.0.1.131,29,place,-0.080,-0.080,-0.080,0.000,0.000,0.000
1605128597913382912,10.0.1.131,47,place,-0.070,-0.070,-0.070,0.000,0.000,0.000
1605128598923986944,10.0.1.131,56,place,-0.060,-0.060,-0.060,0.000,0.000,0.000
1605128599916105984,10.0.1.131,47,place,-0.050,-0.050,-0.050,0.000,0.000,0.000
1605128600925921024,10.0.1.131,55,place,-0.040,-0.040,-0.040,0.000,0.000,0.000
1605128601964909056,10.0.1.131,77,place,-0.030,-0.030,-0.030,0.000,0.000,0.000
1605128602937082880,10.0.1.131,47,place,-0.020,-0.020,-0.020,0.000,0.000,0.000
1605128603943094016,10.0.1.131,52,place,-0.010,-0.010,-0.010,0.000,0.000,0.000
1605128604931680000,10.0.1.131,34,place,0.000,0.000,0.000,0.000,0.000,0.000
1605128606367051008,10.0.1.131,462,move_down,-0.020,-0.020,-0.020,0.000,0.000,0.000
1605128607917998080,10.0.1.131,489,move_down,-0.040,-0.040,-0.040,0.000,0.000,0.000
1605128609436517888,10.0.1.131,426,move_down,-0.060,-0.060,-0.060,0.000,0.000,0.000
1605128610968668928,10.0.1.131,503,move_down,-0.080,-0.080,-0.080,0.000,0.000,0.000
1605128612501338880,10.0.1.131,442,move_down,-0.100,-0.100,-0.100,0.000,0.000,0.000
1605128614072832000,10.0.1.131,573,move_down,-0.120,-0.120,-0.120,0.000,0.000,0.000
1605128615576915968,10.0.1.131,451,move_down,-0.140,-0.140,-0.140,0.000,0.000,0.000
1605128617022654976,10.0.1.131,383,move_down,-0.160,-0.160,-0.160,0.000,0.000,0.000
1605128618594866944,10.0.1.131,466,move_down,-0.180,-0.180,-0.180,0.000,0.000,0.000
1605128620207655936,10.0.1.131,534,move_down,-0.200,-0.200,-0.200,0.000,0.000,0.000
1605128621763771136,10.0.1.131,515,move_down,-0.220,-0.220,-0.220,0.000,0.000,0.000
1605128623388113920,10.0.1.131,488,move_down,-0.240,-0.240,-0.240,0.000,0.000,0.000
1605128624925060864,10.0.1.131,408,move_down,-0.260,-0.260,-0.260,0.000,0.000,0.000
1605128626511610112,10.0.1.131,476,move_down,-0.280,-0.280,-0.280,0.000,0.000,0.000
1605128628000408832,10.0.1.131,417,move_down,-0.300,-0.300,-0.300,0.000,0.000,0.000
1605128629619147008,10.0.1.131,528,move_down,-0.320,-0.320,-0.320,0.000,0.000,0.000
1605128631184241920,10.0.1.131,461,move_down,-0.340,-0.340,-0.340,0.000,0.000,0.000
1605128632717110016,10.0.1.131,457,move_down,-0.360,-0.360,-0.360,0.000,0.000,0.000
1605128634293638912,10.0.1.131,494,move_down,-0.380,-0.380,-0.380,0.000,0.000,0.000
1605128635912125952,10.0.1.131,413,move_down,-0.400,-0.400,-0.400,0.000,0.000,0.000
1605128637550818048,10.0.1.131,521,move_down,-0.420,-0.420,-0.420,0.000,0.000,0.000
1605128639101672960,10.0.1.131,494,move_down,-0.440,-0.440,-0.440,0.000,0.000,0.000
1605128640605995008,10.0.1.131,476,move_down,-0.460,-0.460,-0.460,0.000,0.000,0.000
1605128642208924928,10.0.1.131,527,move_down,-0.480,-0.480,-0.480,0.000,0.000,0.000
1605128643720645888,10.0.1.131,463,move_down,-0.500,-0.500,-0.500,0.000,0.000,0.000
1605128645384489984,10.0.1.131,492,move_down,-0.520,-0.520,-0.520,0.000,0.000,0.000
1605128646953378048,10.0.1.131,483,move_down,-0.540,-0.540,-0.540,0.000,0.000,0.000
1605128648487606016,10.0.1.131,433,move_down,-0.560,-0.560,-0.560,0.000,0.000,0.000
1605128650022964992,10.0.1.131,455,move_down,-0.580,-0.580,-0.580,0.000,0.000,0.000
1605128651160141824,10.0.1.131,48,pick,-0.590,-0.590,-0.590,0.000,0.000,0.000
1605128652158475008,10.0.1.131,45,pick,-0.600,-0.600,-0.600,0.000,0.000,0.000
1605128653161867008,10.0.1.131,47,pick,-0.610,-0.610,-0.610,0.000,0.000,0.000
1605128654165574912,10.0.1.131,49,pick,-0.620,-0.620,-0.620,0.000,0.000,0.000
1605128656164051968,10.0.1.131,46,pick,-0.640,-0.640,-0.640,0.000,0.000,0.000
1605128657169539072,10.0.1.131,49,pick,-0.650,-0.650,-0.650,0.000,0.000,0.000
1605128658163889920,10.0.1.131,42,pick,-0.660,-0.660,-0.660,0.000,0.000,0.000
1605128659183815936,10.0.1.131,49,pick,-0.670,-0.670,-0.670,0.000,0.000,0.000
1605128661187907840,10.0.1.131,51,pick,-0.690,-0.690,-0.690,0.000,0.000,0.000
1605128662184210176,10.0.1.131,42,pick,-0.700,-0.700,-0.700,0.000,0.000,0.000
1605128663189146880,10.0.1.131,44,pick,-0.710,-0.710,-0.710,0.000,0.000,0.000
1605128664204806144,10.0.1.131,56,pick,-0.720,-0.720,-0.720,0.000,0.000,0.000
1605128666187060992,10.0.1.131,35,pick,-0.740,-0.740,-0.740,0.000,0.000,0.000
1605128667183324160,10.0.1.131,31,pick,-0.750,-0.750,-0.750,0.000,0.000,0.000
1605128668183193088,10.0.1.131,29,pick,-0.760,-0.760,-0.760,0.000,0.000,0.000
1605128669198183936,10.0.1.131,43,pick,-0.770,-0.770,-0.770,0.000,0.000,0.000
1605128670581821952,10.0.1.131,426,move_up,-0.750,-0.750,-0.750,0.000,0.000,0.000
1605128672093668864,10.0.1.131,410,move_up,-0.730,-0.730,-0.730,0.000,0.000,0.000
1605128673608724992,10.0.1.131,425,move_up,-0.710,-0.710,-0.710,0.000,0.000,0.000
1605128675146574080,10.0.1.131,425,move_up,-0.690,-0.690,-0.690,0.000,0.000,0.000
1605128676670137856,10.0.1.131,435,move_up,-0.670,-0.670,-0.670,0.000,0.000,0.000
1605128678302861824,10.0.1.131,500,move_up,-0.650,-0.650,-0.650,0.000,0.000,0.000
1605128679917751040,10.0.1.131,512,move_up,-0.630,-0.630,-0.630,0.000,0.000,0.000
1605128681500112896,10.0.1.131,500,move_up,-0.610,-0.610,-0.610,0.000,0.000,0.000
1605128683048659968,10.0.1.131,434,move_up,-0.590,-0.590,-0.590,0.000,0.000,0.000
1605128684638259968,10.0.1.131,511,move_up,-0.570,-0.570,-0.570,0.000,0.000,0.000
1605128686187305984,10.0.1.131,477,move_up,-0.550,-0.550,-0.550,0.000,0.000,0.000
1605128687753268992,10.0.1.131,482,move_up,-0.530,-0.530,-0.530,0.000,0.000,0.000
1605128689298027008,10.0.1.131,502,move_up,-0.510,-0.510,-0.510,0.000,0.000,0.000
1605128690758972928,10.0.1.131,426,move_up,-0.490,-0.490,-0.490,0.000,0.000,0.000
1605128692394268928,10.0.1.131,562,move_up,-0.470,-0.470,-0.470,0.000,0.000,0.000
1605128693882853120,10.0.1.131,445,move_up,-0.450,-0.450,-0.450,0.000,0.000,0.000
1605128695431162112,10.0.1.131,516,move_up,-0.430,-0.430,-0.430,0.000,0.000,0.000
1605128697026600960,10.0.1.131,471,move_up,-0.410,-0.410,-0.410,0.000,0.000,0.000
1605128698651119872,10.0.1.131,471,move_up,-0.390,-0.390,-0.390,0.000,0.000,0.000
1605128700185893120,10.0.1.131,450,move_up,-0.370,-0.370,-0.370,0.000,0.000,0.000
1605128701637916928,10.0.1.131,424,move_up,-0.350,-0.350,-0.350,0.000,0.000,0.000
1605128703194252032,10.0.1.131,492,move_up,-0.330,-0.330,-0.330,0.000,0.000,0.000
1605128704752190208,10.0.1.131,453,move_up,-0.310,-0.310,-0.310,0.000,0.000,0.000
1605128706325562880,10.0.1.131,529,move_up,-0.290,-0.290,-0.290,0.000,0.000,0.000
1605128707869724160,10.0.1.131,486,move_up,-0.270,-0.270,-0.270,0.000,0.000,0.000
1605128709364360960,10.0.1.131,403,move_up,-0.250,-0.250,-0.250,0.000,0.000,0.000
1605128710977021952,10.0.1.131,527,move_up,-0.230,-0.230,-0.230,0.000,0.000,0.000
1605128712608502016,10.0.1.131,567,move_up,-0.210,-0.210,-0.210,0.000,0.000,0.000
1605128714184244992,10.0.1.131,530,move_up,-0.190,-0.190,-0.190,0.000,0.000,0.000
1605128715320133888,10.0.1.131,61,place,-0.180,-0.180,-0.180,0.000,0.000,0.000
1605128716328691968,10.0.1.131,62,place,-0.170,-0.170,-0.170,0.000,0.000,0.000
1605128717307874048,10.0.1.131,35,place,-0.160,-0.160,-0.160,0.000,0.000,0.000
1605128718330418176,10.0.1.131,56,place,-0.150,-0.150,-0.150,0.000,0.000,0.000
1605128719323085056,10.0.1.131,47,place,-0.140,-0.140,-0.140,0.000,0.000,0.000
1605128721322979840,10.0.1.131,36,place,-0.120,-0.120,-0.120,0.000,0.000,0.000
1605128723346785024,10.0.1.131,51,place,-0.100,-0.100,-0.100,0.000,0.000,0.000
1605128724343777024,10.0.1.131,47,place,-0.090,-0.090,-0.090,0.000,0.000,0.000
1605128726345860864,10.0.1.131,46,place,-0.070,-0.070,-0.070,0.000,0.000,0.000
1605128727356240896,10.0.1.131,56,place,-0.060,-0.060,-0.060,0.000,0.000,0.000
1605128728348422912,10.0.1.131,48,place,-0.050,-0.050,-0.050,0.000,0.000,0.000
1605128729363138816,10.0.1.131,59,place,-0.040,-0.040,-0.040,0.000,0.000,0.000
1605128730349442048,10.0.1.131,42,place,-0.030,-0.030,-0.030,0.000,0.000,0.000
1605128731347436800,10.0.1.131,37,place,-0.020,-0.020,-0.020,0.000,0.000,0.000
1605128732344017152,10.0.1.131,32,place,-0.010,-0.010,-0.010,0.000,0.000,0.000
1605128734769969920,10.0.1.131,454,move_down,-0.020,-0.020,-0.020,0.000,0.000,0.000
1605128736349912832,10.0.1.131,498,move_down,-0.040,-0.040,-0.040,0.000,0.000,0.000
1605128737856858112,10.0.1.131,439,move_down,-0.060,-0.060,-0.060,0.000,0.000,0.000
1605128739517140992,10.0.1.131,560,move_down,-0.080,-0.080,-0.080,0.000,0.000,0.000
1605128741086228992,10.0.1.131,483,move_down,-0.100,-0.100,-0.100,0.000,0.000,0.000
1605128742652303872,10.0.1.131,466,move_down,-0.120,-0.120,-0.120,0.000,0.000,0.000
1605128744229996800,10.0.1.131,502,move_down,-0.140,-0.140,-0.140,0.000,0.000,0.000
1605128745843276032,10.0.1.131,525,move_down,-0.160,-0.160,-0.160,0.000,0.000,0.000
1605128747344862976,10.0.1.131,435,move_down,-0.180,-0.180,-0.180,0.000,0.000,0.000
1605128748859291904,10.0.1.131,422,move_down,-0.200,-0.200,-0.200,0.000,0.000,0.000
1605128750434950144,10.0.1.131,404,move_down,-0.220,-0.220,-0.220,0.000,0.000,0.000
1605128752051206144,10.0.1.131,494,move_down,-0.240,-0.240,-0.240,0.000,0.000,0.000
1605128753705847040,10.0.1.131,572,move_down,-0.260,-0.260,-0.260,0.000,0.000,0.000
1605128755306080000,10.0.1.131,549,move_down,-0.280,-0.280,-0.280,0.000,0.000,0.000
1605128756966060032,10.0.1.131,517,move_down,-0.300,-0.300,-0.300,0.000,0.000,0.000
1605128758511926784,10.0.1.131,459,move_down,-0.320,-0.320,-0.320,0.000,0.000,0.000
1605128760092112896,10.0.1.131,451,move_down,-0.340,-0.340,-0.340,0.000,0.000,0.000
1605128761688638976,10.0.1.131,495,move_down,-0.360,-0.360,-0.360,0.000,0.000,0.000
1605128763207632128,10.0.1.131,452,move_down,-0.380,-0.380,-0.380,0.000,0.000,0.000
1605128764720339968,10.0.1.131,450,move_down,-0.400,-0.400,-0.400,0.000,0.000,0.000
1605128766269885952,10.0.1.131,499,move_down,-0.420,-0.420,-0.420,0.000,0.000,0.000
1605128767835777024,10.0.1.131,475,move_down,-0.440,-0.440,-0.440,0.000,0.000,0.000
1605128769364752896,10.0.1.131,484,move_down,-0.460,-0.460,-0.460,0.000,0.000,0.000
1605128770904407040,10.0.1.131,470,move_down,-0.480,-0.480,-0.480,0.000,0.000,0.000
1605128772391598848,10.0.1.131,437,move_down,-0.500,-0.500,-0.500,0.000,0.000,0.000
1605128773925132032,10.0.1.131,455,move_down,-0.520,-0.520,-0.520,0.000,0.000,0.000
1605128775504110080,10.0.1.131,485,move_down,-0.540,-0.540,-0.540,0.000,0.000,0.000
1605128777183784960,10.0.1.131,550,move_down,-0.560,-0.560,-0.560,0.000,0.000,0.000
1605128778732027904,10.0.1.131,490,move_down,-0.580,-0.580,-0.580,0.000,0.000,0.000
1605128780832516864,10.0.1.131,38,pick,-0.600,-0.600,-0.600,0.000,0.000,0.000
1605128781844014848,10.0.1.131,46,pick,-0.610,-0.610,-0.610,0.000,0.000,0.000
1605128782832392960,10.0.1.131,33,pick,-0.620,-0.620,-0.620,0.000,0.000,0.000
1605128783832374016,10.0.1.131,32,pick,-0.630,-0.630,-0.630,0.000,0.000,0.000
1605128784832685056,10.0.1.131,31,pick,-0.640,-0.640,-0.640,0.000,0.000,0.000
1605128785857678848,10.0.1.131,55,pick,-0.650,-0.650,-0.650,0.000,0.000,0.000
1605128787860836864,10.0.1.131,53,pick,-0.670,-0.670,-0.670,0.000,0.000,0.000
1605128788861089024,10.0.1.131,52,pick,-0.680,-0.680,-0.680,0.000,0.000,0.000
1605128789863923968,10.0.1.131,53,pick,-0.690,-0.690,-0.690,0.000,0.000,0.000
1605128790858153984,10.0.1.131,44,pick,-0.700,-0.700,-0.700,0.000,0.000,0.000
1605128791876368128,10.0.1.131,55,pick,-0.710,-0.710,-0.710,0.000,0.000,0.000
1605128792858753792,10.0.1.131,43,pick,-0.720,-0.720,-0.720,0.000,0.000,0.000
1605128793876756992,10.0.1.131,50,pick,-0.730,-0.730,-0.730,0.000,0.000,0.000
1605128794885835776,10.0.1.131,58,pick,-0.740,-0.740,-0.740,0.000,0.000,0.000
1605128795874291968,10.0.1.131,45,pick,-0.750,-0.750,-0.750,0.000,0.000,0.000
1605128796878544128,10.0.1.131,48,pick,-0.760,-0.760,-0.760,0.000,0.000,0.000
1605128797879749888,10.0.1.131,48,pick,-0.770,-0.770,-0.770,0.000,0.000,0.000
1605128799319056896,10.0.1.131,485,move_up,-0.750,-0.750,-0.750,0.000,0.000,0.000
1605128800932413952,10.0.1.131,492,move_up,-0.730,-0.730,-0.730,0.000,0.000,0.000
1605128802502398976,10.0.1.131,500,move_up,-0.710,-0.710,-0.710,0.000,0.000,0.000
1605128803969497856,10.0.1.131,396,move_up,-0.690,-0.690,-0.690,0.000,0.000,0.000
1605128805542705152,10.0.1.131,465,move_up,-0.670,-0.670,-0.670,0.000,0.000,0.000
1605128807103379968,10.0.1.131,449,move_up,-0.650,-0.650,-0.650,0.000,0.000,0.000
1605128808765640960,10.0.1.131,548,move_up,-0.630,-0.630,-0.630,0.000,0.000,0.000
1605128810493158144,10.0.1.131,679,move_up,-0.610,-0.610,-0.610,0.000,0.000,0.000
1605128812067002112,10.0.1.131,438,move_up,-0.590,-0.590,-0.590,0.000,0.000,0.000
1605128813672854016,10.0.1.131,519,move_up,-0.570,-0.570,-0.570,0.000,0.000,0.000
1605128815251156992,10.0.1.131,501,move_up,-0.550,-0.550,-0.550,0.000,0.000,0.000
1605128816880950016,10.0.1.131,437,move_up,-0.530,-0.530,-0.530,0.000,0.000,0.000
1605128818358070016,10.0.1.131,430,move_up,-0.510,-0.510,-0.510,0.000,0.000,0.000
1605128819824325120,10.0.1.131,388,move_up,-0.490,-0.490,-0.490,0.000,0.000,0.000
1605128821484165888,10.0.1.131,551,move_up,-0.470,-0.470,-0.470,0.000,0.000,0.000
1605128823059240960,10.0.1.131,489,move_up,-0.450,-0.450,-0.450,0.000,0.000,0.000
1605128824613692928,10.0.1.131,500,move_up,-0.430,-0.430,-0.430,0.000,0.000,0.000
1605128826154056960,10.0.1.131,445,move_up,-0.410,-0.410,-0.410,0.000,0.000,0.000
1605128827629078016,10.0.1.131,420,move_up,-0.390,-0.390,-0.390,0.000,0.000,0.000
1605128829170939904,10.0.1.131,444,move_up,-0.370,-0.370,-0.370,0.000,0.000,0.000
1605128830787568128,10.0.1.131,450,move_up,-0.350,-0.350,-0.350,0.000,0.000,0.000
1605128832274106112,10.0.1.131,442,move_up,-0.330,-0.330,-0.330,0.000,0.000,0.000
1605128833823764992,10.0.1.131,525,move_up,-0.310,-0.310,-0.310,0.000,0.000,0.000
1605128835403020032,10.0.1.131,473,move_up,-0.290,-0.290,-0.290,0.000,0.000,0.000
1605128836958439168,10.0.1.131,466,move_up,-0.270,-0.270,-0.270,0.000,0.000,0.000
1605128838540321024,10.0.1.131,495,move_up,-0.250,-0.250,-0.250,0.000,0.000,0.000
1605128840182043904,10.0.1.131,546,move_up,-0.230,-0.230,-0.230,0.000,0.000,0.000
1605128841874437120,10.0.1.131,598,move_up,-0.210,-0.210,-0.210,0.000,0.000,0.000
1605128843375267072,10.0.1.131,448,move_up,-0.190,-0.190,-0.190,0.000,0.000,0.000
1605128844507165952,10.0.1.131,49,place,-0.180,-0.180,-0.180,0.000,0.000,0.000
1605128845525607936,10.0.1.131,62,place,-0.170,-0.170,-0.170,0.000,0.000,0.000
1605128846504483840,10.0.1.131,40,place,-0.160,-0.160,-0.160,0.000,0.000,0.000
1605128847513353216,10.0.1.131,47,place,-0.150,-0.150,-0.150,0.000,0.000,0.000
1605128848505032960,10.0.1.131,38,place,-0.140,-0.140,-0.140,0.000,0.000,0.000
1605128849508829952,10.0.1.131,37,place,-0.130,-0.130,-0.130,0.000,0.000,0.000
1605128850517949952,10.0.1.131,45,place,-0.120,-0.120,-0.120,0.000,0.000,0.000
1605128851535118080,10.0.1.131,61,place,-0.110,-0.110,-0.110,0.000,0.000,0.000
1605128852508625920,10.0.1.131,33,place,-0.100,-0.100,-0.100,0.000,0.000,0.000
1605128853509305856,10.0.1.131,33,place,-0.090,-0.090,-0.090,0.000,0.000,0.000
1605128855526212096,10.0.1.131,48,place,-0.070,-0.070,-0.070,0.000,0.000,0.000
1605128856521927168,10.0.1.131,42,place,-0.060,-0.060,-0.060,0.000,0.000,0.000
1605128857527056896,10.0.1.131,46,place,-0.050,-0.050,-0.050,0.000,0.000,0.000
1605128858539108096,10.0.1.131,52,place,-0.040,-0.040,-0.040,0.000,0.000,0.000
1605128859528545024,10.0.1.131,37,place,-0.030,-0.030,-0.030,0.000,0.000,0.000
1605128860532422144,10.0.1.131,40,place,-0.020,-0.020,-0.020,0.000,0.000,0.000
1605128861545114112,10.0.1.131,51,place,-0.010,-0.010,-0.010,0.000,0.000,0.000
1605128863930241024,10.0.1.131,434,move_down,-0.020,-0.020,-0.020,0.000,0.000,0.000
1605128865438221824,10.0.1.131,432,move_down,-0.040,-0.040,-0.040,0.000,0.000,0.000
1605128866981193984,10.0.1.131,438,move_down,-0.060,-0.060,-0.060,0.000,0.000,0.000
1605128868516535040,10.0.1.131,492,move_down,-0.080,-0.080,-0.080,0.000,0.000,0.000
1605128869994656000,10.0.1.131,444,move_down,-0.100,-0.100,-0.100,0.000,0.000,0.000
1605128871445662976,10.0.1.131,466,move_down,-0.120,-0.120,-0.120,0.000,0.000,0.000
1605128872967027968,10.0.1.131,467,move_down,-0.140,-0.140,-0.140,0.000,0.000,0.000
1605128874522396160,10.0.1.131,473,move_down,-0.160,-0.160,-0.160,0.000,0.000,0.000
1605128876048067072,10.0.1.131,462,move_down,-0.180,-0.180,-0.180,0.000,0.000,0.000
1605128877549815040,10.0.1.131,424,move_down,-0.200,-0.200,-0.200,0.000,0.000,0.000
1605128879135904000,10.0.1.131,511,move_down,-0.220,-0.220,-0.220,0.000,0.000,0.000
1605128880737587968,10.0.1.131,413,move_down,-0.240,-0.240,-0.240,0.000,0.000,0.000
1605128882335339008,10.0.1.131,508,move_down,-0.260,-0.260,-0.260,0.000,0.000,0.000
1605128883812954880,10.0.1.131,434,move_down,-0.280,-0.280,-0.280,0.000,0.000,0.000
1605128885409942016,10.0.1.131,522,move_down,-0.300,-0.300,-0.300,0.000,0.000,0.000
1605128886938957056,10.0.1.131,510,move_down,-0.320,-0.320,-0.320,0.000,0.000,0.000
1605128888406590976,10.0.1.131,394,move_down,-0.340,-0.340,-0.340,0.000,0.000,0.000
1605128890017991168,10.0.1.131,484,move_down,-0.360,-0.360,-0.360,0.000,0.000,0.000
1605128891697139968,10.0.1.131,628,move_down,-0.380,-0.380,-0.380,0.000,0.000,0.000
1605128893242258176,10.0.1.131,412,move_down,-0.400,-0.400,-0.400,0.000,0.000,0.000
1605128894781337088,10.0.1.131,471,move_down,-0.420,-0.420,-0.420,0.000,0.000,0.000
1605128896285750016,10.0.1.131,438,move_down,-0.440,-0.440,-0.440,0.000,0.000,0.000
1605128897857719040,10.0.1.131,507,move_down,-0.460,-0.460,-0.460,0.000,0.000,0.000
1605128899375757824,10.0.1.131,420,move_down,-0.480,-0.480,-0.480,0.000,0.000,0.000
1605128901052012032,10.0.1.131,644,move_down,-0.500,-0.500,-0.500,0.000,0.000,0.000
1605128902623752192,10.0.1.131,483,move_down,-0.520,-0.520,-0.520,0.000,0.000,0.000
1605128904148160000,10.0.1.131,435,move_down,-0.540,-0.540,-0.540,0.000,0.000,0.000
1605128905873392128,10.0.1.131,648,move_down,-0.560,-0.560,-0.560,0.000,0.000,0.000
1605128907403224832,10.0.1.131,451,move_down,-0.580,-0.580,-0.580,0.000,0.000,0.000
1605128909502167040,10.0.1.131,46,pick,-0.600,-0.600,-0.600,0.000,0.000,0.000
1605128910508816128,10.0.1.131,51,pick,-0.610,-0.610,-0.610,0.000,0.000,0.000
1605128911508802816,10.0.1.131,50,pick,-0.620,-0.620,-0.620,0.000,0.000,0.000
1605128912510707968,10.0.1.131,51,pick,-0.630,-0.630,-0.630,0.000,0.000,0.000
1605128913509187840,10.0.1.131,41,pick,-0.640,-0.640,-0.640,0.000,0.000,0.000
1605128914509167872,10.0.1.131,40,pick,-0.650,-0.650,-0.650,0.000,0.000,0.000
1605128915515542016,10.0.1.131,45,pick,-0.660,-0.660,-0.660,0.000,0.000,0.000
1605128916509531136,10.0.1.131,37,pick,-0.670,-0.670,-0.670,0.000,0.000,0.000
1605128917516613120,10.0.1.131,42,pick,-0.680,-0.680,-0.680,0.000,0.000,0.000
1605128918519112960,10.0.1.131,43,pick,-0.690,-0.690,-0.690,0.000,0.000,0.000
1605128920535895040,10.0.1.131,57,pick,-0.710,-0.710,-0.710,0.000,0.000,0.000
1605128921541771008,10.0.1.131,59,pick,-0.720,-0.720,-0.720,0.000,0.000,0.000
1605128922556293120,10.0.1.131,67,pick,-0.730,-0.730,-0.730,0.000,0.000,0.000
1605128924545836032,10.0.1.131,50,pick,-0.750,-0.750,-0.750,0.000,0.000,0.000
1605128925526725120,10.0.1.131,29,pick,-0.760,-0.760,-0.760,0.000,0.000,0.000
1605128926547875840,10.0.1.131,49,pick,-0.770,-0.770,-0.770,0.000,0.000,0.000
1605128927944488960,10.0.1.131,444,move_up,-0.750,-0.750,-0.750,0.000,0.000,0.000
1605128929456898048,10.0.1.131,453,move_up,-0.730,-0.730,-0.730,0.000,0.000,0.000
1605128931108645888,10.0.1.131,516,move_up,-0.710,-0.710,-0.710,0.000,0.000,0.000
1605128932707365888,10.0.1.131,477,move_up,-0.690,-0.690,-0.690,0.000,0.000,0.000
1605128934261515008,10.0.1.131,498,move_up,-0.670,-0.670,-0.670,0.000,0.000,0.000
1605128935853507072,10.0.1.131,475,move_up,-0.650,-0.650,-0.650,0.000,0.000,0.000
1605128937489819136,10.0.1.131,518,move_up,-0.630,-0.630,-0.630,0.000,0.000,0.000
1605128939016712960,10.0.1.131,457,move_up,-0.610,-0.610,-0.610,0.000,0.000,0.000
1605128940648596992,10.0.1.131,527,move_up,-0.590,-0.590,-0.590,0.000,0.000,0.000
1605128942205916928,10.0.1.131,463,move_up,-0.570,-0.570,-0.570,0.000,0.000,0.000
1605128943888761088,10.0.1.131,495,move_up,-0.550,-0.550,-0.550,0.000,0.000,0.000
1605128945427473920,10.0.1.131,495,move_up,-0.530,-0.530,-0.530,0.000,0.000,0.000
1605128947063100928,10.0.1.131,520,move_up,-0.510,-0.510,-0.510,0.000,0.000,0.000
1605128948597026048,10.0.1.131,492,move_up,-0.490,-0.490,-0.490,0.000,0.000,0.000
1605128950198020864,10.0.1.131,542,move_up,-0.470,-0.470,-0.470,0.000,0.000,0.000
1605128951644188928,10.0.1.131,404,move_up,-0.450,-0.450,-0.450,0.000,0.000,0.000
1605128953196749824,10.0.1.131,471,move_up,-0.430,-0.430,-0.430,0.000,0.000,0.000
1605128954824972032,10.0.1.131,537,move_up,-0.410,-0.410,-0.410,0.000,0.000,0.000
1605128956464665856,10.0.1.131,570,move_up,-0.390,-0.390,-0.390,0.000,0.000,0.000
1605128957940098048,10.0.1.131,428,move_up,-0.370,-0.370,-0.370,0.000,0.000,0.000
1605128959516123136,10.0.1.131,409,move_up,-0.350,-0.350,-0.350,0.000,0.000,0.000
1605128961046886912,10.0.1.131,419,move_up,-0.330,-0.330,-0.330,0.000,0.000,0.000
1605128962554330112,10.0.1.131,468,move_up,-0.310,-0.310,-0.310,0.000,0.000,0.000
1605128964095721984,10.0.1.131,453,move_up,-0.290,-0.290,-0.290,0.000,0.000,0.000
1605128965606374144,10.0.1.131,397,move_up,-0.270,-0.270,-0.270,0.000,0.000,0.000
1605128967218158080,10.0.1.131,548,move_up,-0.250,-0.250,-0.250,0.000,0.000,0.000
1605128968760098816,10.0.1.131,464,move_up,-0.230,-0.230,-0.230,0.000,0.000,0.000
1605128970218342144,10.0.1.131,410,move_up,-0.210,-0.210,-0.210,0.000,0.000,0.000
1605128971743726080,10.0.1.131,437,move_up,-0.190,-0.190,-0.190,0.000,0.000,0.000
1605128972886366976,10.0.1.131,54,place,-0.180,-0.180,-0.180,0.000,0.000,0.000
1605128973858710016,10.0.1.131,25,place,-0.170,-0.170,-0.170,0.000,0.000,0.000
1605128974873129984,10.0.1.131,38,place,-0.160,-0.160,-0.160,0.000,0.000,0.000
1605128976879990016,10.0.1.131,42,place,-0.140,-0.140,-0.140,0.000,0.000,0.000
1605128977898153984,10.0.1.131,59,place,-0.130,-0.130,-0.130,0.000,0.000,0.000
1605128978895134976,10.0.1.131,55,place,-0.120,-0.120,-0.120,0.000,0.000,0.000
1605128979922196992,10.0.1.131,81,place,-0.110,-0.110,-0.110,0.000,0.000,0.000
1605128980904798976,10.0.1.131,61,place,-0.100,-0.100,-0.100,0.000,0.000,0.000
1605128982894970880,10.0.1.131,49,place,-0.080,-0.080,-0.080,0.000,0.000,0.000
1605128983883965952,10.0.1.131,37,place,-0.070,-0.070,-0.070,0.000,0.000,0.000
1605128984897186048,10.0.1.131,49,place,-0.060,-0.060,-0.060,0.000,0.000,0.000
1605128985902918144,10.0.1.131,51,place,-0.050,-0.050,-0.050,0.000,0.000,0.000
1605128986912160000,10.0.1.131,60,place,-0.040,-0.040,-0.040,0.000,0.000,0.000
1605128987919286016,10.0.1.131,66,place,-0.030,-0.030,-0.030,0.000,0.000,0.000
1605128988906275072,10.0.1.131,48,place,-0.020,-0.020,-0.020,0.000,0.000,0.000
1605128989917699072,10.0.1.131,53,place,-0.010,-0.010,-0.010,0.000,0.000,0.000
1605128990898840064,10.0.1.131,33,place,0.000,0.000,0.000,0.000,0.000,0.000
1605128992352808960,10.0.1.131,485,move_down,-0.020,-0.020,-0.020,0.000,0.000,0.000
1605128993931006976,10.0.1.131,465,move_down,-0.040,-0.040,-0.040,0.000,0.000,0.000
1605128995467662080,10.0.1.131,460,move_down,-0.060,-0.060,-0.060,0.000,0.000,0.000
1605128997131928832,10.0.1.131,508,move_down,-0.080,-0.080,-0.080,0.000,0.000,0.000
1605128998763795968,10.0.1.131,503,move_down,-0.100,-0.100,-0.100,0.000,0.000,0.000
1605129000438947840,10.0.1.131,604,move_down,-0.120,-0.120,-0.120,0.000,0.000,0.000
1605129002071894016,10.0.1.131,530,move_down,-0.140,-0.140,-0.140,0.000,0.000,0.000
1605129003639885824,10.0.1.131,477,move_down,-0.160,-0.160,-0.160,0.000,0.000,0.000
1605129005238897920,10.0.1.131,511,move_down,-0.180,-0.180,-0.180,0.000,0.000,0.000
1605129006828643072,10.0.1.131,437,move_down,-0.200,-0.200,-0.200,0.000,0.000,0.000
1605129008482637056,10.0.1.131,504,move_down,-0.220,-0.220,-0.220,0.000,0.000,0.000
1605129010042028032,10.0.1.131,478,move_down,-0.240,-0.240,-0.240,0.000,0.000,0.000
1605129011647784960,10.0.1.131,546,move_down,-0.260,-0.260,-0.260,0.000,0.000,0.000
1605129013269921024,10.0.1.131,558,move_down,-0.280,-0.280,-0.280,0.000,0.000,0.000
1605129014803769088,10.0.1.131,425,move_down,-0.300,-0.300,-0.300,0.000,0.000,0.000
1605129016362834944,10.0.1.131,451,move_down,-0.320,-0.320,-0.320,0.000,0.000,0.000
1605129017983022080,10.0.1.131,535,move_down,-0.340,-0.340,-0.340,0.000,0.000,0.000
1605129019472281088,10.0.1.131,466,move_down,-0.360,-0.360,-0.360,0.000,0.000,0.000
1605129021085985792,10.0.1.131,559,move_down,-0.380,-0.380,-0.380,0.000,0.000,0.000
1605129022590874880,10.0.1.131,443,move_down,-0.400,-0.400,-0.400,0.000,0.000,0.000
1605129024225349888,10.0.1.131,538,move_down,-0.420,-0.420,-0.420,0.000,0.000,0.000
1605129025767677184,10.0.1.131,421,move_down,-0.440,-0.440,-0.440,0.000,0.000,0.000
1605129027277518080,10.0.1.131,420,move_down,-0.460,-0.460,-0.460,0.000,0.000,0.000
1605129028853577984,10.0.1.131,464,move_down,-0.480,-0.480,-0.480,0.000,0.000,0.000
1605129030433522944,10.0.1.131,491,move_down,-0.500,-0.500,-0.500,0.000,0.000,0.000
1605129031960047104,10.0.1.131,521,move_down,-0.520,-0.520,-0.520,0.000,0.000,0.000
1605129033521701120,10.0.1.131,502,move_down,-0.540,-0.540,-0.540,0.000,0.000,0.000
1605129035024422912,10.0.1.131,440,move_down,-0.560,-0.560,-0.560,0.000,0.000,0.000
1605129036665990144,10.0.1.131,475,move_down,-0.580,-0.580,-0.580,0.000,0.000,0.000
1605129037773881856,10.0.1.131,51,pick,-0.590,-0.590,-0.590,0.000,0.000,0.000
1605129038757406976,10.0.1.131,32,pick,-0.600,-0.600,-0.600,0.000,0.000,0.000
1605129039771613952,10.0.1.131,44,pick,-0.610,-0.610,-0.610,0.000,0.000,0.000
1605129040772988928,10.0.1.131,41,pick,-0.620,-0.620,-0.620,0.000,0.000,0.000
1605129042824747008,10.0.1.131,89,pick,-0.640,-0.640,-0.640,0.000,0.000,0.000
1605129043780877056,10.0.1.131,45,pick,-0.650,-0.650,-0.650,0.000,0.000,0.000
1605129045772908800,10.0.1.131,34,pick,-0.670,-0.670,-0.670,0.000,0.000,0.000
1605129046810134016,10.0.1.131,70,pick,-0.680,-0.680,-0.680,0.000,0.000,0.000
1605129047783716864,10.0.1.131,40,pick,-0.690,-0.690,-0.690,0.000,0.000,0.000
1605129048799166976,10.0.1.131,54,pick,-0.700,-0.700,-0.700,0.000,0.000,0.000
1605129049796747008,10.0.1.131,44,pick,-0.710,-0.710,-0.710,0.000,0.000,0.000
1605129050799955968,10.0.1.131,40,pick,-0.720,-0.720,-0.720,0.000,0.000,0.000
1605129052818573056,10.0.1.131,57,pick,-0.740,-0.740,-0.740,0.000,0.000,0.000
1605129053793009920,10.0.1.131,30,pick,-0.750,-0.750,-0.750,0.000,0.000,0.000
1605129054827756800,10.0.1.131,57,pick,-0.760,-0.760,-0.760,0.000,0.000,0.000
1605129055836054016,10.0.1.131,55,pick,-0.770,-0.770,-0.770,0.000,0.000,0.000
1605129057254226944,10.0.1.131,466,move_up,-0.750,-0.750,-0.750,0.000,0.000,0.000
1605129058910759936,10.0.1.131,454,move_up,-0.730,-0.730,-0.730,0.000,0.000,0.000
1605129060417622016,10.0.1.131,450,move_up,-0.710,-0.710,-0.710,0.000,0.000,0.000
1605129061969337856,10.0.1.131,401,move_up,-0.690,-0.690,-0.690,0.000,0.000,0.000
1605129063605321984,10.0.1.131,452,move_up,-0.670,-0.670,-0.670,0.000,0.000,0.000
1605129065104471808,10.0.1.131,406,move_up,-0.650,-0.650,-0.650,0.000,0.000,0.000
1605129066637342976,10.0.1.131,407,move_up,-0.630,-0.630,-0.630,0.000,0.000,0.000
1605129068147625984,10.0.1.131,502,move_up,-0.610,-0.610,-0.610,0.000,0.000,0.000
1605129069658780160,10.0.1.131,436,move_up,-0.590,-0.590,-0.590,0.000,0.000,0.000
1605129071300205824,10.0.1.131,557,move_up,-0.570,-0.570,-0.570,0.000,0.000,0.000
1605129072898327040,10.0.1.131,511,move_up,-0.550,-0.550,-0.550,0.000,0.000,0.000
1605129074499325952,10.0.1.131,524,move_up,-0.530,-0.530,-0.530,0.000,0.000,0.000
1605129076106318080,10.0.1.131,526,move_up,-0.510,-0.510,-0.510,0.000,0.000,0.000
1605129077628933888,10.0.1.131,521,move_up,-0.490,-0.490,-0.490,0.000,0.000,0.000
1605129079225598976,10.0.1.131,545,move_up,-0.470,-0.470,-0.470,0.000,0.000,0.000
1605129080904239872,10.0.1.131,502,move_up,-0.450,-0.450,-0.450,0.000,0.000,0.000
1605129082437690112,10.0.1.131,472,move_up,-0.430,-0.430,-0.430,0.000,0.000,0.000
1605129083991309824,10.0.1.131,474,move_up,-0.410,-0.410,-0.410,0.000,0.000,0.000
1605129085528814080,10.0.1.131,425,move_up,-0.390,-0.390,-0.390,0.000,0.000,0.000
1605129087051148800,10.0.1.131,456,move_up,-0.370,-0.370,-0.370,0.000,0.000,0.000
1605129088562825984,10.0.1.131,412,move_up,-0.350,-0.350,-0.350,0.000,0.000,0.000
1605129090156642816,10.0.1.131,474,move_up,-0.330,-0.330,-0.330,0.000,0.000,0.000
1605129091721004032,10.0.1.131,462,move_up,-0.310,-0.310,-0.310,0.000,0.000,0.000
1605129093328530176,10.0.1.131,493,move_up,-0.290,-0.290,-0.290,0.000,0.000,0.000
1605129094870135040,10.0.1.131,486,move_up,-0.270,-0.270,-0.270,0.000,0.000,0.000
1605129096349335040,10.0.1.131,380,move_up,-0.250,-0.250,-0.250,0.000,0.000,0.000
1605129097857351936,10.0.1.131,444,move_up,-0.230,-0.230,-0.230,0.000,0.000,0.000
1605129099444574976,10.0.1.131,509,move_up,-0.210,-0.210,-0.210,0.000,0.000,0.000
1605129100960144896,10.0.1.131,495,move_up,-0.190,-0.190,-0.190,0.000,0.000,0.000
1605129102102343936,10.0.1.131,50,place,-0.180,-0.180,-0.180,0.000,0.000,0.000
1605129104097202944,10.0.1.131,41,place,-0.160,-0.160,-0.160,0.000,0.000,0.000
1605129107120701184,10.0.1.131,52,place,-0.130,-0.130,-0.130,0.000,0.000,0.000
1605129108120222976,10.0.1.131,50,place,-0.120,-0.120,-0.120,0.000,0.000,0.000
1605129109120189952,10.0.1.131,49,place,-0.110,-0.110,-0.110,0.000,0.000,0.000
1605129110117170176,10.0.1.131,45,place,-0.100,-0.100,-0.100,0.000,0.000,0.000
1605129111122582016,10.0.1.131,50,place,-0.090,-0.090,-0.090,0.000,0.000,0.000
1605129112117085952,10.0.1.131,43,place,-0.080,-0.080,-0.080,0.000,0.000,0.000
1605129113131865856,10.0.1.131,56,place,-0.070,-0.070,-0.070,0.000,0.000,0.000
1605129114116744960,10.0.1.131,34,place,-0.060,-0.060,-0.060,0.000,0.000,0.000
1605129115169754880,10.0.1.131,80,place,-0.050,-0.050,-0.050,0.000,0.000,0.000
1605129117138583808,10.0.1.131,44,place,-0.030,-0.030,-0.030,0.000,0.000,0.000
1605129118161911040,10.0.1.131,56,place,-0.020,-0.020,-0.020,0.000,0.000,0.000
1605129119169138944,10.0.1.131,60,place,-0.010,-0.010,-0.010,0.000,0.000,0.000
1605129120160073984,10.0.1.131,44,place,0.000,0.000,0.000,0.000,0.000,0.000
1605129121525975040,10.0.1.131,408,move_down,-0.020,-0.020,-0.020,0.000,0.000,0.000
1605129123079001856,10.0.1.131,515,move_down,-0.040,-0.040,-0.040,0.000,0.000,0.000
1605129124843089152,10.0.1.131,612,move_down,-0.060,-0.060,-0.060,0.000,0.000,0.000
1605129126373410048,10.0.1.131,469,move_down,-0.080,-0.080,-0.080,0.000,0.000,0.000
1605129127962991872,10.0.1.131,452,move_down,-0.100,-0.100,-0.100,0.000,0.000,0.000
1605129129505069056,10.0.1.131,456,move_down,-0.120,-0.120,-0.120,0.000,0.000,0.000
1605129131068301056,10.0.1.131,468,move_down,-0.140,-0.140,-0.140,0.000,0.000,0.000
1605129132665406976,10.0.1.131,523,move_down,-0.160,-0.160,-0.160,0.000,0.000,0.000
1605129134211031808,10.0.1.131,454,move_down,-0.180,-0.180,-0.180,0.000,0.000,0.000
1605129135724384000,10.0.1.131,433,move_down,-0.200,-0.200,-0.200,0.000,0.000,0.000
1605129137314073088,10.0.1.131,480,move_down,-0.220,-0.220,-0.220,0.000,0.000,0.000
1605129138897953024,10.0.1.131,507,move_down,-0.240,-0.240,-0.240,0.000,0.000,0.000
1605129140483367936,10.0.1.131,469,move_down,-0.260,-0.260,-0.260,0.000,0.000,0.000
1605129142017959168,10.0.1.131,444,move_down,-0.280,-0.280,-0.280,0.000,0.000,0.000
1605129143598112000,10.0.1.131,406,move_down,-0.300,-0.300,-0.300,0.000,0.000,0.000
1605129145189935872,10.0.1.131,466,move_down,-0.320,-0.320,-0.320,0.000,0.000,0.000
1605129146773273088,10.0.1.131,500,move_down,-0.340,-0.340,-0.340,0.000,0.000,0.000
1605129148363683840,10.0.1.131,556,move_down,-0.360,-0.360,-0.360,0.000,0.000,0.000
1605129149919610112,10.0.1.131,498,move_down,-0.380,-0.380,-0.380,0.000,0.000,0.000
1605129151504965120,10.0.1.131,507,move_down,-0.400,-0.400,-0.400,0.000,0.000,0.000
1605129153060950016,10.0.1.131,473,move_down,-0.420,-0.420,-0.420,0.000,0.000,0.000
1605129154550905856,10.0.1.131,394,move_down,-0.440,-0.440,-0.440,0.000,0.000,0.000
1605129156132453888,10.0.1.131,560,move_down,-0.460,-0.460,-0.460,0.000,0.000,0.000
1605129157639785984,10.0.1.131,445,move_down,-0.480,-0.480,-0.480,0.000,0.000,0.000
1605129159192647936,10.0.1.131,543,move_down,-0.500,-0.500,-0.500,0.000,0.000,0.000
1605129160797164032,10.0.1.131,511,move_down,-0.520,-0.520,-0.520,0.000,0.000,0.000
1605129162302573056,10.0.1.131,415,move_down,-0.540,-0.540,-0.540,0.000,0.000,0.000
1605129163896905984,10.0.1.131,516,move_down,-0.560,-0.560,-0.560,0.000,0.000,0.000
1605129165701075200,10.0.1.131,645,move_down,-0.580,-0.580,-0.580,0.000,0.000,0.000
1605129166841878784,10.0.1.131,57,pick,-0.590,-0.590,-0.590,0.000,0.000,0.000
1605129167870897920,10.0.1.131,85,pick,-0.600,-0.600,-0.600,0.000,0.000,0.000
1605129168824007936,10.0.1.131,36,pick,-0.610,-0.610,-0.610,0.000,0.000,0.000
1605129169825912064,10.0.1.131,34,pick,-0.620,-0.620,-0.620,0.000,0.000,0.000
1605129170872220160,10.0.1.131,79,pick,-0.630,-0.630,-0.630,0.000,0.000,0.000
1605129172834450944,10.0.1.131,35,pick,-0.650,-0.650,-0.650,0.000,0.000,0.000
1605129173848464128,10.0.1.131,47,pick,-0.660,-0.660,-0.660,0.000,0.000,0.000
1605129174839968000,10.0.1.131,37,pick,-0.670,-0.670,-0.670,0.000,0.000,0.000
1605129175872230912,10.0.1.131,68,pick,-0.680,-0.680,-0.680,0.000,0.000,0.000
1605129176875734016,10.0.1.131,72,pick,-0.690,-0.690,-0.690,0.000,0.000,0.000
1605129177856539904,10.0.1.131,51,pick,-0.700,-0.700,-0.700,0.000,0.000,0.000
1605129178863941888,10.0.1.131,57,pick,-0.710,-0.710,-0.710,0.000,0.000,0.000
1605129179857893888,10.0.1.131,51,pick,-0.720,-0.720,-0.720,0.000,0.000,0.000
1605129180862417920,10.0.1.131,52,pick,-0.730,-0.730,-0.730,0.000,0.000,0.000
1605129181854028032,10.0.1.131,43,pick,-0.740,-0.740,-0.740,0.000,0.000,0.000
1605129182856219136,10.0.1.131,42,pick,-0.750,-0.750,-0.750,0.000,0.000,0.000
1605129183863548928,10.0.1.131,48,pick,-0.760,-0.760,-0.760,0.000,0.000,0.000
1605129184860270080,10.0.1.131,41,pick,-0.770,-0.770,-0.770,0.000,0.000,0.000
1605129186245515008,10.0.1.131,424,move_up,-0.750,-0.750,-0.750,0.000,0.000,0.000
1605129187828413952,10.0.1.131,481,move_up,-0.730,-0.730,-0.730,0.000,0.000,0.000
1605129189517959168,10.0.1.131,585,move_up,-0.710,-0.710,-0.710,0.000,0.000,0.000
1605129190998151936,10.0.1.131,422,move_up,-0.690,-0.690,-0.690,0.000,0.000,0.000
1605129192609943040,10.0.1.131,534,move_up,-0.670,-0.670,-0.670,0.000,0.000,0.000
1605129194253487104,10.0.1.131,546,move_up,-0.650,-0.650,-0.650,0.000,0.000,0.000
1605129195815574016,10.0.1.131,422,move_up,-0.630,-0.630,-0.630,0.000,0.000,0.000
1605129197329065984,10.0.1.131,500,move_up,-0.610,-0.610,-0.610,0.000,0.000,0.000
1605129198735987968,10.0.1.131,368,move_up,-0.590,-0.590,-0.590,0.000,0.000,0.000
1605129200233707008,10.0.1.131,441,move_up,-0.570,-0.570,-0.570,0.000,0.000,0.000
1605129201854587136,10.0.1.131,429,move_up,-0.550,-0.550,-0.550,0.000,0.000,0.000
1605129203585169920,10.0.1.131,544,move_up,-0.530,-0.530,-0.530,0.000,0.000,0.000
1605129205224456960,10.0.1.131,543,move_up,-0.510,-0.510,-0.510,0.000,0.000,0.000
1605129206738137088,10.0.1.131,383,move_up,-0.490,-0.490,-0.490,0.000,0.000,0.000
1605129208318784000,10.0.1.131,507,move_up,-0.470,-0.470,-0.470,0.000,0.000,0.000
1605129210018307840,10.0.1.131,559,move_up,-0.450,-0.450,-0.450,0.000,0.000,0.000
1605129211701082112,10.0.1.131,514,move_up,-0.430,-0.430,-0.430,0.000,0.000,0.000
1605129213371252992,10.0.1.131,556,move_up,-0.410,-0.410,-0.410,0.000,0.000,0.000
1605129214955308032,10.0.1.131,454,move_up,-0.390,-0.390,-0.390,0.000,0.000,0.000
1605129216521591040,10.0.1.131,483,move_up,-0.370,-0.370,-0.370,0.000,0.000,0.000
1605129218148360960,10.0.1.131,528,move_up,-0.350,-0.350,-0.350,0.000,0.000,0.000
1605129219727720960,10.0.1.131,488,move_up,-0.330,-0.330,-0.330,0.000,0.000,0.000
1605129221246059776,10.0.1.131,497,move_up,-0.310,-0.310,-0.310,0.000,0.000,0.000
1605129222886786048,10.0.1.131,499,move_up,-0.290,-0.290,-0.290,0.000,0.000,0.000
1605129224458849792,10.0.1.131,472,move_up,-0.270,-0.270,-0.270,0.000,0.000,0.000
1605129226047218944,10.0.1.131,455,move_up,-0.250,-0.250,-0.250,0.000,0.000,0.000
1605129227605218816,10.0.1.131,509,move_up,-0.230,-0.230,-0.230,0.000,0.000,0.000
1605129229174503168,10.0.1.131,486,move_up,-0.210,-0.210,-0.210,0.000,0.000,0.000
1605129230704737792,10.0.1.131,486,move_up,-0.190,-0.190,-0.190,0.000,0.000,0.000
1605129231840065024,10.0.1.131,49,place,-0.180,-0.180,-0.180,0.000,0.000,0.000
1605129232832098048,10.0.1.131,40,place,-0.170,-0.170,-0.170,0.000,0.000,0.000
1605129233831388928,10.0.1.131,31,place,-0.160,-0.160,-0.160,0.000,0.000,0.000
1605129234839586048,10.0.1.131,38,place,-0.150,-0.150,-0.150,0.000,0.000,0.000
1605129235835036160,10.0.1.131,32,place,-0.140,-0.140,-0.140,0.000,0.000,0.000
1605129236858129152,10.0.1.131,53,place,-0.130,-0.130,-0.130,0.000,0.000,0.000
1605129237855827968,10.0.1.131,50,place,-0.120,-0.120,-0.120,0.000,0.000,0.000
1605129238855625984,10.0.1.131,49,place,-0.110,-0.110,-0.110,0.000,0.000,0.000
1605129239867170048,10.0.1.131,59,place,-0.100,-0.100,-0.100,0.000,0.000,0.000
1605129240864177920,10.0.1.131,55,place,-0.090,-0.090,-0.090,0.000,0.000,0.000
1605129241879076096,10.0.1.131,63,place,-0.080,-0.080,-0.080,0.000,0.000,0.000
1605129242853188864,10.0.1.131,35,place,-0.070,-0.070,-0.070,0.000,0.000,0.000
1605129243858652160,10.0.1.131,40,place,-0.060,-0.060,-0.060,0.000,0.000,0.000
1605129244856413952,10.0.1.131,36,place,-0.050,-0.050,-0.050,0.000,0.000,0.000
1605129245854115072,10.0.1.131,33,place,-0.040,-0.040,-0.040,0.000,0.000,0.000
1605129246879559936,10.0.1.131,57,place,-0.030,-0.030,-0.030,0.000,0.000,0.000
1605129247868966144,10.0.1.131,45,place,-0.020,-0.020,-0.020,0.000,0.000,0.000
1605129248873240064,10.0.1.131,45,place,-0.010,-0.010,-0.010,0.000,0.000,0.000
1605129249897082112,10.0.1.131,68,place,0.000,0.000,0.000,0.000,0.000,0.000
1605129251306560000,10.0.1.131,476,move_down,-0.020,-0.020,-0.020,0.000,0.000,0.000
1605129252895216896,10.0.1.131,546,move_down,-0.040,-0.040,-0.040,0.000,0.000,0.000
1605129254491027200,10.0.1.131,491,move_down,-0.060,-0.060,-0.060,0.000,0.000,0.000
1605129256159261952,10.0.1.131,528,move_down,-0.080,-0.080,-0.080,0.000,0.000,0.000
1605129257728315136,10.0.1.131,520,move_down,-0.100,-0.100,-0.100,0.000,0.000,0.000
1605129259321006080,10.0.1.131,478,move_down,-0.120,-0.120,-0.120,0.000,0.000,0.000
1605129260940148224,10.0.1.131,520,move_down,-0.140,-0.140,-0.140,0.000,0.000,0.000
1605129262575763968,10.0.1.131,484,move_down,-0.160,-0.160,-0.160,0.000,0.000,0.000
1605129264132126976,10.0.1.131,464,move_down,-0.180,-0.180,-0.180,0.000,0.000,0.000
1605129265685895936,10.0.1.131,480,move_down,-0.200,-0.200,-0.200,0.000,0.000,0.000
1605129267310478848,10.0.1.131,499,move_down,-0.220,-0.220,-0.220,0.000,0.000,0.000
1605129268878211072,10.0.1.131,501,move_down,-0.240,-0.240,-0.240,0.000,0.000,0.000
1605129270444744960,10.0.1.131,430,move_down,-0.260,-0.260,-0.260,0.000,0.000,0.000
1605129271979706112,10.0.1.131,451,move_down,-0.280,-0.280,-0.280,0.000,0.000,0.000
1605129273450509056,10.0.1.131,432,move_down,-0.300,-0.300,-0.300,0.000,0.000,0.000
1605129274929171200,10.0.1.131,390,move_down,-0.320,-0.320,-0.320,0.000,0.000,0.000
1605129276678899968,10.0.1.131,672,move_down,-0.340,-0.340,-0.340,0.000,0.000,0.000
1605129278158736896,10.0.1.131,396,move_down,-0.360,-0.360,-0.360,0.000,0.000,0.000
1605129279719705088,10.0.1.131,506,move_down,-0.380,-0.380,-0.380,0.000,0.000,0.000
1605129281278323968,10.0.1.131,491,move_down,-0.400,-0.400,-0.400,0.000,0.000,0.000
1605129282892998912,10.0.1.131,478,move_down,-0.420,-0.420,-0.420,0.000,0.000,0.000
1605129284455456000,10.0.1.131,482,move_down,-0.440,-0.440,-0.440,0.000,0.000,0.000
1605129286132112128,10.0.1.131,566,move_down,-0.460,-0.460,-0.460,0.000,0.000,0.000
1605129287804508928,10.0.1.131,485,move_down,-0.480,-0.480,-0.480,0.000,0.000,0.000
1605129289523909120,10.0.1.131,605,move_down,-0.500,-0.500,-0.500,0.000,0.000,0.000
1605129291127604992,10.0.1.131,491,move_down,-0.520,-0.520,-0.520,0.000,0.000,0.000
1605129292684051968,10.0.1.131,485,move_down,-0.540,-0.540,-0.540,0.000,0.000,0.000
1605129294442637056,10.0.1.131,552,move_down,-0.560,-0.560,-0.560,0.000,0.000,0.000
1605129295970240000,10.0.1.131,433,move_down,-0.580,-0.580,-0.580,0.000,0.000,0.000
1605129297145648896,10.0.1.131,68,pick,-0.590,-0.590,-0.590,0.000,0.000,0.000
1605129298134390016,10.0.1.131,56,pick,-0.600,-0.600,-0.600,0.000,0.000,0.000
1605129300137614848,10.0.1.131,53,pick,-0.620,-0.620,-0.620,0.000,0.000,0.000
1605129302145127168,10.0.1.131,58,pick,-0.640,-0.640,-0.640,0.000,0.000,0.000
1605129303122838016,10.0.1.131,35,pick,-0.650,-0.650,-0.650,0.000,0.000,0.000
1605129304130006016,10.0.1.131,41,pick,-0.660,-0.660,-0.660,0.000,0.000,0.000
1605129306126054912,10.0.1.131,34,pick,-0.680,-0.680,-0.680,0.000,0.000,0.000
1605129307128135936,10.0.1.131,35,pick,-0.690,-0.690,-0.690,0.000,0.000,0.000
1605129308147353856,10.0.1.131,51,pick,-0.700,-0.700,-0.700,0.000,0.000,0.000
1605129309148514048,10.0.1.131,48,pick,-0.710,-0.710,-0.710,0.000,0.000,0.000
1605129310162497024,10.0.1.131,61,pick,-0.720,-0.720,-0.720,0.000,0.000,0.000
1605129311146081024,10.0.1.131,43,pick,-0.730,-0.730,-0.730,0.000,0.000,0.000
1605129312164252928,10.0.1.131,60,pick,-0.740,-0.740,-0.740,0.000,0.000,0.000
1605129313147870976,10.0.1.131,43,pick,-0.750,-0.750,-0.750,0.000,0.000,0.000
1605129314154617088,10.0.1.131,48,pick,-0.760,-0.760,-0.760,0.000,0.000,0.000
1605129315146476032,10.0.1.131,34,pick,-0.770,-0.770,-0.770,0.000,0.000,0.000
1605129316594695168,10.0.1.131,479,move_up,-0.750,-0.750,-0.750,0.000,0.000,0.000
1605129318224513024,10.0.1.131,558,move_up,-0.730,-0.730,-0.730,0.000,0.000,0.000
1605129319826718976,10.0.1.131,508,move_up,-0.710,-0.710,-0.710,0.000,0.000,0.000
1605129321561953024,10.0.1.131,553,move_up,-0.690,-0.690,-0.690,0.000,0.000,0.000
1605129323240675072,10.0.1.131,566,move_up,-0.670,-0.670,-0.670,0.000,0.000,0.000
1605129324874865920,10.0.1.131,468,move_up,-0.650,-0.650,-0.650,0.000,0.000,0.000
1605129326467619840,10.0.1.131,461,move_up,-0.630,-0.630,-0.630,0.000,0.000,0.000
1605129328023052032,10.0.1.131,468,move_up,-0.610,-0.610,-0.610,0.000,0.000,0.000
1605129329747623936,10.0.1.131,475,move_up,-0.590,-0.590,-0.590,0.000,0.000,0.000
1605129331303878144,10.0.1.131,471,move_up,-0.570,-0.570,-0.570,0.000,0.000,0.000
1605129332786031872,10.0.1.131,427,move_up,-0.550,-0.550,-0.550,0.000,0.000,0.000
1605129334320791040,10.0.1.131,486,move_up,-0.530,-0.530,-0.530,0.000,0.000,0.000
1605129335811616000,10.0.1.131,470,move_up,-0.510,-0.510,-0.510,0.000,0.000,0.000
1605129337383280128,10.0.1.131,530,move_up,-0.490,-0.490,-0.490,0.000,0.000,0.000
1605129338949893120,10.0.1.131,506,move_up,-0.470,-0.470,-0.470,0.000,0.000,0.000
1605129340567064064,10.0.1.131,465,move_up,-0.450,-0.450,-0.450,0.000,0.000,0.000
1605129342095246080,10.0.1.131,458,move_up,-0.430,-0.430,-0.430,0.000,0.000,0.000
1605129343587461120,10.0.1.131,439,move_up,-0.410,-0.410,-0.410,0.000,0.000,0.000
1605129345130023936,10.0.1.131,480,move_up,-0.390,-0.390,-0.390,0.000,0.000,0.000
1605129346624816896,10.0.1.131,451,move_up,-0.370,-0.370,-0.370,0.000,0.000,0.000
1605129348176631808,10.0.1.131,458,move_up,-0.350,-0.350,-0.350,0.000,0.000,0.000
1605129349862280960,10.0.1.131,593,move_up,-0.330,-0.330,-0.330,0.000,0.000,0.000
1605129351337480960,10.0.1.131,414,move_up,-0.310,-0.310,-0.310,0.000,0.000,0.000
1605129352878583808,10.0.1.131,468,move_up,-0.290,-0.290,-0.290,0.000,0.000,0.000
1605129354491324928,10.0.1.131,533,move_up,-0.270,-0.270,-0.270,0.000,0.000,0.000
1605129356250206976,10.0.1.131,648,move_up,-0.250,-0.250,-0.250,0.000,0.000,0.000
1605129357879454976,10.0.1.131,511,move_up,-0.230,-0.230,-0.230,0.000,0.000,0.000
1605129359434503936,10.0.1.131,430,move_up,-0.210,-0.210,-0.210,0.000,0.000,0.000
1605129361018171136,10.0.1.131,499,move_up,-0.190,-0.190,-0.190,0.000,0.000,0.000
1605129362354955008,10.0.1.131,62,place,-0.180,-0.180,-0.180,0.000,0.000,0.000
1605129366350234880,10.0.1.131,46,place,-0.140,-0.140,-0.140,0.000,0.000,0.000
1605129367341219072,10.0.1.131,35,place,-0.130,-0.130,-0.130,0.000,0.000,0.000
1605129368350539008,10.0.1.131,43,place,-0.120,-0.120,-0.120,0.000,0.000,0.000
1605129369363183104,10.0.1.131,51,place,-0.110,-0.110,-0.110,0.000,0.000,0.000
1605129370370085120,10.0.1.131,56,place,-0.100,-0.100,-0.100,0.000,0.000,0.000
1605129371357943040,10.0.1.131,42,place,-0.090,-0.090,-0.090,0.000,0.000,0.000
1605129372379102976,10.0.1.131,63,place,-0.080,-0.080,-0.080,0.000,0.000,0.000
1605129373376321024,10.0.1.131,57,place,-0.070,-0.070,-0.070,0.000,0.000,0.000
1605129374357504000,10.0.1.131,37,place,-0.060,-0.060,-0.060,0.000,0.000,0.000
1605129375356461056,10.0.1.131,35,place,-0.050,-0.050,-0.050,0.000,0.000,0.000
1605129376394972160,10.0.1.131,63,place,-0.040,-0.040,-0.040,0.000,0.000,0.000
1605129378388945152,10.0.1.131,54,place,-0.020,-0.020,-0.020,0.000,0.000,0.000
1605129379379623936,10.0.1.131,43,place,-0.010,-0.010,-0.010,0.000,0.000,0.000
1605129380384162048,10.0.1.131,47,place,0.000,0.000,0.000,0.000,0.000,0.000
1605129381813984000,10.0.1.131,475,move_down,-0.020,-0.020,-0.020,0.000,0.000,0.000
1605129383451847168,10.0.1.131,560,move_down,-0.040,-0.040,-0.040,0.000,0.000,0.000
1605129385026208000,10.0.1.131,448,move_down,-0.060,-0.060,-0.060,0.000,0.000,0.000
1605129386622096896,10.0.1.131,505,move_down,-0.080,-0.080,-0.080,0.000,0.000,0.000
1605129388123245056,10.0.1.131,420,move_down,-0.100,-0.100,-0.100,0.000,0.000,0.000
1605129389619004928,10.0.1.131,419,move_down,-0.120,-0.120,-0.120,0.000,0.000,0.000
1605129391240428800,10.0.1.131,540,move_down,-0.140,-0.140,-0.140,0.000,0.000,0.000
1605129392850642944,10.0.1.131,517,move_down,-0.160,-0.160,-0.160,0.000,0.000,0.000
1605129394471013120,10.0.1.131,518,move_down,-0.180,-0.180,-0.180,0.000,0.000,0.000
1605129396107853056,10.0.1.131,501,move_down,-0.200,-0.200,-0.200,0.000,0.000,0.000
1605129397591037952,10.0.1.131,390,move_down,-0.220,-0.220,-0.220,0.000,0.000,0.000
1605129399296991232,10.0.1.131,578,move_down,-0.240,-0.240,-0.240,0.000,0.000,0.000
1605129400790054144,10.0.1.131,438,move_down,-0.260,-0.260,-0.260,0.000,0.000,0.000
1605129402310610176,10.0.1.131,495,move_down,-0.280,-0.280,-0.280,0.000,0.000,0.000
1605129403869298944,10.0.1.131,438,move_down,-0.300,-0.300,-0.300,0.000,0.000,0.000
1605129405439842048,10.0.1.131,459,move_down,-0.320,-0.320,-0.320,0.000,0.000,0.000
1605129407110713856,10.0.1.131,581,move_down,-0.340,-0.340,-0.340,0.000,0.000,0.000
1605129408701468928,10.0.1.131,468,move_down,-0.360,-0.360,-0.360,0.000,0.000,0.000
1605129410223232000,10.0.1.131,452,move_down,-0.380,-0.380,-0.380,0.000,0.000,0.000
1605129411761303040,10.0.1.131,485,move_down,-0.400,-0.400,-0.400,0.000,0.000,0.000
1605129413359674880,10.0.1.131,517,move_down,-0.420,-0.420,-0.420,0.000,0.000,0.000
1605129415148893184,10.0.1.131,591,move_down,-0.440,-0.440,-0.440,0.000,0.000,0.000
1605129416803076096,10.0.1.131,544,move_down,-0.460,-0.460,-0.460,0.000,0.000,0.000
1605129418315898880,10.0.1.131,464,move_down,-0.480,-0.480,-0.480,0.000,0.000,0.000
1605129419904370176,10.0.1.131,473,move_down,-0.500,-0.500,-0.500,0.000,0.000,0.000
1605129421732288000,10.0.1.131,691,move_down,-0.520,-0.520,-0.520,0.000,0.000,0.000
1605129423211244032,10.0.1.131,466,move_down,-0.540,-0.540,-0.540,0.000,0.000,0.000
1605129424778789120,10.0.1.131,517,move_down,-0.560,-0.560,-0.560,0.000,0.000,0.000
1605129426486236928,10.0.1.131,635,move_down,-0.580,-0.580,-0.580,0.000,0.000,0.000
1605129427664678144,10.0.1.131,47,pick,-0.590,-0.590,-0.590,0.000,0.000,0.000
1605129428681967104,10.0.1.131,64,pick,-0.600,-0.600,-0.600,0.000,0.000,0.000
1605129429677233920,10.0.1.131,57,pick,-0.610,-0.610,-0.610,0.000,0.000,0.000
1605129430658422016,10.0.1.131,37,pick,-0.620,-0.620,-0.620,0.000,0.000,0.000
1605129431672112896,10.0.1.131,49,pick,-0.630,-0.630,-0.630,0.000,0.000,0.000
1605129432675654912,10.0.1.131,51,pick,-0.640,-0.640,-0.640,0.000,0.000,0.000
1605129433672151040,10.0.1.131,47,pick,-0.650,-0.650,-0.650,0.000,0.000,0.000
1605129434671771136,10.0.1.131,45,pick,-0.660,-0.660,-0.660,0.000,0.000,0.000
1605129435694814976,10.0.1.131,67,pick,-0.670,-0.670,-0.670,0.000,0.000,0.000
1605129436674319872,10.0.1.131,46,pick,-0.680,-0.680,-0.680,0.000,0.000,0.000
1605129437683908096,10.0.1.131,54,pick,-0.690,-0.690,-0.690,0.000,0.000,0.000
1605129438704820992,10.0.1.131,73,pick,-0.700,-0.700,-0.700,0.000,0.000,0.000
1605129439694480896,10.0.1.131,56,pick,-0.710,-0.710,-0.710,0.000,0.000,0.000
1605129440695923968,10.0.1.131,56,pick,-0.720,-0.720,-0.720,0.000,0.000,0.000
1605129441673861120,10.0.1.131,33,pick,-0.730,-0.730,-0.730,0.000,0.000,0.000
1605129442692979968,10.0.1.131,51,pick,-0.740,-0.740,-0.740,0.000,0.000,0.000
1605129443675923200,10.0.1.131,32,pick,-0.750,-0.750,-0.750,0.000,0.000,0.000
1605129444704926976,10.0.1.131,60,pick,-0.760,-0.760,-0.760,0.000,0.000,0.000
1605129445693697024,10.0.1.131,46,pick,-0.770,-0.770,-0.770,0.000,0.000,0.000
1605129447152297984,10.0.1.131,504,move_up,-0.750,-0.750,-0.750,0.000,0.000,0.000
1605129448676462848,10.0.1.131,449,move_up,-0.730,-0.730,-0.730,0.000,0.000,0.000
1605129450415354112,10.0.1.131,477,move_up,-0.710,-0.710,-0.710,0.000,0.000,0.000
1605129452003912960,10.0.1.131,512,move_up,-0.690,-0.690,-0.690,0.000,0.000,0.000
1605129453672872960,10.0.1.131,487,move_up,-0.670,-0.670,-0.670,0.000,0.000,0.000
1605129455327065856,10.0.1.131,550,move_up,-0.650,-0.650,-0.650,0.000,0.000,0.000
1605129456975110912,10.0.1.131,579,move_up,-0.630,-0.630,-0.630,0.000,0.000,0.000
1605129458488385792,10.0.1.131,423,move_up,-0.610,-0.610,-0.610,0.000,0.000,0.000
1605129460076845824,10.0.1.131,518,move_up,-0.590,-0.590,-0.590,0.000,0.000,0.000
1605129461576209920,10.0.1.131,427,move_up,-0.570,-0.570,-0.570,0.000,0.000,0.000
1605129463183158016,10.0.1.131,470,move_up,-0.550,-0.550,-0.550,0.000,0.000,0.000
1605129464839076096,10.0.1.131,498,move_up,-0.530,-0.530,-0.530,0.000,0.000,0.000
1605129466437936896,10.0.1.131,522,move_up,-0.510,-0.510,-0.510,0.000,0.000,0.000
1605129467943991808,10.0.1.131,488,move_up,-0.490,-0.490,-0.490,0.000,0.000,0.000
1605129469594158848,10.0.1.131,530,move_up,-0.470,-0.470,-0.470,0.000,0.000,0.000
1605129471302248960,10.0.1.131,609,move_up,-0.450,-0.450,-0.450,0.000,0.000,0.000
1605129472836150784,10.0.1.131,450,move_up,-0.430,-0.430,-0.430,0.000,0.000,0.000
1605129474352206848,10.0.1.131,432,move_up,-0.410,-0.410,-0.410,0.000,0.000,0.000
1605129475957974016,10.0.1.131,563,move_up,-0.390,-0.390,-0.390,0.000,0.000,0.000
1605129477508781824,10.0.1.131,417,move_up,-0.370,-0.370,-0.370,0.000,0.000,0.000
1605129479068265984,10.0.1.131,472,move_up,-0.350,-0.350,-0.350,0.000,0.000,0.000
1605129480574456064,10.0.1.131,453,move_up,-0.330,-0.330,-0.330,0.000,0.000,0.000
1605129482250205952,10.0.1.131,536,move_up,-0.310,-0.310,-0.310,0.000,0.000,0.000
1605129483797629184,10.0.1.131,460,move_up,-0.290,-0.290,-0.290,0.000,0.000,0.000
1605129485332845056,10.0.1.131,457,move_up,-0.270,-0.270,-0.270,0.000,0.000,0.000
1605129486873969920,10.0.1.131,440,move_up,-0.250,-0.250,-0.250,0.000,0.000,0.000
1605129488526120960,10.0.1.131,537,move_up,-0.230,-0.230,-0.230,0.000,0.000,0.000
1605129490233244928,10.0.1.131,557,move_up,-0.210,-0.210,-0.210,0.000,0.000,0.000
1605129491896692992,10.0.1.131,549,move_up,-0.190,-0.190,-0.190,0.000,0.000,0.000
1605129493101260800,10.0.1.131,55,place,-0.180,-0.180,-0.180,0.000,0.000,0.000
1605129494101785856,10.0.1.131,54,place,-0.170,-0.170,-0.170,0.000,0.000,0.000
1605129495114223872,10.0.1.131,65,place,-0.160,-0.160,-0.160,0.000,0.000,0.000
1605129496097212928,10.0.1.131,41,place,-0.150,-0.150,-0.150,0.000,0.000,0.000
1605129497118326784,10.0.1.131,61,place,-0.140,-0.140,-0.140,0.000,0.000,0.000
1605129498116156928,10.0.1.131,48,place,-0.130,-0.130,-0.130,0.000,0.000,0.000
1605129499137748992,10.0.1.131,69,place,-0.120,-0.120,-0.120,0.000,0.000,0.000
1605129500117083904,10.0.1.131,45,place,-0.110,-0.110,-0.110,0.000,0.000,0.000
1605129501114834944,10.0.1.131,41,place,-0.100,-0.100,-0.100,0.000,0.000,0.000
1605129502112550144,10.0.1.131,37,place,-0.090,-0.090,-0.090,0.000,0.000,0.000
1605129503138050048,10.0.1.131,61,place,-0.080,-0.080,-0.080,0.000,0.000,0.000
1605129504167109888,10.0.1.131,75,place,-0.070,-0.070,-0.070,0.000,0.000,0.000
1605129505135052800,10.0.1.131,41,place,-0.060,-0.060,-0.060,0.000,0.000,0.000
1605129506140976896,10.0.1.131,45,place,-0.050,-0.050,-0.050,0.000,0.000,0.000
1605129507158060032,10.0.1.131,52,place,-0.040,-0.040,-0.040,0.000,0.000,0.000
1605129508154230016,10.0.1.131,45,place,-0.030,-0.030,-0.030,0.000,0.000,0.000
1605129509158073856,10.0.1.131,49,place,-0.020,-0.020,-0.020,0.000,0.000,0.000
1605129510154064896,10.0.1.131,43,place,-0.010,-0.010,-0.010,0.000,0.000,0.000
1605129511152932864,10.0.1.131,41,place,0.000,0.000,0.000,0.000,0.000,0.000
1605129512665543936,10.0.1.131,553,move_down,-0.020,-0.020,-0.020,0.000,0.000,0.000
1605129514153084928,10.0.1.131,426,move_down,-0.040,-0.040,-0.040,0.000,0.000,0.000
1605129515746327040,10.0.1.131,508,move_down,-0.060,-0.060,-0.060,0.000,0.000,0.000
1605129517378972928,10.0.1.131,551,move_down,-0.080,-0.080,-0.080,0.000,0.000,0.000
1605129518933159168,10.0.1.131,507,move_down,-0.100,-0.100,-0.100,0.000,0.000,0.000
1605129520557110016,10.0.1.131,521,move_down,-0.120,-0.120,-0.120,0.000,0.000,0.000
1605129522006177792,10.0.1.131,400,move_down,-0.140,-0.140,-0.140,0.000,0.000,0.000
1605129523571250944,10.0.1.131,435,move_down,-0.160,-0.160,-0.160,0.000,0.000,0.000
1605129525132702208,10.0.1.131,520,move_down,-0.180,-0.180,-0.180,0.000,0.000,0.000
1605129526635830016,10.0.1.131,447,move_down,-0.200,-0.200,-0.200,0.000,0.000,0.000
1605129528372658944,10.0.1.131,585,move_down,-0.220,-0.220,-0.220,0.000,0.000,0.000
1605129529962164992,10.0.1.131,501,move_down,-0.240,-0.240,-0.240,0.000,0.000,0.000
1605129531442589952,10.0.1.131,446,move_down,-0.260,-0.260,-0.260,0.000,0.000,0.000
1605129533103236864,10.0.1.131,485,move_down,-0.280,-0.280,-0.280,0.000,0.000,0.000
1605129534795072000,10.0.1.131,600,move_down,-0.300,-0.300,-0.300,0.000,0.000,0.000
1605129536378140928,10.0.1.131,548,move_down,-0.320,-0.320,-0.320,0.000,0.000,0.000
1605129537805274880,10.0.1.131,399,move_down,-0.340,-0.340,-0.340,0.000,0.000,0.000
1605129539390989056,10.0.1.131,480,move_down,-0.360,-0.360,-0.360,0.000,0.000,0.000
1605129541002572032,10.0.1.131,426,move_down,-0.380,-0.380,-0.380,0.000,0.000,0.000
1605129542591950848,10.0.1.131,416,move_down,-0.400,-0.400,-0.400,0.000,0.000,0.000
1605129544272465920,10.0.1.131,550,move_down,-0.420,-0.420,-0.420,0.000,0.000,0.000
1605129545761553920,10.0.1.131,385,move_down,-0.440,-0.440,-0.440,0.000,0.000,0.000
1605129547306129920,10.0.1.131,509,move_down,-0.460,-0.460,-0.460,0.000,0.000,0.000
1605129548880465152,10.0.1.131,504,move_down,-0.480,-0.480,-0.480,0.000,0.000,0.000
1605129550485950976,10.0.1.131,526,move_down,-0.500,-0.500,-0.500,0.000,0.000,0.000
1605129552172324864,10.0.1.131,605,move_down,-0.520,-0.520,-0.520,0.000,0.000,0.000
1605129553755790848,10.0.1.131,488,move_down,-0.540,-0.540,-0.540,0.000,0.000,0.000
1605129555302690048,10.0.1.131,488,move_down,-0.560,-0.560,-0.560,0.000,0.000,0.000
1605129556869057024,10.0.1.131,479,move_down,-0.580,-0.580,-0.580,0.000,0.000,0.000
1605129558002396160,10.0.1.131,46,pick,-0.590,-0.590,-0.590,0.000,0.000,0.000
1605129559002775040,10.0.1.131,46,pick,-0.600,-0.600,-0.600,0.000,0.000,0.000
1605129560015633152,10.0.1.131,47,pick,-0.610,-0.610,-0.610,0.000,0.000,0.000
1605129561027488000,10.0.1.131,56,pick,-0.620,-0.620,-0.620,0.000,0.000,0.000
1605129562030070016,10.0.1.131,57,pick,-0.630,-0.630,-0.630,0.000,0.000,0.000
1605129563024113920,10.0.1.131,43,pick,-0.640,-0.640,-0.640,0.000,0.000,0.000
1605129564026774784,10.0.1.131,43,pick,-0.650,-0.650,-0.650,0.000,0.000,0.000
1605129565025431040,10.0.1.131,40,pick,-0.660,-0.660,-0.660,0.000,0.000,0.000
1605129566031784960,10.0.1.131,44,pick,-0.670,-0.670,-0.670,0.000,0.000,0.000
1605129567025278208,10.0.1.131,36,pick,-0.680,-0.680,-0.680,0.000,0.000,0.000
1605129568023046144,10.0.1.131,32,pick,-0.690,-0.690,-0.690,0.000,0.000,0.000
1605129569042381056,10.0.1.131,50,pick,-0.700,-0.700,-0.700,0.000,0.000,0.000
1605129570022713856,10.0.1.131,30,pick,-0.710,-0.710,-0.710,0.000,0.000,0.000
1605129571042689024,10.0.1.131,43,pick,-0.720,-0.720,-0.720,0.000,0.000,0.000
1605129572043729152,10.0.1.131,43,pick,-0.730,-0.730,-0.730,0.000,0.000,0.000
1605129573045257984,10.0.1.131,43,pick,-0.740,-0.740,-0.740,0.000,0.000,0.000
1605129574044550912,10.0.1.131,41,pick,-0.750,-0.750,-0.750,0.000,0.000,0.000
1605129575042690048,10.0.1.131,38,pick,-0.760,-0.760,-0.760,0.000,0.000,0.000
1605129576041486080,10.0.1.131,35,pick,-0.770,-0.770,-0.770,0.000,0.000,0.000
1605129577461775104,10.0.1.131,454,move_up,-0.750,-0.750,-0.750,0.000,0.000,0.000
1605129578996429824,10.0.1.131,477,move_up,-0.730,-0.730,-0.730,0.000,0.000,0.000
1605129580737699072,10.0.1.131,626,move_up,-0.710,-0.710,-0.710,0.000,0.000,0.000
1605129582234618880,10.0.1.131,406,move_up,-0.690,-0.690,-0.690,0.000,0.000,0.000
1605129583800048128,10.0.1.131,481,move_up,-0.670,-0.670,-0.670,0.000,0.000,0.000
1605129585361885952,10.0.1.131,441,move_up,-0.650,-0.650,-0.650,0.000,0.000,0.000
1605129587022681856,10.0.1.131,553,move_up,-0.630,-0.630,-0.630,0.000,0.000,0.000
1605129588658535936,10.0.1.131,549,move_up,-0.610,-0.610,-0.610,0.000,0.000,0.000
1605129590157520128,10.0.1.131,467,move_up,-0.590,-0.590,-0.590,0.000,0.000,0.000
1605129591795619072,10.0.1.131,568,move_up,-0.570,-0.570,-0.570,0.000,0.000,0.000
1605129593414460928,10.0.1.131,477,move_up,-0.550,-0.550,-0.550,0.000,0.000,0.000
1605129594967150080,10.0.1.131,525,move_up,-0.530,-0.530,-0.530,0.000,0.000,0.000
1605129596708577024,10.0.1.131,604,move_up,-0.510,-0.510,-0.510,0.000,0.000,0.000
1605129598231415040,10.0.1.131,418,move_up,-0.490,-0.490,-0.490,0.000,0.000,0.000
1605129599975565056,10.0.1.131,520,move_up,-0.470,-0.470,-0.470,0.000,0.000,0.000
1605129601550136064,10.0.1.131,524,move_up,-0.450,-0.450,-0.450,0.000,0.000,0.000
1605129603220442112,10.0.1.131,547,move_up,-0.430,-0.430,-0.430,0.000,0.000,0.000
1605129604833942784,10.0.1.131,537,move_up,-0.410,-0.410,-0.410,0.000,0.000,0.000
1605129606301517056,10.0.1.131,413,move_up,-0.390,-0.390,-0.390,0.000,0.000,0.000
1605129607868877056,10.0.1.131,475,move_up,-0.370,-0.370,-0.370,0.000,0.000,0.000
1605129609431653120,10.0.1.131,478,move_up,-0.350,-0.350,-0.350,0.000,0.000,0.000
1605129611008467968,10.0.1.131,477,move_up,-0.330,-0.330,-0.330,0.000,0.000,0.000
1605129612620524800,10.0.1.131,496,move_up,-0.310,-0.310,-0.310,0.000,0.000,0.000
1605129614158960128,10.0.1.131,412,move_up,-0.290,-0.290,-0.290,0.000,0.000,0.000
1605129615692284160,10.0.1.131,508,move_up,-0.270,-0.270,-0.270,0.000,0.000,0.000
1605129617445136896,10.0.1.131,605,move_up,-0.250,-0.250,-0.250,0.000,0.000,0.000
1605129619013558016,10.0.1.131,463,move_up,-0.230,-0.230,-0.230,0.000,0.000,0.000
1605129620565126912,10.0.1.131,470,move_up,-0.210,-0.210,-0.210,0.000,0.000,0.000
1605129622034779904,10.0.1.131,417,move_up,-0.190,-0.190,-0.190,0.000,0.000,0.000
1605129623313966080,10.0.1.131,45,place,-0.180,-0.180,-0.180,0.000,0.000,0.000
1605129624339188992,10.0.1.131,69,place,-0.170,-0.170,-0.170,0.000,0.000,0.000
1605129626347747072,10.0.1.131,76,place,-0.150,-0.150,-0.150,0.000,0.000,0.000
1605129627373373952,10.0.1.131,100,place,-0.140,-0.140,-0.140,0.000,0.000,0.000
1605129628343124992,10.0.1.131,68,place,-0.130,-0.130,-0.130,0.000,0.000,0.000
1605129629335543040,10.0.1.131,59,place,-0.120,-0.120,-0.120,0.000,0.000,0.000
1605129630315130880,10.0.1.131,37,place,-0.110,-0.110,-0.110,0.000,0.000,0.000
1605129631311564800,10.0.1.131,32,place,-0.100,-0.100,-0.100,0.000,0.000,0.000
1605129632313133056,10.0.1.131,33,place,-0.090,-0.090,-0.090,0.000,0.000,0.000
1605129633348866048,10.0.1.131,64,place,-0.080,-0.080,-0.080,0.000,0.000,0.000
1605129634371577088,10.0.1.131,68,place,-0.070,-0.070,-0.070,0.000,0.000,0.000
1605129635364450048,10.0.1.131,53,place,-0.060,-0.060,-0.060,0.000,0.000,0.000
1605129636355147008,10.0.1.131,40,place,-0.050,-0.050,-0.050,0.000,0.000,0.000
1605129637315846912,10.0.1.131,-1,place,-0.040,-0.040,-0.040,0.000,0.000,0.000
1605129638365433088,10.0.1.131,45,place,-0.030,-0.030,-0.030,0.000,0.000,0.000
1605129639357976832,10.0.1.131,36,place,-0.020,-0.020,-0.020,0.000,0.000,0.000
1605129640384061184,10.0.1.131,55,place,-0.010,-0.010,-0.010,0.000,0.000,0.000
1605129641406733056,10.0.1.131,47,place,0.000,0.000,0.000,0.000,0.000,0.000
1605129642789329920,10.0.1.131,429,move_down,-0.020,-0.020,-0.020,0.000,0.000,0.000
1605129644328155904,10.0.1.131,507,move_down,-0.040,-0.040,-0.040,0.000,0.000,0.000
1605129645940591104,10.0.1.131,509,move_down,-0.060,-0.060,-0.060,0.000,0.000,0.000
1605129647640801792,10.0.1.131,597,move_down,-0.080,-0.080,-0.080,0.000,0.000,0.000
1605129649345933824,10.0.1.131,576,move_down,-0.100,-0.100,-0.100,0.000,0.000,0.000
1605129650801246976,10.0.1.131,403,move_down,-0.120,-0.120,-0.120,0.000,0.000,0.000
1605129652328950016,10.0.1.131,507,move_down,-0.140,-0.140,-0.140,0.000,0.000,0.000
1605129653986984960,10.0.1.131,583,move_down,-0.160,-0.160,-0.160,0.000,0.000,0.000
1605129655687915008,10.0.1.131,558,move_down,-0.180,-0.180,-0.180,0.000,0.000,0.000
1605129657280427008,10.0.1.131,486,move_down,-0.200,-0.200,-0.200,0.000,0.000,0.000
1605129658797065984,10.0.1.131,460,move_down,-0.220,-0.220,-0.220,0.000,0.000,0.000
1605129660432924928,10.0.1.131,543,move_down,-0.240,-0.240,-0.240,0.000,0.000,0.000
1605129662024211968,10.0.1.131,503,move_down,-0.260,-0.260,-0.260,0.000,0.000,0.000
1605129663628407040,10.0.1.131,516,move_down,-0.280,-0.280,-0.280,0.000,0.000,0.000
1605129665263820032,10.0.1.131,532,move_down,-0.300,-0.300,-0.300,0.000,0.000,0.000
1605129666885304832,10.0.1.131,478,move_down,-0.320,-0.320,-0.320,0.000,0.000,0.000
1605129668721896960,10.0.1.131,751,move_down,-0.340,-0.340,-0.340,0.000,0.000,0.000
1605129670446605056,10.0.1.131,617,move_down,-0.360,-0.360,-0.360,0.000,0.000,0.000
1605129672069468928,10.0.1.131,460,move_down,-0.380,-0.380,-0.380,0.000,0.000,0.000
1605129673700165120,10.0.1.131,527,move_down,-0.400,-0.400,-0.400,0.000,0.000,0.000
1605129675273976064,10.0.1.131,460,move_down,-0.420,-0.420,-0.420,0.000,0.000,0.000
1605129676989895168,10.0.1.131,423,move_down,-0.440,-0.440,-0.440,0.000,0.000,0.000
1605129678585100800,10.0.1.131,518,move_down,-0.460,-0.460,-0.460,0.000,0.000,0.000
1605129680138936064,10.0.1.131,474,move_down,-0.480,-0.480,-0.480,0.000,0.000,0.000
1605129681635261184,10.0.1.131,445,move_down,-0.500,-0.500,-0.500,0.000,0.000,0.000
1605129683181626112,10.0.1.131,438,move_down,-0.520,-0.520,-0.520,0.000,0.000,0.000
1605129684738765056,10.0.1.131,452,move_down,-0.540,-0.540,-0.540,0.000,0.000,0.000
1605129686286457088,10.0.1.131,491,move_down,-0.560,-0.560,-0.560,0.000,0.000,0.000
1605129687812030976,10.0.1.131,520,move_down,-0.580,-0.580,-0.580,0.000,0.000,0.000
1605129689011624192,10.0.1.131,44,pick,-0.590,-0.590,-0.590,0.000,0.000,0.000
1605129690001394944,10.0.1.131,32,pick,-0.600,-0.600,-0.600,0.000,0.000,0.000
1605129691031454976,10.0.1.131,52,pick,-0.610,-0.610,-0.610,0.000,0.000,0.000
1605129692014219008,10.0.1.131,33,pick,-0.620,-0.620,-0.620,0.000,0.000,0.000
1605129693034306048,10.0.1.131,42,pick,-0.630,-0.630,-0.630,0.000,0.000,0.000
1605129694035567104,10.0.1.131,43,pick,-0.640,-0.640,-0.640,0.000,0.000,0.000
1605129695032391936,10.0.1.131,37,pick,-0.650,-0.650,-0.650,0.000,0.000,0.000
1605129696040456960,10.0.1.131,42,pick,-0.660,-0.660,-0.660,0.000,0.000,0.000
1605129697035470080,10.0.1.131,36,pick,-0.670,-0.670,-0.670,0.000,0.000,0.000
1605129698035056128,10.0.1.131,35,pick,-0.680,-0.680,-0.680,0.000,0.000,0.000
1605129699052175104,10.0.1.131,52,pick,-0.690,-0.690,-0.690,0.000,0.000,0.000
1605129700036184064,10.0.1.131,34,pick,-0.700,-0.700,-0.700,0.000,0.000,0.000
1605129701060856064,10.0.1.131,53,pick,-0.710,-0.710,-0.710,0.000,0.000,0.000
1605129702107425024,10.0.1.131,98,pick,-0.720,-0.720,-0.720,0.000,0.000,0.000
1605129703056293120,10.0.1.131,43,pick,-0.730,-0.730,-0.730,0.000,0.000,0.000
1605129704060007936,10.0.1.131,46,pick,-0.740,-0.740,-0.740,0.000,0.000,0.000
1605129705069915136,10.0.1.131,54,pick,-0.750,-0.750,-0.750,0.000,0.000,0.000
1605129706097940992,10.0.1.131,79,pick,-0.760,-0.760,-0.760,0.000,0.000,0.000
1605129707056724992,10.0.1.131,36,pick,-0.770,-0.770,-0.770,0.000,0.000,0.000
1605129708482629888,10.0.1.131,458,move_up,-0.750,-0.750,-0.750,0.000,0.000,0.000
1605129710032655104,10.0.1.131,463,move_up,-0.730,-0.730,-0.730,0.000,0.000,0.000
1605129711703890944,10.0.1.131,557,move_up,-0.710,-0.710,-0.710,0.000,0.000,0.000
1605129713359633920,10.0.1.131,572,move_up,-0.690,-0.690,-0.690,0.000,0.000,0.000
1605129714912210944,10.0.1.131,490,move_up,-0.670,-0.670,-0.670,0.000,0.000,0.000
1605129716426987008,10.0.1.131,400,move_up,-0.650,-0.650,-0.650,0.000,0.000,0.000
1605129718067297024,10.0.1.131,465,move_up,-0.630,-0.630,-0.630,0.000,0.000,0.000
1605129719689398016,10.0.1.131,455,move_up,-0.610,-0.610,-0.610,0.000,0.000,0.000
1605129721303751936,10.0.1.131,504,move_up,-0.590,-0.590,-0.590,0.000,0.000,0.000
1605129722882234112,10.0.1.131,512,move_up,-0.570,-0.570,-0.570,0.000,0.000,0.000
1605129724365142016,10.0.1.131,465,move_up,-0.550,-0.550,-0.550,0.000,0.000,0.000
1605129725987654912,10.0.1.131,546,move_up,-0.530,-0.530,-0.530,0.000,0.000,0.000
1605129727618323200,10.0.1.131,495,move_up,-0.510,-0.510,-0.510,0.000,0.000,0.000
1605129729156295936,10.0.1.131,490,move_up,-0.490,-0.490,-0.490,0.000,0.000,0.000
1605129730776016896,10.0.1.131,540,move_up,-0.470,-0.470,-0.470,0.000,0.000,0.000
1605129732404244992,10.0.1.131,542,move_up,-0.450,-0.450,-0.450,0.000,0.000,0.000
1605129733981805056,10.0.1.131,488,move_up,-0.430,-0.430,-0.430,0.000,0.000,0.000
1605129735695645952,10.0.1.131,636,move_up,-0.410,-0.410,-0.410,0.000,0.000,0.000
1605129737348413952,10.0.1.131,548,move_up,-0.390,-0.390,-0.390,0.000,0.000,0.000
1605129739007065088,10.0.1.131,549,move_up,-0.370,-0.370,-0.370,0.000,0.000,0.000
1605129740559176960,10.0.1.131,453,move_up,-0.350,-0.350,-0.350,0.000,0.000,0.000
1605129742329182976,10.0.1.131,645,move_up,-0.330,-0.330,-0.330,0.000,0.000,0.000
1605129743916261888,10.0.1.131,503,move_up,-0.310,-0.310,-0.310,0.000,0.000,0.000
1605129745454778880,10.0.1.131,458,move_up,-0.290,-0.290,-0.290,0.000,0.000,0.000
1605129747032391936,10.0.1.131,449,move_up,-0.270,-0.270,-0.270,0.000,0.000,0.000
1605129748688638976,10.0.1.131,497,move_up,-0.250,-0.250,-0.250,0.000,0.000,0.000
1605129750223174144,10.0.1.131,466,move_up,-0.230,-0.230,-0.230,0.000,0.000,0.000
1605129751757762816,10.0.1.131,522,move_up,-0.210,-0.210,-0.210,0.000,0.000,0.000
1605129753326322944,10.0.1.131,419,move_up,-0.190,-0.190,-0.190,0.000,0.000,0.000
1605129754499474944,10.0.1.131,62,place,-0.180,-0.180,-0.180,0.000,0.000,0.000
1605129755490548992,10.0.1.131,47,place,-0.170,-0.170,-0.170,0.000,0.000,0.000
1605129756519265792,10.0.1.131,73,place,-0.160,-0.160,-0.160,0.000,0.000,0.000
1605129757483307008,10.0.1.131,36,place,-0.150,-0.150,-0.150,0.000,0.000,0.000
1605129758516835840,10.0.1.131,68,place,-0.140,-0.140,-0.140,0.000,0.000,0.000
1605129759511634176,10.0.1.131,61,place,-0.130,-0.130,-0.130,0.000,0.000,0.000
1605129760534132992,10.0.1.131,80,place,-0.120,-0.120,-0.120,0.000,0.000,0.000
1605129761511214080,10.0.1.131,55,place,-0.110,-0.110,-0.110,0.000,0.000,0.000
1605129762533144832,10.0.1.131,75,place,-0.100,-0.100,-0.100,0.000,0.000,0.000
1605129763504254208,10.0.1.131,45,place,-0.090,-0.090,-0.090,0.000,0.000,0.000
1605129764536282112,10.0.1.131,74,place,-0.080,-0.080,-0.080,0.000,0.000,0.000
1605129765539223808,10.0.1.131,75,place,-0.070,-0.070,-0.070,0.000,0.000,0.000
1605129766521286912,10.0.1.131,56,place,-0.060,-0.060,-0.060,0.000,0.000,0.000
1605129768505729024,10.0.1.131,37,place,-0.040,-0.040,-0.040,0.000,0.000,0.000
1605129769522334208,10.0.1.131,43,place,-0.030,-0.030,-0.030,0.000,0.000,0.000
1605129770541334016,10.0.1.131,50,place,-0.020,-0.020,-0.020,0.000,0.000,0.000
1605129771547009024,10.0.1.131,53,place,-0.010,-0.010,-0.010,0.000,0.000,0.000
1605129772557545984,10.0.1.131,61,place,0.000,0.000,0.000,0.000,0.000,0.000
1605129773983017984,10.0.1.131,443,move_down,-0.020,-0.020,-0.020,0.000,0.000,0.000
1605129775627969024,10.0.1.131,538,move_down,-0.040,-0.040,-0.040,0.000,0.000,0.000
1605129777213597952,10.0.1.131,510,move_down,-0.060,-0.060,-0.060,0.000,0.000,0.000
1605129778868002816,10.0.1.131,554,move_down,-0.080,-0.080,-0.080,0.000,0.000,0.000
1605129780478833920,10.0.1.131,504,move_down,-0.100,-0.100,-0.100,0.000,0.000,0.000
1605129782106789120,10.0.1.131,473,move_down,-0.120,-0.120,-0.120,0.000,0.000,0.000
1605129783783223040,10.0.1.131,580,move_down,-0.140,-0.140,-0.140,0.000,0.000,0.000
1605129785467173120,10.0.1.131,560,move_down,-0.160,-0.160,-0.160,0.000,0.000,0.000
1605129787057125120,10.0.1.131,515,move_down,-0.180,-0.180,-0.180,0.000,0.000,0.000
1605129788761395968,10.0.1.131,532,move_down,-0.200,-0.200,-0.200,0.000,0.000,0.000
1605129790516136960,10.0.1.131,621,move_down,-0.220,-0.220,-0.220,0.000,0.000,0.000
1605129792228581888,10.0.1.131,524,move_down,-0.240,-0.240,-0.240,0.000,0.000,0.000
1605129793819250176,10.0.1.131,461,move_down,-0.260,-0.260,-0.260,0.000,0.000,0.000
1605129795631741952,10.0.1.131,693,move_down,-0.280,-0.280,-0.280,0.000,0.000,0.000
1605129797439488000,10.0.1.131,497,move_down,-0.300,-0.300,-0.300,0.000,0.000,0.000
1605129799014947840,10.0.1.131,507,move_down,-0.320,-0.320,-0.320,0.000,0.000,0.000
1605129800569062912,10.0.1.131,449,move_down,-0.340,-0.340,-0.340,0.000,0.000,0.000
1605129802224766976,10.0.1.131,509,move_down,-0.360,-0.360,-0.360,0.000,0.000,0.000
1605129803716301056,10.0.1.131,404,move_down,-0.380,-0.380,-0.380,0.000,0.000,0.000
1605129805215680000,10.0.1.131,386,move_down,-0.400,-0.400,-0.400,0.000,0.000,0.000
1605129806796998144,10.0.1.131,489,move_down,-0.420,-0.420,-0.420,0.000,0.000,0.000
1605129808365495040,10.0.1.131,448,move_down,-0.440,-0.440,-0.440,0.000,0.000,0.000
1605129809969684992,10.0.1.131,538,move_down,-0.460,-0.460,-0.460,0.000,0.000,0.000
1605129811582031872,10.0.1.131,539,move_down,-0.480,-0.480,-0.480,0.000,0.000,0.000
1605129813227961088,10.0.1.131,522,move_down,-0.500,-0.500,-0.500,0.000,0.000,0.000
1605129814824186112,10.0.1.131,534,move_down,-0.520,-0.520,-0.520,0.000,0.000,0.000
1605129816398778880,10.0.1.131,450,move_down,-0.540,-0.540,-0.540,0.000,0.000,0.000
1605129818036787968,10.0.1.131,511,move_down,-0.560,-0.560,-0.560,0.000,0.000,0.000
1605129819786900992,10.0.1.131,606,move_down,-0.580,-0.580,-0.580,0.000,0.000,0.000
1605129820959664128,10.0.1.131,37,pick,-0.590,-0.590,-0.590,0.000,0.000,0.000
1605129821974652160,10.0.1.131,51,pick,-0.600,-0.600,-0.600,0.000,0.000,0.000
1605129823960932864,10.0.1.131,34,pick,-0.620,-0.620,-0.620,0.000,0.000,0.000
1605129824993904128,10.0.1.131,48,pick,-0.630,-0.630,-0.630,0.000,0.000,0.000
1605129825985803008,10.0.1.131,38,pick,-0.640,-0.640,-0.640,0.000,0.000,0.000
1605129826986988032,10.0.1.131,38,pick,-0.650,-0.650,-0.650,0.000,0.000,0.000
1605129828023604992,10.0.1.131,56,pick,-0.660,-0.660,-0.660,0.000,0.000,0.000
1605129829003222016,10.0.1.131,35,pick,-0.670,-0.670,-0.670,0.000,0.000,0.000
1605129830004700928,10.0.1.131,32,pick,-0.680,-0.680,-0.680,0.000,0.000,0.000
1605129831042660864,10.0.1.131,68,pick,-0.690,-0.690,-0.690,0.000,0.000,0.000
1605129832025420800,10.0.1.131,49,pick,-0.700,-0.700,-0.700,0.000,0.000,0.000
1605129833024545792,10.0.1.131,45,pick,-0.710,-0.710,-0.710,0.000,0.000,0.000
1605129834023013120,10.0.1.131,43,pick,-0.720,-0.720,-0.720,0.000,0.000,0.000
1605129836039972096,10.0.1.131,50,pick,-0.740,-0.740,-0.740,0.000,0.000,0.000
1605129837039472128,10.0.1.131,48,pick,-0.750,-0.750,-0.750,0.000,0.000,0.000
1605129838045445888,10.0.1.131,52,pick,-0.760,-0.760,-0.760,0.000,0.000,0.000
1605129839044236032,10.0.1.131,50,pick,-0.770,-0.770,-0.770,0.000,0.000,0.000
1605129840443564032,10.0.1.131,448,move_up,-0.750,-0.750,-0.750,0.000,0.000,0.000
1605129841973918976,10.0.1.131,411,move_up,-0.730,-0.730,-0.730,0.000,0.000,0.000
1605129843670051072,10.0.1.131,602,move_up,-0.710,-0.710,-0.710,0.000,0.000,0.000
1605129845164395008,10.0.1.131,419,move_up,-0.690,-0.690,-0.690,0.000,0.000,0.000
1605129846792136960,10.0.1.131,516,move_up,-0.670,-0.670,-0.670,0.000,0.000,0.000
1605129848443896064,10.0.1.131,515,move_up,-0.650,-0.650,-0.650,0.000,0.000,0.000
1605129849936763136,10.0.1.131,451,move_up,-0.630,-0.630,-0.630,0.000,0.000,0.000
1605129851598249984,10.0.1.131,557,move_up,-0.610,-0.610,-0.610,0.000,0.000,0.000
1605129853218360832,10.0.1.131,545,move_up,-0.590,-0.590,-0.590,0.000,0.000,0.000
1605129854855707904,10.0.1.131,532,move_up,-0.570,-0.570,-0.570,0.000,0.000,0.000
1605129856405391104,10.0.1.131,492,move_up,-0.550,-0.550,-0.550,0.000,0.000,0.000
1605129858001353984,10.0.1.131,497,move_up,-0.530,-0.530,-0.530,0.000,0.000,0.000
1605129859526535936,10.0.1.131,537,move_up,-0.510,-0.510,-0.510,0.000,0.000,0.000
1605129861129831936,10.0.1.131,512,move_up,-0.490,-0.490,-0.490,0.000,0.000,0.000
1605129862763418880,10.0.1.131,579,move_up,-0.470,-0.470,-0.470,0.000,0.000,0.000
1605129864315985920,10.0.1.131,508,move_up,-0.450,-0.450,-0.450,0.000,0.000,0.000
1605129865906744832,10.0.1.131,536,move_up,-0.430,-0.430,-0.430,0.000,0.000,0.000
1605129867548474112,10.0.1.131,528,move_up,-0.410,-0.410,-0.410,0.000,0.000,0.000
1605129869214711040,10.0.1.131,580,move_up,-0.390,-0.390,-0.390,0.000,0.000,0.000
1605129870784271872,10.0.1.131,468,move_up,-0.370,-0.370,-0.370,0.000,0.000,0.000
1605129872372911104,10.0.1.131,514,move_up,-0.350,-0.350,-0.350,0.000,0.000,0.000
1605129873966651904,10.0.1.131,441,move_up,-0.330,-0.330,-0.330,0.000,0.000,0.000
1605129875510819840,10.0.1.131,508,move_up,-0.310,-0.310,-0.310,0.000,0.000,0.000
1605129877069487104,10.0.1.131,539,move_up,-0.290,-0.290,-0.290,0.000,0.000,0.000
1605129878560684032,10.0.1.131,423,move_up,-0.270,-0.270,-0.270,0.000,0.000,0.000
1605129880265233152,10.0.1.131,653,move_up,-0.250,-0.250,-0.250,0.000,0.000,0.000
1605129881798844928,10.0.1.131,417,move_up,-0.230,-0.230,-0.230,0.000,0.000,0.000
1605129883483230208,10.0.1.131,571,move_up,-0.210,-0.210,-0.210,0.000,0.000,0.000
1605129885217789952,10.0.1.131,646,move_up,-0.190,-0.190,-0.190,0.000,0.000,0.000
1605129886387629056,10.0.1.131,72,place,-0.180,-0.180,-0.180,0.000,0.000,0.000
1605129887354003968,10.0.1.131,37,place,-0.170,-0.170,-0.170,0.000,0.000,0.000
1605129888352087040,10.0.1.131,33,place,-0.160,-0.160,-0.160,0.000,0.000,0.000
1605129889351073024,10.0.1.131,30,place,-0.150,-0.150,-0.150,0.000,0.000,0.000
1605129891397921024,10.0.1.131,75,place,-0.130,-0.130,-0.130,0.000,0.000,0.000
1605129893374416128,10.0.1.131,44,place,-0.110,-0.110,-0.110,0.000,0.000,0.000
1605129895382294016,10.0.1.131,49,place,-0.090,-0.090,-0.090,0.000,0.000,0.000
1605129896394265856,10.0.1.131,42,place,-0.080,-0.080,-0.080,0.000,0.000,0.000
1605129897396510976,10.0.1.131,43,place,-0.070,-0.070,-0.070,0.000,0.000,0.000
1605129898401006080,10.0.1.131,46,place,-0.060,-0.060,-0.060,0.000,0.000,0.000
1605129899390080000,10.0.1.131,34,place,-0.050,-0.050,-0.050,0.000,0.000,0.000
1605129900421526016,10.0.1.131,63,place,-0.040,-0.040,-0.040,0.000,0.000,0.000
1605129901397496832,10.0.1.131,38,place,-0.030,-0.030,-0.030,0.000,0.000,0.000
1605129902405751040,10.0.1.131,46,place,-0.020,-0.020,-0.020,0.000,0.000,0.000
1605129904431327232,10.0.1.131,64,place,0.000,0.000,0.000,0.000,0.000,0.000
1605129905803931904,10.0.1.131,434,move_down,-0.020,-0.020,-0.020,0.000,0.000,0.000
1605129907379255040,10.0.1.131,508,move_down,-0.040,-0.040,-0.040,0.000,0.000,0.000
1605129908969645056,10.0.1.131,501,move_down,-0.060,-0.060,-0.060,0.000,0.000,0.000
1605129910489415936,10.0.1.131,421,move_down,-0.080,-0.080,-0.080,0.000,0.000,0.000
1605129912050708992,10.0.1.131,484,move_down,-0.100,-0.100,-0.100,0.000,0.000,0.000
1605129913672975104,10.0.1.131,580,move_down,-0.120,-0.120,-0.120,0.000,0.000,0.000
1605129915244710912,10.0.1.131,424,move_down,-0.140,-0.140,-0.140,0.000,0.000,0.000
1605129916834125056,10.0.1.131,502,move_down,-0.160,-0.160,-0.160,0.000,0.000,0.000
1605129918355045120,10.0.1.131,448,move_down,-0.180,-0.180,-0.180,0.000,0.000,0.000
1605129920035283200,10.0.1.131,577,move_down,-0.200,-0.200,-0.200,0.000,0.000,0.000
1605129921644429824,10.0.1.131,426,move_down,-0.220,-0.220,-0.220,0.000,0.000,0.000
1605129923216136960,10.0.1.131,462,move_down,-0.240,-0.240,-0.240,0.000,0.000,0.000
1605129924778977024,10.0.1.131,516,move_down,-0.260,-0.260,-0.260,0.000,0.000,0.000
1605129926365271040,10.0.1.131,428,move_down,-0.280,-0.280,-0.280,0.000,0.000,0.000
1605129928039442176,10.0.1.131,602,move_down,-0.300,-0.300,-0.300,0.000,0.000,0.000
1605129929703172864,10.0.1.131,549,move_down,-0.320,-0.320,-0.320,0.000,0.000,0.000
1605129931241259008,10.0.1.131,484,move_down,-0.340,-0.340,-0.340,0.000,0.000,0.000
1605129932888657920,10.0.1.131,499,move_down,-0.360,-0.360,-0.360,0.000,0.000,0.000
1605129934535332864,10.0.1.131,460,move_down,-0.380,-0.380,-0.380,0.000,0.000,0.000
1605129936171019008,10.0.1.131,520,move_down,-0.400,-0.400,-0.400,0.000,0.000,0.000
1605129937746287104,10.0.1.131,505,move_down,-0.420,-0.420,-0.420,0.000,0.000,0.000
1605129939358642176,10.0.1.131,537,move_down,-0.440,-0.440,-0.440,0.000,0.000,0.000
1605129940961731072,10.0.1.131,491,move_down,-0.460,-0.460,-0.460,0.000,0.000,0.000
1605129942538769920,10.0.1.131,491,move_down,-0.480,-0.480,-0.480,0.000,0.000,0.000
1605129944108773888,10.0.1.131,477,move_down,-0.500,-0.500,-0.500,0.000,0.000,0.000
1605129945796789760,10.0.1.131,588,move_down,-0.520,-0.520,-0.520,0.000,0.000,0.000
1605129947443465984,10.0.1.131,555,move_down,-0.540,-0.540,-0.540,0.000,0.000,0.000
1605129949041625856,10.0.1.131,537,move_down,-0.560,-0.560,-0.560,0.000,0.000,0.000
1605129950606957824,10.0.1.131,475,move_down,-0.580,-0.580,-0.580,0.000,0.000,0.000
1605129951721630208,10.0.1.131,50,pick,-0.590,-0.590,-0.590,0.000,0.000,0.000
1605129952724623872,10.0.1.131,51,pick,-0.600,-0.600,-0.600,0.000,0.000,0.000
1605129956716514048,10.0.1.131,34,pick,-0.640,-0.640,-0.640,0.000,0.000,0.000
1605129957717120000,10.0.1.131,33,pick,-0.650,-0.650,-0.650,0.000,0.000,0.000
1605129958805166848,10.0.1.131,80,pick,-0.660,-0.660,-0.660,0.000,0.000,0.000
1605129959778366976,10.0.1.131,52,pick,-0.670,-0.670,-0.670,0.000,0.000,0.000
1605129960803094016,10.0.1.131,58,pick,-0.680,-0.680,-0.680,0.000,0.000,0.000
1605129961808068096,10.0.1.131,62,pick,-0.690,-0.690,-0.690,0.000,0.000,0.000
1605129962799232000,10.0.1.131,52,pick,-0.700,-0.700,-0.700,0.000,0.000,0.000
1605129965797458944,10.0.1.131,42,pick,-0.730,-0.730,-0.730,0.000,0.000,0.000
1605129966799909120,10.0.1.131,43,pick,-0.740,-0.740,-0.740,0.000,0.000,0.000
1605129967807076864,10.0.1.131,49,pick,-0.750,-0.750,-0.750,0.000,0.000,0.000
1605129968823394048,10.0.1.131,64,pick,-0.760,-0.760,-0.760,0.000,0.000,0.000
1605129969814411008,10.0.1.131,54,pick,-0.770,-0.770,-0.770,0.000,0.000,0.000
1605129971189519872,10.0.1.131,428,move_up,-0.750,-0.750,-0.750,0.000,0.000,0.000
1605129972849752064,10.0.1.131,545,move_up,-0.730,-0.730,-0.730,0.000,0.000,0.000
1605129974409476096,10.0.1.131,497,move_up,-0.710,-0.710,-0.710,0.000,0.000,0.000
1605129976008249088,10.0.1.131,480,move_up,-0.690,-0.690,-0.690,0.000,0.000,0.000
1605129977628050176,10.0.1.131,529,move_up,-0.670,-0.670,-0.670,0.000,0.000,0.000
1605129979101093120,10.0.1.131,463,move_up,-0.650,-0.650,-0.650,0.000,0.000,0.000
1605129980733246208,10.0.1.131,548,move_up,-0.630,-0.630,-0.630,0.000,0.000,0.000
1605129982263984896,10.0.1.131,461,move_up,-0.610,-0.610,-0.610,0.000,0.000,0.000
1605129983847719936,10.0.1.131,449,move_up,-0.590,-0.590,-0.590,0.000,0.000,0.000
1605129985435576832,10.0.1.131,494,move_up,-0.570,-0.570,-0.570,0.000,0.000,0.000
1605129986992232960,10.0.1.131,437,move_up,-0.550,-0.550,-0.550,0.000,0.000,0.000
1605129988635139840,10.0.1.131,508,move_up,-0.530,-0.530,-0.530,0.000,0.000,0.000
1605129990184751872,10.0.1.131,498,move_up,-0.510,-0.510,-0.510,0.000,0.000,0.000
1605129991807069184,10.0.1.131,505,move_up,-0.490,-0.490,-0.490,0.000,0.000,0.000
1605129993461747968,10.0.1.131,495,move_up,-0.470,-0.470,-0.470,0.000,0.000,0.000
1605129995151393792,10.0.1.131,605,move_up,-0.450,-0.450,-0.450,0.000,0.000,0.000
1605129996730076928,10.0.1.131,471,move_up,-0.430,-0.430,-0.430,0.000,0.000,0.000
1605129998372126208,10.0.1.131,543,move_up,-0.410,-0.410,-0.410,0.000,0.000,0.000
1605129999880446976,10.0.1.131,480,move_up,-0.390,-0.390,-0.390,0.000,0.000,0.000
1605130001681607936,10.0.1.131,641,move_up,-0.370,-0.370,-0.370,0.000,0.000,0.000
1605130003342849024,10.0.1.131,579,move_up,-0.350,-0.350,-0.350,0.000,0.000,0.000
1605130004985995008,10.0.1.131,509,move_up,-0.330,-0.330,-0.330,0.000,0.000,0.000
1605130006592027904,10.0.1.131,499,move_up,-0.310,-0.310,-0.310,0.000,0.000,0.000
1605130008149362176,10.0.1.131,475,move_up,-0.290,-0.290,-0.290,0.000,0.000,0.000
1605130009675448064,10.0.1.131,463,move_up,-0.270,-0.270,-0.270,0.000,0.000,0.000
1605130011483688960,10.0.1.131,530,move_up,-0.250,-0.250,-0.250,0.000,0.000,0.000
1605130013057548032,10.0.1.131,477,move_up,-0.230,-0.230,-0.230,0.000,0.000,0.000
1605130014621355008,10.0.1.131,455,move_up,-0.210,-0.210,-0.210,0.000,0.000,0.000
1605130016105113088,10.0.1.131,422,move_up,-0.190,-0.190,-0.190,0.000,0.000,0.000
1605130017271230976,10.0.1.131,45,place,-0.180,-0.180,-0.180,0.000,0.000,0.000
1605130018289015040,10.0.1.131,59,place,-0.170,-0.170,-0.170,0.000,0.000,0.000
1605130019276540928,10.0.1.131,46,place,-0.160,-0.160,-0.160,0.000,0.000,0.000
1605130020263782144,10.0.1.131,32,place,-0.150,-0.150,-0.150,0.000,0.000,0.000
1605130021289885952,10.0.1.131,56,place,-0.140,-0.140,-0.140,0.000,0.000,0.000
1605130022295677952,10.0.1.131,61,place,-0.130,-0.130,-0.130,0.000,0.000,0.000
1605130023290256128,10.0.1.131,54,place,-0.120,-0.120,-0.120,0.000,0.000,0.000
1605130024334916096,10.0.1.131,93,place,-0.110,-0.110,-0.110,0.000,0.000,0.000
1605130025298008064,10.0.1.131,55,place,-0.100,-0.100,-0.100,0.000,0.000,0.000
1605130026289220096,10.0.1.131,44,place,-0.090,-0.090,-0.090,0.000,0.000,0.000
1605130027298504192,10.0.1.131,52,place,-0.080,-0.080,-0.080,0.000,0.000,0.000
1605130030323367168,10.0.1.131,65,place,-0.050,-0.050,-0.050,0.000,0.000,0.000
1605130031309131008,10.0.1.131,50,place,-0.040,-0.040,-0.040,0.000,0.000,0.000
1605130032310631936,10.0.1.131,51,place,-0.030,-0.030,-0.030,0.000,0.000,0.000
1605130033307480064,10.0.1.131,46,place,-0.020,-0.020,-0.020,0.000,0.000,0.000
1605130034316770048,10.0.1.131,54,place,-0.010,-0.010,-0.010,0.000,0.000,0.000
1605130035308739072,10.0.1.131,45,place,0.000,0.000,0.000,0.000,0.000,0.000
1605130036765443072,10.0.1.131,500,move_down,-0.020,-0.020,-0.020,0.000,0.000,0.000
1605130038426781952,10.0.1.131,588,move_down,-0.040,-0.040,-0.040,0.000,0.000,0.000
1605130040003089920,10.0.1.131,526,move_down,-0.060,-0.060,-0.060,0.000,0.000,0.000
1605130041665788928,10.0.1.131,608,move_down,-0.080,-0.080,-0.080,0.000,0.000,0.000
1605130043242313984,10.0.1.131,463,move_down,-0.100,-0.100,-0.100,0.000,0.000,0.000
1605130044782855936,10.0.1.131,469,move_down,-0.120,-0.120,-0.120,0.000,0.000,0.000
1605130046402139904,10.0.1.131,515,move_down,-0.140,-0.140,-0.140,0.000,0.000,0.000
1605130048013869056,10.0.1.131,477,move_down,-0.160,-0.160,-0.160,0.000,0.000,0.000
1605130049535015936,10.0.1.131,423,move_down,-0.180,-0.180,-0.180,0.000,0.000,0.000
1605130051233822208,10.0.1.131,614,move_down,-0.200,-0.200,-0.200,0.000,0.000,0.000
1605130052887186176,10.0.1.131,554,move_down,-0.220,-0.220,-0.220,0.000,0.000,0.000
1605130054415906048,10.0.1.131,413,move_down,-0.240,-0.240,-0.240,0.000,0.000,0.000
1605130055992674048,10.0.1.131,475,move_down,-0.260,-0.260,-0.260,0.000,0.000,0.000
1605130057581084928,10.0.1.131,482,move_down,-0.280,-0.280,-0.280,0.000,0.000,0.000
1605130059151791104,10.0.1.131,528,move_down,-0.300,-0.300,-0.300,0.000,0.000,0.000
1605130060910962944,10.0.1.131,553,move_down,-0.320,-0.320,-0.320,0.000,0.000,0.000
