milangroshev/digital-twin-scalability/logs/run2-3600s/10.0.1.134.csv
timestamp,node,latency,action,joint_1,joint_2,joint_3,joint_4,joint_5,joint_6
1605132028813036800,10.0.1.134,2812,move_down,-0.020,-0.020,-0.020,0.000,0.000,0.000
1605132030391307008,10.0.1.134,511,move_down,-0.040,-0.040,-0.040,0.000,0.000,0.000
1605132032077233920,10.0.1.134,485,move_down,-0.060,-0.060,-0.060,0.000,0.000,0.000
1605132033683458048,10.0.1.134,539,move_down,-0.080,-0.080,-0.080,0.000,0.000,0.000
1605132035410672896,10.0.1.134,621,move_down,-0.100,-0.100,-0.100,0.000,0.000,0.000
1605132037076472064,10.0.1.134,543,move_down,-0.120,-0.120,-0.120,0.000,0.000,0.000
1605132038666859008,10.0.1.134,537,move_down,-0.140,-0.140,-0.140,0.000,0.000,0.000
1605132040411143168,10.0.1.134,677,move_down,-0.160,-0.160,-0.160,0.000,0.000,0.000
1605132042025246976,10.0.1.134,539,move_down,-0.180,-0.180,-0.180,0.000,0.000,0.000
1605132043893155072,10.0.1.134,632,move_down,-0.200,-0.200,-0.200,0.000,0.000,0.000
1605132045526337024,10.0.1.134,508,move_down,-0.220,-0.220,-0.220,0.000,0.000,0.000
1605132047135755008,10.0.1.134,566,move_down,-0.240,-0.240,-0.240,0.000,0.000,0.000
1605132048717403904,10.0.1.134,562,move_down,-0.260,-0.260,-0.260,0.000,0.000,0.000
1605132050370286080,10.0.1.134,554,move_down,-0.280,-0.280,-0.280,0.000,0.000,0.000
1605132052035599104,10.0.1.134,633,move_down,-0.300,-0.300,-0.300,0.000,0.000,0.000
1605132053710215168,10.0.1.134,606,move_down,-0.320,-0.320,-0.320,0.000,0.000,0.000
1605132055328310016,10.0.1.134,540,move_down,-0.340,-0.340,-0.340,0.000,0.000,0.000
1605132056905306112,10.0.1.134,542,move_down,-0.360,-0.360,-0.360,0.000,0.000,0.000
1605132058468939008,10.0.1.134,475,move_down,-0.380,-0.380,-0.380,0.000,0.000,0.000
1605132060139774208,10.0.1.134,601,move_down,-0.400,-0.400,-0.400,0.000,0.000,0.000
1605132061933072128,10.0.1.134,714,move_down,-0.420,-0.420,-0.420,0.000,0.000,0.000
1605132063547023104,10.0.1.134,471,move_down,-0.440,-0.440,-0.440,0.000,0.000,0.000
1605132065116189952,10.0.1.134,477,move_down,-0.460,-0.460,-0.460,0.000,0.000,0.000
1605132066683721984,10.0.1.134,466,move_down,-0.480,-0.480,-0.480,0.000,0.000,0.000
1605132068507002112,10.0.1.134,698,move_down,-0.500,-0.500,-0.500,0.000,0.000,0.000
1605132070250376960,10.0.1.134,574,move_down,-0.520,-0.520,-0.520,0.000,0.000,0.000
1605132072009489920,10.0.1.134,591,move_down,-0.540,-0.540,-0.540,0.000,0.000,0.000
1605132073657463040,10.0.1.134,570,move_down,-0.560,-0.560,-0.560,0.000,0.000,0.000
1605132075256860928,10.0.1.134,527,move_down,-0.580,-0.580,-0.580,0.000,0.000,0.000
1605132076451883008,10.0.1.134,36,pick,-0.590,-0.590,-0.590,0.000,0.000,0.000
1605132077498688000,10.0.1.134,78,pick,-0.600,-0.600,-0.600,0.000,0.000,0.000
1605132078507400960,10.0.1.134,83,pick,-0.610,-0.610,-0.610,0.000,0.000,0.000
1605132079603876096,10.0.1.134,168,pick,-0.620,-0.620,-0.620,0.000,0.000,0.000
1605132080486074880,10.0.1.134,44,pick,-0.630,-0.630,-0.630,0.000,0.000,0.000
1605132081497956096,10.0.1.134,55,pick,-0.640,-0.640,-0.640,0.000,0.000,0.000
1605132082535206912,10.0.1.134,90,pick,-0.650,-0.650,-0.650,0.000,0.000,0.000
1605132083518880000,10.0.1.134,72,pick,-0.660,-0.660,-0.660,0.000,0.000,0.000
1605132084501918976,10.0.1.134,41,pick,-0.670,-0.670,-0.670,0.000,0.000,0.000
1605132085517083904,10.0.1.134,54,pick,-0.680,-0.680,-0.680,0.000,0.000,0.000
1605132086515171072,10.0.1.134,51,pick,-0.690,-0.690,-0.690,0.000,0.000,0.000
1605132087528256768,10.0.1.134,63,pick,-0.700,-0.700,-0.700,0.000,0.000,0.000
1605132089568484096,10.0.1.134,64,pick,-0.720,-0.720,-0.720,0.000,0.000,0.000
1605132090562573056,10.0.1.134,56,pick,-0.730,-0.730,-0.730,0.000,0.000,0.000
1605132091572120064,10.0.1.134,65,pick,-0.740,-0.740,-0.740,0.000,0.000,0.000
1605132092564753920,10.0.1.134,57,pick,-0.750,-0.750,-0.750,0.000,0.000,0.000
1605132093552349952,10.0.1.134,32,pick,-0.760,-0.760,-0.760,0.000,0.000,0.000
1605132095987788032,10.0.1.134,459,move_up,-0.750,-0.750,-0.750,0.000,0.000,0.000
1605132097790774016,10.0.1.134,702,move_up,-0.730,-0.730,-0.730,0.000,0.000,0.000
1605132099460282112,10.0.1.134,534,move_up,-0.710,-0.710,-0.710,0.000,0.000,0.000
1605132101024018944,10.0.1.134,533,move_up,-0.690,-0.690,-0.690,0.000,0.000,0.000
1605132102622221056,10.0.1.134,525,move_up,-0.670,-0.670,-0.670,0.000,0.000,0.000
1605132104251725824,10.0.1.134,516,move_up,-0.650,-0.650,-0.650,0.000,0.000,0.000
1605132106109785088,10.0.1.134,774,move_up,-0.630,-0.630,-0.630,0.000,0.000,0.000
1605132107764295168,10.0.1.134,570,move_up,-0.610,-0.610,-0.610,0.000,0.000,0.000
1605132109439486976,10.0.1.134,599,move_up,-0.590,-0.590,-0.590,0.000,0.000,0.000
1605132110997033216,10.0.1.134,486,move_up,-0.570,-0.570,-0.570,0.000,0.000,0.000
1605132112660734976,10.0.1.134,556,move_up,-0.550,-0.550,-0.550,0.000,0.000,0.000
1605132114326889984,10.0.1.134,566,move_up,-0.530,-0.530,-0.530,0.000,0.000,0.000
1605132116042673152,10.0.1.134,641,move_up,-0.510,-0.510,-0.510,0.000,0.000,0.000
1605132117632662016,10.0.1.134,505,move_up,-0.490,-0.490,-0.490,0.000,0.000,0.000
1605132119375407104,10.0.1.134,664,move_up,-0.470,-0.470,-0.470,0.000,0.000,0.000
1605132121096203008,10.0.1.134,655,move_up,-0.450,-0.450,-0.450,0.000,0.000,0.000
1605132122717715968,10.0.1.134,514,move_up,-0.430,-0.430,-0.430,0.000,0.000,0.000
1605132124246171904,10.0.1.134,467,move_up,-0.410,-0.410,-0.410,0.000,0.000,0.000
1605132125851764992,10.0.1.134,462,move_up,-0.390,-0.390,-0.390,0.000,0.000,0.000
1605132127968427776,10.0.1.134,941,move_up,-0.370,-0.370,-0.370,0.000,0.000,0.000
1605132129798209792,10.0.1.134,640,move_up,-0.350,-0.350,-0.350,0.000,0.000,0.000
1605132131515193856,10.0.1.134,617,move_up,-0.330,-0.330,-0.330,0.000,0.000,0.000
1605132133229569792,10.0.1.134,652,move_up,-0.310,-0.310,-0.310,0.000,0.000,0.000
1605132134788676864,10.0.1.134,498,move_up,-0.290,-0.290,-0.290,0.000,0.000,0.000
1605132136707783936,10.0.1.134,716,move_up,-0.270,-0.270,-0.270,0.000,0.000,0.000
1605132138556252928,10.0.1.134,568,move_up,-0.250,-0.250,-0.250,0.000,0.000,0.000
1605132140227294976,10.0.1.134,568,move_up,-0.230,-0.230,-0.230,0.000,0.000,0.000
1605132141816070912,10.0.1.134,561,move_up,-0.210,-0.210,-0.210,0.000,0.000,0.000
1605132143535753984,10.0.1.134,560,move_up,-0.190,-0.190,-0.190,0.000,0.000,0.000
1605132145654592000,10.0.1.134,46,place,-0.170,-0.170,-0.170,0.000,0.000,0.000
1605132146663912960,10.0.1.134,54,place,-0.160,-0.160,-0.160,0.000,0.000,0.000
1605132147664545024,10.0.1.134,51,place,-0.150,-0.150,-0.150,0.000,0.000,0.000
1605132148666430976,10.0.1.134,51,place,-0.140,-0.140,-0.140,0.000,0.000,0.000
1605132149661607936,10.0.1.134,45,place,-0.130,-0.130,-0.130,0.000,0.000,0.000
1605132150693478144,10.0.1.134,76,place,-0.120,-0.120,-0.120,0.000,0.000,0.000
1605132152680218880,10.0.1.134,55,place,-0.100,-0.100,-0.100,0.000,0.000,0.000
1605132153674212864,10.0.1.134,48,place,-0.090,-0.090,-0.090,0.000,0.000,0.000
1605132154695735040,10.0.1.134,68,place,-0.080,-0.080,-0.080,0.000,0.000,0.000
1605132156681056000,10.0.1.134,46,place,-0.060,-0.060,-0.060,0.000,0.000,0.000
1605132158708705024,10.0.1.134,70,place,-0.040,-0.040,-0.040,0.000,0.000,0.000
1605132159697660928,10.0.1.134,50,place,-0.030,-0.030,-0.030,0.000,0.000,0.000
1605132160711458816,10.0.1.134,60,place,-0.020,-0.020,-0.020,0.000,0.000,0.000
1605132161719078144,10.0.1.134,67,place,-0.010,-0.010,-0.010,0.000,0.000,0.000
1605132164239623936,10.0.1.134,582,move_down,-0.020,-0.020,-0.020,0.000,0.000,0.000
1605132165830607872,10.0.1.134,565,move_down,-0.040,-0.040,-0.040,0.000,0.000,0.000
1605132167368369152,10.0.1.134,482,move_down,-0.060,-0.060,-0.060,0.000,0.000,0.000
1605132168851685120,10.0.1.134,436,move_down,-0.080,-0.080,-0.080,0.000,0.000,0.000
1605132170438429952,10.0.1.134,459,move_down,-0.100,-0.100,-0.100,0.000,0.000,0.000
1605132172102441984,10.0.1.134,563,move_down,-0.120,-0.120,-0.120,0.000,0.000,0.000
1605132173695652096,10.0.1.134,496,move_down,-0.140,-0.140,-0.140,0.000,0.000,0.000
1605132175263436032,10.0.1.134,474,move_down,-0.160,-0.160,-0.160,0.000,0.000,0.000
1605132176882210048,10.0.1.134,497,move_down,-0.180,-0.180,-0.180,0.000,0.000,0.000
1605132178735745024,10.0.1.134,706,move_down,-0.200,-0.200,-0.200,0.000,0.000,0.000
1605132180413763072,10.0.1.134,660,move_down,-0.220,-0.220,-0.220,0.000,0.000,0.000
1605132181995183104,10.0.1.134,487,move_down,-0.240,-0.240,-0.240,0.000,0.000,0.000
1605132183703213824,10.0.1.134,611,move_down,-0.260,-0.260,-0.260,0.000,0.000,0.000
1605132185460026112,10.0.1.134,532,move_down,-0.280,-0.280,-0.280,0.000,0.000,0.000
1605132187005222912,10.0.1.134,511,move_down,-0.300,-0.300,-0.300,0.000,0.000,0.000
1605132188654414848,10.0.1.134,599,move_down,-0.320,-0.320,-0.320,0.000,0.000,0.000
1605132190406194944,10.0.1.134,713,move_down,-0.340,-0.340,-0.340,0.000,0.000,0.000
1605132191968951040,10.0.1.134,519,move_down,-0.360,-0.360,-0.360,0.000,0.000,0.000
1605132193603926016,10.0.1.134,589,move_down,-0.380,-0.380,-0.380,0.000,0.000,0.000
1605132195405903104,10.0.1.134,752,move_down,-0.400,-0.400,-0.400,0.000,0.000,0.000
1605132197095047936,10.0.1.134,539,move_down,-0.420,-0.420,-0.420,0.000,0.000,0.000
1605132198898291200,10.0.1.134,626,move_down,-0.440,-0.440,-0.440,0.000,0.000,0.000
1605132200725092864,10.0.1.134,687,move_down,-0.460,-0.460,-0.460,0.000,0.000,0.000
1605132202491750912,10.0.1.134,543,move_down,-0.480,-0.480,-0.480,0.000,0.000,0.000
1605132204123238144,10.0.1.134,509,move_down,-0.500,-0.500,-0.500,0.000,0.000,0.000
1605132205813057024,10.0.1.134,653,move_down,-0.520,-0.520,-0.520,0.000,0.000,0.000
1605132207443281920,10.0.1.134,530,move_down,-0.540,-0.540,-0.540,0.000,0.000,0.000
1605132209054307072,10.0.1.134,488,move_down,-0.560,-0.560,-0.560,0.000,0.000,0.000
1605132210825114112,10.0.1.134,713,move_down,-0.580,-0.580,-0.580,0.000,0.000,0.000
1605132211947848192,10.0.1.134,52,pick,-0.590,-0.590,-0.590,0.000,0.000,0.000
1605132213967564032,10.0.1.134,60,pick,-0.610,-0.610,-0.610,0.000,0.000,0.000
1605132214949196032,10.0.1.134,41,pick,-0.620,-0.620,-0.620,0.000,0.000,0.000
1605132215965664000,10.0.1.134,54,pick,-0.630,-0.630,-0.630,0.000,0.000,0.000
1605132217971746048,10.0.1.134,56,pick,-0.650,-0.650,-0.650,0.000,0.000,0.000
1605132218969551104,10.0.1.134,49,pick,-0.660,-0.660,-0.660,0.000,0.000,0.000
1605132219995079168,10.0.1.134,63,pick,-0.670,-0.670,-0.670,0.000,0.000,0.000
1605132220985282048,10.0.1.134,46,pick,-0.680,-0.680,-0.680,0.000,0.000,0.000
1605132223988954112,10.0.1.134,36,pick,-0.710,-0.710,-0.710,0.000,0.000,0.000
1605132225056962048,10.0.1.134,98,pick,-0.720,-0.720,-0.720,0.000,0.000,0.000
1605132226025891072,10.0.1.134,65,pick,-0.730,-0.730,-0.730,0.000,0.000,0.000
1605132227012752896,10.0.1.134,50,pick,-0.740,-0.740,-0.740,0.000,0.000,0.000
1605132228025980928,10.0.1.134,60,pick,-0.750,-0.750,-0.750,0.000,0.000,0.000
1605132229017210112,10.0.1.134,50,pick,-0.760,-0.760,-0.760,0.000,0.000,0.000
1605132230013462016,10.0.1.134,45,pick,-0.770,-0.770,-0.770,0.000,0.000,0.000
1605132231469829120,10.0.1.134,500,move_up,-0.750,-0.750,-0.750,0.000,0.000,0.000
1605132233028652800,10.0.1.134,485,move_up,-0.730,-0.730,-0.730,0.000,0.000,0.000
1605132234611831040,10.0.1.134,483,move_up,-0.710,-0.710,-0.710,0.000,0.000,0.000
1605132236109857024,10.0.1.134,400,move_up,-0.690,-0.690,-0.690,0.000,0.000,0.000
1605132237737946880,10.0.1.134,569,move_up,-0.670,-0.670,-0.670,0.000,0.000,0.000
1605132239291230976,10.0.1.134,454,move_up,-0.650,-0.650,-0.650,0.000,0.000,0.000
1605132240979686912,10.0.1.134,592,move_up,-0.630,-0.630,-0.630,0.000,0.000,0.000
1605132242696100096,10.0.1.134,620,move_up,-0.610,-0.610,-0.610,0.000,0.000,0.000
1605132244324393984,10.0.1.134,558,move_up,-0.590,-0.590,-0.590,0.000,0.000,0.000
1605132245965692160,10.0.1.134,472,move_up,-0.570,-0.570,-0.570,0.000,0.000,0.000
1605132247547859968,10.0.1.134,471,move_up,-0.550,-0.550,-0.550,0.000,0.000,0.000
1605132249287947008,10.0.1.134,656,move_up,-0.530,-0.530,-0.530,0.000,0.000,0.000
1605132250955140096,10.0.1.134,565,move_up,-0.510,-0.510,-0.510,0.000,0.000,0.000
1605132252733490944,10.0.1.134,670,move_up,-0.490,-0.490,-0.490,0.000,0.000,0.000
1605132254547866112,10.0.1.134,708,move_up,-0.470,-0.470,-0.470,0.000,0.000,0.000
1605132256214968064,10.0.1.134,581,move_up,-0.450,-0.450,-0.450,0.000,0.000,0.000
1605132257804924928,10.0.1.134,490,move_up,-0.430,-0.430,-0.430,0.000,0.000,0.000
1605132259410823168,10.0.1.134,405,move_up,-0.410,-0.410,-0.410,0.000,0.000,0.000
1605132261103975936,10.0.1.134,595,move_up,-0.390,-0.390,-0.390,0.000,0.000,0.000
1605132262608129024,10.0.1.134,446,move_up,-0.370,-0.370,-0.370,0.000,0.000,0.000
1605132264220325120,10.0.1.134,549,move_up,-0.350,-0.350,-0.350,0.000,0.000,0.000
1605132265906776832,10.0.1.134,639,move_up,-0.330,-0.330,-0.330,0.000,0.000,0.000
1605132267630359040,10.0.1.134,541,move_up,-0.310,-0.310,-0.310,0.000,0.000,0.000
1605132269324088064,10.0.1.134,571,move_up,-0.290,-0.290,-0.290,0.000,0.000,0.000
1605132270907084032,10.0.1.134,479,move_up,-0.270,-0.270,-0.270,0.000,0.000,0.000
1605132272622674944,10.0.1.134,676,move_up,-0.250,-0.250,-0.250,0.000,0.000,0.000
1605132274163642880,10.0.1.134,390,move_up,-0.230,-0.230,-0.230,0.000,0.000,0.000
1605132275834713856,10.0.1.134,639,move_up,-0.210,-0.210,-0.210,0.000,0.000,0.000
1605132277415694848,10.0.1.134,520,move_up,-0.190,-0.190,-0.190,0.000,0.000,0.000
1605132279585987072,10.0.1.134,61,place,-0.170,-0.170,-0.170,0.000,0.000,0.000
1605132283612793088,10.0.1.134,73,place,-0.130,-0.130,-0.130,0.000,0.000,0.000
1605132284590903040,10.0.1.134,48,place,-0.120,-0.120,-0.120,0.000,0.000,0.000
1605132285588120064,10.0.1.134,43,place,-0.110,-0.110,-0.110,0.000,0.000,0.000
1605132286622718208,10.0.1.134,66,place,-0.100,-0.100,-0.100,0.000,0.000,0.000
1605132289611109888,10.0.1.134,50,place,-0.070,-0.070,-0.070,0.000,0.000,0.000
1605132290622756864,10.0.1.134,60,place,-0.060,-0.060,-0.060,0.000,0.000,0.000
1605132293603179008,10.0.1.134,37,place,-0.030,-0.030,-0.030,0.000,0.000,0.000
1605132294622035968,10.0.1.134,54,place,-0.020,-0.020,-0.020,0.000,0.000,0.000
1605132296618341888,10.0.1.134,46,place,0.000,0.000,0.000,0.000,0.000,0.000
1605132298121351936,10.0.1.134,547,move_down,-0.020,-0.020,-0.020,0.000,0.000,0.000
1605132299766369024,10.0.1.134,568,move_down,-0.040,-0.040,-0.040,0.000,0.000,0.000
1605132301385718016,10.0.1.134,534,move_down,-0.060,-0.060,-0.060,0.000,0.000,0.000
1605132303054017024,10.0.1.134,587,move_down,-0.080,-0.080,-0.080,0.000,0.000,0.000
1605132304593015040,10.0.1.134,487,move_down,-0.100,-0.100,-0.100,0.000,0.000,0.000
1605132306285830912,10.0.1.134,654,move_down,-0.120,-0.120,-0.120,0.000,0.000,0.000
1605132307946599936,10.0.1.134,558,move_down,-0.140,-0.140,-0.140,0.000,0.000,0.000
1605132309598222848,10.0.1.134,544,move_down,-0.160,-0.160,-0.160,0.000,0.000,0.000
1605132311231748096,10.0.1.134,488,move_down,-0.180,-0.180,-0.180,0.000,0.000,0.000
1605132312668344064,10.0.1.134,446,move_down,-0.200,-0.200,-0.200,0.000,0.000,0.000
1605132314269725952,10.0.1.134,535,move_down,-0.220,-0.220,-0.220,0.000,0.000,0.000
1605132316103941888,10.0.1.134,713,move_down,-0.240,-0.240,-0.240,0.000,0.000,0.000
1605132317772589056,10.0.1.134,597,move_down,-0.260,-0.260,-0.260,0.000,0.000,0.000
1605132319319297024,10.0.1.134,523,move_down,-0.280,-0.280,-0.280,0.000,0.000,0.000
1605132321000392960,10.0.1.134,606,move_down,-0.300,-0.300,-0.300,0.000,0.000,0.000
1605132322646747136,10.0.1.134,612,move_down,-0.320,-0.320,-0.320,0.000,0.000,0.000
1605132324276338944,10.0.1.134,568,move_down,-0.340,-0.340,-0.340,0.000,0.000,0.000
1605132325929176064,10.0.1.134,641,move_down,-0.360,-0.360,-0.360,0.000,0.000,0.000
1605132327713751040,10.0.1.134,672,move_down,-0.380,-0.380,-0.380,0.000,0.000,0.000
1605132329552622080,10.0.1.134,719,move_down,-0.400,-0.400,-0.400,0.000,0.000,0.000
1605132331319062016,10.0.1.134,683,move_down,-0.420,-0.420,-0.420,0.000,0.000,0.000
1605132332906716160,10.0.1.134,536,move_down,-0.440,-0.440,-0.440,0.000,0.000,0.000
1605132334499869184,10.0.1.134,575,move_down,-0.460,-0.460,-0.460,0.000,0.000,0.000
1605132336283612928,10.0.1.134,638,move_down,-0.480,-0.480,-0.480,0.000,0.000,0.000
1605132337843614208,10.0.1.134,536,move_down,-0.500,-0.500,-0.500,0.000,0.000,0.000
1605132339380263168,10.0.1.134,509,move_down,-0.520,-0.520,-0.520,0.000,0.000,0.000
1605132341007335936,10.0.1.134,560,move_down,-0.540,-0.540,-0.540,0.000,0.000,0.000
1605132342546867968,10.0.1.134,447,move_down,-0.560,-0.560,-0.560,0.000,0.000,0.000
1605132344110256896,10.0.1.134,459,move_down,-0.580,-0.580,-0.580,0.000,0.000,0.000
1605132345310596096,10.0.1.134,47,pick,-0.590,-0.590,-0.590,0.000,0.000,0.000
1605132346329392896,10.0.1.134,58,pick,-0.600,-0.600,-0.600,0.000,0.000,0.000
1605132347327607040,10.0.1.134,56,pick,-0.610,-0.610,-0.610,0.000,0.000,0.000
1605132349339024128,10.0.1.134,48,pick,-0.630,-0.630,-0.630,0.000,0.000,0.000
1605132350343034112,10.0.1.134,51,pick,-0.640,-0.640,-0.640,0.000,0.000,0.000
1605132351342319104,10.0.1.134,48,pick,-0.650,-0.650,-0.650,0.000,0.000,0.000
1605132353349961984,10.0.1.134,48,pick,-0.670,-0.670,-0.670,0.000,0.000,0.000
1605132354358767104,10.0.1.134,53,pick,-0.680,-0.680,-0.680,0.000,0.000,0.000
1605132355364891136,10.0.1.134,58,pick,-0.690,-0.690,-0.690,0.000,0.000,0.000
1605132356376254208,10.0.1.134,68,pick,-0.700,-0.700,-0.700,0.000,0.000,0.000
1605132358384313088,10.0.1.134,64,pick,-0.720,-0.720,-0.720,0.000,0.000,0.000
1605132360371928064,10.0.1.134,41,pick,-0.740,-0.740,-0.740,0.000,0.000,0.000
1605132361409886976,10.0.1.134,76,pick,-0.750,-0.750,-0.750,0.000,0.000,0.000
1605132363394995968,10.0.1.134,55,pick,-0.770,-0.770,-0.770,0.000,0.000,0.000
1605132364915996928,10.0.1.134,564,move_up,-0.750,-0.750,-0.750,0.000,0.000,0.000
1605132366507356928,10.0.1.134,488,move_up,-0.730,-0.730,-0.730,0.000,0.000,0.000
1605132368254892032,10.0.1.134,559,move_up,-0.710,-0.710,-0.710,0.000,0.000,0.000
1605132370004679936,10.0.1.134,635,move_up,-0.690,-0.690,-0.690,0.000,0.000,0.000
1605132371627016960,10.0.1.134,549,move_up,-0.670,-0.670,-0.670,0.000,0.000,0.000
1605132373234462976,10.0.1.134,508,move_up,-0.650,-0.650,-0.650,0.000,0.000,0.000
1605132374840523008,10.0.1.134,573,move_up,-0.630,-0.630,-0.630,0.000,0.000,0.000
1605132376845068032,10.0.1.134,934,move_up,-0.610,-0.610,-0.610,0.000,0.000,0.000
1605132378564254976,10.0.1.134,619,move_up,-0.590,-0.590,-0.590,0.000,0.000,0.000
1605132380469986816,10.0.1.134,780,move_up,-0.570,-0.570,-0.570,0.000,0.000,0.000
1605132381967333120,10.0.1.134,496,move_up,-0.550,-0.550,-0.550,0.000,0.000,0.000
1605132383629460224,10.0.1.134,535,move_up,-0.530,-0.530,-0.530,0.000,0.000,0.000
1605132385219052032,10.0.1.134,488,move_up,-0.510,-0.510,-0.510,0.000,0.000,0.000
1605132386766459904,10.0.1.134,523,move_up,-0.490,-0.490,-0.490,0.000,0.000,0.000
1605132388377193984,10.0.1.134,510,move_up,-0.470,-0.470,-0.470,0.000,0.000,0.000
1605132390157042944,10.0.1.134,607,move_up,-0.450,-0.450,-0.450,0.000,0.000,0.000
1605132391701522944,10.0.1.134,503,move_up,-0.430,-0.430,-0.430,0.000,0.000,0.000
1605132393329454848,10.0.1.134,540,move_up,-0.410,-0.410,-0.410,0.000,0.000,0.000
1605132394952112896,10.0.1.134,537,move_up,-0.390,-0.390,-0.390,0.000,0.000,0.000
1605132396805017856,10.0.1.134,635,move_up,-0.370,-0.370,-0.370,0.000,0.000,0.000
1605132398458931968,10.0.1.134,527,move_up,-0.350,-0.350,-0.350,0.000,0.000,0.000
1605132400008097024,10.0.1.134,468,move_up,-0.330,-0.330,-0.330,0.000,0.000,0.000
1605132401679666944,10.0.1.134,542,move_up,-0.310,-0.310,-0.310,0.000,0.000,0.000
1605132403280316160,10.0.1.134,485,move_up,-0.290,-0.290,-0.290,0.000,0.000,0.000
1605132405083205888,10.0.1.134,635,move_up,-0.270,-0.270,-0.270,0.000,0.000,0.000
1605132406655276032,10.0.1.134,506,move_up,-0.250,-0.250,-0.250,0.000,0.000,0.000
1605132408294014976,10.0.1.134,555,move_up,-0.230,-0.230,-0.230,0.000,0.000,0.000
1605132409907758080,10.0.1.134,512,move_up,-0.210,-0.210,-0.210,0.000,0.000,0.000
1605132411728905984,10.0.1.134,761,move_up,-0.190,-0.190,-0.190,0.000,0.000,0.000
1605132412869993984,10.0.1.134,51,place,-0.180,-0.180,-0.180,0.000,0.000,0.000
1605132413859571968,10.0.1.134,39,place,-0.170,-0.170,-0.170,0.000,0.000,0.000
1605132414875901952,10.0.1.134,52,place,-0.160,-0.160,-0.160,0.000,0.000,0.000
1605132415878323200,10.0.1.134,47,place,-0.150,-0.150,-0.150,0.000,0.000,0.000
1605132416875264768,10.0.1.134,35,place,-0.140,-0.140,-0.140,0.000,0.000,0.000
1605132418890377984,10.0.1.134,41,place,-0.120,-0.120,-0.120,0.000,0.000,0.000
1605132419896642048,10.0.1.134,36,place,-0.110,-0.110,-0.110,0.000,0.000,0.000
1605132420912302080,10.0.1.134,51,place,-0.100,-0.100,-0.100,0.000,0.000,0.000
1605132421910455040,10.0.1.134,46,place,-0.090,-0.090,-0.090,0.000,0.000,0.000
1605132422934277888,10.0.1.134,55,place,-0.080,-0.080,-0.080,0.000,0.000,0.000
1605132423939641856,10.0.1.134,60,place,-0.070,-0.070,-0.070,0.000,0.000,0.000
1605132424943484928,10.0.1.134,63,place,-0.060,-0.060,-0.060,0.000,0.000,0.000
1605132425931521024,10.0.1.134,46,place,-0.050,-0.050,-0.050,0.000,0.000,0.000
1605132426942526208,10.0.1.134,55,place,-0.040,-0.040,-0.040,0.000,0.000,0.000
1605132427939008000,10.0.1.134,48,place,-0.030,-0.030,-0.030,0.000,0.000,0.000
1605132428937114112,10.0.1.134,45,place,-0.020,-0.020,-0.020,0.000,0.000,0.000
1605132429981609984,10.0.1.134,80,place,-0.010,-0.010,-0.010,0.000,0.000,0.000
1605132430967811072,10.0.1.134,64,place,0.000,0.000,0.000,0.000,0.000,0.000
1605132432528628992,10.0.1.134,624,move_down,-0.020,-0.020,-0.020,0.000,0.000,0.000
1605132434127227904,10.0.1.134,514,move_down,-0.040,-0.040,-0.040,0.000,0.000,0.000
1605132435795464960,10.0.1.134,611,move_down,-0.060,-0.060,-0.060,0.000,0.000,0.000
1605132437404876032,10.0.1.134,519,move_down,-0.080,-0.080,-0.080,0.000,0.000,0.000
1605132439084595968,10.0.1.134,534,move_down,-0.100,-0.100,-0.100,0.000,0.000,0.000
1605132440915961088,10.0.1.134,727,move_down,-0.120,-0.120,-0.120,0.000,0.000,0.000
1605132442665707008,10.0.1.134,639,move_down,-0.140,-0.140,-0.140,0.000,0.000,0.000
1605132444418648832,10.0.1.134,597,move_down,-0.160,-0.160,-0.160,0.000,0.000,0.000
1605132446255412224,10.0.1.134,672,move_down,-0.180,-0.180,-0.180,0.000,0.000,0.000
1605132448046766080,10.0.1.134,586,move_down,-0.200,-0.200,-0.200,0.000,0.000,0.000
1605132449620601856,10.0.1.134,449,move_down,-0.220,-0.220,-0.220,0.000,0.000,0.000
1605132451158665984,10.0.1.134,513,move_down,-0.240,-0.240,-0.240,0.000,0.000,0.000
1605132452813741056,10.0.1.134,584,move_down,-0.260,-0.260,-0.260,0.000,0.000,0.000
1605132454398874880,10.0.1.134,511,move_down,-0.280,-0.280,-0.280,0.000,0.000,0.000
1605132456039331840,10.0.1.134,484,move_down,-0.300,-0.300,-0.300,0.000,0.000,0.000
1605132457770343168,10.0.1.134,658,move_down,-0.320,-0.320,-0.320,0.000,0.000,0.000
1605132459576152064,10.0.1.134,776,move_down,-0.340,-0.340,-0.340,0.000,0.000,0.000
1605132461386807040,10.0.1.134,707,move_down,-0.360,-0.360,-0.360,0.000,0.000,0.000
1605132463354208000,10.0.1.134,791,move_down,-0.380,-0.380,-0.380,0.000,0.000,0.000
1605132464933306880,10.0.1.134,546,move_down,-0.400,-0.400,-0.400,0.000,0.000,0.000
1605132466507798016,10.0.1.134,506,move_down,-0.420,-0.420,-0.420,0.000,0.000,0.000
1605132468115143168,10.0.1.134,500,move_down,-0.440,-0.440,-0.440,0.000,0.000,0.000
1605132469677711872,10.0.1.134,477,move_down,-0.460,-0.460,-0.460,0.000,0.000,0.000
1605132471386168832,10.0.1.134,635,move_down,-0.480,-0.480,-0.480,0.000,0.000,0.000
1605132473137195008,10.0.1.134,725,move_down,-0.500,-0.500,-0.500,0.000,0.000,0.000
1605132474701756928,10.0.1.134,548,move_down,-0.520,-0.520,-0.520,0.000,0.000,0.000
1605132476232486912,10.0.1.134,512,move_down,-0.540,-0.540,-0.540,0.000,0.000,0.000
1605132477839229184,10.0.1.134,514,move_down,-0.560,-0.560,-0.560,0.000,0.000,0.000
1605132479458002944,10.0.1.134,573,move_down,-0.580,-0.580,-0.580,0.000,0.000,0.000
1605132481565443072,10.0.1.134,35,pick,-0.600,-0.600,-0.600,0.000,0.000,0.000
1605132483591264000,10.0.1.134,55,pick,-0.620,-0.620,-0.620,0.000,0.000,0.000
1605132484591442176,10.0.1.134,51,pick,-0.630,-0.630,-0.630,0.000,0.000,0.000
1605132486604290048,10.0.1.134,58,pick,-0.650,-0.650,-0.650,0.000,0.000,0.000
1605132488602631168,10.0.1.134,45,pick,-0.670,-0.670,-0.670,0.000,0.000,0.000
1605132489615798016,10.0.1.134,57,pick,-0.680,-0.680,-0.680,0.000,0.000,0.000
1605132490632668928,10.0.1.134,73,pick,-0.690,-0.690,-0.690,0.000,0.000,0.000
1605132491616045056,10.0.1.134,52,pick,-0.700,-0.700,-0.700,0.000,0.000,0.000
1605132492614276864,10.0.1.134,50,pick,-0.710,-0.710,-0.710,0.000,0.000,0.000
1605132493640078080,10.0.1.134,71,pick,-0.720,-0.720,-0.720,0.000,0.000,0.000
1605132494629062912,10.0.1.134,56,pick,-0.730,-0.730,-0.730,0.000,0.000,0.000
1605132495624901888,10.0.1.134,50,pick,-0.740,-0.740,-0.740,0.000,0.000,0.000
1605132496627228928,10.0.1.134,51,pick,-0.750,-0.750,-0.750,0.000,0.000,0.000
1605132497630078976,10.0.1.134,50,pick,-0.760,-0.760,-0.760,0.000,0.000,0.000
1605132498620771840,10.0.1.134,41,pick,-0.770,-0.770,-0.770,0.000,0.000,0.000
1605132500097212160,10.0.1.134,514,move_up,-0.750,-0.750,-0.750,0.000,0.000,0.000
1605132501793175040,10.0.1.134,607,move_up,-0.730,-0.730,-0.730,0.000,0.000,0.000
1605132503569232896,10.0.1.134,734,move_up,-0.710,-0.710,-0.710,0.000,0.000,0.000
1605132505294094080,10.0.1.134,644,move_up,-0.690,-0.690,-0.690,0.000,0.000,0.000
1605132506909199872,10.0.1.134,552,move_up,-0.670,-0.670,-0.670,0.000,0.000,0.000
1605132508763112960,10.0.1.134,611,move_up,-0.650,-0.650,-0.650,0.000,0.000,0.000
1605132510432441088,10.0.1.134,557,move_up,-0.630,-0.630,-0.630,0.000,0.000,0.000
1605132512203578112,10.0.1.134,689,move_up,-0.610,-0.610,-0.610,0.000,0.000,0.000
1605132514036286976,10.0.1.134,695,move_up,-0.590,-0.590,-0.590,0.000,0.000,0.000
1605132515620044032,10.0.1.134,562,move_up,-0.570,-0.570,-0.570,0.000,0.000,0.000
1605132517441616128,10.0.1.134,715,move_up,-0.550,-0.550,-0.550,0.000,0.000,0.000
1605132519480900096,10.0.1.134,930,move_up,-0.530,-0.530,-0.530,0.000,0.000,0.000
1605132521006584832,10.0.1.134,511,move_up,-0.510,-0.510,-0.510,0.000,0.000,0.000
1605132522720776960,10.0.1.134,659,move_up,-0.490,-0.490,-0.490,0.000,0.000,0.000
1605132524517494016,10.0.1.134,655,move_up,-0.470,-0.470,-0.470,0.000,0.000,0.000
1605132526144399872,10.0.1.134,560,move_up,-0.450,-0.450,-0.450,0.000,0.000,0.000
1605132527775865088,10.0.1.134,612,move_up,-0.430,-0.430,-0.430,0.000,0.000,0.000
1605132529500790016,10.0.1.134,613,move_up,-0.410,-0.410,-0.410,0.000,0.000,0.000
1605132531200404992,10.0.1.134,590,move_up,-0.390,-0.390,-0.390,0.000,0.000,0.000
1605132532810827008,10.0.1.134,515,move_up,-0.370,-0.370,-0.370,0.000,0.000,0.000
1605132534518970112,10.0.1.134,559,move_up,-0.350,-0.350,-0.350,0.000,0.000,0.000
1605132536365113088,10.0.1.134,754,move_up,-0.330,-0.330,-0.330,0.000,0.000,0.000
1605132537968346112,10.0.1.134,534,move_up,-0.310,-0.310,-0.310,0.000,0.000,0.000
1605132539712773120,10.0.1.134,700,move_up,-0.290,-0.290,-0.290,0.000,0.000,0.000
1605132541394153216,10.0.1.134,586,move_up,-0.270,-0.270,-0.270,0.000,0.000,0.000
1605132543013494016,10.0.1.134,554,move_up,-0.250,-0.250,-0.250,0.000,0.000,0.000
1605132544773825024,10.0.1.134,644,move_up,-0.230,-0.230,-0.230,0.000,0.000,0.000
1605132546415948032,10.0.1.134,516,move_up,-0.210,-0.210,-0.210,0.000,0.000,0.000
1605132547968175872,10.0.1.134,440,move_up,-0.190,-0.190,-0.190,0.000,0.000,0.000
1605132549084805120,10.0.1.134,49,place,-0.180,-0.180,-0.180,0.000,0.000,0.000
1605132550084033024,10.0.1.134,46,place,-0.170,-0.170,-0.170,0.000,0.000,0.000
1605132554097693952,10.0.1.134,50,place,-0.130,-0.130,-0.130,0.000,0.000,0.000
1605132555128225024,10.0.1.134,53,place,-0.120,-0.120,-0.120,0.000,0.000,0.000
1605132557132877056,10.0.1.134,56,place,-0.100,-0.100,-0.100,0.000,0.000,0.000
1605132558143901952,10.0.1.134,65,place,-0.090,-0.090,-0.090,0.000,0.000,0.000
1605132559157330944,10.0.1.134,77,place,-0.080,-0.080,-0.080,0.000,0.000,0.000
1605132560163788032,10.0.1.134,82,place,-0.070,-0.070,-0.070,0.000,0.000,0.000
1605132562130413056,10.0.1.134,41,place,-0.050,-0.050,-0.050,0.000,0.000,0.000
1605132563161806080,10.0.1.134,70,place,-0.040,-0.040,-0.040,0.000,0.000,0.000
1605132565173787136,10.0.1.134,74,place,-0.020,-0.020,-0.020,0.000,0.000,0.000
1605132566177207040,10.0.1.134,76,place,-0.010,-0.010,-0.010,0.000,0.000,0.000
1605132567166873856,10.0.1.134,64,place,0.000,0.000,0.000,0.000,0.000,0.000
1605132568575692032,10.0.1.134,471,move_down,-0.020,-0.020,-0.020,0.000,0.000,0.000
1605132570208390912,10.0.1.134,533,move_down,-0.040,-0.040,-0.040,0.000,0.000,0.000
1605132571833623040,10.0.1.134,475,move_down,-0.060,-0.060,-0.060,0.000,0.000,0.000
1605132573546610944,10.0.1.134,612,move_down,-0.080,-0.080,-0.080,0.000,0.000,0.000
1605132575096622080,10.0.1.134,442,move_down,-0.100,-0.100,-0.100,0.000,0.000,0.000
1605132576679553024,10.0.1.134,499,move_down,-0.120,-0.120,-0.120,0.000,0.000,0.000
1605132578398134016,10.0.1.134,491,move_down,-0.140,-0.140,-0.140,0.000,0.000,0.000
1605132579900934912,10.0.1.134,481,move_down,-0.160,-0.160,-0.160,0.000,0.000,0.000
1605132581461817088,10.0.1.134,507,move_down,-0.180,-0.180,-0.180,0.000,0.000,0.000
1605132583166795008,10.0.1.134,516,move_down,-0.200,-0.200,-0.200,0.000,0.000,0.000
1605132585043427840,10.0.1.134,855,move_down,-0.220,-0.220,-0.220,0.000,0.000,0.000
1605132586595379968,10.0.1.134,573,move_down,-0.240,-0.240,-0.240,0.000,0.000,0.000
1605132588497411840,10.0.1.134,659,move_down,-0.260,-0.260,-0.260,0.000,0.000,0.000
1605132590144357888,10.0.1.134,640,move_down,-0.280,-0.280,-0.280,0.000,0.000,0.000
1605132591705135104,10.0.1.134,493,move_down,-0.300,-0.300,-0.300,0.000,0.000,0.000
1605132593316773888,10.0.1.134,541,move_down,-0.320,-0.320,-0.320,0.000,0.000,0.000
1605132594964293888,10.0.1.134,521,move_down,-0.340,-0.340,-0.340,0.000,0.000,0.000
1605132596530384896,10.0.1.134,485,move_down,-0.360,-0.360,-0.360,0.000,0.000,0.000
1605132598110353920,10.0.1.134,511,move_down,-0.380,-0.380,-0.380,0.000,0.000,0.000
1605132599959451904,10.0.1.134,764,move_down,-0.400,-0.400,-0.400,0.000,0.000,0.000
1605132601668435200,10.0.1.134,553,move_down,-0.420,-0.420,-0.420,0.000,0.000,0.000
1605132603351142912,10.0.1.134,626,move_down,-0.440,-0.440,-0.440,0.000,0.000,0.000
1605132604959543040,10.0.1.134,485,move_down,-0.460,-0.460,-0.460,0.000,0.000,0.000
1605132606678886912,10.0.1.134,667,move_down,-0.480,-0.480,-0.480,0.000,0.000,0.000
1605132608596317952,10.0.1.134,743,move_down,-0.500,-0.500,-0.500,0.000,0.000,0.000
1605132610316574208,10.0.1.134,505,move_down,-0.520,-0.520,-0.520,0.000,0.000,0.000
1605132611892210944,10.0.1.134,522,move_down,-0.540,-0.540,-0.540,0.000,0.000,0.000
1605132613462490112,10.0.1.134,466,move_down,-0.560,-0.560,-0.560,0.000,0.000,0.000
1605132615115629824,10.0.1.134,583,move_down,-0.580,-0.580,-0.580,0.000,0.000,0.000
1605132616238972928,10.0.1.134,51,pick,-0.590,-0.590,-0.590,0.000,0.000,0.000
1605132617236288000,10.0.1.134,47,pick,-0.600,-0.600,-0.600,0.000,0.000,0.000
1605132618236433152,10.0.1.134,46,pick,-0.610,-0.610,-0.610,0.000,0.000,0.000
1605132620264414976,10.0.1.134,71,pick,-0.630,-0.630,-0.630,0.000,0.000,0.000
1605132621243439872,10.0.1.134,48,pick,-0.640,-0.640,-0.640,0.000,0.000,0.000
1605132623254267904,10.0.1.134,57,pick,-0.660,-0.660,-0.660,0.000,0.000,0.000
1605132624283368192,10.0.1.134,85,pick,-0.670,-0.670,-0.670,0.000,0.000,0.000
1605132625261554944,10.0.1.134,63,pick,-0.680,-0.680,-0.680,0.000,0.000,0.000
1605132626268443136,10.0.1.134,56,pick,-0.690,-0.690,-0.690,0.000,0.000,0.000
1605132627270187008,10.0.1.134,56,pick,-0.700,-0.700,-0.700,0.000,0.000,0.000
1605132628282242048,10.0.1.134,61,pick,-0.710,-0.710,-0.710,0.000,0.000,0.000
1605132629303031040,10.0.1.134,68,pick,-0.720,-0.720,-0.720,0.000,0.000,0.000
1605132630282768128,10.0.1.134,47,pick,-0.730,-0.730,-0.730,0.000,0.000,0.000
1605132631310236928,10.0.1.134,72,pick,-0.740,-0.740,-0.740,0.000,0.000,0.000
1605132632273472000,10.0.1.134,34,pick,-0.750,-0.750,-0.750,0.000,0.000,0.000
1605132633280390144,10.0.1.134,40,pick,-0.760,-0.760,-0.760,0.000,0.000,0.000
1605132634322257920,10.0.1.134,82,pick,-0.770,-0.770,-0.770,0.000,0.000,0.000
1605132635866071040,10.0.1.134,619,move_up,-0.750,-0.750,-0.750,0.000,0.000,0.000
1605132637893111040,10.0.1.134,795,move_up,-0.730,-0.730,-0.730,0.000,0.000,0.000
1605132639614068992,10.0.1.134,590,move_up,-0.710,-0.710,-0.710,0.000,0.000,0.000
1605132641169580032,10.0.1.134,510,move_up,-0.690,-0.690,-0.690,0.000,0.000,0.000
1605132642768035840,10.0.1.134,473,move_up,-0.670,-0.670,-0.670,0.000,0.000,0.000
1605132644337306880,10.0.1.134,506,move_up,-0.650,-0.650,-0.650,0.000,0.000,0.000
1605132646090439936,10.0.1.134,684,move_up,-0.630,-0.630,-0.630,0.000,0.000,0.000
1605132647664160000,10.0.1.134,508,move_up,-0.610,-0.610,-0.610,0.000,0.000,0.000
1605132649540563200,10.0.1.134,687,move_up,-0.590,-0.590,-0.590,0.000,0.000,0.000
1605132651207702016,10.0.1.134,587,move_up,-0.570,-0.570,-0.570,0.000,0.000,0.000
1605132652966818048,10.0.1.134,699,move_up,-0.550,-0.550,-0.550,0.000,0.000,0.000
1605132654552148992,10.0.1.134,470,move_up,-0.530,-0.530,-0.530,0.000,0.000,0.000
1605132656084196096,10.0.1.134,482,move_up,-0.510,-0.510,-0.510,0.000,0.000,0.000
1605132657708108800,10.0.1.134,567,move_up,-0.490,-0.490,-0.490,0.000,0.000,0.000
1605132659419464960,10.0.1.134,628,move_up,-0.470,-0.470,-0.470,0.000,0.000,0.000
1605132660990071040,10.0.1.134,503,move_up,-0.450,-0.450,-0.450,0.000,0.000,0.000
1605132662741869056,10.0.1.134,689,move_up,-0.430,-0.430,-0.430,0.000,0.000,0.000
1605132664395273984,10.0.1.134,563,move_up,-0.410,-0.410,-0.410,0.000,0.000,0.000
1605132665999068928,10.0.1.134,504,move_up,-0.390,-0.390,-0.390,0.000,0.000,0.000
1605132667637522944,10.0.1.134,509,move_up,-0.370,-0.370,-0.370,0.000,0.000,0.000
1605132669287785984,10.0.1.134,529,move_up,-0.350,-0.350,-0.350,0.000,0.000,0.000
1605132671067051776,10.0.1.134,622,move_up,-0.330,-0.330,-0.330,0.000,0.000,0.000
1605132673014900992,10.0.1.134,684,move_up,-0.310,-0.310,-0.310,0.000,0.000,0.000
1605132674600907008,10.0.1.134,498,move_up,-0.290,-0.290,-0.290,0.000,0.000,0.000
1605132676243206912,10.0.1.134,559,move_up,-0.270,-0.270,-0.270,0.000,0.000,0.000
1605132677882752768,10.0.1.134,551,move_up,-0.250,-0.250,-0.250,0.000,0.000,0.000
1605132679520297984,10.0.1.134,574,move_up,-0.230,-0.230,-0.230,0.000,0.000,0.000
1605132681265111040,10.0.1.134,534,move_up,-0.210,-0.210,-0.210,0.000,0.000,0.000
1605132682921127936,10.0.1.134,492,move_up,-0.190,-0.190,-0.190,0.000,0.000,0.000
1605132684076601088,10.0.1.134,52,place,-0.180,-0.180,-0.180,0.000,0.000,0.000
1605132686076924928,10.0.1.134,50,place,-0.160,-0.160,-0.160,0.000,0.000,0.000
1605132688103933184,10.0.1.134,72,place,-0.140,-0.140,-0.140,0.000,0.000,0.000
1605132689100038144,10.0.1.134,66,place,-0.130,-0.130,-0.130,0.000,0.000,0.000
1605132690087264000,10.0.1.134,52,place,-0.120,-0.120,-0.120,0.000,0.000,0.000
1605132692082170112,10.0.1.134,45,place,-0.100,-0.100,-0.100,0.000,0.000,0.000
1605132693099453952,10.0.1.134,56,place,-0.090,-0.090,-0.090,0.000,0.000,0.000
1605132694080882944,10.0.1.134,36,place,-0.080,-0.080,-0.080,0.000,0.000,0.000
1605132696108894208,10.0.1.134,62,place,-0.060,-0.060,-0.060,0.000,0.000,0.000
1605132697097731072,10.0.1.134,49,place,-0.050,-0.050,-0.050,0.000,0.000,0.000
1605132698105259008,10.0.1.134,48,place,-0.040,-0.040,-0.040,0.000,0.000,0.000
1605132699115681792,10.0.1.134,49,place,-0.030,-0.030,-0.030,0.000,0.000,0.000
1605132700137868800,10.0.1.134,70,place,-0.020,-0.020,-0.020,0.000,0.000,0.000
1605132701139971072,10.0.1.134,68,place,-0.010,-0.010,-0.010,0.000,0.000,0.000
1605132702164293888,10.0.1.134,89,place,0.000,0.000,0.000,0.000,0.000,0.000
1605132703777826048,10.0.1.134,693,move_down,-0.020,-0.020,-0.020,0.000,0.000,0.000
1605132705620676096,10.0.1.134,636,move_down,-0.040,-0.040,-0.040,0.000,0.000,0.000
1605132707140594944,10.0.1.134,486,move_down,-0.060,-0.060,-0.060,0.000,0.000,0.000
1605132708769711872,10.0.1.134,538,move_down,-0.080,-0.080,-0.080,0.000,0.000,0.000
1605132710333071872,10.0.1.134,494,move_down,-0.100,-0.100,-0.100,0.000,0.000,0.000
1605132711891412992,10.0.1.134,481,move_down,-0.120,-0.120,-0.120,0.000,0.000,0.000
1605132713801383936,10.0.1.134,745,move_down,-0.140,-0.140,-0.140,0.000,0.000,0.000
1605132715566189056,10.0.1.134,696,move_down,-0.160,-0.160,-0.160,0.000,0.000,0.000
1605132717116993792,10.0.1.134,489,move_down,-0.180,-0.180,-0.180,0.000,0.000,0.000
1605132718844768000,10.0.1.134,517,move_down,-0.200,-0.200,-0.200,0.000,0.000,0.000
1605132720646260992,10.0.1.134,625,move_down,-0.220,-0.220,-0.220,0.000,0.000,0.000
1605132722269975808,10.0.1.134,577,move_down,-0.240,-0.240,-0.240,0.000,0.000,0.000
1605132723982528000,10.0.1.134,563,move_down,-0.260,-0.260,-0.260,0.000,0.000,0.000
1605132725606108928,10.0.1.134,536,move_down,-0.280,-0.280,-0.280,0.000,0.000,0.000
1605132727340916992,10.0.1.134,593,move_down,-0.300,-0.300,-0.300,0.000,0.000,0.000
1605132729005634048,10.0.1.134,577,move_down,-0.320,-0.320,-0.320,0.000,0.000,0.000
1605132730798409984,10.0.1.134,464,move_down,-0.340,-0.340,-0.340,0.000,0.000,0.000
1605132732441494016,10.0.1.134,498,move_down,-0.360,-0.360,-0.360,0.000,0.000,0.000
1605132734056654080,10.0.1.134,543,move_down,-0.380,-0.380,-0.380,0.000,0.000,0.000
1605132735681148160,10.0.1.134,523,move_down,-0.400,-0.400,-0.400,0.000,0.000,0.000
1605132737249434880,10.0.1.134,525,move_down,-0.420,-0.420,-0.420,0.000,0.000,0.000
1605132738827969024,10.0.1.134,538,move_down,-0.440,-0.440,-0.440,0.000,0.000,0.000
1605132740666490112,10.0.1.134,741,move_down,-0.460,-0.460,-0.460,0.000,0.000,0.000
1605132742425240064,10.0.1.134,626,move_down,-0.480,-0.480,-0.480,0.000,0.000,0.000
1605132744140475904,10.0.1.134,597,move_down,-0.500,-0.500,-0.500,0.000,0.000,0.000
1605132746018668032,10.0.1.134,668,move_down,-0.520,-0.520,-0.520,0.000,0.000,0.000
1605132747596728064,10.0.1.134,496,move_down,-0.540,-0.540,-0.540,0.000,0.000,0.000
1605132749142693120,10.0.1.134,460,move_down,-0.560,-0.560,-0.560,0.000,0.000,0.000
1605132751075933952,10.0.1.134,838,move_down,-0.580,-0.580,-0.580,0.000,0.000,0.000
1605132752149288960,10.0.1.134,41,pick,-0.590,-0.590,-0.590,0.000,0.000,0.000
1605132753187618048,10.0.1.134,67,pick,-0.600,-0.600,-0.600,0.000,0.000,0.000
1605132754184289024,10.0.1.134,51,pick,-0.610,-0.610,-0.610,0.000,0.000,0.000
1605132755172303872,10.0.1.134,37,pick,-0.620,-0.620,-0.620,0.000,0.000,0.000
1605132756194771968,10.0.1.134,58,pick,-0.630,-0.630,-0.630,0.000,0.000,0.000
1605132757209379072,10.0.1.134,71,pick,-0.640,-0.640,-0.640,0.000,0.000,0.000
1605132758195591936,10.0.1.134,56,pick,-0.650,-0.650,-0.650,0.000,0.000,0.000
1605132759183826944,10.0.1.134,36,pick,-0.660,-0.660,-0.660,0.000,0.000,0.000
1605132760195439104,10.0.1.134,46,pick,-0.670,-0.670,-0.670,0.000,0.000,0.000
1605132761207008000,10.0.1.134,55,pick,-0.680,-0.680,-0.680,0.000,0.000,0.000
1605132762203290880,10.0.1.134,51,pick,-0.690,-0.690,-0.690,0.000,0.000,0.000
1605132763191133952,10.0.1.134,37,pick,-0.700,-0.700,-0.700,0.000,0.000,0.000
1605132764208708096,10.0.1.134,52,pick,-0.710,-0.710,-0.710,0.000,0.000,0.000
1605132765232652800,10.0.1.134,61,pick,-0.720,-0.720,-0.720,0.000,0.000,0.000
1605132766217170944,10.0.1.134,44,pick,-0.730,-0.730,-0.730,0.000,0.000,0.000
1605132767244591104,10.0.1.134,66,pick,-0.740,-0.740,-0.740,0.000,0.000,0.000
1605132768252579840,10.0.1.134,73,pick,-0.750,-0.750,-0.750,0.000,0.000,0.000
1605132769228549888,10.0.1.134,46,pick,-0.760,-0.760,-0.760,0.000,0.000,0.000
1605132770230680832,10.0.1.134,38,pick,-0.770,-0.770,-0.770,0.000,0.000,0.000
1605132771735241984,10.0.1.134,539,move_up,-0.750,-0.750,-0.750,0.000,0.000,0.000
1605132773487365888,10.0.1.134,691,move_up,-0.730,-0.730,-0.730,0.000,0.000,0.000
1605132775098220032,10.0.1.134,515,move_up,-0.710,-0.710,-0.710,0.000,0.000,0.000
1605132776927602944,10.0.1.134,670,move_up,-0.690,-0.690,-0.690,0.000,0.000,0.000
1605132778684652032,10.0.1.134,642,move_up,-0.670,-0.670,-0.670,0.000,0.000,0.000
1605132780330418944,10.0.1.134,577,move_up,-0.650,-0.650,-0.650,0.000,0.000,0.000
1605132781904573952,10.0.1.134,519,move_up,-0.630,-0.630,-0.630,0.000,0.000,0.000
1605132783562726912,10.0.1.134,558,move_up,-0.610,-0.610,-0.610,0.000,0.000,0.000
1605132785419380992,10.0.1.134,753,move_up,-0.590,-0.590,-0.590,0.000,0.000,0.000
1605132787018297856,10.0.1.134,469,move_up,-0.570,-0.570,-0.570,0.000,0.000,0.000
1605132788808201984,10.0.1.134,592,move_up,-0.550,-0.550,-0.550,0.000,0.000,0.000
1605132790851192832,10.0.1.134,850,move_up,-0.530,-0.530,-0.530,0.000,0.000,0.000
1605132792502838016,10.0.1.134,504,move_up,-0.510,-0.510,-0.510,0.000,0.000,0.000
1605132794500740096,10.0.1.134,918,move_up,-0.490,-0.490,-0.490,0.000,0.000,0.000
1605132796279154944,10.0.1.134,428,move_up,-0.470,-0.470,-0.470,0.000,0.000,0.000
1605132798468962816,10.0.1.134,942,move_up,-0.450,-0.450,-0.450,0.000,0.000,0.000
1605132800588867840,10.0.1.134,994,move_up,-0.430,-0.430,-0.430,0.000,0.000,0.000
1605132802311293952,10.0.1.134,601,move_up,-0.410,-0.410,-0.410,0.000,0.000,0.000
1605132804001894912,10.0.1.134,609,move_up,-0.390,-0.390,-0.390,0.000,0.000,0.000
1605132805664683008,10.0.1.134,605,move_up,-0.370,-0.370,-0.370,0.000,0.000,0.000
1605132807226908928,10.0.1.134,487,move_up,-0.350,-0.350,-0.350,0.000,0.000,0.000
1605132808961764096,10.0.1.134,698,move_up,-0.330,-0.330,-0.330,0.000,0.000,0.000
1605132810565148160,10.0.1.134,556,move_up,-0.310,-0.310,-0.310,0.000,0.000,0.000
1605132812202915840,10.0.1.134,434,move_up,-0.290,-0.290,-0.290,0.000,0.000,0.000
1605132813907053056,10.0.1.134,607,move_up,-0.270,-0.270,-0.270,0.000,0.000,0.000
1605132815527291904,10.0.1.134,542,move_up,-0.250,-0.250,-0.250,0.000,0.000,0.000
1605132817114440960,10.0.1.134,518,move_up,-0.230,-0.230,-0.230,0.000,0.000,0.000
1605132818674830848,10.0.1.134,515,move_up,-0.210,-0.210,-0.210,0.000,0.000,0.000
1605132820339517184,10.0.1.134,603,move_up,-0.190,-0.190,-0.190,0.000,0.000,0.000
1605132822817924096,10.0.1.134,63,place,-0.170,-0.170,-0.170,0.000,0.000,0.000
1605132823821233920,10.0.1.134,50,place,-0.160,-0.160,-0.160,0.000,0.000,0.000
1605132824826818816,10.0.1.134,55,place,-0.150,-0.150,-0.150,0.000,0.000,0.000
1605132825871859200,10.0.1.134,98,place,-0.140,-0.140,-0.140,0.000,0.000,0.000
1605132826841170944,10.0.1.134,64,place,-0.130,-0.130,-0.130,0.000,0.000,0.000
1605132827844964096,10.0.1.134,65,place,-0.120,-0.120,-0.120,0.000,0.000,0.000
1605132828855998976,10.0.1.134,57,place,-0.110,-0.110,-0.110,0.000,0.000,0.000
1605132829860718080,10.0.1.134,49,place,-0.100,-0.100,-0.100,0.000,0.000,0.000
1605132831853238016,10.0.1.134,35,place,-0.080,-0.080,-0.080,0.000,0.000,0.000
1605132832861032960,10.0.1.134,42,place,-0.070,-0.070,-0.070,0.000,0.000,0.000
1605132833849978880,10.0.1.134,30,place,-0.060,-0.060,-0.060,0.000,0.000,0.000
1605132835882060032,10.0.1.134,56,place,-0.040,-0.040,-0.040,0.000,0.000,0.000
1605132836898542848,10.0.1.134,61,place,-0.030,-0.030,-0.030,0.000,0.000,0.000
1605132837877554944,10.0.1.134,40,place,-0.020,-0.020,-0.020,0.000,0.000,0.000
1605132838898665984,10.0.1.134,52,place,-0.010,-0.010,-0.010,0.000,0.000,0.000
1605132839895854080,10.0.1.134,35,place,0.000,0.000,0.000,0.000,0.000,0.000
1605132841444637184,10.0.1.134,582,move_down,-0.020,-0.020,-0.020,0.000,0.000,0.000
1605132843278870016,10.0.1.134,697,move_down,-0.040,-0.040,-0.040,0.000,0.000,0.000
1605132845227219200,10.0.1.134,672,move_down,-0.060,-0.060,-0.060,0.000,0.000,0.000
1605132847027965952,10.0.1.134,665,move_down,-0.080,-0.080,-0.080,0.000,0.000,0.000
1605132848876662016,10.0.1.134,744,move_down,-0.100,-0.100,-0.100,0.000,0.000,0.000
1605132850479186944,10.0.1.134,503,move_down,-0.120,-0.120,-0.120,0.000,0.000,0.000
1605132852134670848,10.0.1.134,560,move_down,-0.140,-0.140,-0.140,0.000,0.000,0.000
1605132853818469888,10.0.1.134,568,move_down,-0.160,-0.160,-0.160,0.000,0.000,0.000
1605132855417694976,10.0.1.134,511,move_down,-0.180,-0.180,-0.180,0.000,0.000,0.000
1605132856930861056,10.0.1.134,418,move_down,-0.200,-0.200,-0.200,0.000,0.000,0.000
1605132858542671872,10.0.1.134,528,move_down,-0.220,-0.220,-0.220,0.000,0.000,0.000
1605132860359811072,10.0.1.134,698,move_down,-0.240,-0.240,-0.240,0.000,0.000,0.000
1605132862043597824,10.0.1.134,643,move_down,-0.260,-0.260,-0.260,0.000,0.000,0.000
1605132863644967936,10.0.1.134,512,move_down,-0.280,-0.280,-0.280,0.000,0.000,0.000
1605132865354539008,10.0.1.134,659,move_down,-0.300,-0.300,-0.300,0.000,0.000,0.000
1605132866844134144,10.0.1.134,456,move_down,-0.320,-0.320,-0.320,0.000,0.000,0.000
1605132868428903168,10.0.1.134,484,move_down,-0.340,-0.340,-0.340,0.000,0.000,0.000
1605132870262679040,10.0.1.134,640,move_down,-0.360,-0.360,-0.360,0.000,0.000,0.000
1605132872075994880,10.0.1.134,536,move_down,-0.380,-0.380,-0.380,0.000,0.000,0.000
1605132873623456000,10.0.1.134,494,move_down,-0.400,-0.400,-0.400,0.000,0.000,0.000
1605132875372643072,10.0.1.134,647,move_down,-0.420,-0.420,-0.420,0.000,0.000,0.000
1605132877038814976,10.0.1.134,533,move_down,-0.440,-0.440,-0.440,0.000,0.000,0.000
1605132878763091968,10.0.1.134,499,move_down,-0.460,-0.460,-0.460,0.000,0.000,0.000
1605132880333935872,10.0.1.134,475,move_down,-0.480,-0.480,-0.480,0.000,0.000,0.000
1605132882054588160,10.0.1.134,650,move_down,-0.500,-0.500,-0.500,0.000,0.000,0.000
1605132883771936768,10.0.1.134,583,move_down,-0.520,-0.520,-0.520,0.000,0.000,0.000
1605132885350467840,10.0.1.134,509,move_down,-0.540,-0.540,-0.540,0.000,0.000,0.000
1605132887013626112,10.0.1.134,591,move_down,-0.560,-0.560,-0.560,0.000,0.000,0.000
1605132888711321088,10.0.1.134,558,move_down,-0.580,-0.580,-0.580,0.000,0.000,0.000
1605132889906522112,10.0.1.134,46,pick,-0.590,-0.590,-0.590,0.000,0.000,0.000
1605132891904128000,10.0.1.134,41,pick,-0.610,-0.610,-0.610,0.000,0.000,0.000
1605132892905005824,10.0.1.134,39,pick,-0.620,-0.620,-0.620,0.000,0.000,0.000
1605132894918806016,10.0.1.134,51,pick,-0.640,-0.640,-0.640,0.000,0.000,0.000
1605132895935319040,10.0.1.134,66,pick,-0.650,-0.650,-0.650,0.000,0.000,0.000
1605132896936532992,10.0.1.134,49,pick,-0.660,-0.660,-0.660,0.000,0.000,0.000
1605132898949318912,10.0.1.134,61,pick,-0.680,-0.680,-0.680,0.000,0.000,0.000
1605132899938429184,10.0.1.134,45,pick,-0.690,-0.690,-0.690,0.000,0.000,0.000
1605132901944024064,10.0.1.134,47,pick,-0.710,-0.710,-0.710,0.000,0.000,0.000
1605132902968142080,10.0.1.134,68,pick,-0.720,-0.720,-0.720,0.000,0.000,0.000
1605132904006243840,10.0.1.134,105,pick,-0.730,-0.730,-0.730,0.000,0.000,0.000
1605132905019444992,10.0.1.134,103,pick,-0.740,-0.740,-0.740,0.000,0.000,0.000
1605132905981764096,10.0.1.134,64,pick,-0.750,-0.750,-0.750,0.000,0.000,0.000
1605132907993272064,10.0.1.134,55,pick,-0.770,-0.770,-0.770,0.000,0.000,0.000
1605132909601272064,10.0.1.134,661,move_up,-0.750,-0.750,-0.750,0.000,0.000,0.000
1605132911462529024,10.0.1.134,671,move_up,-0.730,-0.730,-0.730,0.000,0.000,0.000
1605132913350179072,10.0.1.134,576,move_up,-0.710,-0.710,-0.710,0.000,0.000,0.000
1605132914947751936,10.0.1.134,529,move_up,-0.690,-0.690,-0.690,0.000,0.000,0.000
1605132916582163200,10.0.1.134,593,move_up,-0.670,-0.670,-0.670,0.000,0.000,0.000
1605132918277575936,10.0.1.134,551,move_up,-0.650,-0.650,-0.650,0.000,0.000,0.000
1605132920067276032,10.0.1.134,539,move_up,-0.630,-0.630,-0.630,0.000,0.000,0.000
1605132921837389056,10.0.1.134,621,move_up,-0.610,-0.610,-0.610,0.000,0.000,0.000
1605132923533169152,10.0.1.134,665,move_up,-0.590,-0.590,-0.590,0.000,0.000,0.000
1605132925365816064,10.0.1.134,752,move_up,-0.570,-0.570,-0.570,0.000,0.000,0.000
1605132926952102912,10.0.1.134,492,move_up,-0.550,-0.550,-0.550,0.000,0.000,0.000
1605132928496145920,10.0.1.134,455,move_up,-0.530,-0.530,-0.530,0.000,0.000,0.000
1605132930375098112,10.0.1.134,742,move_up,-0.510,-0.510,-0.510,0.000,0.000,0.000
1605132932043484928,10.0.1.134,542,move_up,-0.490,-0.490,-0.490,0.000,0.000,0.000
1605132933805516032,10.0.1.134,612,move_up,-0.470,-0.470,-0.470,0.000,0.000,0.000
1605132935544054016,10.0.1.134,717,move_up,-0.450,-0.450,-0.450,0.000,0.000,0.000
1605132937139241984,10.0.1.134,510,move_up,-0.430,-0.430,-0.430,0.000,0.000,0.000
1605132938770349056,10.0.1.134,519,move_up,-0.410,-0.410,-0.410,0.000,0.000,0.000
1605132940518254080,10.0.1.134,657,move_up,-0.390,-0.390,-0.390,0.000,0.000,0.000
1605132942163525120,10.0.1.134,528,move_up,-0.370,-0.370,-0.370,0.000,0.000,0.000
1605132943859179008,10.0.1.134,566,move_up,-0.350,-0.350,-0.350,0.000,0.000,0.000
1605132945551075072,10.0.1.134,633,move_up,-0.330,-0.330,-0.330,0.000,0.000,0.000
1605132947099822080,10.0.1.134,508,move_up,-0.310,-0.310,-0.310,0.000,0.000,0.000
1605132948734051840,10.0.1.134,556,move_up,-0.290,-0.290,-0.290,0.000,0.000,0.000
1605132950532047104,10.0.1.134,684,move_up,-0.270,-0.270,-0.270,0.000,0.000,0.000
1605132952176292864,10.0.1.134,536,move_up,-0.250,-0.250,-0.250,0.000,0.000,0.000
1605132953857583104,10.0.1.134,575,move_up,-0.230,-0.230,-0.230,0.000,0.000,0.000
1605132955497571840,10.0.1.134,554,move_up,-0.210,-0.210,-0.210,0.000,0.000,0.000
1605132957146092032,10.0.1.134,535,move_up,-0.190,-0.190,-0.190,0.000,0.000,0.000
1605132958363900928,10.0.1.134,63,place,-0.180,-0.180,-0.180,0.000,0.000,0.000
1605132962360337920,10.0.1.134,46,place,-0.140,-0.140,-0.140,0.000,0.000,0.000
1605132963360907008,10.0.1.134,45,place,-0.130,-0.130,-0.130,0.000,0.000,0.000
1605132964356035840,10.0.1.134,40,place,-0.120,-0.120,-0.120,0.000,0.000,0.000
1605132965354838016,10.0.1.134,37,place,-0.110,-0.110,-0.110,0.000,0.000,0.000
1605132966386993920,10.0.1.134,65,place,-0.100,-0.100,-0.100,0.000,0.000,0.000
1605132967385165824,10.0.1.134,62,place,-0.090,-0.090,-0.090,0.000,0.000,0.000
1605132968392108032,10.0.1.134,64,place,-0.080,-0.080,-0.080,0.000,0.000,0.000
1605132969404879104,10.0.1.134,55,place,-0.070,-0.070,-0.070,0.000,0.000,0.000
1605132970403924992,10.0.1.134,52,place,-0.060,-0.060,-0.060,0.000,0.000,0.000
1605132971438767872,10.0.1.134,77,place,-0.050,-0.050,-0.050,0.000,0.000,0.000
1605132972426155008,10.0.1.134,63,place,-0.040,-0.040,-0.040,0.000,0.000,0.000
1605132973465824000,10.0.1.134,93,place,-0.030,-0.030,-0.030,0.000,0.000,0.000
1605132974455843840,10.0.1.134,79,place,-0.020,-0.020,-0.020,0.000,0.000,0.000
1605132975421614848,10.0.1.134,37,place,-0.010,-0.010,-0.010,0.000,0.000,0.000
1605132976429936896,10.0.1.134,45,place,0.000,0.000,0.000,0.000,0.000,0.000
1605132978087915776,10.0.1.134,697,move_down,-0.020,-0.020,-0.020,0.000,0.000,0.000
1605132979769830912,10.0.1.134,582,move_down,-0.040,-0.040,-0.040,0.000,0.000,0.000
1605132981370932224,10.0.1.134,472,move_down,-0.060,-0.060,-0.060,0.000,0.000,0.000
1605132983110336000,10.0.1.134,576,move_down,-0.080,-0.080,-0.080,0.000,0.000,0.000
1605132984756828160,10.0.1.134,546,move_down,-0.100,-0.100,-0.100,0.000,0.000,0.000
1605132986355020032,10.0.1.134,525,move_down,-0.120,-0.120,-0.120,0.000,0.000,0.000
1605132987998639104,10.0.1.134,623,move_down,-0.140,-0.140,-0.140,0.000,0.000,0.000
1605132990016428032,10.0.1.134,692,move_down,-0.160,-0.160,-0.160,0.000,0.000,0.000
1605132991629950976,10.0.1.134,499,move_down,-0.180,-0.180,-0.180,0.000,0.000,0.000
1605132993211552000,10.0.1.134,465,move_down,-0.200,-0.200,-0.200,0.000,0.000,0.000
1605132994908237824,10.0.1.134,547,move_down,-0.220,-0.220,-0.220,0.000,0.000,0.000
1605132996573123840,10.0.1.134,623,move_down,-0.240,-0.240,-0.240,0.000,0.000,0.000
1605132998123297024,10.0.1.134,455,move_down,-0.260,-0.260,-0.260,0.000,0.000,0.000
1605132999809017856,10.0.1.134,537,move_down,-0.280,-0.280,-0.280,0.000,0.000,0.000
1605133001539810816,10.0.1.134,601,move_down,-0.300,-0.300,-0.300,0.000,0.000,0.000
1605133003258534912,10.0.1.134,474,move_down,-0.320,-0.320,-0.320,0.000,0.000,0.000
1605133004980348160,10.0.1.134,464,move_down,-0.340,-0.340,-0.340,0.000,0.000,0.000
1605133006807180800,10.0.1.134,701,move_down,-0.360,-0.360,-0.360,0.000,0.000,0.000
1605133008466561024,10.0.1.134,561,move_down,-0.380,-0.380,-0.380,0.000,0.000,0.000
1605133010303010048,10.0.1.134,720,move_down,-0.400,-0.400,-0.400,0.000,0.000,0.000
1605133011882697984,10.0.1.134,436,move_down,-0.420,-0.420,-0.420,0.000,0.000,0.000
1605133013467547904,10.0.1.134,482,move_down,-0.440,-0.440,-0.440,0.000,0.000,0.000
1605133015000463104,10.0.1.134,464,move_down,-0.460,-0.460,-0.460,0.000,0.000,0.000
1605133016739540224,10.0.1.134,669,move_down,-0.480,-0.480,-0.480,0.000,0.000,0.000
1605133018366611968,10.0.1.134,551,move_down,-0.500,-0.500,-0.500,0.000,0.000,0.000
1605133019937395968,10.0.1.134,508,move_down,-0.520,-0.520,-0.520,0.000,0.000,0.000
1605133021592500992,10.0.1.134,523,move_down,-0.540,-0.540,-0.540,0.000,0.000,0.000
1605133023327926016,10.0.1.134,588,move_down,-0.560,-0.560,-0.560,0.000,0.000,0.000
1605133025119531008,10.0.1.134,746,move_down,-0.580,-0.580,-0.580,0.000,0.000,0.000
1605133026255697920,10.0.1.134,34,pick,-0.590,-0.590,-0.590,0.000,0.000,0.000
1605133027264728064,10.0.1.134,42,pick,-0.600,-0.600,-0.600,0.000,0.000,0.000
1605133028263813888,10.0.1.134,40,pick,-0.610,-0.610,-0.610,0.000,0.000,0.000
1605133029293670912,10.0.1.134,69,pick,-0.620,-0.620,-0.620,0.000,0.000,0.000
1605133030278609920,10.0.1.134,52,pick,-0.630,-0.630,-0.630,0.000,0.000,0.000
1605133032291717888,10.0.1.134,59,pick,-0.650,-0.650,-0.650,0.000,0.000,0.000
1605133034275752960,10.0.1.134,40,pick,-0.670,-0.670,-0.670,0.000,0.000,0.000
1605133035303028224,10.0.1.134,55,pick,-0.680,-0.680,-0.680,0.000,0.000,0.000
1605133036297157120,10.0.1.134,48,pick,-0.690,-0.690,-0.690,0.000,0.000,0.000
1605133037309346048,10.0.1.134,58,pick,-0.700,-0.700,-0.700,0.000,0.000,0.000
1605133038326530048,10.0.1.134,70,pick,-0.710,-0.710,-0.710,0.000,0.000,0.000
1605133039320676096,10.0.1.134,54,pick,-0.720,-0.720,-0.720,0.000,0.000,0.000
1605133040321163008,10.0.1.134,53,pick,-0.730,-0.730,-0.730,0.000,0.000,0.000
1605133041337470976,10.0.1.134,68,pick,-0.740,-0.740,-0.740,0.000,0.000,0.000
1605133042332603904,10.0.1.134,62,pick,-0.750,-0.750,-0.750,0.000,0.000,0.000
1605133043327218176,10.0.1.134,55,pick,-0.760,-0.760,-0.760,0.000,0.000,0.000
1605133044381680128,10.0.1.134,49,pick,-0.770,-0.770,-0.770,0.000,0.000,0.000
1605133045793849856,10.0.1.134,460,move_up,-0.750,-0.750,-0.750,0.000,0.000,0.000
1605133047402665984,10.0.1.134,520,move_up,-0.730,-0.730,-0.730,0.000,0.000,0.000
1605133049147682048,10.0.1.134,680,move_up,-0.710,-0.710,-0.710,0.000,0.000,0.000
1605133050817369856,10.0.1.134,496,move_up,-0.690,-0.690,-0.690,0.000,0.000,0.000
1605133052569387008,10.0.1.134,705,move_up,-0.670,-0.670,-0.670,0.000,0.000,0.000
1605133054298396160,10.0.1.134,571,move_up,-0.650,-0.650,-0.650,0.000,0.000,0.000
1605133056116956928,10.0.1.134,631,move_up,-0.630,-0.630,-0.630,0.000,0.000,0.000
1605133057863883008,10.0.1.134,589,move_up,-0.610,-0.610,-0.610,0.000,0.000,0.000
1605133059694177024,10.0.1.134,589,move_up,-0.590,-0.590,-0.590,0.000,0.000,0.000
1605133061342829056,10.0.1.134,459,move_up,-0.570,-0.570,-0.570,0.000,0.000,0.000
1605133063171113984,10.0.1.134,713,move_up,-0.550,-0.550,-0.550,0.000,0.000,0.000
1605133064933889024,10.0.1.134,676,move_up,-0.530,-0.530,-0.530,0.000,0.000,0.000
1605133066456461056,10.0.1.134,496,move_up,-0.510,-0.510,-0.510,0.000,0.000,0.000
1605133068252146944,10.0.1.134,648,move_up,-0.490,-0.490,-0.490,0.000,0.000,0.000
1605133069803453952,10.0.1.134,506,move_up,-0.470,-0.470,-0.470,0.000,0.000,0.000
1605133071534342144,10.0.1.134,541,move_up,-0.450,-0.450,-0.450,0.000,0.000,0.000
1605133073167419904,10.0.1.134,518,move_up,-0.430,-0.430,-0.430,0.000,0.000,0.000
1605133074872517120,10.0.1.134,540,move_up,-0.410,-0.410,-0.410,0.000,0.000,0.000
1605133076553786112,10.0.1.134,578,move_up,-0.390,-0.390,-0.390,0.000,0.000,0.000
1605133078089307904,10.0.1.134,491,move_up,-0.370,-0.370,-0.370,0.000,0.000,0.000
1605133079785132032,10.0.1.134,581,move_up,-0.350,-0.350,-0.350,0.000,0.000,0.000
1605133081393265920,10.0.1.134,538,move_up,-0.330,-0.330,-0.330,0.000,0.000,0.000
1605133083184901888,10.0.1.134,705,move_up,-0.310,-0.310,-0.310,0.000,0.000,0.000
1605133084960975872,10.0.1.134,694,move_up,-0.290,-0.290,-0.290,0.000,0.000,0.000
1605133086644131840,10.0.1.134,512,move_up,-0.270,-0.270,-0.270,0.000,0.000,0.000
1605133088207267072,10.0.1.134,454,move_up,-0.250,-0.250,-0.250,0.000,0.000,0.000
1605133090024070912,10.0.1.134,654,move_up,-0.230,-0.230,-0.230,0.000,0.000,0.000
1605133091706131968,10.0.1.134,628,move_up,-0.210,-0.210,-0.210,0.000,0.000,0.000
1605133093667966976,10.0.1.134,840,move_up,-0.190,-0.190,-0.190,0.000,0.000,0.000
1605133094838018048,10.0.1.134,43,place,-0.180,-0.180,-0.180,0.000,0.000,0.000
1605133095835973888,10.0.1.134,40,place,-0.170,-0.170,-0.170,0.000,0.000,0.000
1605133096890199808,10.0.1.134,90,place,-0.160,-0.160,-0.160,0.000,0.000,0.000
1605133097881475072,10.0.1.134,76,place,-0.150,-0.150,-0.150,0.000,0.000,0.000
1605133098859864064,10.0.1.134,53,place,-0.140,-0.140,-0.140,0.000,0.000,0.000
1605133099854224896,10.0.1.134,43,place,-0.130,-0.130,-0.130,0.000,0.000,0.000
1605133100857715968,10.0.1.134,44,place,-0.120,-0.120,-0.120,0.000,0.000,0.000
1605133101855077888,10.0.1.134,41,place,-0.110,-0.110,-0.110,0.000,0.000,0.000
1605133102886866944,10.0.1.134,56,place,-0.100,-0.100,-0.100,0.000,0.000,0.000
1605133103923907072,10.0.1.134,89,place,-0.090,-0.090,-0.090,0.000,0.000,0.000
1605133104899857152,10.0.1.134,62,place,-0.080,-0.080,-0.080,0.000,0.000,0.000
1605133105903028992,10.0.1.134,62,place,-0.070,-0.070,-0.070,0.000,0.000,0.000
1605133107908859904,10.0.1.134,65,place,-0.050,-0.050,-0.050,0.000,0.000,0.000
1605133108896015872,10.0.1.134,51,place,-0.040,-0.040,-0.040,0.000,0.000,0.000
1605133109886686976,10.0.1.134,41,place,-0.030,-0.030,-0.030,0.000,0.000,0.000
1605133110911708160,10.0.1.134,63,place,-0.020,-0.020,-0.020,0.000,0.000,0.000
1605133111903908864,10.0.1.134,52,place,-0.010,-0.010,-0.010,0.000,0.000,0.000
1605133112903887872,10.0.1.134,44,place,0.000,0.000,0.000,0.000,0.000,0.000
1605133114461995008,10.0.1.134,601,move_down,-0.020,-0.020,-0.020,0.000,0.000,0.000
1605133116165116928,10.0.1.134,506,move_down,-0.040,-0.040,-0.040,0.000,0.000,0.000
1605133117844695040,10.0.1.134,558,move_down,-0.060,-0.060,-0.060,0.000,0.000,0.000
1605133119963795968,10.0.1.134,1001,move_down,-0.080,-0.080,-0.080,0.000,0.000,0.000
1605133121467261952,10.0.1.134,453,move_down,-0.100,-0.100,-0.100,0.000,0.000,0.000
1605133123215843840,10.0.1.134,651,move_down,-0.120,-0.120,-0.120,0.000,0.000,0.000
1605133124883908864,10.0.1.134,518,move_down,-0.140,-0.140,-0.140,0.000,0.000,0.000
1605133126608632064,10.0.1.134,605,move_down,-0.160,-0.160,-0.160,0.000,0.000,0.000
1605133128349464832,10.0.1.134,687,move_down,-0.180,-0.180,-0.180,0.000,0.000,0.000
1605133130045947904,10.0.1.134,599,move_down,-0.200,-0.200,-0.200,0.000,0.000,0.000
1605133131884710912,10.0.1.134,625,move_down,-0.220,-0.220,-0.220,0.000,0.000,0.000
1605133133537242880,10.0.1.134,481,move_down,-0.240,-0.240,-0.240,0.000,0.000,0.000
1605133135200877824,10.0.1.134,581,move_down,-0.260,-0.260,-0.260,0.000,0.000,0.000
1605133136946516992,10.0.1.134,706,move_down,-0.280,-0.280,-0.280,0.000,0.000,0.000
1605133139135931904,10.0.1.134,897,move_down,-0.300,-0.300,-0.300,0.000,0.000,0.000
1605133141176049920,10.0.1.134,687,move_down,-0.320,-0.320,-0.320,0.000,0.000,0.000
1605133142944124928,10.0.1.134,688,move_down,-0.340,-0.340,-0.340,0.000,0.000,0.000
1605133144585733888,10.0.1.134,535,move_down,-0.360,-0.360,-0.360,0.000,0.000,0.000
1605133146353212160,10.0.1.134,639,move_down,-0.380,-0.380,-0.380,0.000,0.000,0.000
1605133148075706112,10.0.1.134,600,move_down,-0.400,-0.400,-0.400,0.000,0.000,0.000
1605133149699853824,10.0.1.134,568,move_down,-0.420,-0.420,-0.420,0.000,0.000,0.000
1605133151329648128,10.0.1.134,486,move_down,-0.440,-0.440,-0.440,0.000,0.000,0.000
1605133153374269952,10.0.1.134,959,move_down,-0.460,-0.460,-0.460,0.000,0.000,0.000
1605133155083027968,10.0.1.134,582,move_down,-0.480,-0.480,-0.480,0.000,0.000,0.000
1605133156725590016,10.0.1.134,580,move_down,-0.500,-0.500,-0.500,0.000,0.000,0.000
1605133158548270848,10.0.1.134,487,move_down,-0.520,-0.520,-0.520,0.000,0.000,0.000
1605133160553647872,10.0.1.134,881,move_down,-0.540,-0.540,-0.540,0.000,0.000,0.000
1605133162119937024,10.0.1.134,530,move_down,-0.560,-0.560,-0.560,0.000,0.000,0.000
1605133163732656896,10.0.1.134,577,move_down,-0.580,-0.580,-0.580,0.000,0.000,0.000
1605133164964507136,10.0.1.134,50,pick,-0.590,-0.590,-0.590,0.000,0.000,0.000
1605133165965831168,10.0.1.134,50,pick,-0.600,-0.600,-0.600,0.000,0.000,0.000
1605133166986586112,10.0.1.134,56,pick,-0.610,-0.610,-0.610,0.000,0.000,0.000
1605133170005532928,10.0.1.134,54,pick,-0.640,-0.640,-0.640,0.000,0.000,0.000
1605133172003627008,10.0.1.134,51,pick,-0.660,-0.660,-0.660,0.000,0.000,0.000
1605133173016669952,10.0.1.134,63,pick,-0.670,-0.670,-0.670,0.000,0.000,0.000
1605133174000869888,10.0.1.134,46,pick,-0.680,-0.680,-0.680,0.000,0.000,0.000
1605133175004389120,10.0.1.134,48,pick,-0.690,-0.690,-0.690,0.000,0.000,0.000
1605133175999447040,10.0.1.134,32,pick,-0.700,-0.700,-0.700,0.000,0.000,0.000
1605133177032548864,10.0.1.134,59,pick,-0.710,-0.710,-0.710,0.000,0.000,0.000
1605133179028146944,10.0.1.134,44,pick,-0.730,-0.730,-0.730,0.000,0.000,0.000
1605133180028327936,10.0.1.134,42,pick,-0.740,-0.740,-0.740,0.000,0.000,0.000
1605133182048180992,10.0.1.134,58,pick,-0.760,-0.760,-0.760,0.000,0.000,0.000
1605133183056430080,10.0.1.134,66,pick,-0.770,-0.770,-0.770,0.000,0.000,0.000
1605133184635052800,10.0.1.134,643,move_up,-0.750,-0.750,-0.750,0.000,0.000,0.000
1605133186377733120,10.0.1.134,681,move_up,-0.730,-0.730,-0.730,0.000,0.000,0.000
1605133187944265984,10.0.1.134,499,move_up,-0.710,-0.710,-0.710,0.000,0.000,0.000
1605133189695853824,10.0.1.134,584,move_up,-0.690,-0.690,-0.690,0.000,0.000,0.000
1605133191276855040,10.0.1.134,483,move_up,-0.670,-0.670,-0.670,0.000,0.000,0.000
1605133193007973888,10.0.1.134,598,move_up,-0.650,-0.650,-0.650,0.000,0.000,0.000
1605133194657480960,10.0.1.134,475,move_up,-0.630,-0.630,-0.630,0.000,0.000,0.000
1605133196273294080,10.0.1.134,466,move_up,-0.610,-0.610,-0.610,0.000,0.000,0.000
1605133198052433920,10.0.1.134,630,move_up,-0.590,-0.590,-0.590,0.000,0.000,0.000
1605133199790445056,10.0.1.134,620,move_up,-0.570,-0.570,-0.570,0.000,0.000,0.000
1605133201328430848,10.0.1.134,471,move_up,-0.550,-0.550,-0.550,0.000,0.000,0.000
1605133202932092928,10.0.1.134,544,move_up,-0.530,-0.530,-0.530,0.000,0.000,0.000
1605133204623410944,10.0.1.134,609,move_up,-0.510,-0.510,-0.510,0.000,0.000,0.000
1605133206219860992,10.0.1.134,452,move_up,-0.490,-0.490,-0.490,0.000,0.000,0.000
1605133207919753984,10.0.1.134,601,move_up,-0.470,-0.470,-0.470,0.000,0.000,0.000
1605133209603089920,10.0.1.134,603,move_up,-0.450,-0.450,-0.450,0.000,0.000,0.000
1605133211252276992,10.0.1.134,536,move_up,-0.430,-0.430,-0.430,0.000,0.000,0.000
1605133213403369984,10.0.1.134,647,move_up,-0.410,-0.410,-0.410,0.000,0.000,0.000
1605133215101476864,10.0.1.134,561,move_up,-0.390,-0.390,-0.390,0.000,0.000,0.000
1605133216673111040,10.0.1.134,470,move_up,-0.370,-0.370,-0.370,0.000,0.000,0.000
1605133218382089984,10.0.1.134,462,move_up,-0.350,-0.350,-0.350,0.000,0.000,0.000
1605133220520126208,10.0.1.134,969,move_up,-0.330,-0.330,-0.330,0.000,0.000,0.000
1605133222510525952,10.0.1.134,943,move_up,-0.310,-0.310,-0.310,0.000,0.000,0.000
1605133224174160896,10.0.1.134,600,move_up,-0.290,-0.290,-0.290,0.000,0.000,0.000
1605133225824086016,10.0.1.134,555,move_up,-0.270,-0.270,-0.270,0.000,0.000,0.000
1605133227535106816,10.0.1.134,671,move_up,-0.250,-0.250,-0.250,0.000,0.000,0.000
1605133229076504064,10.0.1.134,419,move_up,-0.230,-0.230,-0.230,0.000,0.000,0.000
1605133230880950016,10.0.1.134,652,move_up,-0.210,-0.210,-0.210,0.000,0.000,0.000
1605133232707515904,10.0.1.134,555,move_up,-0.190,-0.190,-0.190,0.000,0.000,0.000
1605133235918723072,10.0.1.134,51,place,-0.160,-0.160,-0.160,0.000,0.000,0.000
1605133236921117952,10.0.1.134,50,place,-0.150,-0.150,-0.150,0.000,0.000,0.000
1605133237924030976,10.0.1.134,52,place,-0.140,-0.140,-0.140,0.000,0.000,0.000
1605133238951041024,10.0.1.134,72,place,-0.130,-0.130,-0.130,0.000,0.000,0.000
1605133240947087104,10.0.1.134,49,place,-0.110,-0.110,-0.110,0.000,0.000,0.000
1605133241939130112,10.0.1.134,40,place,-0.100,-0.100,-0.100,0.000,0.000,0.000
1605133245031884032,10.0.1.134,53,place,-0.070,-0.070,-0.070,0.000,0.000,0.000
1605133246042062080,10.0.1.134,60,place,-0.060,-0.060,-0.060,0.000,0.000,0.000
1605133248046024960,10.0.1.134,56,place,-0.040,-0.040,-0.040,0.000,0.000,0.000
1605133249049174016,10.0.1.134,52,place,-0.030,-0.030,-0.030,0.000,0.000,0.000
1605133250040884992,10.0.1.134,42,place,-0.020,-0.020,-0.020,0.000,0.000,0.000
1605133252045000192,10.0.1.134,39,place,0.000,0.000,0.000,0.000,0.000,0.000
1605133253748004864,10.0.1.134,730,move_down,-0.020,-0.020,-0.020,0.000,0.000,0.000
1605133255418070016,10.0.1.134,579,move_down,-0.040,-0.040,-0.040,0.000,0.000,0.000
1605133257123298048,10.0.1.134,665,move_down,-0.060,-0.060,-0.060,0.000,0.000,0.000
1605133258708306176,10.0.1.134,550,move_down,-0.080,-0.080,-0.080,0.000,0.000,0.000
1605133260530944000,10.0.1.134,744,move_down,-0.100,-0.100,-0.100,0.000,0.000,0.000
1605133262247986944,10.0.1.134,546,move_down,-0.120,-0.120,-0.120,0.000,0.000,0.000
1605133264167897856,10.0.1.134,662,move_down,-0.140,-0.140,-0.140,0.000,0.000,0.000
1605133265839838976,10.0.1.134,581,move_down,-0.160,-0.160,-0.160,0.000,0.000,0.000
1605133267551475968,10.0.1.134,519,move_down,-0.180,-0.180,-0.180,0.000,0.000,0.000
1605133269526693120,10.0.1.134,885,move_down,-0.200,-0.200,-0.200,0.000,0.000,0.000
1605133271117872896,10.0.1.134,488,move_down,-0.220,-0.220,-0.220,0.000,0.000,0.000
1605133272970632960,10.0.1.134,544,move_down,-0.240,-0.240,-0.240,0.000,0.000,0.000
1605133274638379008,10.0.1.134,592,move_down,-0.260,-0.260,-0.260,0.000,0.000,0.000
1605133276245625088,10.0.1.134,529,move_down,-0.280,-0.280,-0.280,0.000,0.000,0.000
1605133277941616896,10.0.1.134,506,move_down,-0.300,-0.300,-0.300,0.000,0.000,0.000
1605133279524750080,10.0.1.134,503,move_down,-0.320,-0.320,-0.320,0.000,0.000,0.000
1605133281073048064,10.0.1.134,476,move_down,-0.340,-0.340,-0.340,0.000,0.000,0.000
1605133282803760128,10.0.1.134,652,move_down,-0.360,-0.360,-0.360,0.000,0.000,0.000
1605133284648182016,10.0.1.134,535,move_down,-0.380,-0.380,-0.380,0.000,0.000,0.000
1605133286428267008,10.0.1.134,446,move_down,-0.400,-0.400,-0.400,0.000,0.000,0.000
1605133288147943936,10.0.1.134,613,move_down,-0.420,-0.420,-0.420,0.000,0.000,0.000
1605133289789083904,10.0.1.134,583,move_down,-0.440,-0.440,-0.440,0.000,0.000,0.000
1605133291449775872,10.0.1.134,519,move_down,-0.460,-0.460,-0.460,0.000,0.000,0.000
1605133293133914112,10.0.1.134,616,move_down,-0.480,-0.480,-0.480,0.000,0.000,0.000
1605133294765568000,10.0.1.134,489,move_down,-0.500,-0.500,-0.500,0.000,0.000,0.000
1605133296403209984,10.0.1.134,547,move_down,-0.520,-0.520,-0.520,0.000,0.000,0.000
1605133298025731072,10.0.1.134,518,move_down,-0.540,-0.540,-0.540,0.000,0.000,0.000
1605133299753331968,10.0.1.134,507,move_down,-0.560,-0.560,-0.560,0.000,0.000,0.000
1605133301308065792,10.0.1.134,498,move_down,-0.580,-0.580,-0.580,0.000,0.000,0.000
1605133302524761088,10.0.1.134,45,pick,-0.590,-0.590,-0.590,0.000,0.000,0.000
1605133303540407040,10.0.1.134,51,pick,-0.600,-0.600,-0.600,0.000,0.000,0.000
1605133305538716160,10.0.1.134,33,pick,-0.620,-0.620,-0.620,0.000,0.000,0.000
1605133306543715072,10.0.1.134,36,pick,-0.630,-0.630,-0.630,0.000,0.000,0.000
1605133307572304896,10.0.1.134,57,pick,-0.640,-0.640,-0.640,0.000,0.000,0.000
1605133308603732992,10.0.1.134,52,pick,-0.650,-0.650,-0.650,0.000,0.000,0.000
1605133310619019008,10.0.1.134,64,pick,-0.670,-0.670,-0.670,0.000,0.000,0.000
1605133311597629952,10.0.1.134,42,pick,-0.680,-0.680,-0.680,0.000,0.000,0.000
1605133312602473984,10.0.1.134,45,pick,-0.690,-0.690,-0.690,0.000,0.000,0.000
1605133315625377792,10.0.1.134,54,pick,-0.720,-0.720,-0.720,0.000,0.000,0.000
1605133316646596864,10.0.1.134,74,pick,-0.730,-0.730,-0.730,0.000,0.000,0.000
1605133317639300096,10.0.1.134,49,pick,-0.740,-0.740,-0.740,0.000,0.000,0.000
1605133319639159040,10.0.1.134,39,pick,-0.760,-0.760,-0.760,0.000,0.000,0.000
1605133320653422080,10.0.1.134,52,pick,-0.770,-0.770,-0.770,0.000,0.000,0.000
1605133322147421952,10.0.1.134,541,move_up,-0.750,-0.750,-0.750,0.000,0.000,0.000
1605133323854633216,10.0.1.134,571,move_up,-0.730,-0.730,-0.730,0.000,0.000,0.000
1605133325786454016,10.0.1.134,730,move_up,-0.710,-0.710,-0.710,0.000,0.000,0.000
1605133327431195904,10.0.1.134,491,move_up,-0.690,-0.690,-0.690,0.000,0.000,0.000
1605133329241508864,10.0.1.134,586,move_up,-0.670,-0.670,-0.670,0.000,0.000,0.000
1605133330842264064,10.0.1.134,518,move_up,-0.650,-0.650,-0.650,0.000,0.000,0.000
1605133332522758912,10.0.1.134,619,move_up,-0.630,-0.630,-0.630,0.000,0.000,0.000
1605133334189303040,10.0.1.134,587,move_up,-0.610,-0.610,-0.610,0.000,0.000,0.000
1605133335965369088,10.0.1.134,745,move_up,-0.590,-0.590,-0.590,0.000,0.000,0.000
1605133337724446976,10.0.1.134,690,move_up,-0.570,-0.570,-0.570,0.000,0.000,0.000
1605133339482170112,10.0.1.134,506,move_up,-0.550,-0.550,-0.550,0.000,0.000,0.000
1605133341162811904,10.0.1.134,604,move_up,-0.530,-0.530,-0.530,0.000,0.000,0.000
1605133342947408896,10.0.1.134,696,move_up,-0.510,-0.510,-0.510,0.000,0.000,0.000
1605133344698252800,10.0.1.134,542,move_up,-0.490,-0.490,-0.490,0.000,0.000,0.000
1605133346440995072,10.0.1.134,479,move_up,-0.470,-0.470,-0.470,0.000,0.000,0.000
1605133348284512000,10.0.1.134,609,move_up,-0.450,-0.450,-0.450,0.000,0.000,0.000
1605133349798160128,10.0.1.134,512,move_up,-0.430,-0.430,-0.430,0.000,0.000,0.000
1605133351357105920,10.0.1.134,495,move_up,-0.410,-0.410,-0.410,0.000,0.000,0.000
1605133353113917952,10.0.1.134,753,move_up,-0.390,-0.390,-0.390,0.000,0.000,0.000
1605133354795564032,10.0.1.134,615,move_up,-0.370,-0.370,-0.370,0.000,0.000,0.000
1605133356574728960,10.0.1.134,616,move_up,-0.350,-0.350,-0.350,0.000,0.000,0.000
1605133358243490816,10.0.1.134,580,move_up,-0.330,-0.330,-0.330,0.000,0.000,0.000
1605133359803708928,10.0.1.134,452,move_up,-0.310,-0.310,-0.310,0.000,0.000,0.000
1605133361417572096,10.0.1.134,496,move_up,-0.290,-0.290,-0.290,0.000,0.000,0.000
1605133363097969152,10.0.1.134,588,move_up,-0.270,-0.270,-0.270,0.000,0.000,0.000
1605133364741236992,10.0.1.134,511,move_up,-0.250,-0.250,-0.250,0.000,0.000,0.000
1605133366355955968,10.0.1.134,520,move_up,-0.230,-0.230,-0.230,0.000,0.000,0.000
1605133368343902208,10.0.1.134,766,move_up,-0.210,-0.210,-0.210,0.000,0.000,0.000
1605133370128750080,10.0.1.134,514,move_up,-0.190,-0.190,-0.190,0.000,0.000,0.000
1605133371339281920,10.0.1.134,91,place,-0.180,-0.180,-0.180,0.000,0.000,0.000
1605133374316355072,10.0.1.134,60,place,-0.150,-0.150,-0.150,0.000,0.000,0.000
1605133375296935168,10.0.1.134,39,place,-0.140,-0.140,-0.140,0.000,0.000,0.000
1605133376356046080,10.0.1.134,92,place,-0.130,-0.130,-0.130,0.000,0.000,0.000
1605133377307902976,10.0.1.134,42,place,-0.120,-0.120,-0.120,0.000,0.000,0.000
1605133378266702848,10.0.1.134,-1,place,-0.110,-0.110,-0.110,0.000,0.000,0.000
1605133379316232960,10.0.1.134,48,place,-0.100,-0.100,-0.100,0.000,0.000,0.000
1605133380331165184,10.0.1.134,55,place,-0.090,-0.090,-0.090,0.000,0.000,0.000
1605133381357206016,10.0.1.134,77,place,-0.080,-0.080,-0.080,0.000,0.000,0.000
1605133382330033920,10.0.1.134,49,place,-0.070,-0.070,-0.070,0.000,0.000,0.000
1605133383358187008,10.0.1.134,54,place,-0.060,-0.060,-0.060,0.000,0.000,0.000
1605133384355408896,10.0.1.134,47,place,-0.050,-0.050,-0.050,0.000,0.000,0.000
1605133386373538048,10.0.1.134,41,place,-0.030,-0.030,-0.030,0.000,0.000,0.000
1605133387377827840,10.0.1.134,43,place,-0.020,-0.020,-0.020,0.000,0.000,0.000
1605133388392140032,10.0.1.134,52,place,-0.010,-0.010,-0.010,0.000,0.000,0.000
1605133389408310784,10.0.1.134,66,place,0.000,0.000,0.000,0.000,0.000,0.000
1605133391238930944,10.0.1.134,894,move_down,-0.020,-0.020,-0.020,0.000,0.000,0.000
1605133393236905984,10.0.1.134,911,move_down,-0.040,-0.040,-0.040,0.000,0.000,0.000
1605133395046187008,10.0.1.134,680,move_down,-0.060,-0.060,-0.060,0.000,0.000,0.000
1605133396727127040,10.0.1.134,578,move_down,-0.080,-0.080,-0.080,0.000,0.000,0.000
1605133398321316096,10.0.1.134,469,move_down,-0.100,-0.100,-0.100,0.000,0.000,0.000
1605133400083928064,10.0.1.134,615,move_down,-0.120,-0.120,-0.120,0.000,0.000,0.000
1605133401817220864,10.0.1.134,568,move_down,-0.140,-0.140,-0.140,0.000,0.000,0.000
1605133403493441024,10.0.1.134,603,move_down,-0.160,-0.160,-0.160,0.000,0.000,0.000
1605133405249980928,10.0.1.134,655,move_down,-0.180,-0.180,-0.180,0.000,0.000,0.000
1605133406970876928,10.0.1.134,623,move_down,-0.200,-0.200,-0.200,0.000,0.000,0.000
1605133408628189184,10.0.1.134,498,move_down,-0.220,-0.220,-0.220,0.000,0.000,0.000
1605133410476318976,10.0.1.134,762,move_down,-0.240,-0.240,-0.240,0.000,0.000,0.000
1605133412027083008,10.0.1.134,497,move_down,-0.260,-0.260,-0.260,0.000,0.000,0.000
1605133413775262208,10.0.1.134,548,move_down,-0.280,-0.280,-0.280,0.000,0.000,0.000
1605133415371310848,10.0.1.134,512,move_down,-0.300,-0.300,-0.300,0.000,0.000,0.000
1605133416980779776,10.0.1.134,517,move_down,-0.320,-0.320,-0.320,0.000,0.000,0.000
1605133418610716160,10.0.1.134,577,move_down,-0.340,-0.340,-0.340,0.000,0.000,0.000
1605133420238094080,10.0.1.134,483,move_down,-0.360,-0.360,-0.360,0.000,0.000,0.000
1605133421932673024,10.0.1.134,486,move_down,-0.380,-0.380,-0.380,0.000,0.000,0.000
1605133423596631040,10.0.1.134,582,move_down,-0.400,-0.400,-0.400,0.000,0.000,0.000
1605133425320205056,10.0.1.134,652,move_down,-0.420,-0.420,-0.420,0.000,0.000,0.000
1605133426921614848,10.0.1.134,508,move_down,-0.440,-0.440,-0.440,0.000,0.000,0.000
1605133428633900032,10.0.1.134,515,move_down,-0.460,-0.460,-0.460,0.000,0.000,0.000
1605133430207616000,10.0.1.134,510,move_down,-0.480,-0.480,-0.480,0.000,0.000,0.000
1605133432004410880,10.0.1.134,507,move_down,-0.500,-0.500,-0.500,0.000,0.000,0.000
1605133433725044992,10.0.1.134,527,move_down,-0.520,-0.520,-0.520,0.000,0.000,0.000
1605133435353452800,10.0.1.134,479,move_down,-0.540,-0.540,-0.540,0.000,0.000,0.000
1605133436955760896,10.0.1.134,501,move_down,-0.560,-0.560,-0.560,0.000,0.000,0.000
1605133438676592128,10.0.1.134,543,move_down,-0.580,-0.580,-0.580,0.000,0.000,0.000
1605133439835084032,10.0.1.134,61,pick,-0.590,-0.590,-0.590,0.000,0.000,0.000
1605133442835598080,10.0.1.134,48,pick,-0.620,-0.620,-0.620,0.000,0.000,0.000
1605133444873658880,10.0.1.134,81,pick,-0.640,-0.640,-0.640,0.000,0.000,0.000
1605133445847955968,10.0.1.134,44,pick,-0.650,-0.650,-0.650,0.000,0.000,0.000
1605133447865153024,10.0.1.134,55,pick,-0.670,-0.670,-0.670,0.000,0.000,0.000
1605133448882398976,10.0.1.134,71,pick,-0.680,-0.680,-0.680,0.000,0.000,0.000
1605133449876416000,10.0.1.134,63,pick,-0.690,-0.690,-0.690,0.000,0.000,0.000
1605133450860723968,10.0.1.134,46,pick,-0.700,-0.700,-0.700,0.000,0.000,0.000
1605133451874600960,10.0.1.134,59,pick,-0.710,-0.710,-0.710,0.000,0.000,0.000
1605133453856354048,10.0.1.134,38,pick,-0.730,-0.730,-0.730,0.000,0.000,0.000
1605133455891379968,10.0.1.134,69,pick,-0.750,-0.750,-0.750,0.000,0.000,0.000
1605133456865474816,10.0.1.134,42,pick,-0.760,-0.760,-0.760,0.000,0.000,0.000
1605133457858285824,10.0.1.134,33,pick,-0.770,-0.770,-0.770,0.000,0.000,0.000
1605133459360875008,10.0.1.134,524,move_up,-0.750,-0.750,-0.750,0.000,0.000,0.000
1605133461269673216,10.0.1.134,710,move_up,-0.730,-0.730,-0.730,0.000,0.000,0.000
1605133462814949120,10.0.1.134,482,move_up,-0.710,-0.710,-0.710,0.000,0.000,0.000
1605133464349467136,10.0.1.134,475,move_up,-0.690,-0.690,-0.690,0.000,0.000,0.000
1605133466262393856,10.0.1.134,628,move_up,-0.670,-0.670,-0.670,0.000,0.000,0.000
1605133468038428928,10.0.1.134,617,move_up,-0.650,-0.650,-0.650,0.000,0.000,0.000
1605133469762205952,10.0.1.134,653,move_up,-0.630,-0.630,-0.630,0.000,0.000,0.000
1605133471507729920,10.0.1.134,612,move_up,-0.610,-0.610,-0.610,0.000,0.000,0.000
1605133473133627904,10.0.1.134,550,move_up,-0.590,-0.590,-0.590,0.000,0.000,0.000
1605133474685611008,10.0.1.134,462,move_up,-0.570,-0.570,-0.570,0.000,0.000,0.000
1605133476376559872,10.0.1.134,525,move_up,-0.550,-0.550,-0.550,0.000,0.000,0.000
1605133478069555968,10.0.1.134,557,move_up,-0.530,-0.530,-0.530,0.000,0.000,0.000
1605133479618372864,10.0.1.134,486,move_up,-0.510,-0.510,-0.510,0.000,0.000,0.000
1605133481261507072,10.0.1.134,513,move_up,-0.490,-0.490,-0.490,0.000,0.000,0.000
1605133483293484032,10.0.1.134,658,move_up,-0.470,-0.470,-0.470,0.000,0.000,0.000
1605133484957170944,10.0.1.134,599,move_up,-0.450,-0.450,-0.450,0.000,0.000,0.000
1605133486609383168,10.0.1.134,531,move_up,-0.430,-0.430,-0.430,0.000,0.000,0.000
1605133488550404096,10.0.1.134,697,move_up,-0.410,-0.410,-0.410,0.000,0.000,0.000
1605133490346226944,10.0.1.134,664,move_up,-0.390,-0.390,-0.390,0.000,0.000,0.000
1605133492184546048,10.0.1.134,632,move_up,-0.370,-0.370,-0.370,0.000,0.000,0.000
1605133493809328128,10.0.1.134,603,move_up,-0.350,-0.350,-0.350,0.000,0.000,0.000
1605133495403453952,10.0.1.134,539,move_up,-0.330,-0.330,-0.330,0.000,0.000,0.000
1605133497105102080,10.0.1.134,561,move_up,-0.310,-0.310,-0.310,0.000,0.000,0.000
1605133498681252864,10.0.1.134,511,move_up,-0.290,-0.290,-0.290,0.000,0.000,0.000
1605133500352060928,10.0.1.134,550,move_up,-0.270,-0.270,-0.270,0.000,0.000,0.000
1605133501978852096,10.0.1.134,522,move_up,-0.250,-0.250,-0.250,0.000,0.000,0.000
1605133503583166976,10.0.1.134,446,move_up,-0.230,-0.230,-0.230,0.000,0.000,0.000
1605133505164186880,10.0.1.134,492,move_up,-0.210,-0.210,-0.210,0.000,0.000,0.000
1605133506912113920,10.0.1.134,665,move_up,-0.190,-0.190,-0.190,0.000,0.000,0.000
1605133508180207872,10.0.1.134,110,place,-0.180,-0.180,-0.180,0.000,0.000,0.000
1605133509115192064,10.0.1.134,38,place,-0.170,-0.170,-0.170,0.000,0.000,0.000
1605133511133105152,10.0.1.134,47,place,-0.150,-0.150,-0.150,0.000,0.000,0.000
1605133512129707008,10.0.1.134,42,place,-0.140,-0.140,-0.140,0.000,0.000,0.000
1605133513131105024,10.0.1.134,43,place,-0.130,-0.130,-0.130,0.000,0.000,0.000
1605133514141988096,10.0.1.134,45,place,-0.120,-0.120,-0.120,0.000,0.000,0.000
1605133515162369024,10.0.1.134,42,place,-0.110,-0.110,-0.110,0.000,0.000,0.000
1605133516151956992,10.0.1.134,39,place,-0.100,-0.100,-0.100,0.000,0.000,0.000
1605133517166968064,10.0.1.134,53,place,-0.090,-0.090,-0.090,0.000,0.000,0.000
1605133518155104000,10.0.1.134,41,place,-0.080,-0.080,-0.080,0.000,0.000,0.000
1605133519155250944,10.0.1.134,38,place,-0.070,-0.070,-0.070,0.000,0.000,0.000
1605133520198436864,10.0.1.134,80,place,-0.060,-0.060,-0.060,0.000,0.000,0.000
1605133521185053184,10.0.1.134,66,place,-0.050,-0.050,-0.050,0.000,0.000,0.000
1605133522176462848,10.0.1.134,56,place,-0.040,-0.040,-0.040,0.000,0.000,0.000
1605133523190490112,10.0.1.134,61,place,-0.030,-0.030,-0.030,0.000,0.000,0.000
1605133525188514048,10.0.1.134,54,place,-0.010,-0.010,-0.010,0.000,0.000,0.000
1605133526196119040,10.0.1.134,50,place,0.000,0.000,0.000,0.000,0.000,0.000
1605133527723383808,10.0.1.134,576,move_down,-0.020,-0.020,-0.020,0.000,0.000,0.000
1605133529407027968,10.0.1.134,579,move_down,-0.040,-0.040,-0.040,0.000,0.000,0.000
1605133531071109888,10.0.1.134,550,move_down,-0.060,-0.060,-0.060,0.000,0.000,0.000
1605133532689917184,10.0.1.134,542,move_down,-0.080,-0.080,-0.080,0.000,0.000,0.000
1605133534401101056,10.0.1.134,541,move_down,-0.100,-0.100,-0.100,0.000,0.000,0.000
1605133536468648960,10.0.1.134,962,move_down,-0.120,-0.120,-0.120,0.000,0.000,0.000
1605133538044944128,10.0.1.134,452,move_down,-0.140,-0.140,-0.140,0.000,0.000,0.000
1605133539825004032,10.0.1.134,666,move_down,-0.160,-0.160,-0.160,0.000,0.000,0.000
1605133541420851968,10.0.1.134,543,move_down,-0.180,-0.180,-0.180,0.000,0.000,0.000
1605133543035587072,10.0.1.134,577,move_down,-0.200,-0.200,-0.200,0.000,0.000,0.000
1605133545085570048,10.0.1.134,907,move_down,-0.220,-0.220,-0.220,0.000,0.000,0.000
1605133546719075072,10.0.1.134,550,move_down,-0.240,-0.240,-0.240,0.000,0.000,0.000
1605133548394663936,10.0.1.134,545,move_down,-0.260,-0.260,-0.260,0.000,0.000,0.000
1605133550126287872,10.0.1.134,623,move_down,-0.280,-0.280,-0.280,0.000,0.000,0.000
1605133551847488000,10.0.1.134,666,move_down,-0.300,-0.300,-0.300,0.000,0.000,0.000
1605133553486824960,10.0.1.134,537,move_down,-0.320,-0.320,-0.320,0.000,0.000,0.000
1605133555435854848,10.0.1.134,890,move_down,-0.340,-0.340,-0.340,0.000,0.000,0.000
1605133557017849856,10.0.1.134,530,move_down,-0.360,-0.360,-0.360,0.000,0.000,0.000
1605133558730364160,10.0.1.134,558,move_down,-0.380,-0.380,-0.380,0.000,0.000,0.000
1605133560495905024,10.0.1.134,690,move_down,-0.400,-0.400,-0.400,0.000,0.000,0.000
1605133562400877056,10.0.1.134,624,move_down,-0.420,-0.420,-0.420,0.000,0.000,0.000
1605133563995648000,10.0.1.134,517,move_down,-0.440,-0.440,-0.440,0.000,0.000,0.000
1605133565631625984,10.0.1.134,576,move_down,-0.460,-0.460,-0.460,0.000,0.000,0.000
1605133567236672000,10.0.1.134,469,move_down,-0.480,-0.480,-0.480,0.000,0.000,0.000
1605133569057015040,10.0.1.134,674,move_down,-0.500,-0.500,-0.500,0.000,0.000,0.000
1605133570734790144,10.0.1.134,580,move_down,-0.520,-0.520,-0.520,0.000,0.000,0.000
1605133572441061120,10.0.1.134,533,move_down,-0.540,-0.540,-0.540,0.000,0.000,0.000
1605133574473985024,10.0.1.134,864,move_down,-0.560,-0.560,-0.560,0.000,0.000,0.000
1605133576150755840,10.0.1.134,558,move_down,-0.580,-0.580,-0.580,0.000,0.000,0.000
1605133577322537984,10.0.1.134,56,pick,-0.590,-0.590,-0.590,0.000,0.000,0.000
1605133579308803072,10.0.1.134,37,pick,-0.610,-0.610,-0.610,0.000,0.000,0.000
1605133580375801088,10.0.1.134,102,pick,-0.620,-0.620,-0.620,0.000,0.000,0.000
1605133581308975872,10.0.1.134,34,pick,-0.630,-0.630,-0.630,0.000,0.000,0.000
1605133583339760896,10.0.1.134,60,pick,-0.650,-0.650,-0.650,0.000,0.000,0.000
1605133584373490944,10.0.1.134,52,pick,-0.660,-0.660,-0.660,0.000,0.000,0.000
1605133585397236224,10.0.1.134,72,pick,-0.670,-0.670,-0.670,0.000,0.000,0.000
1605133588379568128,10.0.1.134,50,pick,-0.700,-0.700,-0.700,0.000,0.000,0.000
1605133589385334016,10.0.1.134,54,pick,-0.710,-0.710,-0.710,0.000,0.000,0.000
1605133591385446912,10.0.1.134,50,pick,-0.730,-0.730,-0.730,0.000,0.000,0.000
1605133592370161152,10.0.1.134,33,pick,-0.740,-0.740,-0.740,0.000,0.000,0.000
1605133593404257024,10.0.1.134,65,pick,-0.750,-0.750,-0.750,0.000,0.000,0.000
1605133594395656192,10.0.1.134,54,pick,-0.760,-0.760,-0.760,0.000,0.000,0.000
1605133595383384064,10.0.1.134,41,pick,-0.770,-0.770,-0.770,0.000,0.000,0.000
1605133596828064000,10.0.1.134,468,move_up,-0.750,-0.750,-0.750,0.000,0.000,0.000
1605133598461425152,10.0.1.134,550,move_up,-0.730,-0.730,-0.730,0.000,0.000,0.000
1605133600304512000,10.0.1.134,561,move_up,-0.710,-0.710,-0.710,0.000,0.000,0.000
1605133601979481088,10.0.1.134,514,move_up,-0.690,-0.690,-0.690,0.000,0.000,0.000
1605133603760791040,10.0.1.134,729,move_up,-0.670,-0.670,-0.670,0.000,0.000,0.000
1605133605323611904,10.0.1.134,472,move_up,-0.650,-0.650,-0.650,0.000,0.000,0.000
1605133607055603968,10.0.1.134,607,move_up,-0.630,-0.630,-0.630,0.000,0.000,0.000
1605133608943720192,10.0.1.134,791,move_up,-0.610,-0.610,-0.610,0.000,0.000,0.000
1605133610448764160,10.0.1.134,489,move_up,-0.590,-0.590,-0.590,0.000,0.000,0.000
1605133612190438912,10.0.1.134,663,move_up,-0.570,-0.570,-0.570,0.000,0.000,0.000
1605133614086011904,10.0.1.134,792,move_up,-0.550,-0.550,-0.550,0.000,0.000,0.000
1605133615752398848,10.0.1.134,470,move_up,-0.530,-0.530,-0.530,0.000,0.000,0.000
1605133617397048832,10.0.1.134,464,move_up,-0.510,-0.510,-0.510,0.000,0.000,0.000
1605133619061153024,10.0.1.134,541,move_up,-0.490,-0.490,-0.490,0.000,0.000,0.000
1605133620777252864,10.0.1.134,585,move_up,-0.470,-0.470,-0.470,0.000,0.000,0.000
1605133622366626048,10.0.1.134,566,move_up,-0.450,-0.450,-0.450,0.000,0.000,0.000
1605133623858604800,10.0.1.134,436,move_up,-0.430,-0.430,-0.430,0.000,0.000,0.000
1605133625645741824,10.0.1.134,653,move_up,-0.410,-0.410,-0.410,0.000,0.000,0.000
1605133627376153856,10.0.1.134,576,move_up,-0.390,-0.390,-0.390,0.000,0.000,0.000
1605133628926560000,10.0.1.134,487,move_up,-0.370,-0.370,-0.370,0.000,0.000,0.000
1605133630588499968,10.0.1.134,537,move_up,-0.350,-0.350,-0.350,0.000,0.000,0.000
1605133632164568064,10.0.1.134,436,move_up,-0.330,-0.330,-0.330,0.000,0.000,0.000
1605133633880609024,10.0.1.134,551,move_up,-0.310,-0.310,-0.310,0.000,0.000,0.000
1605133635598507776,10.0.1.134,537,move_up,-0.290,-0.290,-0.290,0.000,0.000,0.000
1605133637165430016,10.0.1.134,503,move_up,-0.270,-0.270,-0.270,0.000,0.000,0.000
1605133639027721984,10.0.1.134,639,move_up,-0.250,-0.250,-0.250,0.000,0.000,0.000
1605133640808505088,10.0.1.134,634,move_up,-0.230,-0.230,-0.230,0.000,0.000,0.000
1605133642540402944,10.0.1.134,638,move_up,-0.210,-0.210,-0.210,0.000,0.000,0.000
1605133644397149184,10.0.1.134,562,move_up,-0.190,-0.190,-0.190,0.000,0.000,0.000
1605133646663955968,10.0.1.134,74,place,-0.170,-0.170,-0.170,0.000,0.000,0.000
1605133647688487936,10.0.1.134,95,place,-0.160,-0.160,-0.160,0.000,0.000,0.000
1605133648644089088,10.0.1.134,50,place,-0.150,-0.150,-0.150,0.000,0.000,0.000
1605133649663796992,10.0.1.134,67,place,-0.140,-0.140,-0.140,0.000,0.000,0.000
1605133650679794944,10.0.1.134,82,place,-0.130,-0.130,-0.130,0.000,0.000,0.000
1605133651644169216,10.0.1.134,44,place,-0.120,-0.120,-0.120,0.000,0.000,0.000
1605133652642740992,10.0.1.134,42,place,-0.110,-0.110,-0.110,0.000,0.000,0.000
1605133653662033152,10.0.1.134,57,place,-0.100,-0.100,-0.100,0.000,0.000,0.000
1605133654638109952,10.0.1.134,32,place,-0.090,-0.090,-0.090,0.000,0.000,0.000
1605133655639421952,10.0.1.134,32,place,-0.080,-0.080,-0.080,0.000,0.000,0.000
1605133656660080896,10.0.1.134,50,place,-0.070,-0.070,-0.070,0.000,0.000,0.000
1605133658656840960,10.0.1.134,41,place,-0.050,-0.050,-0.050,0.000,0.000,0.000
1605133659699126016,10.0.1.134,70,place,-0.040,-0.040,-0.040,0.000,0.000,0.000
1605133660750019072,10.0.1.134,111,place,-0.030,-0.030,-0.030,0.000,0.000,0.000
1605133661717572096,10.0.1.134,78,place,-0.020,-0.020,-0.020,0.000,0.000,0.000
1605133663704530944,10.0.1.134,56,place,0.000,0.000,0.000,0.000,0.000,0.000
1605133665165559040,10.0.1.134,508,move_down,-0.020,-0.020,-0.020,0.000,0.000,0.000
1605133666816984064,10.0.1.134,499,move_down,-0.040,-0.040,-0.040,0.000,0.000,0.000
1605133668556086016,10.0.1.134,551,move_down,-0.060,-0.060,-0.060,0.000,0.000,0.000
1605133670157406976,10.0.1.134,493,move_down,-0.080,-0.080,-0.080,0.000,0.000,0.000
1605133671770370048,10.0.1.134,490,move_down,-0.100,-0.100,-0.100,0.000,0.000,0.000
1605133673474187008,10.0.1.134,586,move_down,-0.120,-0.120,-0.120,0.000,0.000,0.000
1605133675224205056,10.0.1.134,611,move_down,-0.140,-0.140,-0.140,0.000,0.000,0.000
1605133676864280064,10.0.1.134,596,move_down,-0.160,-0.160,-0.160,0.000,0.000,0.000
1605133678694097920,10.0.1.134,725,move_down,-0.180,-0.180,-0.180,0.000,0.000,0.000
1605133680268870144,10.0.1.134,488,move_down,-0.200,-0.200,-0.200,0.000,0.000,0.000
1605133681953320960,10.0.1.134,534,move_down,-0.220,-0.220,-0.220,0.000,0.000,0.000
1605133683620007936,10.0.1.134,588,move_down,-0.240,-0.240,-0.240,0.000,0.000,0.000
1605133685150304000,10.0.1.134,464,move_down,-0.260,-0.260,-0.260,0.000,0.000,0.000
1605133686700141056,10.0.1.134,491,move_down,-0.280,-0.280,-0.280,0.000,0.000,0.000
1605133688444824832,10.0.1.134,632,move_down,-0.300,-0.300,-0.300,0.000,0.000,0.000
1605133690107846912,10.0.1.134,548,move_down,-0.320,-0.320,-0.320,0.000,0.000,0.000
1605133691934569984,10.0.1.134,679,move_down,-0.340,-0.340,-0.340,0.000,0.000,0.000
1605133693719293952,10.0.1.134,495,move_down,-0.360,-0.360,-0.360,0.000,0.000,0.000
1605133695348828160,10.0.1.134,501,move_down,-0.380,-0.380,-0.380,0.000,0.000,0.000
1605133697079873024,10.0.1.134,615,move_down,-0.400,-0.400,-0.400,0.000,0.000,0.000
1605133698979777024,10.0.1.134,521,move_down,-0.420,-0.420,-0.420,0.000,0.000,0.000
1605133700570460928,10.0.1.134,524,move_down,-0.440,-0.440,-0.440,0.000,0.000,0.000
1605133702263041024,10.0.1.134,559,move_down,-0.460,-0.460,-0.460,0.000,0.000,0.000
1605133704044615936,10.0.1.134,639,move_down,-0.480,-0.480,-0.480,0.000,0.000,0.000
1605133705579618816,10.0.1.134,497,move_down,-0.500,-0.500,-0.500,0.000,0.000,0.000
1605133707386172928,10.0.1.134,733,move_down,-0.520,-0.520,-0.520,0.000,0.000,0.000
1605133709612772864,10.0.1.134,591,move_down,-0.540,-0.540,-0.540,0.000,0.000,0.000
1605133711287149824,10.0.1.134,532,move_down,-0.560,-0.560,-0.560,0.000,0.000,0.000
1605133712915847936,10.0.1.134,550,move_down,-0.580,-0.580,-0.580,0.000,0.000,0.000
1605133714119847936,10.0.1.134,61,pick,-0.590,-0.590,-0.590,0.000,0.000,0.000
1605133715098278912,10.0.1.134,39,pick,-0.600,-0.600,-0.600,0.000,0.000,0.000
1605133717123874048,10.0.1.134,59,pick,-0.620,-0.620,-0.620,0.000,0.000,0.000
1605133718139836928,10.0.1.134,72,pick,-0.630,-0.630,-0.630,0.000,0.000,0.000
1605133719124456960,10.0.1.134,53,pick,-0.640,-0.640,-0.640,0.000,0.000,0.000
1605133721147554048,10.0.1.134,73,pick,-0.660,-0.660,-0.660,0.000,0.000,0.000
1605133722130640896,10.0.1.134,54,pick,-0.670,-0.670,-0.670,0.000,0.000,0.000
1605133723153507840,10.0.1.134,61,pick,-0.680,-0.680,-0.680,0.000,0.000,0.000
1605133724144790784,10.0.1.134,51,pick,-0.690,-0.690,-0.690,0.000,0.000,0.000
1605133725165662976,10.0.1.134,67,pick,-0.700,-0.700,-0.700,0.000,0.000,0.000
1605133726167397888,10.0.1.134,65,pick,-0.710,-0.710,-0.710,0.000,0.000,0.000
1605133727153696000,10.0.1.134,44,pick,-0.720,-0.720,-0.720,0.000,0.000,0.000
1605133729175287040,10.0.1.134,56,pick,-0.740,-0.740,-0.740,0.000,0.000,0.000
1605133730185236992,10.0.1.134,64,pick,-0.750,-0.750,-0.750,0.000,0.000,0.000
1605133731198499072,10.0.1.134,66,pick,-0.760,-0.760,-0.760,0.000,0.000,0.000
1605133732202704896,10.0.1.134,39,pick,-0.770,-0.770,-0.770,0.000,0.000,0.000
1605133733838231040,10.0.1.134,674,move_up,-0.750,-0.750,-0.750,0.000,0.000,0.000
1605133735683958016,10.0.1.134,663,move_up,-0.730,-0.730,-0.730,0.000,0.000,0.000
1605133737360840960,10.0.1.134,495,move_up,-0.710,-0.710,-0.710,0.000,0.000,0.000
1605133739126991104,10.0.1.134,579,move_up,-0.690,-0.690,-0.690,0.000,0.000,0.000
1605133740896369920,10.0.1.134,548,move_up,-0.670,-0.670,-0.670,0.000,0.000,0.000
1605133742648689920,10.0.1.134,473,move_up,-0.650,-0.650,-0.650,0.000,0.000,0.000
1605133744281074944,10.0.1.134,555,move_up,-0.630,-0.630,-0.630,0.000,0.000,0.000
1605133745891616000,10.0.1.134,503,move_up,-0.610,-0.610,-0.610,0.000,0.000,0.000
1605133747510541056,10.0.1.134,522,move_up,-0.590,-0.590,-0.590,0.000,0.000,0.000
1605133749185268992,10.0.1.134,548,move_up,-0.570,-0.570,-0.570,0.000,0.000,0.000
1605133750862919168,10.0.1.134,545,move_up,-0.550,-0.550,-0.550,0.000,0.000,0.000
1605133752810509824,10.0.1.134,733,move_up,-0.530,-0.530,-0.530,0.000,0.000,0.000
1605133754418628864,10.0.1.134,534,move_up,-0.510,-0.510,-0.510,0.000,0.000,0.000
1605133756308598016,10.0.1.134,610,move_up,-0.490,-0.490,-0.490,0.000,0.000,0.000
1605133758020396032,10.0.1.134,603,move_up,-0.470,-0.470,-0.470,0.000,0.000,0.000
1605133759858396160,10.0.1.134,660,move_up,-0.450,-0.450,-0.450,0.000,0.000,0.000
1605133761698332160,10.0.1.134,543,move_up,-0.430,-0.430,-0.430,0.000,0.000,0.000
1605133763275254016,10.0.1.134,490,move_up,-0.410,-0.410,-0.410,0.000,0.000,0.000
1605133764931703040,10.0.1.134,549,move_up,-0.390,-0.390,-0.390,0.000,0.000,0.000
1605133766612523008,10.0.1.134,562,move_up,-0.370,-0.370,-0.370,0.000,0.000,0.000
1605133768364034048,10.0.1.134,626,move_up,-0.350,-0.350,-0.350,0.000,0.000,0.000
1605133770027284992,10.0.1.134,578,move_up,-0.330,-0.330,-0.330,0.000,0.000,0.000
1605133771735244032,10.0.1.134,549,move_up,-0.310,-0.310,-0.310,0.000,0.000,0.000
1605133773428248832,10.0.1.134,602,move_up,-0.290,-0.290,-0.290,0.000,0.000,0.000
1605133775022407168,10.0.1.134,556,move_up,-0.270,-0.270,-0.270,0.000,0.000,0.000
1605133776643634176,10.0.1.134,501,move_up,-0.250,-0.250,-0.250,0.000,0.000,0.000
1605133778499820032,10.0.1.134,762,move_up,-0.230,-0.230,-0.230,0.000,0.000,0.000
1605133780325229056,10.0.1.134,612,move_up,-0.210,-0.210,-0.210,0.000,0.000,0.000
1605133782207237888,10.0.1.134,663,move_up,-0.190,-0.190,-0.190,0.000,0.000,0.000
1605133783667341824,10.0.1.134,58,place,-0.180,-0.180,-0.180,0.000,0.000,0.000
1605133784642204160,10.0.1.134,31,place,-0.170,-0.170,-0.170,0.000,0.000,0.000
1605133785669289984,10.0.1.134,51,place,-0.160,-0.160,-0.160,0.000,0.000,0.000
1605133786727150080,10.0.1.134,106,place,-0.150,-0.150,-0.150,0.000,0.000,0.000
1605133787676528896,10.0.1.134,51,place,-0.140,-0.140,-0.140,0.000,0.000,0.000
1605133788684571136,10.0.1.134,50,place,-0.130,-0.130,-0.130,0.000,0.000,0.000
1605133789694679040,10.0.1.134,55,place,-0.120,-0.120,-0.120,0.000,0.000,0.000
1605133790721965056,10.0.1.134,72,place,-0.110,-0.110,-0.110,0.000,0.000,0.000
1605133792746951936,10.0.1.134,83,place,-0.090,-0.090,-0.090,0.000,0.000,0.000
1605133793700047872,10.0.1.134,36,place,-0.080,-0.080,-0.080,0.000,0.000,0.000
1605133794802201088,10.0.1.134,132,place,-0.070,-0.070,-0.070,0.000,0.000,0.000
1605133795701220864,10.0.1.134,30,place,-0.060,-0.060,-0.060,0.000,0.000,0.000
1605133796739145984,10.0.1.134,67,place,-0.050,-0.050,-0.050,0.000,0.000,0.000
1605133797734983936,10.0.1.134,62,place,-0.040,-0.040,-0.040,0.000,0.000,0.000
1605133798771262976,10.0.1.134,98,place,-0.030,-0.030,-0.030,0.000,0.000,0.000
1605133799734409216,10.0.1.134,52,place,-0.020,-0.020,-0.020,0.000,0.000,0.000
1605133800721929984,10.0.1.134,38,place,-0.010,-0.010,-0.010,0.000,0.000,0.000
1605133801786281216,10.0.1.134,92,place,0.000,0.000,0.000,0.000,0.000,0.000
1605133803231915008,10.0.1.134,517,move_down,-0.020,-0.020,-0.020,0.000,0.000,0.000
1605133805045788160,10.0.1.134,611,move_down,-0.040,-0.040,-0.040,0.000,0.000,0.000
1605133806875067904,10.0.1.134,615,move_down,-0.060,-0.060,-0.060,0.000,0.000,0.000
1605133808622025984,10.0.1.134,590,move_down,-0.080,-0.080,-0.080,0.000,0.000,0.000
1605133810323298048,10.0.1.134,541,move_down,-0.100,-0.100,-0.100,0.000,0.000,0.000
1605133812021054976,10.0.1.134,549,move_down,-0.120,-0.120,-0.120,0.000,0.000,0.000
1605133813877142016,10.0.1.134,651,move_down,-0.140,-0.140,-0.140,0.000,0.000,0.000
1605133815578919936,10.0.1.134,584,move_down,-0.160,-0.160,-0.160,0.000,0.000,0.000
1605133817268166144,10.0.1.134,471,move_down,-0.180,-0.180,-0.180,0.000,0.000,0.000
1605133819015646976,10.0.1.134,714,move_down,-0.200,-0.200,-0.200,0.000,0.000,0.000
1605133820782311936,10.0.1.134,625,move_down,-0.220,-0.220,-0.220,0.000,0.000,0.000
1605133822338014976,10.0.1.134,500,move_down,-0.240,-0.240,-0.240,0.000,0.000,0.000
1605133824083164928,10.0.1.134,557,move_down,-0.260,-0.260,-0.260,0.000,0.000,0.000
1605133825922089984,10.0.1.134,633,move_down,-0.280,-0.280,-0.280,0.000,0.000,0.000
1605133827471152128,10.0.1.134,547,move_down,-0.300,-0.300,-0.300,0.000,0.000,0.000
1605133829168867072,10.0.1.134,581,move_down,-0.320,-0.320,-0.320,0.000,0.000,0.000
1605133831172924160,10.0.1.134,786,move_down,-0.340,-0.340,-0.340,0.000,0.000,0.000
1605133832965172992,10.0.1.134,694,move_down,-0.360,-0.360,-0.360,0.000,0.000,0.000
1605133834752069120,10.0.1.134,586,move_down,-0.380,-0.380,-0.380,0.000,0.000,0.000
1605133836636837888,10.0.1.134,883,move_down,-0.400,-0.400,-0.400,0.000,0.000,0.000
1605133838168550912,10.0.1.134,527,move_down,-0.420,-0.420,-0.420,0.000,0.000,0.000
1605133840077816064,10.0.1.134,619,move_down,-0.440,-0.440,-0.440,0.000,0.000,0.000
1605133841670628096,10.0.1.134,588,move_down,-0.460,-0.460,-0.460,0.000,0.000,0.000
1605133843573035008,10.0.1.134,705,move_down,-0.480,-0.480,-0.480,0.000,0.000,0.000
1605133845388073984,10.0.1.134,746,move_down,-0.500,-0.500,-0.500,0.000,0.000,0.000
1605133847160176128,10.0.1.134,680,move_down,-0.520,-0.520,-0.520,0.000,0.000,0.000
1605133848809776128,10.0.1.134,466,move_down,-0.540,-0.540,-0.540,0.000,0.000,0.000
1605133850446700032,10.0.1.134,539,move_down,-0.560,-0.560,-0.560,0.000,0.000,0.000
1605133852280451072,10.0.1.134,771,move_down,-0.580,-0.580,-0.580,0.000,0.000,0.000
1605133853549665024,10.0.1.134,92,pick,-0.590,-0.590,-0.590,0.000,0.000,0.000
1605133854514193152,10.0.1.134,54,pick,-0.600,-0.600,-0.600,0.000,0.000,0.000
1605133856552540160,10.0.1.134,65,pick,-0.620,-0.620,-0.620,0.000,0.000,0.000
1605133857546708992,10.0.1.134,50,pick,-0.630,-0.630,-0.630,0.000,0.000,0.000
1605133858599681024,10.0.1.134,60,pick,-0.640,-0.640,-0.640,0.000,0.000,0.000
1605133860593776896,10.0.1.134,38,pick,-0.660,-0.660,-0.660,0.000,0.000,0.000
1605133861596777984,10.0.1.134,38,pick,-0.670,-0.670,-0.670,0.000,0.000,0.000
1605133862614681856,10.0.1.134,55,pick,-0.680,-0.680,-0.680,0.000,0.000,0.000
1605133864610713088,10.0.1.134,45,pick,-0.700,-0.700,-0.700,0.000,0.000,0.000
1605133866620624128,10.0.1.134,49,pick,-0.720,-0.720,-0.720,0.000,0.000,0.000
1605133867618562816,10.0.1.134,45,pick,-0.730,-0.730,-0.730,0.000,0.000,0.000
1605133868623290112,10.0.1.134,49,pick,-0.740,-0.740,-0.740,0.000,0.000,0.000
1605133869632990976,10.0.1.134,56,pick,-0.750,-0.750,-0.750,0.000,0.000,0.000
1605133870648734208,10.0.1.134,70,pick,-0.760,-0.760,-0.760,0.000,0.000,0.000
1605133871645442048,10.0.1.134,66,pick,-0.770,-0.770,-0.770,0.000,0.000,0.000
1605133873257883136,10.0.1.134,678,move_up,-0.750,-0.750,-0.750,0.000,0.000,0.000
1605133874888534016,10.0.1.134,619,move_up,-0.730,-0.730,-0.730,0.000,0.000,0.000
1605133876449715968,10.0.1.134,504,move_up,-0.710,-0.710,-0.710,0.000,0.000,0.000
1605133878068780800,10.0.1.134,566,move_up,-0.690,-0.690,-0.690,0.000,0.000,0.000
1605133879972641024,10.0.1.134,719,move_up,-0.670,-0.670,-0.670,0.000,0.000,0.000
1605133881591011072,10.0.1.134,518,move_up,-0.650,-0.650,-0.650,0.000,0.000,0.000
1605133883205864960,10.0.1.134,570,move_up,-0.630,-0.630,-0.630,0.000,0.000,0.000
1605133884757342208,10.0.1.134,451,move_up,-0.610,-0.610,-0.610,0.000,0.000,0.000
1605133886544576768,10.0.1.134,632,move_up,-0.590,-0.590,-0.590,0.000,0.000,0.000
1605133888297744896,10.0.1.134,644,move_up,-0.570,-0.570,-0.570,0.000,0.000,0.000
1605133890152334848,10.0.1.134,575,move_up,-0.550,-0.550,-0.550,0.000,0.000,0.000
1605133892181641984,10.0.1.134,794,move_up,-0.530,-0.530,-0.530,0.000,0.000,0.000
1605133893985328896,10.0.1.134,684,move_up,-0.510,-0.510,-0.510,0.000,0.000,0.000
1605133895568794880,10.0.1.134,497,move_up,-0.490,-0.490,-0.490,0.000,0.000,0.000
1605133897153207040,10.0.1.134,500,move_up,-0.470,-0.470,-0.470,0.000,0.000,0.000
