milangroshev/digital-twin-scalability/logs/run2-3600s/10.0.1.143.csv
timestamp,node,latency,action,joint_1,joint_2,joint_3,joint_4,joint_5,joint_6
1605143068838535168,10.0.1.143,2012,,0.000,0.000,0.000,0.000,0.000,0.000
1605143085999932160,10.0.1.143,2314,move_down,-0.140,-0.140,-0.140,0.000,0.000,0.000
1605143088078025216,10.0.1.143,1058,move_down,-0.160,-0.160,-0.160,0.000,0.000,0.000
1605143090306227968,10.0.1.143,929,move_down,-0.180,-0.180,-0.180,0.000,0.000,0.000
1605143091992950016,10.0.1.143,556,move_down,-0.200,-0.200,-0.200,0.000,0.000,0.000
1605143093977217792,10.0.1.143,804,move_down,-0.220,-0.220,-0.220,0.000,0.000,0.000
1605143095775702016,10.0.1.143,649,move_down,-0.240,-0.240,-0.240,0.000,0.000,0.000
1605143098300096000,10.0.1.143,1105,move_down,-0.260,-0.260,-0.260,0.000,0.000,0.000
1605143100340306944,10.0.1.143,1020,move_down,-0.280,-0.280,-0.280,0.000,0.000,0.000
1605143102027312896,10.0.1.143,625,move_down,-0.300,-0.300,-0.300,0.000,0.000,0.000
1605143103652471040,10.0.1.143,576,move_down,-0.320,-0.320,-0.320,0.000,0.000,0.000
1605143105305217024,10.0.1.143,630,move_down,-0.340,-0.340,-0.340,0.000,0.000,0.000
1605143107293436928,10.0.1.143,573,move_down,-0.360,-0.360,-0.360,0.000,0.000,0.000
1605143109085239808,10.0.1.143,615,move_down,-0.380,-0.380,-0.380,0.000,0.000,0.000
1605143110891119104,10.0.1.143,719,move_down,-0.400,-0.400,-0.400,0.000,0.000,0.000
1605143112656943104,10.0.1.143,695,move_down,-0.420,-0.420,-0.420,0.000,0.000,0.000
1605143114356129792,10.0.1.143,662,move_down,-0.440,-0.440,-0.440,0.000,0.000,0.000
1605143116127064832,10.0.1.143,745,move_down,-0.460,-0.460,-0.460,0.000,0.000,0.000
1605143117887811840,10.0.1.143,696,move_down,-0.480,-0.480,-0.480,0.000,0.000,0.000
1605143120125072896,10.0.1.143,521,move_down,-0.500,-0.500,-0.500,0.000,0.000,0.000
1605143122058737920,10.0.1.143,855,move_down,-0.520,-0.520,-0.520,0.000,0.000,0.000
1605143123809463040,10.0.1.143,703,move_down,-0.540,-0.540,-0.540,0.000,0.000,0.000
1605143125457619968,10.0.1.143,566,move_down,-0.560,-0.560,-0.560,0.000,0.000,0.000
1605143127592199168,10.0.1.143,1015,move_down,-0.580,-0.580,-0.580,0.000,0.000,0.000
1605143129355011072,10.0.1.143,703,move_down,-0.600,-0.600,-0.600,0.000,0.000,0.000
1605143131344551168,10.0.1.143,924,move_down,-0.620,-0.620,-0.620,0.000,0.000,0.000
1605143133552867840,10.0.1.143,1069,move_down,-0.640,-0.640,-0.640,0.000,0.000,0.000
1605143135800509952,10.0.1.143,1135,move_down,-0.660,-0.660,-0.660,0.000,0.000,0.000
1605143137815291904,10.0.1.143,908,move_down,-0.680,-0.680,-0.680,0.000,0.000,0.000
1605143140287851008,10.0.1.143,1307,move_down,-0.700,-0.700,-0.700,0.000,0.000,0.000
1605143142556461056,10.0.1.143,62,pick,-0.720,-0.720,-0.720,0.000,0.000,0.000
1605143145562708992,10.0.1.143,63,pick,-0.750,-0.750,-0.750,0.000,0.000,0.000
1605143146567076864,10.0.1.143,66,pick,-0.760,-0.760,-0.760,0.000,0.000,0.000
1605143147543566848,10.0.1.143,35,pick,-0.770,-0.770,-0.770,0.000,0.000,0.000
1605143149574657024,10.0.1.143,52,pick,-0.790,-0.790,-0.790,0.000,0.000,0.000
1605143150594983936,10.0.1.143,72,pick,-0.800,-0.800,-0.800,0.000,0.000,0.000
1605143152608745216,10.0.1.143,78,pick,-0.820,-0.820,-0.820,0.000,0.000,0.000
1605143154589540864,10.0.1.143,48,pick,-0.840,-0.840,-0.840,0.000,0.000,0.000
1605143156615351040,10.0.1.143,70,pick,-0.860,-0.860,-0.860,0.000,0.000,0.000
1605143157593154816,10.0.1.143,46,pick,-0.870,-0.870,-0.870,0.000,0.000,0.000
1605143158599076864,10.0.1.143,50,pick,-0.880,-0.880,-0.880,0.000,0.000,0.000
1605143159620732160,10.0.1.143,70,pick,-0.890,-0.890,-0.890,0.000,0.000,0.000
1605143161196135936,10.0.1.143,644,move_up,-0.870,-0.870,-0.870,0.000,0.000,0.000
1605143163418075136,10.0.1.143,936,move_up,-0.850,-0.850,-0.850,0.000,0.000,0.000
1605143165292828160,10.0.1.143,725,move_up,-0.830,-0.830,-0.830,0.000,0.000,0.000
1605143167517684992,10.0.1.143,1081,move_up,-0.810,-0.810,-0.810,0.000,0.000,0.000
1605143169305991936,10.0.1.143,694,move_up,-0.790,-0.790,-0.790,0.000,0.000,0.000
1605143171274923008,10.0.1.143,841,move_up,-0.770,-0.770,-0.770,0.000,0.000,0.000
1605143173292700928,10.0.1.143,918,move_up,-0.750,-0.750,-0.750,0.000,0.000,0.000
1605143175292929792,10.0.1.143,943,move_up,-0.730,-0.730,-0.730,0.000,0.000,0.000
1605143177037895936,10.0.1.143,655,move_up,-0.710,-0.710,-0.710,0.000,0.000,0.000
1605143180550714880,10.0.1.143,1899,move_up,-0.690,-0.690,-0.690,0.000,0.000,0.000
1605143182404911104,10.0.1.143,680,move_up,-0.670,-0.670,-0.670,0.000,0.000,0.000
1605143184365030144,10.0.1.143,807,move_up,-0.650,-0.650,-0.650,0.000,0.000,0.000
1605143186239661824,10.0.1.143,748,move_up,-0.630,-0.630,-0.630,0.000,0.000,0.000
1605143188340771840,10.0.1.143,961,move_up,-0.610,-0.610,-0.610,0.000,0.000,0.000
1605143190350744064,10.0.1.143,661,move_up,-0.590,-0.590,-0.590,0.000,0.000,0.000
1605143192071744000,10.0.1.143,617,move_up,-0.570,-0.570,-0.570,0.000,0.000,0.000
1605143194259923968,10.0.1.143,1168,move_up,-0.550,-0.550,-0.550,0.000,0.000,0.000
1605143196181643008,10.0.1.143,818,move_up,-0.530,-0.530,-0.530,0.000,0.000,0.000
1605143197955810048,10.0.1.143,564,move_up,-0.510,-0.510,-0.510,0.000,0.000,0.000
1605143199934561024,10.0.1.143,815,move_up,-0.490,-0.490,-0.490,0.000,0.000,0.000
1605143201924886016,10.0.1.143,929,move_up,-0.470,-0.470,-0.470,0.000,0.000,0.000
1605143204062948864,10.0.1.143,1087,move_up,-0.450,-0.450,-0.450,0.000,0.000,0.000
1605143205796667136,10.0.1.143,721,move_up,-0.430,-0.430,-0.430,0.000,0.000,0.000
1605143208209618944,10.0.1.143,1088,move_up,-0.410,-0.410,-0.410,0.000,0.000,0.000
1605143210053082112,10.0.1.143,779,move_up,-0.390,-0.390,-0.390,0.000,0.000,0.000
1605143212364553984,10.0.1.143,872,move_up,-0.370,-0.370,-0.370,0.000,0.000,0.000
1605143214224890880,10.0.1.143,538,move_up,-0.350,-0.350,-0.350,0.000,0.000,0.000
1605143216577542912,10.0.1.143,1269,move_up,-0.330,-0.330,-0.330,0.000,0.000,0.000
1605143218801678848,10.0.1.143,653,move_up,-0.310,-0.310,-0.310,0.000,0.000,0.000
1605143220291462912,10.0.1.143,41,place,-0.300,-0.300,-0.300,0.000,0.000,0.000
1605143223335763968,10.0.1.143,74,place,-0.270,-0.270,-0.270,0.000,0.000,0.000
1605143225316518144,10.0.1.143,48,place,-0.250,-0.250,-0.250,0.000,0.000,0.000
1605143227350550016,10.0.1.143,69,place,-0.230,-0.230,-0.230,0.000,0.000,0.000
1605143228381899008,10.0.1.143,85,place,-0.220,-0.220,-0.220,0.000,0.000,0.000
1605143229362472960,10.0.1.143,64,place,-0.210,-0.210,-0.210,0.000,0.000,0.000
1605143230363441920,10.0.1.143,60,place,-0.200,-0.200,-0.200,0.000,0.000,0.000
1605143231358432000,10.0.1.143,52,place,-0.190,-0.190,-0.190,0.000,0.000,0.000
1605143232367343872,10.0.1.143,60,place,-0.180,-0.180,-0.180,0.000,0.000,0.000
1605143233379897088,10.0.1.143,65,place,-0.170,-0.170,-0.170,0.000,0.000,0.000
1605143235379045120,10.0.1.143,42,place,-0.150,-0.150,-0.150,0.000,0.000,0.000
1605143236374759936,10.0.1.143,35,place,-0.140,-0.140,-0.140,0.000,0.000,0.000
1605143237396653056,10.0.1.143,56,place,-0.130,-0.130,-0.130,0.000,0.000,0.000
1605143240128513024,10.0.1.143,778,move_down,-0.140,-0.140,-0.140,0.000,0.000,0.000
1605143241962480128,10.0.1.143,703,move_down,-0.160,-0.160,-0.160,0.000,0.000,0.000
1605143244246478080,10.0.1.143,1159,move_down,-0.180,-0.180,-0.180,0.000,0.000,0.000
1605143246107991808,10.0.1.143,518,move_down,-0.200,-0.200,-0.200,0.000,0.000,0.000
1605143248326586112,10.0.1.143,1183,move_down,-0.220,-0.220,-0.220,0.000,0.000,0.000
1605143250445944064,10.0.1.143,641,move_down,-0.240,-0.240,-0.240,0.000,0.000,0.000
1605143252213417984,10.0.1.143,594,move_down,-0.260,-0.260,-0.260,0.000,0.000,0.000
1605143254016641024,10.0.1.143,813,move_down,-0.280,-0.280,-0.280,0.000,0.000,0.000
1605143256733800960,10.0.1.143,1597,move_down,-0.300,-0.300,-0.300,0.000,0.000,0.000
1605143258505181952,10.0.1.143,735,move_down,-0.320,-0.320,-0.320,0.000,0.000,0.000
1605143260195115008,10.0.1.143,610,move_down,-0.340,-0.340,-0.340,0.000,0.000,0.000
1605143262219096064,10.0.1.143,915,move_down,-0.360,-0.360,-0.360,0.000,0.000,0.000
1605143263855942912,10.0.1.143,564,move_down,-0.380,-0.380,-0.380,0.000,0.000,0.000
1605143266437851904,10.0.1.143,1150,move_down,-0.400,-0.400,-0.400,0.000,0.000,0.000
1605143268196902144,10.0.1.143,669,move_down,-0.420,-0.420,-0.420,0.000,0.000,0.000
1605143269960883968,10.0.1.143,587,move_down,-0.440,-0.440,-0.440,0.000,0.000,0.000
1605143271704328960,10.0.1.143,622,move_down,-0.460,-0.460,-0.460,0.000,0.000,0.000
1605143273570120960,10.0.1.143,726,move_down,-0.480,-0.480,-0.480,0.000,0.000,0.000
1605143275644814080,10.0.1.143,1051,move_down,-0.500,-0.500,-0.500,0.000,0.000,0.000
1605143277783226880,10.0.1.143,1107,move_down,-0.520,-0.520,-0.520,0.000,0.000,0.000
1605143280000137984,10.0.1.143,1029,move_down,-0.540,-0.540,-0.540,0.000,0.000,0.000
1605143282288579072,10.0.1.143,1147,move_down,-0.560,-0.560,-0.560,0.000,0.000,0.000
1605143284344804096,10.0.1.143,901,move_down,-0.580,-0.580,-0.580,0.000,0.000,0.000
1605143286514525952,10.0.1.143,984,move_down,-0.600,-0.600,-0.600,0.000,0.000,0.000
1605143288594544896,10.0.1.143,1033,move_down,-0.620,-0.620,-0.620,0.000,0.000,0.000
1605143291017394176,10.0.1.143,1275,move_down,-0.640,-0.640,-0.640,0.000,0.000,0.000
1605143292929568000,10.0.1.143,605,move_down,-0.660,-0.660,-0.660,0.000,0.000,0.000
1605143294985598976,10.0.1.143,823,move_down,-0.680,-0.680,-0.680,0.000,0.000,0.000
1605143297088656896,10.0.1.143,818,move_down,-0.700,-0.700,-0.700,0.000,0.000,0.000
1605143298251440128,10.0.1.143,56,pick,-0.710,-0.710,-0.710,0.000,0.000,0.000
1605143300255002880,10.0.1.143,36,pick,-0.730,-0.730,-0.730,0.000,0.000,0.000
1605143301258382080,10.0.1.143,37,pick,-0.740,-0.740,-0.740,0.000,0.000,0.000
1605143302282624000,10.0.1.143,58,pick,-0.750,-0.750,-0.750,0.000,0.000,0.000
1605143303308819968,10.0.1.143,83,pick,-0.760,-0.760,-0.760,0.000,0.000,0.000
1605143304257608960,10.0.1.143,29,pick,-0.770,-0.770,-0.770,0.000,0.000,0.000
1605143305289346048,10.0.1.143,56,pick,-0.780,-0.780,-0.780,0.000,0.000,0.000
1605143306319794944,10.0.1.143,79,pick,-0.790,-0.790,-0.790,0.000,0.000,0.000
1605143307300311040,10.0.1.143,56,pick,-0.800,-0.800,-0.800,0.000,0.000,0.000
1605143308294814208,10.0.1.143,49,pick,-0.810,-0.810,-0.810,0.000,0.000,0.000
1605143309286729984,10.0.1.143,40,pick,-0.820,-0.820,-0.820,0.000,0.000,0.000
1605143310317712128,10.0.1.143,65,pick,-0.830,-0.830,-0.830,0.000,0.000,0.000
1605143311326447104,10.0.1.143,61,pick,-0.840,-0.840,-0.840,0.000,0.000,0.000
1605143312334371072,10.0.1.143,67,pick,-0.850,-0.850,-0.850,0.000,0.000,0.000
1605143313317112832,10.0.1.143,43,pick,-0.860,-0.860,-0.860,0.000,0.000,0.000
1605143314399523072,10.0.1.143,124,pick,-0.870,-0.870,-0.870,0.000,0.000,0.000
1605143315327725056,10.0.1.143,52,pick,-0.880,-0.880,-0.880,0.000,0.000,0.000
1605143316347599872,10.0.1.143,64,pick,-0.890,-0.890,-0.890,0.000,0.000,0.000
1605143317921138944,10.0.1.143,635,move_up,-0.870,-0.870,-0.870,0.000,0.000,0.000
1605143319808342016,10.0.1.143,651,move_up,-0.850,-0.850,-0.850,0.000,0.000,0.000
1605143321634932992,10.0.1.143,650,move_up,-0.830,-0.830,-0.830,0.000,0.000,0.000
1605143323831759872,10.0.1.143,1090,move_up,-0.810,-0.810,-0.810,0.000,0.000,0.000
1605143325719582208,10.0.1.143,769,move_up,-0.790,-0.790,-0.790,0.000,0.000,0.000
1605143327938564096,10.0.1.143,1178,move_up,-0.770,-0.770,-0.770,0.000,0.000,0.000
1605143330261559040,10.0.1.143,1152,move_up,-0.750,-0.750,-0.750,0.000,0.000,0.000
1605143332075859968,10.0.1.143,717,move_up,-0.730,-0.730,-0.730,0.000,0.000,0.000
1605143333910088960,10.0.1.143,615,move_up,-0.710,-0.710,-0.710,0.000,0.000,0.000
1605143335815979008,10.0.1.143,844,move_up,-0.690,-0.690,-0.690,0.000,0.000,0.000
1605143337578537984,10.0.1.143,629,move_up,-0.670,-0.670,-0.670,0.000,0.000,0.000
1605143339466556160,10.0.1.143,607,move_up,-0.650,-0.650,-0.650,0.000,0.000,0.000
1605143341721381888,10.0.1.143,1146,move_up,-0.630,-0.630,-0.630,0.000,0.000,0.000
1605143343755475968,10.0.1.143,977,move_up,-0.610,-0.610,-0.610,0.000,0.000,0.000
1605143345699859968,10.0.1.143,725,move_up,-0.590,-0.590,-0.590,0.000,0.000,0.000
1605143347750968064,10.0.1.143,847,move_up,-0.570,-0.570,-0.570,0.000,0.000,0.000
1605143349456656896,10.0.1.143,619,move_up,-0.550,-0.550,-0.550,0.000,0.000,0.000
1605143351300625920,10.0.1.143,790,move_up,-0.530,-0.530,-0.530,0.000,0.000,0.000
1605143353156286976,10.0.1.143,753,move_up,-0.510,-0.510,-0.510,0.000,0.000,0.000
1605143354897250048,10.0.1.143,638,move_up,-0.490,-0.490,-0.490,0.000,0.000,0.000
1605143356650351104,10.0.1.143,639,move_up,-0.470,-0.470,-0.470,0.000,0.000,0.000
1605143358813329920,10.0.1.143,907,move_up,-0.450,-0.450,-0.450,0.000,0.000,0.000
1605143360986917120,10.0.1.143,1050,move_up,-0.430,-0.430,-0.430,0.000,0.000,0.000
1605143363131831040,10.0.1.143,1075,move_up,-0.410,-0.410,-0.410,0.000,0.000,0.000
1605143365021869824,10.0.1.143,771,move_up,-0.390,-0.390,-0.390,0.000,0.000,0.000
1605143366887635968,10.0.1.143,837,move_up,-0.370,-0.370,-0.370,0.000,0.000,0.000
1605143368585716992,10.0.1.143,736,move_up,-0.350,-0.350,-0.350,0.000,0.000,0.000
1605143370161602048,10.0.1.143,461,move_up,-0.330,-0.330,-0.330,0.000,0.000,0.000
1605143372042222080,10.0.1.143,770,move_up,-0.310,-0.310,-0.310,0.000,0.000,0.000
1605143375657223936,10.0.1.143,39,place,-0.280,-0.280,-0.280,0.000,0.000,0.000
1605143376680304128,10.0.1.143,56,place,-0.270,-0.270,-0.270,0.000,0.000,0.000
1605143377693634048,10.0.1.143,66,place,-0.260,-0.260,-0.260,0.000,0.000,0.000
1605143378697777152,10.0.1.143,67,place,-0.250,-0.250,-0.250,0.000,0.000,0.000
1605143380744268032,10.0.1.143,103,place,-0.230,-0.230,-0.230,0.000,0.000,0.000
1605143381678935040,10.0.1.143,36,place,-0.220,-0.220,-0.220,0.000,0.000,0.000
1605143382716332032,10.0.1.143,67,place,-0.210,-0.210,-0.210,0.000,0.000,0.000
1605143384710875904,10.0.1.143,58,place,-0.190,-0.190,-0.190,0.000,0.000,0.000
1605143385710551040,10.0.1.143,56,place,-0.180,-0.180,-0.180,0.000,0.000,0.000
1605143386709667072,10.0.1.143,54,place,-0.170,-0.170,-0.170,0.000,0.000,0.000
1605143387714236928,10.0.1.143,50,place,-0.160,-0.160,-0.160,0.000,0.000,0.000
1605143388725203968,10.0.1.143,54,place,-0.150,-0.150,-0.150,0.000,0.000,0.000
1605143390726896896,10.0.1.143,54,place,-0.130,-0.130,-0.130,0.000,0.000,0.000
1605143391738535936,10.0.1.143,59,place,-0.120,-0.120,-0.120,0.000,0.000,0.000
1605143393257996032,10.0.1.143,574,move_down,-0.140,-0.140,-0.140,0.000,0.000,0.000
1605143394884865024,10.0.1.143,609,move_down,-0.160,-0.160,-0.160,0.000,0.000,0.000
1605143396442558976,10.0.1.143,477,move_down,-0.180,-0.180,-0.180,0.000,0.000,0.000
1605143398248686080,10.0.1.143,708,move_down,-0.200,-0.200,-0.200,0.000,0.000,0.000
1605143400167249920,10.0.1.143,647,move_down,-0.220,-0.220,-0.220,0.000,0.000,0.000
1605143402608689152,10.0.1.143,1340,move_down,-0.240,-0.240,-0.240,0.000,0.000,0.000
1605143404620421888,10.0.1.143,980,move_down,-0.260,-0.260,-0.260,0.000,0.000,0.000
1605143406637494016,10.0.1.143,865,move_down,-0.280,-0.280,-0.280,0.000,0.000,0.000
1605143408737385984,10.0.1.143,998,move_down,-0.300,-0.300,-0.300,0.000,0.000,0.000
1605143410363854848,10.0.1.143,643,move_down,-0.320,-0.320,-0.320,0.000,0.000,0.000
1605143412204500992,10.0.1.143,664,move_down,-0.340,-0.340,-0.340,0.000,0.000,0.000
1605143414303656192,10.0.1.143,1044,move_down,-0.360,-0.360,-0.360,0.000,0.000,0.000
1605143416228336128,10.0.1.143,632,move_down,-0.380,-0.380,-0.380,0.000,0.000,0.000
1605143418035059968,10.0.1.143,705,move_down,-0.400,-0.400,-0.400,0.000,0.000,0.000
1605143420651233792,10.0.1.143,1503,move_down,-0.420,-0.420,-0.420,0.000,0.000,0.000
1605143422857477888,10.0.1.143,823,move_down,-0.440,-0.440,-0.440,0.000,0.000,0.000
1605143425280612864,10.0.1.143,1036,move_down,-0.460,-0.460,-0.460,0.000,0.000,0.000
1605143427405311232,10.0.1.143,926,move_down,-0.480,-0.480,-0.480,0.000,0.000,0.000
1605143429432988928,10.0.1.143,842,move_down,-0.500,-0.500,-0.500,0.000,0.000,0.000
1605143431369817856,10.0.1.143,809,move_down,-0.520,-0.520,-0.520,0.000,0.000,0.000
1605143433119149056,10.0.1.143,588,move_down,-0.540,-0.540,-0.540,0.000,0.000,0.000
1605143435281100032,10.0.1.143,1137,move_down,-0.560,-0.560,-0.560,0.000,0.000,0.000
1605143437264518144,10.0.1.143,643,move_down,-0.580,-0.580,-0.580,0.000,0.000,0.000
1605143438947799808,10.0.1.143,614,move_down,-0.600,-0.600,-0.600,0.000,0.000,0.000
1605143440718183168,10.0.1.143,644,move_down,-0.620,-0.620,-0.620,0.000,0.000,0.000
1605143442625521920,10.0.1.143,796,move_down,-0.640,-0.640,-0.640,0.000,0.000,0.000
1605143444646102016,10.0.1.143,939,move_down,-0.660,-0.660,-0.660,0.000,0.000,0.000
1605143446552253952,10.0.1.143,703,move_down,-0.680,-0.680,-0.680,0.000,0.000,0.000
1605143448419452928,10.0.1.143,820,move_down,-0.700,-0.700,-0.700,0.000,0.000,0.000
1605143449502595840,10.0.1.143,43,pick,-0.710,-0.710,-0.710,0.000,0.000,0.000
1605143450505445120,10.0.1.143,45,pick,-0.720,-0.720,-0.720,0.000,0.000,0.000
1605143451519640064,10.0.1.143,55,pick,-0.730,-0.730,-0.730,0.000,0.000,0.000
1605143452519468032,10.0.1.143,54,pick,-0.740,-0.740,-0.740,0.000,0.000,0.000
1605143453515798016,10.0.1.143,43,pick,-0.750,-0.750,-0.750,0.000,0.000,0.000
1605143455529133056,10.0.1.143,53,pick,-0.770,-0.770,-0.770,0.000,0.000,0.000
1605143456527793920,10.0.1.143,49,pick,-0.780,-0.780,-0.780,0.000,0.000,0.000
1605143457537341184,10.0.1.143,51,pick,-0.790,-0.790,-0.790,0.000,0.000,0.000
1605143459552282112,10.0.1.143,64,pick,-0.810,-0.810,-0.810,0.000,0.000,0.000
1605143460532867072,10.0.1.143,44,pick,-0.820,-0.820,-0.820,0.000,0.000,0.000
1605143461542924032,10.0.1.143,52,pick,-0.830,-0.830,-0.830,0.000,0.000,0.000
1605143462550185984,10.0.1.143,59,pick,-0.840,-0.840,-0.840,0.000,0.000,0.000
1605143463541518848,10.0.1.143,49,pick,-0.850,-0.850,-0.850,0.000,0.000,0.000
1605143464578021120,10.0.1.143,84,pick,-0.860,-0.860,-0.860,0.000,0.000,0.000
1605143465571187968,10.0.1.143,70,pick,-0.870,-0.870,-0.870,0.000,0.000,0.000
1605143467543632896,10.0.1.143,40,pick,-0.890,-0.890,-0.890,0.000,0.000,0.000
1605143469113370880,10.0.1.143,603,move_up,-0.870,-0.870,-0.870,0.000,0.000,0.000
1605143470869873920,10.0.1.143,660,move_up,-0.850,-0.850,-0.850,0.000,0.000,0.000
1605143472796068864,10.0.1.143,861,move_up,-0.830,-0.830,-0.830,0.000,0.000,0.000
1605143475092140800,10.0.1.143,1195,move_up,-0.810,-0.810,-0.810,0.000,0.000,0.000
1605143476842680832,10.0.1.143,623,move_up,-0.790,-0.790,-0.790,0.000,0.000,0.000
1605143478726862080,10.0.1.143,802,move_up,-0.770,-0.770,-0.770,0.000,0.000,0.000
1605143480624957184,10.0.1.143,789,move_up,-0.750,-0.750,-0.750,0.000,0.000,0.000
1605143482738928128,10.0.1.143,933,move_up,-0.730,-0.730,-0.730,0.000,0.000,0.000
1605143484632360960,10.0.1.143,725,move_up,-0.710,-0.710,-0.710,0.000,0.000,0.000
1605143486699461888,10.0.1.143,980,move_up,-0.690,-0.690,-0.690,0.000,0.000,0.000
1605143488675890944,10.0.1.143,944,move_up,-0.670,-0.670,-0.670,0.000,0.000,0.000
1605143490524849920,10.0.1.143,767,move_up,-0.650,-0.650,-0.650,0.000,0.000,0.000
1605143492611987200,10.0.1.143,976,move_up,-0.630,-0.630,-0.630,0.000,0.000,0.000
1605143494619170816,10.0.1.143,883,move_up,-0.610,-0.610,-0.610,0.000,0.000,0.000
1605143496277561856,10.0.1.143,508,move_up,-0.590,-0.590,-0.590,0.000,0.000,0.000
1605143498418232832,10.0.1.143,814,move_up,-0.570,-0.570,-0.570,0.000,0.000,0.000
1605143500059315968,10.0.1.143,570,move_up,-0.550,-0.550,-0.550,0.000,0.000,0.000
1605143502340361984,10.0.1.143,790,move_up,-0.530,-0.530,-0.530,0.000,0.000,0.000
1605143505245771008,10.0.1.143,1802,move_up,-0.510,-0.510,-0.510,0.000,0.000,0.000
1605143507079193088,10.0.1.143,724,move_up,-0.490,-0.490,-0.490,0.000,0.000,0.000
1605143508834157056,10.0.1.143,704,move_up,-0.470,-0.470,-0.470,0.000,0.000,0.000
1605143510965147136,10.0.1.143,739,move_up,-0.450,-0.450,-0.450,0.000,0.000,0.000
1605143513960097024,10.0.1.143,1870,move_up,-0.430,-0.430,-0.430,0.000,0.000,0.000
1605143516440987136,10.0.1.143,1194,move_up,-0.410,-0.410,-0.410,0.000,0.000,0.000
1605143518511398912,10.0.1.143,987,move_up,-0.390,-0.390,-0.390,0.000,0.000,0.000
1605143520437963008,10.0.1.143,830,move_up,-0.370,-0.370,-0.370,0.000,0.000,0.000
1605143522682013952,10.0.1.143,1061,move_up,-0.350,-0.350,-0.350,0.000,0.000,0.000
1605143524471236864,10.0.1.143,695,move_up,-0.330,-0.330,-0.330,0.000,0.000,0.000
1605143526405639936,10.0.1.143,869,move_up,-0.310,-0.310,-0.310,0.000,0.000,0.000
1605143530762135040,10.0.1.143,66,place,-0.270,-0.270,-0.270,0.000,0.000,0.000
1605143531751694848,10.0.1.143,52,place,-0.260,-0.260,-0.260,0.000,0.000,0.000
1605143532748859904,10.0.1.143,48,place,-0.250,-0.250,-0.250,0.000,0.000,0.000
1605143534783760128,10.0.1.143,80,place,-0.230,-0.230,-0.230,0.000,0.000,0.000
1605143536754808832,10.0.1.143,45,place,-0.210,-0.210,-0.210,0.000,0.000,0.000
1605143537753193984,10.0.1.143,43,place,-0.200,-0.200,-0.200,0.000,0.000,0.000
1605143538758349824,10.0.1.143,46,place,-0.190,-0.190,-0.190,0.000,0.000,0.000
1605143540756489984,10.0.1.143,40,place,-0.170,-0.170,-0.170,0.000,0.000,0.000
1605143541753170944,10.0.1.143,36,place,-0.160,-0.160,-0.160,0.000,0.000,0.000
1605143542749957120,10.0.1.143,28,place,-0.150,-0.150,-0.150,0.000,0.000,0.000
1605143544770721024,10.0.1.143,35,place,-0.130,-0.130,-0.130,0.000,0.000,0.000
1605143545775053056,10.0.1.143,39,place,-0.120,-0.120,-0.120,0.000,0.000,0.000
1605143547421353216,10.0.1.143,684,move_down,-0.140,-0.140,-0.140,0.000,0.000,0.000
1605143549379416832,10.0.1.143,747,move_down,-0.160,-0.160,-0.160,0.000,0.000,0.000
1605143551363123968,10.0.1.143,719,move_down,-0.180,-0.180,-0.180,0.000,0.000,0.000
1605143553373163008,10.0.1.143,892,move_down,-0.200,-0.200,-0.200,0.000,0.000,0.000
1605143555072300800,10.0.1.143,662,move_down,-0.220,-0.220,-0.220,0.000,0.000,0.000
1605143556763770112,10.0.1.143,610,move_down,-0.240,-0.240,-0.240,0.000,0.000,0.000
1605143558617736192,10.0.1.143,731,move_down,-0.260,-0.260,-0.260,0.000,0.000,0.000
1605143560619842048,10.0.1.143,900,move_down,-0.280,-0.280,-0.280,0.000,0.000,0.000
1605143562839528960,10.0.1.143,853,move_down,-0.300,-0.300,-0.300,0.000,0.000,0.000
1605143564876919040,10.0.1.143,990,move_down,-0.320,-0.320,-0.320,0.000,0.000,0.000
1605143566722942208,10.0.1.143,766,move_down,-0.340,-0.340,-0.340,0.000,0.000,0.000
1605143568840142848,10.0.1.143,852,move_down,-0.360,-0.360,-0.360,0.000,0.000,0.000
1605143571176527104,10.0.1.143,1229,move_down,-0.380,-0.380,-0.380,0.000,0.000,0.000
1605143572911218944,10.0.1.143,692,move_down,-0.400,-0.400,-0.400,0.000,0.000,0.000
1605143574686691072,10.0.1.143,627,move_down,-0.420,-0.420,-0.420,0.000,0.000,0.000
1605143576550020864,10.0.1.143,725,move_down,-0.440,-0.440,-0.440,0.000,0.000,0.000
1605143578083650048,10.0.1.143,495,move_down,-0.460,-0.460,-0.460,0.000,0.000,0.000
1605143579904043008,10.0.1.143,626,move_down,-0.480,-0.480,-0.480,0.000,0.000,0.000
1605143581587600896,10.0.1.143,570,move_down,-0.500,-0.500,-0.500,0.000,0.000,0.000
1605143583568612096,10.0.1.143,799,move_down,-0.520,-0.520,-0.520,0.000,0.000,0.000
1605143585700357888,10.0.1.143,886,move_down,-0.540,-0.540,-0.540,0.000,0.000,0.000
1605143587934048768,10.0.1.143,1065,move_down,-0.560,-0.560,-0.560,0.000,0.000,0.000
1605143590211481088,10.0.1.143,1173,move_down,-0.580,-0.580,-0.580,0.000,0.000,0.000
1605143592252079872,10.0.1.143,933,move_down,-0.600,-0.600,-0.600,0.000,0.000,0.000
1605143594255959040,10.0.1.143,893,move_down,-0.620,-0.620,-0.620,0.000,0.000,0.000
1605143596116488960,10.0.1.143,811,move_down,-0.640,-0.640,-0.640,0.000,0.000,0.000
1605143598093581824,10.0.1.143,935,move_down,-0.660,-0.660,-0.660,0.000,0.000,0.000
1605143599693484032,10.0.1.143,525,move_down,-0.680,-0.680,-0.680,0.000,0.000,0.000
1605143601950031104,10.0.1.143,697,move_down,-0.700,-0.700,-0.700,0.000,0.000,0.000
1605143603193479168,10.0.1.143,47,pick,-0.710,-0.710,-0.710,0.000,0.000,0.000
1605143607200654080,10.0.1.143,41,pick,-0.750,-0.750,-0.750,0.000,0.000,0.000
1605143608216443904,10.0.1.143,48,pick,-0.760,-0.760,-0.760,0.000,0.000,0.000
1605143610228816896,10.0.1.143,58,pick,-0.780,-0.780,-0.780,0.000,0.000,0.000
1605143611220402944,10.0.1.143,45,pick,-0.790,-0.790,-0.790,0.000,0.000,0.000
1605143612213531904,10.0.1.143,36,pick,-0.800,-0.800,-0.800,0.000,0.000,0.000
1605143614217704960,10.0.1.143,38,pick,-0.820,-0.820,-0.820,0.000,0.000,0.000
1605143615272636928,10.0.1.143,53,pick,-0.830,-0.830,-0.830,0.000,0.000,0.000
1605143616285430784,10.0.1.143,65,pick,-0.840,-0.840,-0.840,0.000,0.000,0.000
1605143618279752960,10.0.1.143,52,pick,-0.860,-0.860,-0.860,0.000,0.000,0.000
1605143619264858112,10.0.1.143,37,pick,-0.870,-0.870,-0.870,0.000,0.000,0.000
1605143621280920064,10.0.1.143,50,pick,-0.890,-0.890,-0.890,0.000,0.000,0.000
1605143623190814976,10.0.1.143,954,move_up,-0.870,-0.870,-0.870,0.000,0.000,0.000
1605143624897505024,10.0.1.143,618,move_up,-0.850,-0.850,-0.850,0.000,0.000,0.000
1605143626828440064,10.0.1.143,807,move_up,-0.830,-0.830,-0.830,0.000,0.000,0.000
1605143628696464896,10.0.1.143,778,move_up,-0.810,-0.810,-0.810,0.000,0.000,0.000
1605143630474740992,10.0.1.143,725,move_up,-0.790,-0.790,-0.790,0.000,0.000,0.000
1605143632221821184,10.0.1.143,660,move_up,-0.770,-0.770,-0.770,0.000,0.000,0.000
1605143633857186048,10.0.1.143,594,move_up,-0.750,-0.750,-0.750,0.000,0.000,0.000
1605143635541464064,10.0.1.143,600,move_up,-0.730,-0.730,-0.730,0.000,0.000,0.000
1605143637662309888,10.0.1.143,1004,move_up,-0.710,-0.710,-0.710,0.000,0.000,0.000
1605143639591967232,10.0.1.143,763,move_up,-0.690,-0.690,-0.690,0.000,0.000,0.000
1605143642532263168,10.0.1.143,904,move_up,-0.670,-0.670,-0.670,0.000,0.000,0.000
1605143644925579008,10.0.1.143,1228,move_up,-0.650,-0.650,-0.650,0.000,0.000,0.000
1605143646900288000,10.0.1.143,828,move_up,-0.630,-0.630,-0.630,0.000,0.000,0.000
1605143648799742976,10.0.1.143,797,move_up,-0.610,-0.610,-0.610,0.000,0.000,0.000
1605143650899113984,10.0.1.143,891,move_up,-0.590,-0.590,-0.590,0.000,0.000,0.000
1605143652665390080,10.0.1.143,709,move_up,-0.570,-0.570,-0.570,0.000,0.000,0.000
1605143654743469056,10.0.1.143,873,move_up,-0.550,-0.550,-0.550,0.000,0.000,0.000
1605143656555634944,10.0.1.143,654,move_up,-0.530,-0.530,-0.530,0.000,0.000,0.000
1605143658319868928,10.0.1.143,676,move_up,-0.510,-0.510,-0.510,0.000,0.000,0.000
1605143660035604992,10.0.1.143,645,move_up,-0.490,-0.490,-0.490,0.000,0.000,0.000
1605143661681601024,10.0.1.143,594,move_up,-0.470,-0.470,-0.470,0.000,0.000,0.000
1605143663800698112,10.0.1.143,1080,move_up,-0.450,-0.450,-0.450,0.000,0.000,0.000
1605143665506472960,10.0.1.143,646,move_up,-0.430,-0.430,-0.430,0.000,0.000,0.000
1605143667915628800,10.0.1.143,587,move_up,-0.410,-0.410,-0.410,0.000,0.000,0.000
1605143670382124800,10.0.1.143,1382,move_up,-0.390,-0.390,-0.390,0.000,0.000,0.000
1605143672432823808,10.0.1.143,993,move_up,-0.370,-0.370,-0.370,0.000,0.000,0.000
1605143674309912832,10.0.1.143,703,move_up,-0.350,-0.350,-0.350,0.000,0.000,0.000
1605143676458167040,10.0.1.143,1146,move_up,-0.330,-0.330,-0.330,0.000,0.000,0.000
1605143678490547968,10.0.1.143,920,move_up,-0.310,-0.310,-0.310,0.000,0.000,0.000
1605143679754095104,10.0.1.143,40,place,-0.300,-0.300,-0.300,0.000,0.000,0.000
1605143681848880896,10.0.1.143,125,place,-0.280,-0.280,-0.280,0.000,0.000,0.000
1605143683799258112,10.0.1.143,53,place,-0.260,-0.260,-0.260,0.000,0.000,0.000
1605143684806708224,10.0.1.143,59,place,-0.250,-0.250,-0.250,0.000,0.000,0.000
1605143686830991104,10.0.1.143,72,place,-0.230,-0.230,-0.230,0.000,0.000,0.000
1605143687836154112,10.0.1.143,76,place,-0.220,-0.220,-0.220,0.000,0.000,0.000
1605143688879865856,10.0.1.143,115,place,-0.210,-0.210,-0.210,0.000,0.000,0.000
1605143689820610048,10.0.1.143,55,place,-0.200,-0.200,-0.200,0.000,0.000,0.000
1605143690830092032,10.0.1.143,63,place,-0.190,-0.190,-0.190,0.000,0.000,0.000
1605143691839458048,10.0.1.143,56,place,-0.180,-0.180,-0.180,0.000,0.000,0.000
1605143692836039936,10.0.1.143,52,place,-0.170,-0.170,-0.170,0.000,0.000,0.000
1605143693838236928,10.0.1.143,50,place,-0.160,-0.160,-0.160,0.000,0.000,0.000
1605143695848068864,10.0.1.143,53,place,-0.140,-0.140,-0.140,0.000,0.000,0.000
1605143696839077120,10.0.1.143,44,place,-0.130,-0.130,-0.130,0.000,0.000,0.000
1605143697847832832,10.0.1.143,48,place,-0.120,-0.120,-0.120,0.000,0.000,0.000
1605143699380486912,10.0.1.143,579,move_down,-0.140,-0.140,-0.140,0.000,0.000,0.000
1605143700956052992,10.0.1.143,544,move_down,-0.160,-0.160,-0.160,0.000,0.000,0.000
1605143704318018048,10.0.1.143,2123,move_down,-0.180,-0.180,-0.180,0.000,0.000,0.000
1605143706250210048,10.0.1.143,756,move_down,-0.200,-0.200,-0.200,0.000,0.000,0.000
1605143708068195072,10.0.1.143,600,move_down,-0.220,-0.220,-0.220,0.000,0.000,0.000
1605143709971709952,10.0.1.143,744,move_down,-0.240,-0.240,-0.240,0.000,0.000,0.000
1605143711573050880,10.0.1.143,585,move_down,-0.260,-0.260,-0.260,0.000,0.000,0.000
1605143714104254976,10.0.1.143,1016,move_down,-0.280,-0.280,-0.280,0.000,0.000,0.000
1605143716028358912,10.0.1.143,812,move_down,-0.300,-0.300,-0.300,0.000,0.000,0.000
1605143719100086016,10.0.1.143,1656,move_down,-0.320,-0.320,-0.320,0.000,0.000,0.000
1605143721072969984,10.0.1.143,514,move_down,-0.340,-0.340,-0.340,0.000,0.000,0.000
1605143723059938816,10.0.1.143,524,move_down,-0.360,-0.360,-0.360,0.000,0.000,0.000
1605143724957895936,10.0.1.143,718,move_down,-0.380,-0.380,-0.380,0.000,0.000,0.000
1605143726788093952,10.0.1.143,669,move_down,-0.400,-0.400,-0.400,0.000,0.000,0.000
1605143729098265856,10.0.1.143,1141,move_down,-0.420,-0.420,-0.420,0.000,0.000,0.000
1605143730865900032,10.0.1.143,682,move_down,-0.440,-0.440,-0.440,0.000,0.000,0.000
1605143733040641024,10.0.1.143,1055,move_down,-0.460,-0.460,-0.460,0.000,0.000,0.000
1605143734850909952,10.0.1.143,695,move_down,-0.480,-0.480,-0.480,0.000,0.000,0.000
1605143736939929088,10.0.1.143,925,move_down,-0.500,-0.500,-0.500,0.000,0.000,0.000
1605143738866924032,10.0.1.143,796,move_down,-0.520,-0.520,-0.520,0.000,0.000,0.000
1605143741126784000,10.0.1.143,814,move_down,-0.540,-0.540,-0.540,0.000,0.000,0.000
1605143742857814016,10.0.1.143,586,move_down,-0.560,-0.560,-0.560,0.000,0.000,0.000
1605143744549998080,10.0.1.143,619,move_down,-0.580,-0.580,-0.580,0.000,0.000,0.000
1605143746880013056,10.0.1.143,1165,move_down,-0.600,-0.600,-0.600,0.000,0.000,0.000
1605143748532905984,10.0.1.143,559,move_down,-0.620,-0.620,-0.620,0.000,0.000,0.000
1605143750932749056,10.0.1.143,1181,move_down,-0.640,-0.640,-0.640,0.000,0.000,0.000
1605143753011908096,10.0.1.143,1011,move_down,-0.660,-0.660,-0.660,0.000,0.000,0.000
1605143754705255936,10.0.1.143,620,move_down,-0.680,-0.680,-0.680,0.000,0.000,0.000
1605143756558873856,10.0.1.143,724,move_down,-0.700,-0.700,-0.700,0.000,0.000,0.000
1605143757667164160,10.0.1.143,47,pick,-0.710,-0.710,-0.710,0.000,0.000,0.000
1605143760677689088,10.0.1.143,50,pick,-0.740,-0.740,-0.740,0.000,0.000,0.000
1605143762707757824,10.0.1.143,70,pick,-0.760,-0.760,-0.760,0.000,0.000,0.000
1605143763699336960,10.0.1.143,54,pick,-0.770,-0.770,-0.770,0.000,0.000,0.000
1605143765722031104,10.0.1.143,67,pick,-0.790,-0.790,-0.790,0.000,0.000,0.000
1605143766706749952,10.0.1.143,51,pick,-0.800,-0.800,-0.800,0.000,0.000,0.000
1605143767717274880,10.0.1.143,60,pick,-0.810,-0.810,-0.810,0.000,0.000,0.000
1605143768723979008,10.0.1.143,60,pick,-0.820,-0.820,-0.820,0.000,0.000,0.000
1605143770774627072,10.0.1.143,77,pick,-0.840,-0.840,-0.840,0.000,0.000,0.000
1605143771734844928,10.0.1.143,35,pick,-0.850,-0.850,-0.850,0.000,0.000,0.000
1605143772745834240,10.0.1.143,46,pick,-0.860,-0.860,-0.860,0.000,0.000,0.000
1605143774765764096,10.0.1.143,55,pick,-0.880,-0.880,-0.880,0.000,0.000,0.000
1605143775757422080,10.0.1.143,45,pick,-0.890,-0.890,-0.890,0.000,0.000,0.000
1605143777457568768,10.0.1.143,743,move_up,-0.870,-0.870,-0.870,0.000,0.000,0.000
1605143779393608192,10.0.1.143,671,move_up,-0.850,-0.850,-0.850,0.000,0.000,0.000
1605143783036873216,10.0.1.143,1541,move_up,-0.830,-0.830,-0.830,0.000,0.000,0.000
1605143784679042048,10.0.1.143,549,move_up,-0.810,-0.810,-0.810,0.000,0.000,0.000
1605143786624391936,10.0.1.143,780,move_up,-0.790,-0.790,-0.790,0.000,0.000,0.000
1605143788640657920,10.0.1.143,792,move_up,-0.770,-0.770,-0.770,0.000,0.000,0.000
1605143790441705984,10.0.1.143,773,move_up,-0.750,-0.750,-0.750,0.000,0.000,0.000
1605143792415760128,10.0.1.143,538,move_up,-0.730,-0.730,-0.730,0.000,0.000,0.000
1605143794626281984,10.0.1.143,1033,move_up,-0.710,-0.710,-0.710,0.000,0.000,0.000
1605143796966174976,10.0.1.143,1295,move_up,-0.690,-0.690,-0.690,0.000,0.000,0.000
1605143798934871040,10.0.1.143,894,move_up,-0.670,-0.670,-0.670,0.000,0.000,0.000
1605143801125238784,10.0.1.143,1104,move_up,-0.650,-0.650,-0.650,0.000,0.000,0.000
1605143803047760128,10.0.1.143,670,move_up,-0.630,-0.630,-0.630,0.000,0.000,0.000
1605143804794469120,10.0.1.143,638,move_up,-0.610,-0.610,-0.610,0.000,0.000,0.000
1605143806694466048,10.0.1.143,578,move_up,-0.590,-0.590,-0.590,0.000,0.000,0.000
1605143808364573952,10.0.1.143,539,move_up,-0.570,-0.570,-0.570,0.000,0.000,0.000
1605143810091813120,10.0.1.143,583,move_up,-0.550,-0.550,-0.550,0.000,0.000,0.000
1605143812378944000,10.0.1.143,763,move_up,-0.530,-0.530,-0.530,0.000,0.000,0.000
1605143814097206016,10.0.1.143,601,move_up,-0.510,-0.510,-0.510,0.000,0.000,0.000
1605143816158616064,10.0.1.143,993,move_up,-0.490,-0.490,-0.490,0.000,0.000,0.000
1605143818616729088,10.0.1.143,1405,move_up,-0.470,-0.470,-0.470,0.000,0.000,0.000
1605143820680856064,10.0.1.143,711,move_up,-0.450,-0.450,-0.450,0.000,0.000,0.000
1605143822454818048,10.0.1.143,583,move_up,-0.430,-0.430,-0.430,0.000,0.000,0.000
1605143824800750848,10.0.1.143,1241,move_up,-0.410,-0.410,-0.410,0.000,0.000,0.000
1605143827122268928,10.0.1.143,1023,move_up,-0.390,-0.390,-0.390,0.000,0.000,0.000
1605143828892723968,10.0.1.143,576,move_up,-0.370,-0.370,-0.370,0.000,0.000,0.000
1605143830707484928,10.0.1.143,720,move_up,-0.350,-0.350,-0.350,0.000,0.000,0.000
1605143832647417088,10.0.1.143,908,move_up,-0.330,-0.330,-0.330,0.000,0.000,0.000
1605143834393491968,10.0.1.143,656,move_up,-0.310,-0.310,-0.310,0.000,0.000,0.000
1605143835726460928,10.0.1.143,54,place,-0.300,-0.300,-0.300,0.000,0.000,0.000
1605143836735811072,10.0.1.143,61,place,-0.290,-0.290,-0.290,0.000,0.000,0.000
1605143839757841152,10.0.1.143,49,place,-0.260,-0.260,-0.260,0.000,0.000,0.000
1605143841758575872,10.0.1.143,43,place,-0.240,-0.240,-0.240,0.000,0.000,0.000
1605143842763480064,10.0.1.143,45,place,-0.230,-0.230,-0.230,0.000,0.000,0.000
1605143843760325888,10.0.1.143,40,place,-0.220,-0.220,-0.220,0.000,0.000,0.000
1605143844804836864,10.0.1.143,81,place,-0.210,-0.210,-0.210,0.000,0.000,0.000
1605143845770482176,10.0.1.143,46,place,-0.200,-0.200,-0.200,0.000,0.000,0.000
1605143846779682048,10.0.1.143,55,place,-0.190,-0.190,-0.190,0.000,0.000,0.000
1605143847794493952,10.0.1.143,69,place,-0.180,-0.180,-0.180,0.000,0.000,0.000
1605143848780379904,10.0.1.143,52,place,-0.170,-0.170,-0.170,0.000,0.000,0.000
1605143849785911040,10.0.1.143,54,place,-0.160,-0.160,-0.160,0.000,0.000,0.000
1605143850797352192,10.0.1.143,65,place,-0.150,-0.150,-0.150,0.000,0.000,0.000
1605143852792911104,10.0.1.143,58,place,-0.130,-0.130,-0.130,0.000,0.000,0.000
1605143853788475136,10.0.1.143,52,place,-0.120,-0.120,-0.120,0.000,0.000,0.000
1605143855508279040,10.0.1.143,772,move_down,-0.140,-0.140,-0.140,0.000,0.000,0.000
1605143857335257088,10.0.1.143,711,move_down,-0.160,-0.160,-0.160,0.000,0.000,0.000
1605143859007256064,10.0.1.143,594,move_down,-0.180,-0.180,-0.180,0.000,0.000,0.000
1605143860730412032,10.0.1.143,689,move_down,-0.200,-0.200,-0.200,0.000,0.000,0.000
1605143862699258112,10.0.1.143,881,move_down,-0.220,-0.220,-0.220,0.000,0.000,0.000
1605143864456862976,10.0.1.143,696,move_down,-0.240,-0.240,-0.240,0.000,0.000,0.000
1605143866498505216,10.0.1.143,944,move_down,-0.260,-0.260,-0.260,0.000,0.000,0.000
1605143868172416000,10.0.1.143,590,move_down,-0.280,-0.280,-0.280,0.000,0.000,0.000
1605143869958441984,10.0.1.143,721,move_down,-0.300,-0.300,-0.300,0.000,0.000,0.000
1605143872144172800,10.0.1.143,1029,move_down,-0.320,-0.320,-0.320,0.000,0.000,0.000
1605143874484358912,10.0.1.143,1260,move_down,-0.340,-0.340,-0.340,0.000,0.000,0.000
1605143876105207808,10.0.1.143,558,move_down,-0.360,-0.360,-0.360,0.000,0.000,0.000
1605143878550115072,10.0.1.143,1132,move_down,-0.380,-0.380,-0.380,0.000,0.000,0.000
1605143880266295040,10.0.1.143,662,move_down,-0.400,-0.400,-0.400,0.000,0.000,0.000
1605143882017428992,10.0.1.143,581,move_down,-0.420,-0.420,-0.420,0.000,0.000,0.000
1605143883952253184,10.0.1.143,902,move_down,-0.440,-0.440,-0.440,0.000,0.000,0.000
1605143885836944128,10.0.1.143,789,move_down,-0.460,-0.460,-0.460,0.000,0.000,0.000
1605143887569227008,10.0.1.143,660,move_down,-0.480,-0.480,-0.480,0.000,0.000,0.000
1605143890053338112,10.0.1.143,1277,move_down,-0.500,-0.500,-0.500,0.000,0.000,0.000
1605143892346085120,10.0.1.143,1187,move_down,-0.520,-0.520,-0.520,0.000,0.000,0.000
1605143894740817152,10.0.1.143,1314,move_down,-0.540,-0.540,-0.540,0.000,0.000,0.000
1605143897327030784,10.0.1.143,1281,move_down,-0.560,-0.560,-0.560,0.000,0.000,0.000
1605143899350991872,10.0.1.143,652,move_down,-0.580,-0.580,-0.580,0.000,0.000,0.000
1605143901333489920,10.0.1.143,840,move_down,-0.600,-0.600,-0.600,0.000,0.000,0.000
1605143903148572928,10.0.1.143,728,move_down,-0.620,-0.620,-0.620,0.000,0.000,0.000
1605143904955518976,10.0.1.143,632,move_down,-0.640,-0.640,-0.640,0.000,0.000,0.000
1605143906646342144,10.0.1.143,591,move_down,-0.660,-0.660,-0.660,0.000,0.000,0.000
1605143908357058048,10.0.1.143,588,move_down,-0.680,-0.680,-0.680,0.000,0.000,0.000
1605143911200148992,10.0.1.143,1768,move_down,-0.700,-0.700,-0.700,0.000,0.000,0.000
1605143912408979968,10.0.1.143,44,pick,-0.710,-0.710,-0.710,0.000,0.000,0.000
1605143913426062080,10.0.1.143,58,pick,-0.720,-0.720,-0.720,0.000,0.000,0.000
1605143914462721024,10.0.1.143,88,pick,-0.730,-0.730,-0.730,0.000,0.000,0.000
1605143915439225856,10.0.1.143,55,pick,-0.740,-0.740,-0.740,0.000,0.000,0.000
1605143916473041920,10.0.1.143,88,pick,-0.750,-0.750,-0.750,0.000,0.000,0.000
1605143917447251200,10.0.1.143,59,pick,-0.760,-0.760,-0.760,0.000,0.000,0.000
1605143918465437952,10.0.1.143,76,pick,-0.770,-0.770,-0.770,0.000,0.000,0.000
1605143919445095936,10.0.1.143,55,pick,-0.780,-0.780,-0.780,0.000,0.000,0.000
1605143922474288896,10.0.1.143,80,pick,-0.810,-0.810,-0.810,0.000,0.000,0.000
1605143923464395008,10.0.1.143,69,pick,-0.820,-0.820,-0.820,0.000,0.000,0.000
1605143924466600960,10.0.1.143,60,pick,-0.830,-0.830,-0.830,0.000,0.000,0.000
1605143925448209920,10.0.1.143,41,pick,-0.840,-0.840,-0.840,0.000,0.000,0.000
1605143926465667840,10.0.1.143,54,pick,-0.850,-0.850,-0.850,0.000,0.000,0.000
1605143927469886976,10.0.1.143,57,pick,-0.860,-0.860,-0.860,0.000,0.000,0.000
1605143928466068992,10.0.1.143,52,pick,-0.870,-0.870,-0.870,0.000,0.000,0.000
1605143931437872896,10.0.1.143,18,move_up,-0.870,-0.870,-0.870,0.000,0.000,0.000
1605143933919770112,10.0.1.143,576,move_up,-0.850,-0.850,-0.850,0.000,0.000,0.000
1605143935862163968,10.0.1.143,838,move_up,-0.830,-0.830,-0.830,0.000,0.000,0.000
1605143937956929024,10.0.1.143,664,move_up,-0.810,-0.810,-0.810,0.000,0.000,0.000
1605143940706442240,10.0.1.143,1155,move_up,-0.790,-0.790,-0.790,0.000,0.000,0.000
1605143942529936128,10.0.1.143,534,move_up,-0.770,-0.770,-0.770,0.000,0.000,0.000
1605143944191814912,10.0.1.143,513,move_up,-0.750,-0.750,-0.750,0.000,0.000,0.000
1605143946132273920,10.0.1.143,786,move_up,-0.730,-0.730,-0.730,0.000,0.000,0.000
1605143948338841856,10.0.1.143,1039,move_up,-0.710,-0.710,-0.710,0.000,0.000,0.000
1605143950694830848,10.0.1.143,1116,move_up,-0.690,-0.690,-0.690,0.000,0.000,0.000
1605143952573828096,10.0.1.143,802,move_up,-0.670,-0.670,-0.670,0.000,0.000,0.000
1605143954633566976,10.0.1.143,678,move_up,-0.650,-0.650,-0.650,0.000,0.000,0.000
1605143956455166976,10.0.1.143,724,move_up,-0.630,-0.630,-0.630,0.000,0.000,0.000
1605143958342062848,10.0.1.143,819,move_up,-0.610,-0.610,-0.610,0.000,0.000,0.000
1605143960380760832,10.0.1.143,656,move_up,-0.590,-0.590,-0.590,0.000,0.000,0.000
1605143962288350976,10.0.1.143,782,move_up,-0.570,-0.570,-0.570,0.000,0.000,0.000
1605143964468647936,10.0.1.143,846,move_up,-0.550,-0.550,-0.550,0.000,0.000,0.000
1605143966709608192,10.0.1.143,594,move_up,-0.530,-0.530,-0.530,0.000,0.000,0.000
1605143968844541184,10.0.1.143,1037,move_up,-0.510,-0.510,-0.510,0.000,0.000,0.000
1605143971055088896,10.0.1.143,955,move_up,-0.490,-0.490,-0.490,0.000,0.000,0.000
1605143972808269056,10.0.1.143,724,move_up,-0.470,-0.470,-0.470,0.000,0.000,0.000
1605143975269956096,10.0.1.143,1240,move_up,-0.450,-0.450,-0.450,0.000,0.000,0.000
1605143977439825152,10.0.1.143,1045,move_up,-0.430,-0.430,-0.430,0.000,0.000,0.000
1605143979998581760,10.0.1.143,1386,move_up,-0.410,-0.410,-0.410,0.000,0.000,0.000
1605143982130223104,10.0.1.143,1000,move_up,-0.390,-0.390,-0.390,0.000,0.000,0.000
1605143983923347968,10.0.1.143,699,move_up,-0.370,-0.370,-0.370,0.000,0.000,0.000
1605143988871772160,10.0.1.143,802,move_up,-0.350,-0.350,-0.350,0.000,0.000,0.000
1605143990677267968,10.0.1.143,750,move_up,-0.330,-0.330,-0.330,0.000,0.000,0.000
1605143992265659136,10.0.1.143,507,move_up,-0.310,-0.310,-0.310,0.000,0.000,0.000
1605143993432514048,10.0.1.143,44,place,-0.300,-0.300,-0.300,0.000,0.000,0.000
1605143994433592064,10.0.1.143,43,place,-0.290,-0.290,-0.290,0.000,0.000,0.000
1605143996446880000,10.0.1.143,54,place,-0.270,-0.270,-0.270,0.000,0.000,0.000
1605143997443769856,10.0.1.143,49,place,-0.260,-0.260,-0.260,0.000,0.000,0.000
1605143998461556992,10.0.1.143,65,place,-0.250,-0.250,-0.250,0.000,0.000,0.000
1605143999441497088,10.0.1.143,40,place,-0.240,-0.240,-0.240,0.000,0.000,0.000
1605144000472881920,10.0.1.143,63,place,-0.230,-0.230,-0.230,0.000,0.000,0.000
1605144001483737856,10.0.1.143,60,place,-0.220,-0.220,-0.220,0.000,0.000,0.000
1605144002511761920,10.0.1.143,83,place,-0.210,-0.210,-0.210,0.000,0.000,0.000
1605144003495638016,10.0.1.143,66,place,-0.200,-0.200,-0.200,0.000,0.000,0.000
1605144004483432960,10.0.1.143,49,place,-0.190,-0.190,-0.190,0.000,0.000,0.000
1605144005481911040,10.0.1.143,44,place,-0.180,-0.180,-0.180,0.000,0.000,0.000
1605144006487451136,10.0.1.143,48,place,-0.170,-0.170,-0.170,0.000,0.000,0.000
1605144007505805056,10.0.1.143,60,place,-0.160,-0.160,-0.160,0.000,0.000,0.000
1605144008503802112,10.0.1.143,54,place,-0.150,-0.150,-0.150,0.000,0.000,0.000
1605144009555737856,10.0.1.143,102,place,-0.140,-0.140,-0.140,0.000,0.000,0.000
1605144010542390016,10.0.1.143,87,place,-0.130,-0.130,-0.130,0.000,0.000,0.000
1605144011504355840,10.0.1.143,48,place,-0.120,-0.120,-0.120,0.000,0.000,0.000
1605144013350030848,10.0.1.143,892,move_down,-0.140,-0.140,-0.140,0.000,0.000,0.000
1605144015181884160,10.0.1.143,732,move_down,-0.160,-0.160,-0.160,0.000,0.000,0.000
1605144017372091904,10.0.1.143,1110,move_down,-0.180,-0.180,-0.180,0.000,0.000,0.000
1605144019214760192,10.0.1.143,779,move_down,-0.200,-0.200,-0.200,0.000,0.000,0.000
1605144021321495040,10.0.1.143,1092,move_down,-0.220,-0.220,-0.220,0.000,0.000,0.000
1605144023007909120,10.0.1.143,570,move_down,-0.240,-0.240,-0.240,0.000,0.000,0.000
1605144024957458944,10.0.1.143,832,move_down,-0.260,-0.260,-0.260,0.000,0.000,0.000
1605144026679485952,10.0.1.143,660,move_down,-0.280,-0.280,-0.280,0.000,0.000,0.000
1605144028582305792,10.0.1.143,901,move_down,-0.300,-0.300,-0.300,0.000,0.000,0.000
1605144030530245120,10.0.1.143,771,move_down,-0.320,-0.320,-0.320,0.000,0.000,0.000
1605144032523457024,10.0.1.143,838,move_down,-0.340,-0.340,-0.340,0.000,0.000,0.000
1605144034687393024,10.0.1.143,1090,move_down,-0.360,-0.360,-0.360,0.000,0.000,0.000
1605144036359889920,10.0.1.143,571,move_down,-0.380,-0.380,-0.380,0.000,0.000,0.000
1605144038171415040,10.0.1.143,630,move_down,-0.400,-0.400,-0.400,0.000,0.000,0.000
1605144040831206912,10.0.1.143,1419,move_down,-0.420,-0.420,-0.420,0.000,0.000,0.000
1605144042680172800,10.0.1.143,717,move_down,-0.440,-0.440,-0.440,0.000,0.000,0.000
1605144044984040960,10.0.1.143,1053,move_down,-0.460,-0.460,-0.460,0.000,0.000,0.000
1605144048660598016,10.0.1.143,2430,move_down,-0.480,-0.480,-0.480,0.000,0.000,0.000
1605144050415344896,10.0.1.143,617,move_down,-0.500,-0.500,-0.500,0.000,0.000,0.000
1605144052119104000,10.0.1.143,588,move_down,-0.520,-0.520,-0.520,0.000,0.000,0.000
1605144053920249088,10.0.1.143,694,move_down,-0.540,-0.540,-0.540,0.000,0.000,0.000
1605144056621474048,10.0.1.143,1486,move_down,-0.560,-0.560,-0.560,0.000,0.000,0.000
1605144058479895040,10.0.1.143,506,move_down,-0.580,-0.580,-0.580,0.000,0.000,0.000
1605144060142408960,10.0.1.143,617,move_down,-0.600,-0.600,-0.600,0.000,0.000,0.000
1605144061809402880,10.0.1.143,592,move_down,-0.620,-0.620,-0.620,0.000,0.000,0.000
1605144063549838080,10.0.1.143,613,move_down,-0.640,-0.640,-0.640,0.000,0.000,0.000
1605144066059737856,10.0.1.143,1269,move_down,-0.660,-0.660,-0.660,0.000,0.000,0.000
1605144067583297024,10.0.1.143,487,move_down,-0.680,-0.680,-0.680,0.000,0.000,0.000
1605144069371043072,10.0.1.143,664,move_down,-0.700,-0.700,-0.700,0.000,0.000,0.000
1605144071582809856,10.0.1.143,62,pick,-0.720,-0.720,-0.720,0.000,0.000,0.000
1605144073650164992,10.0.1.143,80,pick,-0.740,-0.740,-0.740,0.000,0.000,0.000
1605144074615816192,10.0.1.143,41,pick,-0.750,-0.750,-0.750,0.000,0.000,0.000
1605144075619538944,10.0.1.143,41,pick,-0.760,-0.760,-0.760,0.000,0.000,0.000
1605144076634448128,10.0.1.143,55,pick,-0.770,-0.770,-0.770,0.000,0.000,0.000
1605144077622924032,10.0.1.143,43,pick,-0.780,-0.780,-0.780,0.000,0.000,0.000
1605144078620034048,10.0.1.143,39,pick,-0.790,-0.790,-0.790,0.000,0.000,0.000
1605144079663963136,10.0.1.143,81,pick,-0.800,-0.800,-0.800,0.000,0.000,0.000
1605144080644165888,10.0.1.143,60,pick,-0.810,-0.810,-0.810,0.000,0.000,0.000
1605144081647290112,10.0.1.143,61,pick,-0.820,-0.820,-0.820,0.000,0.000,0.000
1605144082669075968,10.0.1.143,81,pick,-0.830,-0.830,-0.830,0.000,0.000,0.000
1605144084635226880,10.0.1.143,43,pick,-0.850,-0.850,-0.850,0.000,0.000,0.000
1605144085660124160,10.0.1.143,67,pick,-0.860,-0.860,-0.860,0.000,0.000,0.000
1605144086664915200,10.0.1.143,58,pick,-0.870,-0.870,-0.870,0.000,0.000,0.000
1605144087667872000,10.0.1.143,60,pick,-0.880,-0.880,-0.880,0.000,0.000,0.000
1605144088709974016,10.0.1.143,94,pick,-0.890,-0.890,-0.890,0.000,0.000,0.000
1605144090477454848,10.0.1.143,861,move_up,-0.870,-0.870,-0.870,0.000,0.000,0.000
1605144092263788032,10.0.1.143,758,move_up,-0.850,-0.850,-0.850,0.000,0.000,0.000
1605144094033353216,10.0.1.143,712,move_up,-0.830,-0.830,-0.830,0.000,0.000,0.000
1605144095805080064,10.0.1.143,527,move_up,-0.810,-0.810,-0.810,0.000,0.000,0.000
1605144098098413824,10.0.1.143,1219,move_up,-0.790,-0.790,-0.790,0.000,0.000,0.000
1605144100033961984,10.0.1.143,843,move_up,-0.770,-0.770,-0.770,0.000,0.000,0.000
1605144102389238016,10.0.1.143,776,move_up,-0.750,-0.750,-0.750,0.000,0.000,0.000
1605144104200258048,10.0.1.143,745,move_up,-0.730,-0.730,-0.730,0.000,0.000,0.000
1605144105422412032,10.0.1.143,-33,move_up,-0.710,-0.710,-0.710,0.000,0.000,0.000
1605144108552672000,10.0.1.143,617,move_up,-0.690,-0.690,-0.690,0.000,0.000,0.000
1605144110465348096,10.0.1.143,884,move_up,-0.670,-0.670,-0.670,0.000,0.000,0.000
1605144112319046144,10.0.1.143,784,move_up,-0.650,-0.650,-0.650,0.000,0.000,0.000
1605144114110459136,10.0.1.143,628,move_up,-0.630,-0.630,-0.630,0.000,0.000,0.000
1605144115742003968,10.0.1.143,568,move_up,-0.610,-0.610,-0.610,0.000,0.000,0.000
1605144118328804864,10.0.1.143,1530,move_up,-0.590,-0.590,-0.590,0.000,0.000,0.000
1605144120296911104,10.0.1.143,606,move_up,-0.570,-0.570,-0.570,0.000,0.000,0.000
1605144122159164928,10.0.1.143,786,move_up,-0.550,-0.550,-0.550,0.000,0.000,0.000
1605144124296026112,10.0.1.143,1068,move_up,-0.530,-0.530,-0.530,0.000,0.000,0.000
1605144126557815040,10.0.1.143,799,move_up,-0.510,-0.510,-0.510,0.000,0.000,0.000
1605144128855883008,10.0.1.143,794,move_up,-0.490,-0.490,-0.490,0.000,0.000,0.000
1605144131070182912,10.0.1.143,1078,move_up,-0.470,-0.470,-0.470,0.000,0.000,0.000
1605144133132824832,10.0.1.143,975,move_up,-0.450,-0.450,-0.450,0.000,0.000,0.000
1605144134763977984,10.0.1.143,511,move_up,-0.430,-0.430,-0.430,0.000,0.000,0.000
1605144136746957056,10.0.1.143,759,move_up,-0.410,-0.410,-0.410,0.000,0.000,0.000
1605144138772344064,10.0.1.143,907,move_up,-0.390,-0.390,-0.390,0.000,0.000,0.000
1605144140382704128,10.0.1.143,523,move_up,-0.370,-0.370,-0.370,0.000,0.000,0.000
1605144143416224000,10.0.1.143,1621,move_up,-0.350,-0.350,-0.350,0.000,0.000,0.000
1605144144990562816,10.0.1.143,551,move_up,-0.330,-0.330,-0.330,0.000,0.000,0.000
1605144147104624128,10.0.1.143,1059,move_up,-0.310,-0.310,-0.310,0.000,0.000,0.000
1605144148289015040,10.0.1.143,59,place,-0.300,-0.300,-0.300,0.000,0.000,0.000
1605144150285043968,10.0.1.143,47,place,-0.280,-0.280,-0.280,0.000,0.000,0.000
1605144151274749952,10.0.1.143,36,place,-0.270,-0.270,-0.270,0.000,0.000,0.000
1605144152306915072,10.0.1.143,66,place,-0.260,-0.260,-0.260,0.000,0.000,0.000
1605144153303531008,10.0.1.143,61,place,-0.250,-0.250,-0.250,0.000,0.000,0.000
1605144156312404992,10.0.1.143,45,place,-0.220,-0.220,-0.220,0.000,0.000,0.000
1605144158335612160,10.0.1.143,66,place,-0.200,-0.200,-0.200,0.000,0.000,0.000
1605144161348374016,10.0.1.143,58,place,-0.170,-0.170,-0.170,0.000,0.000,0.000
1605144162345859072,10.0.1.143,54,place,-0.160,-0.160,-0.160,0.000,0.000,0.000
1605144164354213120,10.0.1.143,59,place,-0.140,-0.140,-0.140,0.000,0.000,0.000
1605144165349072896,10.0.1.143,53,place,-0.130,-0.130,-0.130,0.000,0.000,0.000
1605144167875532032,10.0.1.143,571,move_down,-0.140,-0.140,-0.140,0.000,0.000,0.000
1605144169494746880,10.0.1.143,517,move_down,-0.160,-0.160,-0.160,0.000,0.000,0.000
1605144172484489984,10.0.1.143,1803,move_down,-0.180,-0.180,-0.180,0.000,0.000,0.000
1605144174978144000,10.0.1.143,1352,move_down,-0.200,-0.200,-0.200,0.000,0.000,0.000
1605144176668855040,10.0.1.143,613,move_down,-0.220,-0.220,-0.220,0.000,0.000,0.000
1605144178935558912,10.0.1.143,1071,move_down,-0.240,-0.240,-0.240,0.000,0.000,0.000
1605144181014832896,10.0.1.143,833,move_down,-0.260,-0.260,-0.260,0.000,0.000,0.000
1605144182758449920,10.0.1.143,633,move_down,-0.280,-0.280,-0.280,0.000,0.000,0.000
1605144184432663808,10.0.1.143,613,move_down,-0.300,-0.300,-0.300,0.000,0.000,0.000
1605144186746767104,10.0.1.143,1084,move_down,-0.320,-0.320,-0.320,0.000,0.000,0.000
1605144188393552896,10.0.1.143,577,move_down,-0.340,-0.340,-0.340,0.000,0.000,0.000
1605144190189178880,10.0.1.143,632,move_down,-0.360,-0.360,-0.360,0.000,0.000,0.000
1605144192207771904,10.0.1.143,728,move_down,-0.380,-0.380,-0.380,0.000,0.000,0.000
1605144194038330112,10.0.1.143,713,move_down,-0.400,-0.400,-0.400,0.000,0.000,0.000
1605144196446362112,10.0.1.143,634,move_down,-0.420,-0.420,-0.420,0.000,0.000,0.000
1605144198355869952,10.0.1.143,832,move_down,-0.440,-0.440,-0.440,0.000,0.000,0.000
1605144200291614976,10.0.1.143,874,move_down,-0.460,-0.460,-0.460,0.000,0.000,0.000
1605144202107328000,10.0.1.143,766,move_down,-0.480,-0.480,-0.480,0.000,0.000,0.000
1605144203862760192,10.0.1.143,627,move_down,-0.500,-0.500,-0.500,0.000,0.000,0.000
1605144205982112000,10.0.1.143,932,move_down,-0.520,-0.520,-0.520,0.000,0.000,0.000
1605144208802373888,10.0.1.143,1544,move_down,-0.540,-0.540,-0.540,0.000,0.000,0.000
1605144210663650048,10.0.1.143,672,move_down,-0.560,-0.560,-0.560,0.000,0.000,0.000
1605144212679769088,10.0.1.143,898,move_down,-0.580,-0.580,-0.580,0.000,0.000,0.000
1605144214547913984,10.0.1.143,745,move_down,-0.600,-0.600,-0.600,0.000,0.000,0.000
1605144216331937024,10.0.1.143,742,move_down,-0.620,-0.620,-0.620,0.000,0.000,0.000
1605144218021688064,10.0.1.143,648,move_down,-0.640,-0.640,-0.640,0.000,0.000,0.000
1605144219701224960,10.0.1.143,598,move_down,-0.660,-0.660,-0.660,0.000,0.000,0.000
1605144221692271872,10.0.1.143,946,move_down,-0.680,-0.680,-0.680,0.000,0.000,0.000
1605144224159174912,10.0.1.143,1289,move_down,-0.700,-0.700,-0.700,0.000,0.000,0.000
1605144225298228992,10.0.1.143,66,pick,-0.710,-0.710,-0.710,0.000,0.000,0.000
1605144228289228800,10.0.1.143,53,pick,-0.740,-0.740,-0.740,0.000,0.000,0.000
1605144231282351872,10.0.1.143,40,pick,-0.770,-0.770,-0.770,0.000,0.000,0.000
1605144233300105216,10.0.1.143,56,pick,-0.790,-0.790,-0.790,0.000,0.000,0.000
1605144234300414208,10.0.1.143,55,pick,-0.800,-0.800,-0.800,0.000,0.000,0.000
1605144235317114112,10.0.1.143,70,pick,-0.810,-0.810,-0.810,0.000,0.000,0.000
1605144236313775104,10.0.1.143,60,pick,-0.820,-0.820,-0.820,0.000,0.000,0.000
1605144237311341056,10.0.1.143,54,pick,-0.830,-0.830,-0.830,0.000,0.000,0.000
1605144238305310976,10.0.1.143,44,pick,-0.840,-0.840,-0.840,0.000,0.000,0.000
1605144240309124096,10.0.1.143,41,pick,-0.860,-0.860,-0.860,0.000,0.000,0.000
1605144242308685056,10.0.1.143,39,pick,-0.880,-0.880,-0.880,0.000,0.000,0.000
1605144245015784960,10.0.1.143,728,move_up,-0.870,-0.870,-0.870,0.000,0.000,0.000
1605144246929809152,10.0.1.143,718,move_up,-0.850,-0.850,-0.850,0.000,0.000,0.000
1605144248576951040,10.0.1.143,553,move_up,-0.830,-0.830,-0.830,0.000,0.000,0.000
1605144250286699008,10.0.1.143,595,move_up,-0.810,-0.810,-0.810,0.000,0.000,0.000
1605144252255408128,10.0.1.143,655,move_up,-0.790,-0.790,-0.790,0.000,0.000,0.000
1605144253985209088,10.0.1.143,626,move_up,-0.770,-0.770,-0.770,0.000,0.000,0.000
1605144256061022976,10.0.1.143,946,move_up,-0.750,-0.750,-0.750,0.000,0.000,0.000
1605144258249416960,10.0.1.143,1109,move_up,-0.730,-0.730,-0.730,0.000,0.000,0.000
1605144260167994880,10.0.1.143,794,move_up,-0.710,-0.710,-0.710,0.000,0.000,0.000
1605144262057043968,10.0.1.143,727,move_up,-0.690,-0.690,-0.690,0.000,0.000,0.000
1605144264140424960,10.0.1.143,1012,move_up,-0.670,-0.670,-0.670,0.000,0.000,0.000
1605144266571707904,10.0.1.143,1230,move_up,-0.650,-0.650,-0.650,0.000,0.000,0.000
1605144268530187008,10.0.1.143,732,move_up,-0.630,-0.630,-0.630,0.000,0.000,0.000
1605144270673263104,10.0.1.143,721,move_up,-0.610,-0.610,-0.610,0.000,0.000,0.000
1605144272445669888,10.0.1.143,719,move_up,-0.590,-0.590,-0.590,0.000,0.000,0.000
1605144274700092160,10.0.1.143,1022,move_up,-0.570,-0.570,-0.570,0.000,0.000,0.000
1605144277706216960,10.0.1.143,1829,move_up,-0.550,-0.550,-0.550,0.000,0.000,0.000
1605144279529964032,10.0.1.143,611,move_up,-0.530,-0.530,-0.530,0.000,0.000,0.000
1605144281400742144,10.0.1.143,727,move_up,-0.510,-0.510,-0.510,0.000,0.000,0.000
1605144283596043008,10.0.1.143,1107,move_up,-0.490,-0.490,-0.490,0.000,0.000,0.000
1605144285297761792,10.0.1.143,587,move_up,-0.470,-0.470,-0.470,0.000,0.000,0.000
1605144287515047168,10.0.1.143,1190,move_up,-0.450,-0.450,-0.450,0.000,0.000,0.000
1605144289833800192,10.0.1.143,884,move_up,-0.430,-0.430,-0.430,0.000,0.000,0.000
1605144291712865024,10.0.1.143,806,move_up,-0.410,-0.410,-0.410,0.000,0.000,0.000
1605144293349569024,10.0.1.143,563,move_up,-0.390,-0.390,-0.390,0.000,0.000,0.000
1605144295292185088,10.0.1.143,689,move_up,-0.370,-0.370,-0.370,0.000,0.000,0.000
1605144296983338240,10.0.1.143,639,move_up,-0.350,-0.350,-0.350,0.000,0.000,0.000
1605144298765736960,10.0.1.143,658,move_up,-0.330,-0.330,-0.330,0.000,0.000,0.000
1605144300912018944,10.0.1.143,905,move_up,-0.310,-0.310,-0.310,0.000,0.000,0.000
1605144302168423936,10.0.1.143,55,place,-0.300,-0.300,-0.300,0.000,0.000,0.000
1605144303175715072,10.0.1.143,61,place,-0.290,-0.290,-0.290,0.000,0.000,0.000
1605144304157725952,10.0.1.143,42,place,-0.280,-0.280,-0.280,0.000,0.000,0.000
1605144305195930880,10.0.1.143,75,place,-0.270,-0.270,-0.270,0.000,0.000,0.000
1605144306225991936,10.0.1.143,98,place,-0.260,-0.260,-0.260,0.000,0.000,0.000
1605144307192816896,10.0.1.143,63,place,-0.250,-0.250,-0.250,0.000,0.000,0.000
1605144308185824000,10.0.1.143,55,place,-0.240,-0.240,-0.240,0.000,0.000,0.000
1605144310183734784,10.0.1.143,48,place,-0.220,-0.220,-0.220,0.000,0.000,0.000
1605144311193680896,10.0.1.143,58,place,-0.210,-0.210,-0.210,0.000,0.000,0.000
1605144313222088960,10.0.1.143,77,place,-0.190,-0.190,-0.190,0.000,0.000,0.000
1605144314216055040,10.0.1.143,64,place,-0.180,-0.180,-0.180,0.000,0.000,0.000
1605144316186697984,10.0.1.143,33,place,-0.160,-0.160,-0.160,0.000,0.000,0.000
1605144317296931072,10.0.1.143,141,place,-0.150,-0.150,-0.150,0.000,0.000,0.000
1605144318279980032,10.0.1.143,116,place,-0.140,-0.140,-0.140,0.000,0.000,0.000
1605144319222109952,10.0.1.143,57,place,-0.130,-0.130,-0.130,0.000,0.000,0.000
1605144321679776000,10.0.1.143,512,move_down,-0.140,-0.140,-0.140,0.000,0.000,0.000
1605144323827090944,10.0.1.143,1042,move_down,-0.160,-0.160,-0.160,0.000,0.000,0.000
1605144326081604096,10.0.1.143,1163,move_down,-0.180,-0.180,-0.180,0.000,0.000,0.000
1605144328561172992,10.0.1.143,1366,move_down,-0.200,-0.200,-0.200,0.000,0.000,0.000
1605144330282593024,10.0.1.143,626,move_down,-0.220,-0.220,-0.220,0.000,0.000,0.000
1605144331985244160,10.0.1.143,615,move_down,-0.240,-0.240,-0.240,0.000,0.000,0.000
1605144334173540096,10.0.1.143,1117,move_down,-0.260,-0.260,-0.260,0.000,0.000,0.000
1605144336298664192,10.0.1.143,994,move_down,-0.280,-0.280,-0.280,0.000,0.000,0.000
1605144338172439040,10.0.1.143,828,move_down,-0.300,-0.300,-0.300,0.000,0.000,0.000
1605144339973722880,10.0.1.143,565,move_down,-0.320,-0.320,-0.320,0.000,0.000,0.000
1605144341812231936,10.0.1.143,738,move_down,-0.340,-0.340,-0.340,0.000,0.000,0.000
1605144343722522112,10.0.1.143,808,move_down,-0.360,-0.360,-0.360,0.000,0.000,0.000
1605144346257530880,10.0.1.143,1100,move_down,-0.380,-0.380,-0.380,0.000,0.000,0.000
1605144348158140928,10.0.1.143,698,move_down,-0.400,-0.400,-0.400,0.000,0.000,0.000
1605144350421149952,10.0.1.143,1027,move_down,-0.420,-0.420,-0.420,0.000,0.000,0.000
1605144352376507904,10.0.1.143,609,move_down,-0.440,-0.440,-0.440,0.000,0.000,0.000
1605144354486481920,10.0.1.143,943,move_down,-0.460,-0.460,-0.460,0.000,0.000,0.000
1605144356049300992,10.0.1.143,479,move_down,-0.480,-0.480,-0.480,0.000,0.000,0.000
1605144357721541888,10.0.1.143,589,move_down,-0.500,-0.500,-0.500,0.000,0.000,0.000
1605144359306652160,10.0.1.143,534,move_down,-0.520,-0.520,-0.520,0.000,0.000,0.000
1605144361207393024,10.0.1.143,685,move_down,-0.540,-0.540,-0.540,0.000,0.000,0.000
1605144363018640128,10.0.1.143,697,move_down,-0.560,-0.560,-0.560,0.000,0.000,0.000
1605144365476592128,10.0.1.143,1409,move_down,-0.580,-0.580,-0.580,0.000,0.000,0.000
1605144367810568960,10.0.1.143,1025,move_down,-0.600,-0.600,-0.600,0.000,0.000,0.000
1605144369527271936,10.0.1.143,607,move_down,-0.620,-0.620,-0.620,0.000,0.000,0.000
1605144371265563904,10.0.1.143,646,move_down,-0.640,-0.640,-0.640,0.000,0.000,0.000
1605144373745306112,10.0.1.143,1349,move_down,-0.660,-0.660,-0.660,0.000,0.000,0.000
1605144376075809024,10.0.1.143,1207,move_down,-0.680,-0.680,-0.680,0.000,0.000,0.000
1605144377927216896,10.0.1.143,604,move_down,-0.700,-0.700,-0.700,0.000,0.000,0.000
1605144380144071168,10.0.1.143,44,pick,-0.720,-0.720,-0.720,0.000,0.000,0.000
1605144382170209024,10.0.1.143,62,pick,-0.740,-0.740,-0.740,0.000,0.000,0.000
1605144385177455872,10.0.1.143,58,pick,-0.770,-0.770,-0.770,0.000,0.000,0.000
1605144388186240000,10.0.1.143,58,pick,-0.800,-0.800,-0.800,0.000,0.000,0.000
1605144392229563904,10.0.1.143,57,pick,-0.840,-0.840,-0.840,0.000,0.000,0.000
1605144393216625920,10.0.1.143,41,pick,-0.850,-0.850,-0.850,0.000,0.000,0.000
1605144394220360960,10.0.1.143,44,pick,-0.860,-0.860,-0.860,0.000,0.000,0.000
1605144396230472960,10.0.1.143,50,pick,-0.880,-0.880,-0.880,0.000,0.000,0.000
1605144397216495104,10.0.1.143,32,pick,-0.890,-0.890,-0.890,0.000,0.000,0.000
1605144399147170048,10.0.1.143,959,move_up,-0.870,-0.870,-0.870,0.000,0.000,0.000
1605144401138245120,10.0.1.143,770,move_up,-0.850,-0.850,-0.850,0.000,0.000,0.000
1605144403178502144,10.0.1.143,859,move_up,-0.830,-0.830,-0.830,0.000,0.000,0.000
1605144405220952064,10.0.1.143,969,move_up,-0.810,-0.810,-0.810,0.000,0.000,0.000
1605144407024133888,10.0.1.143,558,move_up,-0.790,-0.790,-0.790,0.000,0.000,0.000
1605144408945138944,10.0.1.143,761,move_up,-0.770,-0.770,-0.770,0.000,0.000,0.000
1605144410752197888,10.0.1.143,728,move_up,-0.750,-0.750,-0.750,0.000,0.000,0.000
1605144412628943872,10.0.1.143,769,move_up,-0.730,-0.730,-0.730,0.000,0.000,0.000
1605144414562717952,10.0.1.143,790,move_up,-0.710,-0.710,-0.710,0.000,0.000,0.000
1605144417118417920,10.0.1.143,1398,move_up,-0.690,-0.690,-0.690,0.000,0.000,0.000
1605144419319094016,10.0.1.143,1047,move_up,-0.670,-0.670,-0.670,0.000,0.000,0.000
1605144421335040000,10.0.1.143,846,move_up,-0.650,-0.650,-0.650,0.000,0.000,0.000
1605144423730174976,10.0.1.143,846,move_up,-0.630,-0.630,-0.630,0.000,0.000,0.000
1605144425735835904,10.0.1.143,958,move_up,-0.610,-0.610,-0.610,0.000,0.000,0.000
1605144427630028032,10.0.1.143,838,move_up,-0.590,-0.590,-0.590,0.000,0.000,0.000
1605144429573859840,10.0.1.143,777,move_up,-0.570,-0.570,-0.570,0.000,0.000,0.000
1605144431374579968,10.0.1.143,660,move_up,-0.550,-0.550,-0.550,0.000,0.000,0.000
1605144433205954048,10.0.1.143,731,move_up,-0.530,-0.530,-0.530,0.000,0.000,0.000
1605144434955001088,10.0.1.143,659,move_up,-0.510,-0.510,-0.510,0.000,0.000,0.000
1605144437482359808,10.0.1.143,1399,move_up,-0.490,-0.490,-0.490,0.000,0.000,0.000
1605144439407617024,10.0.1.143,834,move_up,-0.470,-0.470,-0.470,0.000,0.000,0.000
1605144440955243008,10.0.1.143,546,move_up,-0.450,-0.450,-0.450,0.000,0.000,0.000
1605144442873980928,10.0.1.143,753,move_up,-0.430,-0.430,-0.430,0.000,0.000,0.000
1605144444542606080,10.0.1.143,602,move_up,-0.410,-0.410,-0.410,0.000,0.000,0.000
1605144446470953984,10.0.1.143,779,move_up,-0.390,-0.390,-0.390,0.000,0.000,0.000
1605144448507153152,10.0.1.143,944,move_up,-0.370,-0.370,-0.370,0.000,0.000,0.000
1605144450316462080,10.0.1.143,763,move_up,-0.350,-0.350,-0.350,0.000,0.000,0.000
1605144451976715008,10.0.1.143,548,move_up,-0.330,-0.330,-0.330,0.000,0.000,0.000
1605144453641758976,10.0.1.143,593,move_up,-0.310,-0.310,-0.310,0.000,0.000,0.000
1605144454911703040,10.0.1.143,80,place,-0.300,-0.300,-0.300,0.000,0.000,0.000
1605144455886020864,10.0.1.143,53,place,-0.290,-0.290,-0.290,0.000,0.000,0.000
1605144457890327808,10.0.1.143,49,place,-0.270,-0.270,-0.270,0.000,0.000,0.000
1605144458898850048,10.0.1.143,57,place,-0.260,-0.260,-0.260,0.000,0.000,0.000
1605144459959960832,10.0.1.143,106,place,-0.250,-0.250,-0.250,0.000,0.000,0.000
1605144460906918912,10.0.1.143,46,place,-0.240,-0.240,-0.240,0.000,0.000,0.000
1605144461905776128,10.0.1.143,42,place,-0.230,-0.230,-0.230,0.000,0.000,0.000
1605144462912781056,10.0.1.143,45,place,-0.220,-0.220,-0.220,0.000,0.000,0.000
1605144464910103040,10.0.1.143,35,place,-0.200,-0.200,-0.200,0.000,0.000,0.000
1605144465939759872,10.0.1.143,63,place,-0.190,-0.190,-0.190,0.000,0.000,0.000
1605144466931768064,10.0.1.143,53,place,-0.180,-0.180,-0.180,0.000,0.000,0.000
1605144467934518016,10.0.1.143,55,place,-0.170,-0.170,-0.170,0.000,0.000,0.000
1605144468942791936,10.0.1.143,62,place,-0.160,-0.160,-0.160,0.000,0.000,0.000
1605144469942660096,10.0.1.143,55,place,-0.150,-0.150,-0.150,0.000,0.000,0.000
1605144470945352960,10.0.1.143,55,place,-0.140,-0.140,-0.140,0.000,0.000,0.000
1605144471934936064,10.0.1.143,43,place,-0.130,-0.130,-0.130,0.000,0.000,0.000
1605144472939003904,10.0.1.143,46,place,-0.120,-0.120,-0.120,0.000,0.000,0.000
1605144474492711936,10.0.1.143,589,move_down,-0.140,-0.140,-0.140,0.000,0.000,0.000
1605144476319768064,10.0.1.143,700,move_down,-0.160,-0.160,-0.160,0.000,0.000,0.000
1605144478500473856,10.0.1.143,752,move_down,-0.180,-0.180,-0.180,0.000,0.000,0.000
1605144480688739072,10.0.1.143,874,move_down,-0.200,-0.200,-0.200,0.000,0.000,0.000
1605144482620412160,10.0.1.143,832,move_down,-0.220,-0.220,-0.220,0.000,0.000,0.000
1605144484905505792,10.0.1.143,992,move_down,-0.240,-0.240,-0.240,0.000,0.000,0.000
1605144486686629120,10.0.1.143,565,move_down,-0.260,-0.260,-0.260,0.000,0.000,0.000
1605144488798358016,10.0.1.143,1041,move_down,-0.280,-0.280,-0.280,0.000,0.000,0.000
1605144490799629824,10.0.1.143,944,move_down,-0.300,-0.300,-0.300,0.000,0.000,0.000
1605144492469701888,10.0.1.143,546,move_down,-0.320,-0.320,-0.320,0.000,0.000,0.000
1605144494294121984,10.0.1.143,738,move_down,-0.340,-0.340,-0.340,0.000,0.000,0.000
1605144496206085888,10.0.1.143,631,move_down,-0.360,-0.360,-0.360,0.000,0.000,0.000
1605144497983469056,10.0.1.143,627,move_down,-0.380,-0.380,-0.380,0.000,0.000,0.000
1605144499947695872,10.0.1.143,546,move_down,-0.400,-0.400,-0.400,0.000,0.000,0.000
1605144501834516992,10.0.1.143,702,move_down,-0.420,-0.420,-0.420,0.000,0.000,0.000
1605144503969538816,10.0.1.143,1047,move_down,-0.440,-0.440,-0.440,0.000,0.000,0.000
1605144506014422784,10.0.1.143,659,move_down,-0.460,-0.460,-0.460,0.000,0.000,0.000
1605144507797556992,10.0.1.143,694,move_down,-0.480,-0.480,-0.480,0.000,0.000,0.000
1605144509856750080,10.0.1.143,935,move_down,-0.500,-0.500,-0.500,0.000,0.000,0.000
1605144511570332928,10.0.1.143,650,move_down,-0.520,-0.520,-0.520,0.000,0.000,0.000
1605144513734396928,10.0.1.143,743,move_down,-0.540,-0.540,-0.540,0.000,0.000,0.000
1605144516050204160,10.0.1.143,798,move_down,-0.560,-0.560,-0.560,0.000,0.000,0.000
1605144518333550080,10.0.1.143,1050,move_down,-0.580,-0.580,-0.580,0.000,0.000,0.000
1605144520506509056,10.0.1.143,1002,move_down,-0.600,-0.600,-0.600,0.000,0.000,0.000
1605144522407805952,10.0.1.143,829,move_down,-0.620,-0.620,-0.620,0.000,0.000,0.000
1605144524057591040,10.0.1.143,579,move_down,-0.640,-0.640,-0.640,0.000,0.000,0.000
1605144526544357120,10.0.1.143,856,move_down,-0.660,-0.660,-0.660,0.000,0.000,0.000
1605144528332272896,10.0.1.143,600,move_down,-0.680,-0.680,-0.680,0.000,0.000,0.000
1605144530565326848,10.0.1.143,1057,move_down,-0.700,-0.700,-0.700,0.000,0.000,0.000
1605144533715250944,10.0.1.143,51,pick,-0.730,-0.730,-0.730,0.000,0.000,0.000
1605144534706501120,10.0.1.143,41,pick,-0.740,-0.740,-0.740,0.000,0.000,0.000
1605144535726499072,10.0.1.143,52,pick,-0.750,-0.750,-0.750,0.000,0.000,0.000
1605144536735364864,10.0.1.143,50,pick,-0.760,-0.760,-0.760,0.000,0.000,0.000
1605144537727762944,10.0.1.143,41,pick,-0.770,-0.770,-0.770,0.000,0.000,0.000
1605144538743567872,10.0.1.143,55,pick,-0.780,-0.780,-0.780,0.000,0.000,0.000
1605144542831467008,10.0.1.143,60,pick,-0.820,-0.820,-0.820,0.000,0.000,0.000
1605144544822951936,10.0.1.143,45,pick,-0.840,-0.840,-0.840,0.000,0.000,0.000
1605144545830359040,10.0.1.143,48,pick,-0.850,-0.850,-0.850,0.000,0.000,0.000
1605144546820459008,10.0.1.143,36,pick,-0.860,-0.860,-0.860,0.000,0.000,0.000
1605144547877451008,10.0.1.143,92,pick,-0.870,-0.870,-0.870,0.000,0.000,0.000
1605144548893155072,10.0.1.143,104,pick,-0.880,-0.880,-0.880,0.000,0.000,0.000
1605144551425435904,10.0.1.143,615,move_up,-0.870,-0.870,-0.870,0.000,0.000,0.000
1605144553884056064,10.0.1.143,840,move_up,-0.850,-0.850,-0.850,0.000,0.000,0.000
1605144555989052160,10.0.1.143,979,move_up,-0.830,-0.830,-0.830,0.000,0.000,0.000
1605144558019324160,10.0.1.143,940,move_up,-0.810,-0.810,-0.810,0.000,0.000,0.000
1605144559732769024,10.0.1.143,640,move_up,-0.790,-0.790,-0.790,0.000,0.000,0.000
1605144561639139840,10.0.1.143,745,move_up,-0.770,-0.770,-0.770,0.000,0.000,0.000
1605144563565884160,10.0.1.143,679,move_up,-0.750,-0.750,-0.750,0.000,0.000,0.000
1605144566953586944,10.0.1.143,2286,move_up,-0.730,-0.730,-0.730,0.000,0.000,0.000
1605144569333561856,10.0.1.143,887,move_up,-0.710,-0.710,-0.710,0.000,0.000,0.000
1605144571925010944,10.0.1.143,1501,move_up,-0.690,-0.690,-0.690,0.000,0.000,0.000
1605144573891969792,10.0.1.143,822,move_up,-0.670,-0.670,-0.670,0.000,0.000,0.000
1605144575959992832,10.0.1.143,600,move_up,-0.650,-0.650,-0.650,0.000,0.000,0.000
1605144577581300992,10.0.1.143,525,move_up,-0.630,-0.630,-0.630,0.000,0.000,0.000
1605144579359730944,10.0.1.143,713,move_up,-0.610,-0.610,-0.610,0.000,0.000,0.000
1605144581599953920,10.0.1.143,1099,move_up,-0.590,-0.590,-0.590,0.000,0.000,0.000
1605144583289891072,10.0.1.143,618,move_up,-0.570,-0.570,-0.570,0.000,0.000,0.000
1605144584982266880,10.0.1.143,490,move_up,-0.550,-0.550,-0.550,0.000,0.000,0.000
1605144587430144000,10.0.1.143,912,move_up,-0.530,-0.530,-0.530,0.000,0.000,0.000
1605144589225085952,10.0.1.143,663,move_up,-0.510,-0.510,-0.510,0.000,0.000,0.000
1605144591032922880,10.0.1.143,717,move_up,-0.490,-0.490,-0.490,0.000,0.000,0.000
1605144592870786816,10.0.1.143,672,move_up,-0.470,-0.470,-0.470,0.000,0.000,0.000
1605144595358417920,10.0.1.143,756,move_up,-0.450,-0.450,-0.450,0.000,0.000,0.000
1605144597448504064,10.0.1.143,818,move_up,-0.430,-0.430,-0.430,0.000,0.000,0.000
1605144599761239040,10.0.1.143,1052,move_up,-0.410,-0.410,-0.410,0.000,0.000,0.000
1605144601636101888,10.0.1.143,791,move_up,-0.390,-0.390,-0.390,0.000,0.000,0.000
1605144603541778176,10.0.1.143,805,move_up,-0.370,-0.370,-0.370,0.000,0.000,0.000
1605144609533488896,10.0.1.143,1233,move_up,-0.350,-0.350,-0.350,0.000,0.000,0.000
1605144611487720960,10.0.1.143,795,move_up,-0.330,-0.330,-0.330,0.000,0.000,0.000
1605144613286781952,10.0.1.143,693,move_up,-0.310,-0.310,-0.310,0.000,0.000,0.000
1605144614427897088,10.0.1.143,56,place,-0.300,-0.300,-0.300,0.000,0.000,0.000
1605144615443933952,10.0.1.143,54,place,-0.290,-0.290,-0.290,0.000,0.000,0.000
1605144617469070848,10.0.1.143,71,place,-0.270,-0.270,-0.270,0.000,0.000,0.000
1605144618472798976,10.0.1.143,59,place,-0.260,-0.260,-0.260,0.000,0.000,0.000
1605144619548847872,10.0.1.143,134,place,-0.250,-0.250,-0.250,0.000,0.000,0.000
1605144621478857984,10.0.1.143,55,place,-0.230,-0.230,-0.230,0.000,0.000,0.000
1605144622485000960,10.0.1.143,49,place,-0.220,-0.220,-0.220,0.000,0.000,0.000
1605144623578016000,10.0.1.143,135,place,-0.210,-0.210,-0.210,0.000,0.000,0.000
1605144624505799168,10.0.1.143,57,place,-0.200,-0.200,-0.200,0.000,0.000,0.000
1605144625506804992,10.0.1.143,53,place,-0.190,-0.190,-0.190,0.000,0.000,0.000
1605144626493689088,10.0.1.143,38,place,-0.180,-0.180,-0.180,0.000,0.000,0.000
1605144627517713920,10.0.1.143,59,place,-0.170,-0.170,-0.170,0.000,0.000,0.000
1605144629514415872,10.0.1.143,50,place,-0.150,-0.150,-0.150,0.000,0.000,0.000
1605144630510468864,10.0.1.143,38,place,-0.140,-0.140,-0.140,0.000,0.000,0.000
1605144631530667008,10.0.1.143,57,place,-0.130,-0.130,-0.130,0.000,0.000,0.000
1605144632530670848,10.0.1.143,56,place,-0.120,-0.120,-0.120,0.000,0.000,0.000
1605144634227888128,10.0.1.143,748,move_down,-0.140,-0.140,-0.140,0.000,0.000,0.000
1605144636056060160,10.0.1.143,742,move_down,-0.160,-0.160,-0.160,0.000,0.000,0.000
1605144637700599040,10.0.1.143,596,move_down,-0.180,-0.180,-0.180,0.000,0.000,0.000
1605144639620579840,10.0.1.143,894,move_down,-0.200,-0.200,-0.200,0.000,0.000,0.000
1605144641544017152,10.0.1.143,582,move_down,-0.220,-0.220,-0.220,0.000,0.000,0.000
1605144644038646016,10.0.1.143,1433,move_down,-0.240,-0.240,-0.240,0.000,0.000,0.000
1605144646382484992,10.0.1.143,732,move_down,-0.260,-0.260,-0.260,0.000,0.000,0.000
1605144648089922048,10.0.1.143,610,move_down,-0.280,-0.280,-0.280,0.000,0.000,0.000
1605144650453552896,10.0.1.143,1180,move_down,-0.300,-0.300,-0.300,0.000,0.000,0.000
1605144652609748992,10.0.1.143,1076,move_down,-0.320,-0.320,-0.320,0.000,0.000,0.000
1605144654608529152,10.0.1.143,874,move_down,-0.340,-0.340,-0.340,0.000,0.000,0.000
1605144656452392192,10.0.1.143,756,move_down,-0.360,-0.360,-0.360,0.000,0.000,0.000
1605144658223859968,10.0.1.143,673,move_down,-0.380,-0.380,-0.380,0.000,0.000,0.000
1605144660068209920,10.0.1.143,632,move_down,-0.400,-0.400,-0.400,0.000,0.000,0.000
1605144662535008000,10.0.1.143,1346,move_down,-0.420,-0.420,-0.420,0.000,0.000,0.000
1605144664214525952,10.0.1.143,530,move_down,-0.440,-0.440,-0.440,0.000,0.000,0.000
1605144666189086976,10.0.1.143,724,move_down,-0.460,-0.460,-0.460,0.000,0.000,0.000
1605144668119837952,10.0.1.143,633,move_down,-0.480,-0.480,-0.480,0.000,0.000,0.000
1605144670014413056,10.0.1.143,722,move_down,-0.500,-0.500,-0.500,0.000,0.000,0.000
1605144675785901056,10.0.1.143,665,move_down,-0.520,-0.520,-0.520,0.000,0.000,0.000
1605144677517931008,10.0.1.143,622,move_down,-0.540,-0.540,-0.540,0.000,0.000,0.000
1605144679382533120,10.0.1.143,644,move_down,-0.560,-0.560,-0.560,0.000,0.000,0.000
1605144681334578944,10.0.1.143,758,move_down,-0.580,-0.580,-0.580,0.000,0.000,0.000
1605144683115216128,10.0.1.143,691,move_down,-0.600,-0.600,-0.600,0.000,0.000,0.000
1605144684944411136,10.0.1.143,690,move_down,-0.620,-0.620,-0.620,0.000,0.000,0.000
1605144687590593024,10.0.1.143,1407,move_down,-0.640,-0.640,-0.640,0.000,0.000,0.000
1605144689570993920,10.0.1.143,796,move_down,-0.660,-0.660,-0.660,0.000,0.000,0.000
1605144691721362944,10.0.1.143,1002,move_down,-0.680,-0.680,-0.680,0.000,0.000,0.000
1605144694101614080,10.0.1.143,762,move_down,-0.700,-0.700,-0.700,0.000,0.000,0.000
1605144695312156928,10.0.1.143,85,pick,-0.710,-0.710,-0.710,0.000,0.000,0.000
1605144696363957760,10.0.1.143,119,pick,-0.720,-0.720,-0.720,0.000,0.000,0.000
1605144699375881984,10.0.1.143,107,pick,-0.750,-0.750,-0.750,0.000,0.000,0.000
1605144700302113024,10.0.1.143,32,pick,-0.760,-0.760,-0.760,0.000,0.000,0.000
1605144701331872000,10.0.1.143,54,pick,-0.770,-0.770,-0.770,0.000,0.000,0.000
1605144703325004032,10.0.1.143,38,pick,-0.790,-0.790,-0.790,0.000,0.000,0.000
1605144704334355968,10.0.1.143,46,pick,-0.800,-0.800,-0.800,0.000,0.000,0.000
1605144705362322176,10.0.1.143,72,pick,-0.810,-0.810,-0.810,0.000,0.000,0.000
1605144707375418880,10.0.1.143,77,pick,-0.830,-0.830,-0.830,0.000,0.000,0.000
1605144709423536128,10.0.1.143,99,pick,-0.850,-0.850,-0.850,0.000,0.000,0.000
1605144710369784064,10.0.1.143,43,pick,-0.860,-0.860,-0.860,0.000,0.000,0.000
1605144711390603008,10.0.1.143,46,pick,-0.870,-0.870,-0.870,0.000,0.000,0.000
1605144712386419968,10.0.1.143,41,pick,-0.880,-0.880,-0.880,0.000,0.000,0.000
1605144715008430848,10.0.1.143,656,move_up,-0.870,-0.870,-0.870,0.000,0.000,0.000
1605144717195337984,10.0.1.143,1189,move_up,-0.850,-0.850,-0.850,0.000,0.000,0.000
1605144719371329024,10.0.1.143,673,move_up,-0.830,-0.830,-0.830,0.000,0.000,0.000
1605144721450747904,10.0.1.143,802,move_up,-0.810,-0.810,-0.810,0.000,0.000,0.000
1605144723128071936,10.0.1.143,632,move_up,-0.790,-0.790,-0.790,0.000,0.000,0.000
1605144724871077120,10.0.1.143,596,move_up,-0.770,-0.770,-0.770,0.000,0.000,0.000
1605144727164118016,10.0.1.143,924,move_up,-0.750,-0.750,-0.750,0.000,0.000,0.000
1605144729021274112,10.0.1.143,749,move_up,-0.730,-0.730,-0.730,0.000,0.000,0.000
1605144730799374080,10.0.1.143,694,move_up,-0.710,-0.710,-0.710,0.000,0.000,0.000
1605144733597347072,10.0.1.143,1560,move_up,-0.690,-0.690,-0.690,0.000,0.000,0.000
1605144735436141056,10.0.1.143,712,move_up,-0.670,-0.670,-0.670,0.000,0.000,0.000
1605144737511246080,10.0.1.143,723,move_up,-0.650,-0.650,-0.650,0.000,0.000,0.000
1605144739439047168,10.0.1.143,862,move_up,-0.630,-0.630,-0.630,0.000,0.000,0.000
1605144741730477056,10.0.1.143,699,move_up,-0.610,-0.610,-0.610,0.000,0.000,0.000
1605144743924154112,10.0.1.143,1072,move_up,-0.590,-0.590,-0.590,0.000,0.000,0.000
1605144745595998976,10.0.1.143,529,move_up,-0.570,-0.570,-0.570,0.000,0.000,0.000
1605144747433413888,10.0.1.143,716,move_up,-0.550,-0.550,-0.550,0.000,0.000,0.000
1605144749987123968,10.0.1.143,1435,move_up,-0.530,-0.530,-0.530,0.000,0.000,0.000
1605144751994009856,10.0.1.143,750,move_up,-0.510,-0.510,-0.510,0.000,0.000,0.000
1605144753932818944,10.0.1.143,596,move_up,-0.490,-0.490,-0.490,0.000,0.000,0.000
1605144755959464960,10.0.1.143,964,move_up,-0.470,-0.470,-0.470,0.000,0.000,0.000
1605144757923921152,10.0.1.143,817,move_up,-0.450,-0.450,-0.450,0.000,0.000,0.000
1605144759983834112,10.0.1.143,842,move_up,-0.430,-0.430,-0.430,0.000,0.000,0.000
1605144761809256960,10.0.1.143,545,move_up,-0.410,-0.410,-0.410,0.000,0.000,0.000
1605144763502737920,10.0.1.143,633,move_up,-0.390,-0.390,-0.390,0.000,0.000,0.000
1605144765477106176,10.0.1.143,804,move_up,-0.370,-0.370,-0.370,0.000,0.000,0.000
1605144767441245952,10.0.1.143,767,move_up,-0.350,-0.350,-0.350,0.000,0.000,0.000
1605144769677315072,10.0.1.143,880,move_up,-0.330,-0.330,-0.330,0.000,0.000,0.000
1605144771971209984,10.0.1.143,625,move_up,-0.310,-0.310,-0.310,0.000,0.000,0.000
1605144773234468864,10.0.1.143,93,place,-0.300,-0.300,-0.300,0.000,0.000,0.000
1605144774200894976,10.0.1.143,58,place,-0.290,-0.290,-0.290,0.000,0.000,0.000
1605144775200120832,10.0.1.143,56,place,-0.280,-0.280,-0.280,0.000,0.000,0.000
1605144776189796096,10.0.1.143,43,place,-0.270,-0.270,-0.270,0.000,0.000,0.000
1605144777193722880,10.0.1.143,46,place,-0.260,-0.260,-0.260,0.000,0.000,0.000
1605144778190793984,10.0.1.143,41,place,-0.250,-0.250,-0.250,0.000,0.000,0.000
1605144779190846976,10.0.1.143,39,place,-0.240,-0.240,-0.240,0.000,0.000,0.000
1605144780221784064,10.0.1.143,70,place,-0.230,-0.230,-0.230,0.000,0.000,0.000
1605144783206412032,10.0.1.143,38,place,-0.200,-0.200,-0.200,0.000,0.000,0.000
1605144784260210944,10.0.1.143,91,place,-0.190,-0.190,-0.190,0.000,0.000,0.000
1605144785279336960,10.0.1.143,104,place,-0.180,-0.180,-0.180,0.000,0.000,0.000
1605144786305332992,10.0.1.143,120,place,-0.170,-0.170,-0.170,0.000,0.000,0.000
1605144787248514048,10.0.1.143,57,place,-0.160,-0.160,-0.160,0.000,0.000,0.000
1605144788230208000,10.0.1.143,38,place,-0.150,-0.150,-0.150,0.000,0.000,0.000
1605144789244195072,10.0.1.143,52,place,-0.140,-0.140,-0.140,0.000,0.000,0.000
1605144790240769024,10.0.1.143,47,place,-0.130,-0.130,-0.130,0.000,0.000,0.000
1605144792917332992,10.0.1.143,718,move_down,-0.140,-0.140,-0.140,0.000,0.000,0.000
1605144795004101120,10.0.1.143,797,move_down,-0.160,-0.160,-0.160,0.000,0.000,0.000
1605144796928699904,10.0.1.143,720,move_down,-0.180,-0.180,-0.180,0.000,0.000,0.000
1605144798812995072,10.0.1.143,782,move_down,-0.200,-0.200,-0.200,0.000,0.000,0.000
1605144800846586112,10.0.1.143,858,move_down,-0.220,-0.220,-0.220,0.000,0.000,0.000
1605144802921349888,10.0.1.143,722,move_down,-0.240,-0.240,-0.240,0.000,0.000,0.000
1605144804584826112,10.0.1.143,566,move_down,-0.260,-0.260,-0.260,0.000,0.000,0.000
1605144806825817088,10.0.1.143,900,move_down,-0.280,-0.280,-0.280,0.000,0.000,0.000
1605144808955104000,10.0.1.143,1047,move_down,-0.300,-0.300,-0.300,0.000,0.000,0.000
1605144810758234112,10.0.1.143,606,move_down,-0.320,-0.320,-0.320,0.000,0.000,0.000
1605144812725789952,10.0.1.143,783,move_down,-0.340,-0.340,-0.340,0.000,0.000,0.000
1605144815040865024,10.0.1.143,934,move_down,-0.360,-0.360,-0.360,0.000,0.000,0.000
1605144817216583936,10.0.1.143,1020,move_down,-0.380,-0.380,-0.380,0.000,0.000,0.000
1605144819388748032,10.0.1.143,1043,move_down,-0.400,-0.400,-0.400,0.000,0.000,0.000
1605144821359119872,10.0.1.143,819,move_down,-0.420,-0.420,-0.420,0.000,0.000,0.000
1605144823760130816,10.0.1.143,1106,move_down,-0.440,-0.440,-0.440,0.000,0.000,0.000
1605144825787837952,10.0.1.143,860,move_down,-0.460,-0.460,-0.460,0.000,0.000,0.000
1605144827816407808,10.0.1.143,957,move_down,-0.480,-0.480,-0.480,0.000,0.000,0.000
1605144829716173056,10.0.1.143,801,move_down,-0.500,-0.500,-0.500,0.000,0.000,0.000
1605144831868776960,10.0.1.143,1083,move_down,-0.520,-0.520,-0.520,0.000,0.000,0.000
1605144835018493952,10.0.1.143,1523,move_down,-0.540,-0.540,-0.540,0.000,0.000,0.000
1605144837131330048,10.0.1.143,989,move_down,-0.560,-0.560,-0.560,0.000,0.000,0.000
1605144839432604160,10.0.1.143,986,move_down,-0.580,-0.580,-0.580,0.000,0.000,0.000
1605144841526083072,10.0.1.143,946,move_down,-0.600,-0.600,-0.600,0.000,0.000,0.000
1605144844007351040,10.0.1.143,1421,move_down,-0.620,-0.620,-0.620,0.000,0.000,0.000
1605144845912157952,10.0.1.143,806,move_down,-0.640,-0.640,-0.640,0.000,0.000,0.000
1605144847598439936,10.0.1.143,503,move_down,-0.660,-0.660,-0.660,0.000,0.000,0.000
1605144849821566976,10.0.1.143,1020,move_down,-0.680,-0.680,-0.680,0.000,0.000,0.000
1605144851485474048,10.0.1.143,584,move_down,-0.700,-0.700,-0.700,0.000,0.000,0.000
1605144852934635008,10.0.1.143,45,pick,-0.710,-0.710,-0.710,0.000,0.000,0.000
1605144854986360064,10.0.1.143,90,pick,-0.730,-0.730,-0.730,0.000,0.000,0.000
1605144855965373952,10.0.1.143,65,pick,-0.740,-0.740,-0.740,0.000,0.000,0.000
1605144856982991104,10.0.1.143,80,pick,-0.750,-0.750,-0.750,0.000,0.000,0.000
1605144858954267904,10.0.1.143,45,pick,-0.770,-0.770,-0.770,0.000,0.000,0.000
1605144859984247040,10.0.1.143,74,pick,-0.780,-0.780,-0.780,0.000,0.000,0.000
1605144861995817984,10.0.1.143,58,pick,-0.800,-0.800,-0.800,0.000,0.000,0.000
1605144863997217792,10.0.1.143,53,pick,-0.820,-0.820,-0.820,0.000,0.000,0.000
1605144865014203904,10.0.1.143,64,pick,-0.830,-0.830,-0.830,0.000,0.000,0.000
1605144866027086848,10.0.1.143,75,pick,-0.840,-0.840,-0.840,0.000,0.000,0.000
1605144867030459904,10.0.1.143,62,pick,-0.850,-0.850,-0.850,0.000,0.000,0.000
1605144868036644096,10.0.1.143,65,pick,-0.860,-0.860,-0.860,0.000,0.000,0.000
1605144869019150848,10.0.1.143,43,pick,-0.870,-0.870,-0.870,0.000,0.000,0.000
1605144870033519872,10.0.1.143,40,pick,-0.880,-0.880,-0.880,0.000,0.000,0.000
1605144872594189056,10.0.1.143,594,move_up,-0.870,-0.870,-0.870,0.000,0.000,0.000
1605144874786198016,10.0.1.143,1091,move_up,-0.850,-0.850,-0.850,0.000,0.000,0.000
1605144876636218112,10.0.1.143,653,move_up,-0.830,-0.830,-0.830,0.000,0.000,0.000
1605144879149108992,10.0.1.143,1395,move_up,-0.810,-0.810,-0.810,0.000,0.000,0.000
1605144881303555072,10.0.1.143,997,move_up,-0.790,-0.790,-0.790,0.000,0.000,0.000
1605144883168632064,10.0.1.143,821,move_up,-0.770,-0.770,-0.770,0.000,0.000,0.000
1605144885189507840,10.0.1.143,802,move_up,-0.750,-0.750,-0.750,0.000,0.000,0.000
1605144887082863104,10.0.1.143,915,move_up,-0.730,-0.730,-0.730,0.000,0.000,0.000
1605144888879162112,10.0.1.143,671,move_up,-0.710,-0.710,-0.710,0.000,0.000,0.000
1605144890750364160,10.0.1.143,810,move_up,-0.690,-0.690,-0.690,0.000,0.000,0.000
1605144893053875968,10.0.1.143,1184,move_up,-0.670,-0.670,-0.670,0.000,0.000,0.000
1605144895377652992,10.0.1.143,1113,move_up,-0.650,-0.650,-0.650,0.000,0.000,0.000
1605144897082166016,10.0.1.143,642,move_up,-0.630,-0.630,-0.630,0.000,0.000,0.000
1605144899130449152,10.0.1.143,925,move_up,-0.610,-0.610,-0.610,0.000,0.000,0.000
1605144901082237952,10.0.1.143,881,move_up,-0.590,-0.590,-0.590,0.000,0.000,0.000
1605144903177722880,10.0.1.143,1068,move_up,-0.570,-0.570,-0.570,0.000,0.000,0.000
1605144904831193088,10.0.1.143,571,move_up,-0.550,-0.550,-0.550,0.000,0.000,0.000
1605144906768747008,10.0.1.143,702,move_up,-0.530,-0.530,-0.530,0.000,0.000,0.000
1605144908739710208,10.0.1.143,940,move_up,-0.510,-0.510,-0.510,0.000,0.000,0.000
1605144910917319168,10.0.1.143,1054,move_up,-0.490,-0.490,-0.490,0.000,0.000,0.000
1605144912955965952,10.0.1.143,856,move_up,-0.470,-0.470,-0.470,0.000,0.000,0.000
1605144914894711040,10.0.1.143,815,move_up,-0.450,-0.450,-0.450,0.000,0.000,0.000
1605144917189722112,10.0.1.143,1209,move_up,-0.430,-0.430,-0.430,0.000,0.000,0.000
1605144919215964928,10.0.1.143,728,move_up,-0.410,-0.410,-0.410,0.000,0.000,0.000
1605144921686671872,10.0.1.143,888,move_up,-0.390,-0.390,-0.390,0.000,0.000,0.000
1605144923603961856,10.0.1.143,755,move_up,-0.370,-0.370,-0.370,0.000,0.000,0.000
1605144925470078976,10.0.1.143,745,move_up,-0.350,-0.350,-0.350,0.000,0.000,0.000
1605144927342607104,10.0.1.143,675,move_up,-0.330,-0.330,-0.330,0.000,0.000,0.000
1605144929568557056,10.0.1.143,1116,move_up,-0.310,-0.310,-0.310,0.000,0.000,0.000
1605144931774982912,10.0.1.143,70,place,-0.290,-0.290,-0.290,0.000,0.000,0.000
1605144933766031872,10.0.1.143,58,place,-0.270,-0.270,-0.270,0.000,0.000,0.000
1605144934758532096,10.0.1.143,50,place,-0.260,-0.260,-0.260,0.000,0.000,0.000
1605144935755695104,10.0.1.143,47,place,-0.250,-0.250,-0.250,0.000,0.000,0.000
1605144936744004864,10.0.1.143,34,place,-0.240,-0.240,-0.240,0.000,0.000,0.000
1605144937740998912,10.0.1.143,27,place,-0.230,-0.230,-0.230,0.000,0.000,0.000
1605144938777524992,10.0.1.143,62,place,-0.220,-0.220,-0.220,0.000,0.000,0.000
1605144939796541952,10.0.1.143,79,place,-0.210,-0.210,-0.210,0.000,0.000,0.000
1605144940787785984,10.0.1.143,68,place,-0.200,-0.200,-0.200,0.000,0.000,0.000
1605144941786856960,10.0.1.143,67,place,-0.190,-0.190,-0.190,0.000,0.000,0.000
1605144942764750080,10.0.1.143,39,place,-0.180,-0.180,-0.180,0.000,0.000,0.000
1605144943774512896,10.0.1.143,48,place,-0.170,-0.170,-0.170,0.000,0.000,0.000
1605144944772332032,10.0.1.143,44,place,-0.160,-0.160,-0.160,0.000,0.000,0.000
1605144946821408000,10.0.1.143,68,place,-0.140,-0.140,-0.140,0.000,0.000,0.000
1605144948845652992,10.0.1.143,84,place,-0.120,-0.120,-0.120,0.000,0.000,0.000
1605144950551887104,10.0.1.143,789,move_down,-0.140,-0.140,-0.140,0.000,0.000,0.000
1605144952842503168,10.0.1.143,1108,move_down,-0.160,-0.160,-0.160,0.000,0.000,0.000
1605144954706821888,10.0.1.143,803,move_down,-0.180,-0.180,-0.180,0.000,0.000,0.000
1605144957095640832,10.0.1.143,1055,move_down,-0.200,-0.200,-0.200,0.000,0.000,0.000
1605144959112473088,10.0.1.143,604,move_down,-0.220,-0.220,-0.220,0.000,0.000,0.000
1605144961480873984,10.0.1.143,897,move_down,-0.240,-0.240,-0.240,0.000,0.000,0.000
1605144963189410816,10.0.1.143,691,move_down,-0.260,-0.260,-0.260,0.000,0.000,0.000
1605144965536240128,10.0.1.143,999,move_down,-0.280,-0.280,-0.280,0.000,0.000,0.000
1605144967354167040,10.0.1.143,646,move_down,-0.300,-0.300,-0.300,0.000,0.000,0.000
1605144969406141952,10.0.1.143,959,move_down,-0.320,-0.320,-0.320,0.000,0.000,0.000
1605144971795464960,10.0.1.143,1169,move_down,-0.340,-0.340,-0.340,0.000,0.000,0.000
1605144974204608000,10.0.1.143,1216,move_down,-0.360,-0.360,-0.360,0.000,0.000,0.000
1605144975935958016,10.0.1.143,678,move_down,-0.380,-0.380,-0.380,0.000,0.000,0.000
1605144977823642880,10.0.1.143,739,move_down,-0.400,-0.400,-0.400,0.000,0.000,0.000
1605144980241704960,10.0.1.143,1093,move_down,-0.420,-0.420,-0.420,0.000,0.000,0.000
1605144982467371008,10.0.1.143,1023,move_down,-0.440,-0.440,-0.440,0.000,0.000,0.000
1605144984276488960,10.0.1.143,707,move_down,-0.460,-0.460,-0.460,0.000,0.000,0.000
1605144987038027008,10.0.1.143,1168,move_down,-0.480,-0.480,-0.480,0.000,0.000,0.000
1605144988986179072,10.0.1.143,875,move_down,-0.500,-0.500,-0.500,0.000,0.000,0.000
1605144991116420096,10.0.1.143,671,move_down,-0.520,-0.520,-0.520,0.000,0.000,0.000
1605144992977286144,10.0.1.143,698,move_down,-0.540,-0.540,-0.540,0.000,0.000,0.000
1605144995286487040,10.0.1.143,1021,move_down,-0.560,-0.560,-0.560,0.000,0.000,0.000
1605144997046180864,10.0.1.143,597,move_down,-0.580,-0.580,-0.580,0.000,0.000,0.000
1605144998800049920,10.0.1.143,628,move_down,-0.600,-0.600,-0.600,0.000,0.000,0.000
1605145001017260032,10.0.1.143,912,move_down,-0.620,-0.620,-0.620,0.000,0.000,0.000
1605145003673361920,10.0.1.143,1290,move_down,-0.640,-0.640,-0.640,0.000,0.000,0.000
1605145005842147072,10.0.1.143,790,move_down,-0.660,-0.660,-0.660,0.000,0.000,0.000
1605145007783847168,10.0.1.143,650,move_down,-0.680,-0.680,-0.680,0.000,0.000,0.000
1605145009421693184,10.0.1.143,534,move_down,-0.700,-0.700,-0.700,0.000,0.000,0.000
1605145010619942912,10.0.1.143,49,pick,-0.710,-0.710,-0.710,0.000,0.000,0.000
1605145011621459968,10.0.1.143,43,pick,-0.720,-0.720,-0.720,0.000,0.000,0.000
1605145012624803072,10.0.1.143,42,pick,-0.730,-0.730,-0.730,0.000,0.000,0.000
1605145013643640064,10.0.1.143,60,pick,-0.740,-0.740,-0.740,0.000,0.000,0.000
1605145014635931136,10.0.1.143,49,pick,-0.750,-0.750,-0.750,0.000,0.000,0.000
1605145015644329984,10.0.1.143,51,pick,-0.760,-0.760,-0.760,0.000,0.000,0.000
1605145017656048128,10.0.1.143,48,pick,-0.780,-0.780,-0.780,0.000,0.000,0.000
1605145019652471040,10.0.1.143,36,pick,-0.800,-0.800,-0.800,0.000,0.000,0.000
1605145020721029120,10.0.1.143,90,pick,-0.810,-0.810,-0.810,0.000,0.000,0.000
1605145021723820032,10.0.1.143,57,pick,-0.820,-0.820,-0.820,0.000,0.000,0.000
1605145024734097920,10.0.1.143,52,pick,-0.850,-0.850,-0.850,0.000,0.000,0.000
1605145025754170880,10.0.1.143,70,pick,-0.860,-0.860,-0.860,0.000,0.000,0.000
1605145026759931136,10.0.1.143,66,pick,-0.870,-0.870,-0.870,0.000,0.000,0.000
1605145027782038016,10.0.1.143,88,pick,-0.880,-0.880,-0.880,0.000,0.000,0.000
1605145028758498048,10.0.1.143,63,pick,-0.890,-0.890,-0.890,0.000,0.000,0.000
1605145030546099968,10.0.1.143,740,move_up,-0.870,-0.870,-0.870,0.000,0.000,0.000
1605145032149344000,10.0.1.143,548,move_up,-0.850,-0.850,-0.850,0.000,0.000,0.000
1605145034073540096,10.0.1.143,841,move_up,-0.830,-0.830,-0.830,0.000,0.000,0.000
1605145035975120128,10.0.1.143,809,move_up,-0.810,-0.810,-0.810,0.000,0.000,0.000
1605145038665996032,10.0.1.143,1288,move_up,-0.790,-0.790,-0.790,0.000,0.000,0.000
1605145040574479104,10.0.1.143,784,move_up,-0.770,-0.770,-0.770,0.000,0.000,0.000
1605145043452308992,10.0.1.143,1632,move_up,-0.750,-0.750,-0.750,0.000,0.000,0.000
1605145046215158016,10.0.1.143,1647,move_up,-0.730,-0.730,-0.730,0.000,0.000,0.000
1605145048075787008,10.0.1.143,642,move_up,-0.710,-0.710,-0.710,0.000,0.000,0.000
1605145049951699968,10.0.1.143,709,move_up,-0.690,-0.690,-0.690,0.000,0.000,0.000
1605145051743913984,10.0.1.143,599,move_up,-0.670,-0.670,-0.670,0.000,0.000,0.000
1605145053613950976,10.0.1.143,743,move_up,-0.650,-0.650,-0.650,0.000,0.000,0.000
1605145055227250944,10.0.1.143,532,move_up,-0.630,-0.630,-0.630,0.000,0.000,0.000
1605145056983603968,10.0.1.143,660,move_up,-0.610,-0.610,-0.610,0.000,0.000,0.000
1605145058945765888,10.0.1.143,714,move_up,-0.590,-0.590,-0.590,0.000,0.000,0.000
1605145060848050944,10.0.1.143,590,move_up,-0.570,-0.570,-0.570,0.000,0.000,0.000
1605145062871921152,10.0.1.143,807,move_up,-0.550,-0.550,-0.550,0.000,0.000,0.000
1605145064653243904,10.0.1.143,666,move_up,-0.530,-0.530,-0.530,0.000,0.000,0.000
1605145066469737984,10.0.1.143,684,move_up,-0.510,-0.510,-0.510,0.000,0.000,0.000
1605145068398881792,10.0.1.143,567,move_up,-0.490,-0.490,-0.490,0.000,0.000,0.000
1605145070665051904,10.0.1.143,1235,move_up,-0.470,-0.470,-0.470,0.000,0.000,0.000
1605145073239749888,10.0.1.143,1130,move_up,-0.450,-0.450,-0.450,0.000,0.000,0.000
1605145075173648128,10.0.1.143,908,move_up,-0.430,-0.430,-0.430,0.000,0.000,0.000
1605145078005922048,10.0.1.143,1443,move_up,-0.410,-0.410,-0.410,0.000,0.000,0.000
1605145079866710016,10.0.1.143,742,move_up,-0.390,-0.390,-0.390,0.000,0.000,0.000
1605145081664836864,10.0.1.143,663,move_up,-0.370,-0.370,-0.370,0.000,0.000,0.000
1605145083618033920,10.0.1.143,839,move_up,-0.350,-0.350,-0.350,0.000,0.000,0.000
1605145085568598016,10.0.1.143,823,move_up,-0.330,-0.330,-0.330,0.000,0.000,0.000
1605145087258829056,10.0.1.143,551,move_up,-0.310,-0.310,-0.310,0.000,0.000,0.000
1605145088646269184,10.0.1.143,47,place,-0.300,-0.300,-0.300,0.000,0.000,0.000
1605145089717191936,10.0.1.143,80,place,-0.290,-0.290,-0.290,0.000,0.000,0.000
1605145090709799168,10.0.1.143,72,place,-0.280,-0.280,-0.280,0.000,0.000,0.000
1605145091683904768,10.0.1.143,43,place,-0.270,-0.270,-0.270,0.000,0.000,0.000
1605145094764410112,10.0.1.143,66,place,-0.240,-0.240,-0.240,0.000,0.000,0.000
1605145095745553920,10.0.1.143,46,place,-0.230,-0.230,-0.230,0.000,0.000,0.000
1605145097739880192,10.0.1.143,36,place,-0.210,-0.210,-0.210,0.000,0.000,0.000
1605145099763421184,10.0.1.143,45,place,-0.190,-0.190,-0.190,0.000,0.000,0.000
1605145100761192192,10.0.1.143,40,place,-0.180,-0.180,-0.180,0.000,0.000,0.000
1605145101786572032,10.0.1.143,64,place,-0.170,-0.170,-0.170,0.000,0.000,0.000
1605145102916029952,10.0.1.143,109,place,-0.160,-0.160,-0.160,0.000,0.000,0.000
1605145103841731072,10.0.1.143,34,place,-0.150,-0.150,-0.150,0.000,0.000,0.000
1605145104877934080,10.0.1.143,64,place,-0.140,-0.140,-0.140,0.000,0.000,0.000
1605145106878127104,10.0.1.143,46,place,-0.120,-0.120,-0.120,0.000,0.000,0.000
1605145109162610944,10.0.1.143,1323,move_down,-0.140,-0.140,-0.140,0.000,0.000,0.000
1605145110870242048,10.0.1.143,602,move_down,-0.160,-0.160,-0.160,0.000,0.000,0.000
1605145112928040960,10.0.1.143,1020,move_down,-0.180,-0.180,-0.180,0.000,0.000,0.000
1605145114660161024,10.0.1.143,635,move_down,-0.200,-0.200,-0.200,0.000,0.000,0.000
1605145117304451840,10.0.1.143,1193,move_down,-0.220,-0.220,-0.220,0.000,0.000,0.000
1605145119020819968,10.0.1.143,624,move_down,-0.240,-0.240,-0.240,0.000,0.000,0.000
1605145120554109952,10.0.1.143,529,move_down,-0.260,-0.260,-0.260,0.000,0.000,0.000
1605145122296925184,10.0.1.143,576,move_down,-0.280,-0.280,-0.280,0.000,0.000,0.000
1605145124225917184,10.0.1.143,875,move_down,-0.300,-0.300,-0.300,0.000,0.000,0.000
1605145126323488000,10.0.1.143,857,move_down,-0.320,-0.320,-0.320,0.000,0.000,0.000
1605145128594734848,10.0.1.143,1249,move_down,-0.340,-0.340,-0.340,0.000,0.000,0.000
1605145130823302912,10.0.1.143,1112,move_down,-0.360,-0.360,-0.360,0.000,0.000,0.000
1605145133767823104,10.0.1.143,1801,move_down,-0.380,-0.380,-0.380,0.000,0.000,0.000
1605145135807841024,10.0.1.143,789,move_down,-0.400,-0.400,-0.400,0.000,0.000,0.000
1605145137813401856,10.0.1.143,653,move_down,-0.420,-0.420,-0.420,0.000,0.000,0.000
1605145139770370048,10.0.1.143,820,move_down,-0.440,-0.440,-0.440,0.000,0.000,0.000
1605145141410345984,10.0.1.143,576,move_down,-0.460,-0.460,-0.460,0.000,0.000,0.000
1605145143621565184,10.0.1.143,1104,move_down,-0.480,-0.480,-0.480,0.000,0.000,0.000
1605145145347588096,10.0.1.143,518,move_down,-0.500,-0.500,-0.500,0.000,0.000,0.000
1605145147347203072,10.0.1.143,903,move_down,-0.520,-0.520,-0.520,0.000,0.000,0.000
1605145149028325120,10.0.1.143,543,move_down,-0.540,-0.540,-0.540,0.000,0.000,0.000
1605145151211262976,10.0.1.143,1062,move_down,-0.560,-0.560,-0.560,0.000,0.000,0.000
1605145152951323904,10.0.1.143,760,move_down,-0.580,-0.580,-0.580,0.000,0.000,0.000
1605145154627693056,10.0.1.143,528,move_down,-0.600,-0.600,-0.600,0.000,0.000,0.000
1605145156430938112,10.0.1.143,728,move_down,-0.620,-0.620,-0.620,0.000,0.000,0.000
1605145159353437952,10.0.1.143,1888,move_down,-0.640,-0.640,-0.640,0.000,0.000,0.000
1605145161471059968,10.0.1.143,1016,move_down,-0.660,-0.660,-0.660,0.000,0.000,0.000
1605145163492513792,10.0.1.143,870,move_down,-0.680,-0.680,-0.680,0.000,0.000,0.000
1605145165391252992,10.0.1.143,796,move_down,-0.700,-0.700,-0.700,0.000,0.000,0.000
1605145167209409024,10.0.1.143,65,pick,-0.710,-0.710,-0.710,0.000,0.000,0.000
1605145169239342848,10.0.1.143,83,pick,-0.730,-0.730,-0.730,0.000,0.000,0.000
1605145170222266880,10.0.1.143,57,pick,-0.740,-0.740,-0.740,0.000,0.000,0.000
1605145171235964160,10.0.1.143,64,pick,-0.750,-0.750,-0.750,0.000,0.000,0.000
1605145172247140864,10.0.1.143,69,pick,-0.760,-0.760,-0.760,0.000,0.000,0.000
1605145175238599168,10.0.1.143,51,pick,-0.790,-0.790,-0.790,0.000,0.000,0.000
1605145176278151936,10.0.1.143,90,pick,-0.800,-0.800,-0.800,0.000,0.000,0.000
1605145178258940928,10.0.1.143,65,pick,-0.820,-0.820,-0.820,0.000,0.000,0.000
1605145179262119168,10.0.1.143,63,pick,-0.830,-0.830,-0.830,0.000,0.000,0.000
1605145180300359936,10.0.1.143,97,pick,-0.840,-0.840,-0.840,0.000,0.000,0.000
1605145182246561024,10.0.1.143,32,pick,-0.860,-0.860,-0.860,0.000,0.000,0.000
1605145183294141952,10.0.1.143,78,pick,-0.870,-0.870,-0.870,0.000,0.000,0.000
1605145184298669056,10.0.1.143,62,pick,-0.880,-0.880,-0.880,0.000,0.000,0.000
1605145186783188224,10.0.1.143,513,move_up,-0.870,-0.870,-0.870,0.000,0.000,0.000
1605145188550671104,10.0.1.143,605,move_up,-0.850,-0.850,-0.850,0.000,0.000,0.000
1605145190695022080,10.0.1.143,965,move_up,-0.830,-0.830,-0.830,0.000,0.000,0.000
1605145192427906048,10.0.1.143,673,move_up,-0.810,-0.810,-0.810,0.000,0.000,0.000
1605145194263237888,10.0.1.143,735,move_up,-0.790,-0.790,-0.790,0.000,0.000,0.000
1605145196417709056,10.0.1.143,1085,move_up,-0.770,-0.770,-0.770,0.000,0.000,0.000
1605145198770838016,10.0.1.143,843,move_up,-0.750,-0.750,-0.750,0.000,0.000,0.000
1605145201411955968,10.0.1.143,575,move_up,-0.730,-0.730,-0.730,0.000,0.000,0.000
1605145203474332928,10.0.1.143,611,move_up,-0.710,-0.710,-0.710,0.000,0.000,0.000
1605145205354980096,10.0.1.143,797,move_up,-0.690,-0.690,-0.690,0.000,0.000,0.000
1605145207464958976,10.0.1.143,884,move_up,-0.670,-0.670,-0.670,0.000,0.000,0.000
1605145209369863936,10.0.1.143,789,move_up,-0.650,-0.650,-0.650,0.000,0.000,0.000
1605145211356915968,10.0.1.143,662,move_up,-0.630,-0.630,-0.630,0.000,0.000,0.000
1605145213837129216,10.0.1.143,1306,move_up,-0.610,-0.610,-0.610,0.000,0.000,0.000
1605145215768240896,10.0.1.143,680,move_up,-0.590,-0.590,-0.590,0.000,0.000,0.000
1605145218403228928,10.0.1.143,1449,move_up,-0.570,-0.570,-0.570,0.000,0.000,0.000
1605145220558546944,10.0.1.143,1093,move_up,-0.550,-0.550,-0.550,0.000,0.000,0.000
1605145222391827968,10.0.1.143,628,move_up,-0.530,-0.530,-0.530,0.000,0.000,0.000
1605145224430110976,10.0.1.143,719,move_up,-0.510,-0.510,-0.510,0.000,0.000,0.000
1605145226096870912,10.0.1.143,542,move_up,-0.490,-0.490,-0.490,0.000,0.000,0.000
1605145228075870976,10.0.1.143,730,move_up,-0.470,-0.470,-0.470,0.000,0.000,0.000
1605145230077112832,10.0.1.143,738,move_up,-0.450,-0.450,-0.450,0.000,0.000,0.000
1605145232291738112,10.0.1.143,1100,move_up,-0.430,-0.430,-0.430,0.000,0.000,0.000
1605145234708455168,10.0.1.143,1344,move_up,-0.410,-0.410,-0.410,0.000,0.000,0.000
1605145236872028160,10.0.1.143,1020,move_up,-0.390,-0.390,-0.390,0.000,0.000,0.000
1605145239017332992,10.0.1.143,772,move_up,-0.370,-0.370,-0.370,0.000,0.000,0.000
1605145240790350848,10.0.1.143,711,move_up,-0.350,-0.350,-0.350,0.000,0.000,0.000
1605145242875757824,10.0.1.143,936,move_up,-0.330,-0.330,-0.330,0.000,0.000,0.000
1605145245042802944,10.0.1.143,987,move_up,-0.310,-0.310,-0.310,0.000,0.000,0.000
1605145249237441024,10.0.1.143,54,place,-0.270,-0.270,-0.270,0.000,0.000,0.000
1605145250235223040,10.0.1.143,44,place,-0.260,-0.260,-0.260,0.000,0.000,0.000
1605145251247942912,10.0.1.143,45,place,-0.250,-0.250,-0.250,0.000,0.000,0.000
1605145252270836224,10.0.1.143,37,place,-0.240,-0.240,-0.240,0.000,0.000,0.000
1605145253273693952,10.0.1.143,39,place,-0.230,-0.230,-0.230,0.000,0.000,0.000
1605145254292392960,10.0.1.143,54,place,-0.220,-0.220,-0.220,0.000,0.000,0.000
1605145255274224128,10.0.1.143,34,place,-0.210,-0.210,-0.210,0.000,0.000,0.000
1605145256295881984,10.0.1.143,48,place,-0.200,-0.200,-0.200,0.000,0.000,0.000
1605145257359054080,10.0.1.143,55,place,-0.190,-0.190,-0.190,0.000,0.000,0.000
1605145259385449984,10.0.1.143,72,place,-0.170,-0.170,-0.170,0.000,0.000,0.000
1605145260367659008,10.0.1.143,53,place,-0.160,-0.160,-0.160,0.000,0.000,0.000
1605145262416873984,10.0.1.143,99,place,-0.140,-0.140,-0.140,0.000,0.000,0.000
1605145263372971008,10.0.1.143,50,place,-0.130,-0.130,-0.130,0.000,0.000,0.000
1605145264380806912,10.0.1.143,57,place,-0.120,-0.120,-0.120,0.000,0.000,0.000
1605145266147902976,10.0.1.143,820,move_down,-0.140,-0.140,-0.140,0.000,0.000,0.000
