milangroshev/digital-twin-scalability/logs/run2-3600s/10.0.1.125.csv
timestamp,node,latency,action,joint_1,joint_2,joint_3,joint_4,joint_5,joint_6
1605120995840406016,10.0.1.125,2016,,0.000,0.000,0.000,0.000,0.000,0.000
1605120998461538048,10.0.1.125,633,move_down,-0.020,-0.020,-0.020,0.000,0.000,0.000
1605120999920542976,10.0.1.125,372,move_down,-0.040,-0.040,-0.040,0.000,0.000,0.000
1605121001352251904,10.0.1.125,360,move_down,-0.060,-0.060,-0.060,0.000,0.000,0.000
1605121002830630912,10.0.1.125,408,move_down,-0.080,-0.080,-0.080,0.000,0.000,0.000
1605121004302707968,10.0.1.125,395,move_down,-0.100,-0.100,-0.100,0.000,0.000,0.000
1605121005732090112,10.0.1.125,365,move_down,-0.120,-0.120,-0.120,0.000,0.000,0.000
1605121007220964864,10.0.1.125,407,move_down,-0.140,-0.140,-0.140,0.000,0.000,0.000
1605121008700256000,10.0.1.125,410,move_down,-0.160,-0.160,-0.160,0.000,0.000,0.000
1605121010132285184,10.0.1.125,395,move_down,-0.180,-0.180,-0.180,0.000,0.000,0.000
1605121011550631936,10.0.1.125,391,move_down,-0.200,-0.200,-0.200,0.000,0.000,0.000
1605121013009679104,10.0.1.125,401,move_down,-0.220,-0.220,-0.220,0.000,0.000,0.000
1605121014419720960,10.0.1.125,376,move_down,-0.240,-0.240,-0.240,0.000,0.000,0.000
1605121015891747840,10.0.1.125,421,move_down,-0.260,-0.260,-0.260,0.000,0.000,0.000
1605121017374146048,10.0.1.125,416,move_down,-0.280,-0.280,-0.280,0.000,0.000,0.000
1605121018742959104,10.0.1.125,365,move_down,-0.300,-0.300,-0.300,0.000,0.000,0.000
1605121020210470912,10.0.1.125,388,move_down,-0.320,-0.320,-0.320,0.000,0.000,0.000
1605121021672909056,10.0.1.125,417,move_down,-0.340,-0.340,-0.340,0.000,0.000,0.000
1605121023082663936,10.0.1.125,399,move_down,-0.360,-0.360,-0.360,0.000,0.000,0.000
1605121024550172160,10.0.1.125,383,move_down,-0.380,-0.380,-0.380,0.000,0.000,0.000
1605121026013838080,10.0.1.125,407,move_down,-0.400,-0.400,-0.400,0.000,0.000,0.000
1605121027412945152,10.0.1.125,388,move_down,-0.420,-0.420,-0.420,0.000,0.000,0.000
1605121028859260928,10.0.1.125,400,move_down,-0.440,-0.440,-0.440,0.000,0.000,0.000
1605121030309645056,10.0.1.125,405,move_down,-0.460,-0.460,-0.460,0.000,0.000,0.000
1605121031760580096,10.0.1.125,403,move_down,-0.480,-0.480,-0.480,0.000,0.000,0.000
1605121033153544960,10.0.1.125,379,move_down,-0.500,-0.500,-0.500,0.000,0.000,0.000
1605121034631172864,10.0.1.125,399,move_down,-0.520,-0.520,-0.520,0.000,0.000,0.000
1605121036093744128,10.0.1.125,421,move_down,-0.540,-0.540,-0.540,0.000,0.000,0.000
1605121037563785984,10.0.1.125,394,move_down,-0.560,-0.560,-0.560,0.000,0.000,0.000
1605121039012882944,10.0.1.125,396,move_down,-0.580,-0.580,-0.580,0.000,0.000,0.000
1605121040129991936,10.0.1.125,35,pick,-0.590,-0.590,-0.590,0.000,0.000,0.000
1605121041129501952,10.0.1.125,30,pick,-0.600,-0.600,-0.600,0.000,0.000,0.000
1605121042151331840,10.0.1.125,50,pick,-0.610,-0.610,-0.610,0.000,0.000,0.000
1605121043151275008,10.0.1.125,48,pick,-0.620,-0.620,-0.620,0.000,0.000,0.000
1605121044155185920,10.0.1.125,50,pick,-0.630,-0.630,-0.630,0.000,0.000,0.000
1605121045151091200,10.0.1.125,45,pick,-0.640,-0.640,-0.640,0.000,0.000,0.000
1605121046152743168,10.0.1.125,45,pick,-0.650,-0.650,-0.650,0.000,0.000,0.000
1605121047150900992,10.0.1.125,42,pick,-0.660,-0.660,-0.660,0.000,0.000,0.000
1605121048152241920,10.0.1.125,39,pick,-0.670,-0.670,-0.670,0.000,0.000,0.000
1605121049153438976,10.0.1.125,39,pick,-0.680,-0.680,-0.680,0.000,0.000,0.000
1605121050158438912,10.0.1.125,42,pick,-0.690,-0.690,-0.690,0.000,0.000,0.000
1605121051150414848,10.0.1.125,33,pick,-0.700,-0.700,-0.700,0.000,0.000,0.000
1605121052149853952,10.0.1.125,30,pick,-0.710,-0.710,-0.710,0.000,0.000,0.000
1605121053169878016,10.0.1.125,49,pick,-0.720,-0.720,-0.720,0.000,0.000,0.000
1605121054170761984,10.0.1.125,49,pick,-0.730,-0.730,-0.730,0.000,0.000,0.000
1605121055170098944,10.0.1.125,47,pick,-0.740,-0.740,-0.740,0.000,0.000,0.000
1605121056171319040,10.0.1.125,47,pick,-0.750,-0.750,-0.750,0.000,0.000,0.000
1605121057170289152,10.0.1.125,44,pick,-0.760,-0.760,-0.760,0.000,0.000,0.000
1605121058169972992,10.0.1.125,43,pick,-0.770,-0.770,-0.770,0.000,0.000,0.000
1605121059498274048,10.0.1.125,370,move_up,-0.750,-0.750,-0.750,0.000,0.000,0.000
1605121060887160064,10.0.1.125,376,move_up,-0.730,-0.730,-0.730,0.000,0.000,0.000
1605121062323575040,10.0.1.125,378,move_up,-0.710,-0.710,-0.710,0.000,0.000,0.000
1605121063770156032,10.0.1.125,384,move_up,-0.690,-0.690,-0.690,0.000,0.000,0.000
1605121065250257920,10.0.1.125,386,move_up,-0.670,-0.670,-0.670,0.000,0.000,0.000
1605121066680882944,10.0.1.125,369,move_up,-0.650,-0.650,-0.650,0.000,0.000,0.000
1605121068119741952,10.0.1.125,380,move_up,-0.630,-0.630,-0.630,0.000,0.000,0.000
1605121069602152960,10.0.1.125,435,move_up,-0.610,-0.610,-0.610,0.000,0.000,0.000
1605121071039489024,10.0.1.125,378,move_up,-0.590,-0.590,-0.590,0.000,0.000,0.000
1605121072591865088,10.0.1.125,420,move_up,-0.570,-0.570,-0.570,0.000,0.000,0.000
1605121074060282880,10.0.1.125,404,move_up,-0.550,-0.550,-0.550,0.000,0.000,0.000
1605121075519974912,10.0.1.125,386,move_up,-0.530,-0.530,-0.530,0.000,0.000,0.000
1605121076962131968,10.0.1.125,380,move_up,-0.510,-0.510,-0.510,0.000,0.000,0.000
1605121078464279040,10.0.1.125,408,move_up,-0.490,-0.490,-0.490,0.000,0.000,0.000
1605121079920505088,10.0.1.125,353,move_up,-0.470,-0.470,-0.470,0.000,0.000,0.000
1605121081360434944,10.0.1.125,378,move_up,-0.450,-0.450,-0.450,0.000,0.000,0.000
1605121082813568000,10.0.1.125,387,move_up,-0.430,-0.430,-0.430,0.000,0.000,0.000
1605121084265502976,10.0.1.125,396,move_up,-0.410,-0.410,-0.410,0.000,0.000,0.000
1605121085714347008,10.0.1.125,393,move_up,-0.390,-0.390,-0.390,0.000,0.000,0.000
1605121087150188800,10.0.1.125,393,move_up,-0.370,-0.370,-0.370,0.000,0.000,0.000
1605121088579415040,10.0.1.125,376,move_up,-0.350,-0.350,-0.350,0.000,0.000,0.000
1605121090021564928,10.0.1.125,393,move_up,-0.330,-0.330,-0.330,0.000,0.000,0.000
1605121091494228992,10.0.1.125,382,move_up,-0.310,-0.310,-0.310,0.000,0.000,0.000
1605121092921901056,10.0.1.125,378,move_up,-0.290,-0.290,-0.290,0.000,0.000,0.000
1605121094380506880,10.0.1.125,395,move_up,-0.270,-0.270,-0.270,0.000,0.000,0.000
1605121095886307840,10.0.1.125,416,move_up,-0.250,-0.250,-0.250,0.000,0.000,0.000
1605121097320082944,10.0.1.125,377,move_up,-0.230,-0.230,-0.230,0.000,0.000,0.000
1605121098755846912,10.0.1.125,402,move_up,-0.210,-0.210,-0.210,0.000,0.000,0.000
1605121100257148928,10.0.1.125,421,move_up,-0.190,-0.190,-0.190,0.000,0.000,0.000
1605121101374574848,10.0.1.125,46,place,-0.180,-0.180,-0.180,0.000,0.000,0.000
1605121102386732032,10.0.1.125,57,place,-0.170,-0.170,-0.170,0.000,0.000,0.000
1605121103377502976,10.0.1.125,46,place,-0.160,-0.160,-0.160,0.000,0.000,0.000
1605121104381398016,10.0.1.125,48,place,-0.150,-0.150,-0.150,0.000,0.000,0.000
1605121105381337856,10.0.1.125,46,place,-0.140,-0.140,-0.140,0.000,0.000,0.000
1605121106375884032,10.0.1.125,39,place,-0.130,-0.130,-0.130,0.000,0.000,0.000
1605121107376173056,10.0.1.125,38,place,-0.120,-0.120,-0.120,0.000,0.000,0.000
1605121108376851968,10.0.1.125,38,place,-0.110,-0.110,-0.110,0.000,0.000,0.000
1605121109376435968,10.0.1.125,36,place,-0.100,-0.100,-0.100,0.000,0.000,0.000
1605121110397519104,10.0.1.125,56,place,-0.090,-0.090,-0.090,0.000,0.000,0.000
1605121111376199936,10.0.1.125,33,place,-0.080,-0.080,-0.080,0.000,0.000,0.000
1605121112378647040,10.0.1.125,35,place,-0.070,-0.070,-0.070,0.000,0.000,0.000
1605121113375965184,10.0.1.125,31,place,-0.060,-0.060,-0.060,0.000,0.000,0.000
1605121114396755968,10.0.1.125,50,place,-0.050,-0.050,-0.050,0.000,0.000,0.000
1605121115396384000,10.0.1.125,49,place,-0.040,-0.040,-0.040,0.000,0.000,0.000
1605121116399195904,10.0.1.125,50,place,-0.030,-0.030,-0.030,0.000,0.000,0.000
1605121117396254976,10.0.1.125,46,place,-0.020,-0.020,-0.020,0.000,0.000,0.000
1605121118396557056,10.0.1.125,43,place,-0.010,-0.010,-0.010,0.000,0.000,0.000
1605121119401502976,10.0.1.125,47,place,0.000,0.000,0.000,0.000,0.000,0.000
1605121120765741056,10.0.1.125,410,move_down,-0.020,-0.020,-0.020,0.000,0.000,0.000
1605121122195831040,10.0.1.125,378,move_down,-0.040,-0.040,-0.040,0.000,0.000,0.000
1605121123641091072,10.0.1.125,393,move_down,-0.060,-0.060,-0.060,0.000,0.000,0.000
1605121125103124992,10.0.1.125,377,move_down,-0.080,-0.080,-0.080,0.000,0.000,0.000
1605121126549896960,10.0.1.125,378,move_down,-0.100,-0.100,-0.100,0.000,0.000,0.000
1605121127999767040,10.0.1.125,384,move_down,-0.120,-0.120,-0.120,0.000,0.000,0.000
1605121129472197120,10.0.1.125,415,move_down,-0.140,-0.140,-0.140,0.000,0.000,0.000
1605121130917306880,10.0.1.125,376,move_down,-0.160,-0.160,-0.160,0.000,0.000,0.000
1605121132339017984,10.0.1.125,372,move_down,-0.180,-0.180,-0.180,0.000,0.000,0.000
1605121133766947072,10.0.1.125,405,move_down,-0.200,-0.200,-0.200,0.000,0.000,0.000
1605121135237765120,10.0.1.125,399,move_down,-0.220,-0.220,-0.220,0.000,0.000,0.000
1605121136675833088,10.0.1.125,392,move_down,-0.240,-0.240,-0.240,0.000,0.000,0.000
1605121138136982016,10.0.1.125,404,move_down,-0.260,-0.260,-0.260,0.000,0.000,0.000
1605121139599219200,10.0.1.125,384,move_down,-0.280,-0.280,-0.280,0.000,0.000,0.000
1605121141078147840,10.0.1.125,414,move_down,-0.300,-0.300,-0.300,0.000,0.000,0.000
1605121142537684992,10.0.1.125,397,move_down,-0.320,-0.320,-0.320,0.000,0.000,0.000
1605121144073270016,10.0.1.125,451,move_down,-0.340,-0.340,-0.340,0.000,0.000,0.000
1605121145525806848,10.0.1.125,414,move_down,-0.360,-0.360,-0.360,0.000,0.000,0.000
1605121146976296960,10.0.1.125,393,move_down,-0.380,-0.380,-0.380,0.000,0.000,0.000
1605121148455977984,10.0.1.125,397,move_down,-0.400,-0.400,-0.400,0.000,0.000,0.000
1605121149876837120,10.0.1.125,397,move_down,-0.420,-0.420,-0.420,0.000,0.000,0.000
1605121151307288832,10.0.1.125,387,move_down,-0.440,-0.440,-0.440,0.000,0.000,0.000
1605121152736776192,10.0.1.125,395,move_down,-0.460,-0.460,-0.460,0.000,0.000,0.000
1605121154167387136,10.0.1.125,391,move_down,-0.480,-0.480,-0.480,0.000,0.000,0.000
1605121155637484032,10.0.1.125,413,move_down,-0.500,-0.500,-0.500,0.000,0.000,0.000
1605121157137677824,10.0.1.125,431,move_down,-0.520,-0.520,-0.520,0.000,0.000,0.000
1605121158566989056,10.0.1.125,379,move_down,-0.540,-0.540,-0.540,0.000,0.000,0.000
1605121160010961152,10.0.1.125,393,move_down,-0.560,-0.560,-0.560,0.000,0.000,0.000
1605121161488306944,10.0.1.125,384,move_down,-0.580,-0.580,-0.580,0.000,0.000,0.000
1605121162585592064,10.0.1.125,37,pick,-0.590,-0.590,-0.590,0.000,0.000,0.000
1605121163585360896,10.0.1.125,36,pick,-0.600,-0.600,-0.600,0.000,0.000,0.000
1605121164585551872,10.0.1.125,35,pick,-0.610,-0.610,-0.610,0.000,0.000,0.000
1605121165585457152,10.0.1.125,33,pick,-0.620,-0.620,-0.620,0.000,0.000,0.000
1605121166585668096,10.0.1.125,32,pick,-0.630,-0.630,-0.630,0.000,0.000,0.000
1605121167586088960,10.0.1.125,31,pick,-0.640,-0.640,-0.640,0.000,0.000,0.000
1605121168589179904,10.0.1.125,32,pick,-0.650,-0.650,-0.650,0.000,0.000,0.000
1605121169608168960,10.0.1.125,48,pick,-0.660,-0.660,-0.660,0.000,0.000,0.000
1605121170606499072,10.0.1.125,45,pick,-0.670,-0.670,-0.670,0.000,0.000,0.000
1605121171611265024,10.0.1.125,48,pick,-0.680,-0.680,-0.680,0.000,0.000,0.000
1605121172606462976,10.0.1.125,42,pick,-0.690,-0.690,-0.690,0.000,0.000,0.000
1605121173605870080,10.0.1.125,40,pick,-0.700,-0.700,-0.700,0.000,0.000,0.000
1605121174607918080,10.0.1.125,41,pick,-0.710,-0.710,-0.710,0.000,0.000,0.000
1605121175607974912,10.0.1.125,40,pick,-0.720,-0.720,-0.720,0.000,0.000,0.000
1605121176605693184,10.0.1.125,36,pick,-0.730,-0.730,-0.730,0.000,0.000,0.000
1605121177605843968,10.0.1.125,33,pick,-0.740,-0.740,-0.740,0.000,0.000,0.000
1605121178605891840,10.0.1.125,32,pick,-0.750,-0.750,-0.750,0.000,0.000,0.000
1605121179626203136,10.0.1.125,51,pick,-0.760,-0.760,-0.760,0.000,0.000,0.000
1605121180605766912,10.0.1.125,29,pick,-0.770,-0.770,-0.770,0.000,0.000,0.000
1605121181963249920,10.0.1.125,385,move_up,-0.750,-0.750,-0.750,0.000,0.000,0.000
1605121183377563904,10.0.1.125,388,move_up,-0.730,-0.730,-0.730,0.000,0.000,0.000
1605121184808253952,10.0.1.125,388,move_up,-0.710,-0.710,-0.710,0.000,0.000,0.000
1605121186280636160,10.0.1.125,386,move_up,-0.690,-0.690,-0.690,0.000,0.000,0.000
1605121187776524032,10.0.1.125,372,move_up,-0.670,-0.670,-0.670,0.000,0.000,0.000
1605121189290287872,10.0.1.125,446,move_up,-0.650,-0.650,-0.650,0.000,0.000,0.000
1605121190690670848,10.0.1.125,370,move_up,-0.630,-0.630,-0.630,0.000,0.000,0.000
1605121192136178944,10.0.1.125,406,move_up,-0.610,-0.610,-0.610,0.000,0.000,0.000
1605121193597762048,10.0.1.125,408,move_up,-0.590,-0.590,-0.590,0.000,0.000,0.000
1605121195036364032,10.0.1.125,399,move_up,-0.570,-0.570,-0.570,0.000,0.000,0.000
1605121196505952000,10.0.1.125,390,move_up,-0.550,-0.550,-0.550,0.000,0.000,0.000
1605121197975791872,10.0.1.125,413,move_up,-0.530,-0.530,-0.530,0.000,0.000,0.000
1605121199436494080,10.0.1.125,389,move_up,-0.510,-0.510,-0.510,0.000,0.000,0.000
1605121200899315200,10.0.1.125,379,move_up,-0.490,-0.490,-0.490,0.000,0.000,0.000
1605121202359760896,10.0.1.125,396,move_up,-0.470,-0.470,-0.470,0.000,0.000,0.000
1605121203778397184,10.0.1.125,378,move_up,-0.450,-0.450,-0.450,0.000,0.000,0.000
1605121205267539968,10.0.1.125,387,move_up,-0.430,-0.430,-0.430,0.000,0.000,0.000
1605121206746740992,10.0.1.125,422,move_up,-0.410,-0.410,-0.410,0.000,0.000,0.000
1605121208185796864,10.0.1.125,401,move_up,-0.390,-0.390,-0.390,0.000,0.000,0.000
1605121209642927872,10.0.1.125,409,move_up,-0.370,-0.370,-0.370,0.000,0.000,0.000
1605121211076365056,10.0.1.125,401,move_up,-0.350,-0.350,-0.350,0.000,0.000,0.000
1605121212556798976,10.0.1.125,420,move_up,-0.330,-0.330,-0.330,0.000,0.000,0.000
1605121214011558912,10.0.1.125,395,move_up,-0.310,-0.310,-0.310,0.000,0.000,0.000
1605121215450576896,10.0.1.125,415,move_up,-0.290,-0.290,-0.290,0.000,0.000,0.000
1605121216866225920,10.0.1.125,378,move_up,-0.270,-0.270,-0.270,0.000,0.000,0.000
1605121218306265088,10.0.1.125,371,move_up,-0.250,-0.250,-0.250,0.000,0.000,0.000
1605121219754144000,10.0.1.125,397,move_up,-0.230,-0.230,-0.230,0.000,0.000,0.000
1605121221286778880,10.0.1.125,404,move_up,-0.210,-0.210,-0.210,0.000,0.000,0.000
1605121222748075008,10.0.1.125,419,move_up,-0.190,-0.190,-0.190,0.000,0.000,0.000
1605121223826292992,10.0.1.125,35,place,-0.180,-0.180,-0.180,0.000,0.000,0.000
1605121224829590016,10.0.1.125,37,place,-0.170,-0.170,-0.170,0.000,0.000,0.000
1605121225829120000,10.0.1.125,36,place,-0.160,-0.160,-0.160,0.000,0.000,0.000
1605121226826736896,10.0.1.125,32,place,-0.150,-0.150,-0.150,0.000,0.000,0.000
1605121227848190976,10.0.1.125,52,place,-0.140,-0.140,-0.140,0.000,0.000,0.000
1605121228848396032,10.0.1.125,50,place,-0.130,-0.130,-0.130,0.000,0.000,0.000
1605121229847307008,10.0.1.125,47,place,-0.120,-0.120,-0.120,0.000,0.000,0.000
1605121230856431104,10.0.1.125,56,place,-0.110,-0.110,-0.110,0.000,0.000,0.000
1605121231846873088,10.0.1.125,45,place,-0.100,-0.100,-0.100,0.000,0.000,0.000
1605121232846740992,10.0.1.125,43,place,-0.090,-0.090,-0.090,0.000,0.000,0.000
1605121233847628032,10.0.1.125,44,place,-0.080,-0.080,-0.080,0.000,0.000,0.000
1605121234846734080,10.0.1.125,41,place,-0.070,-0.070,-0.070,0.000,0.000,0.000
1605121235849075968,10.0.1.125,42,place,-0.060,-0.060,-0.060,0.000,0.000,0.000
1605121236849149952,10.0.1.125,41,place,-0.050,-0.050,-0.050,0.000,0.000,0.000
1605121237853022208,10.0.1.125,44,place,-0.040,-0.040,-0.040,0.000,0.000,0.000
1605121238848179968,10.0.1.125,38,place,-0.030,-0.030,-0.030,0.000,0.000,0.000
1605121239846523136,10.0.1.125,35,place,-0.020,-0.020,-0.020,0.000,0.000,0.000
1605121240845790976,10.0.1.125,33,place,-0.010,-0.010,-0.010,0.000,0.000,0.000
1605121241851612928,10.0.1.125,37,place,0.000,0.000,0.000,0.000,0.000,0.000
1605121243216141056,10.0.1.125,400,move_down,-0.020,-0.020,-0.020,0.000,0.000,0.000
1605121244691848960,10.0.1.125,426,move_down,-0.040,-0.040,-0.040,0.000,0.000,0.000
1605121246165585920,10.0.1.125,408,move_down,-0.060,-0.060,-0.060,0.000,0.000,0.000
1605121247625790976,10.0.1.125,387,move_down,-0.080,-0.080,-0.080,0.000,0.000,0.000
1605121249036281088,10.0.1.125,372,move_down,-0.100,-0.100,-0.100,0.000,0.000,0.000
1605121250479979008,10.0.1.125,402,move_down,-0.120,-0.120,-0.120,0.000,0.000,0.000
1605121251907232000,10.0.1.125,385,move_down,-0.140,-0.140,-0.140,0.000,0.000,0.000
1605121253365508096,10.0.1.125,403,move_down,-0.160,-0.160,-0.160,0.000,0.000,0.000
1605121254846682112,10.0.1.125,405,move_down,-0.180,-0.180,-0.180,0.000,0.000,0.000
1605121256331073024,10.0.1.125,413,move_down,-0.200,-0.200,-0.200,0.000,0.000,0.000
1605121257755368960,10.0.1.125,385,move_down,-0.220,-0.220,-0.220,0.000,0.000,0.000
1605121259190849024,10.0.1.125,386,move_down,-0.240,-0.240,-0.240,0.000,0.000,0.000
1605121260660017920,10.0.1.125,433,move_down,-0.260,-0.260,-0.260,0.000,0.000,0.000
1605121262076812032,10.0.1.125,375,move_down,-0.280,-0.280,-0.280,0.000,0.000,0.000
1605121263491070976,10.0.1.125,368,move_down,-0.300,-0.300,-0.300,0.000,0.000,0.000
1605121264985531136,10.0.1.125,422,move_down,-0.320,-0.320,-0.320,0.000,0.000,0.000
1605121266395962112,10.0.1.125,381,move_down,-0.340,-0.340,-0.340,0.000,0.000,0.000
1605121267863459072,10.0.1.125,408,move_down,-0.360,-0.360,-0.360,0.000,0.000,0.000
1605121269345858048,10.0.1.125,410,move_down,-0.380,-0.380,-0.380,0.000,0.000,0.000
1605121270814080000,10.0.1.125,403,move_down,-0.400,-0.400,-0.400,0.000,0.000,0.000
1605121272254881024,10.0.1.125,398,move_down,-0.420,-0.420,-0.420,0.000,0.000,0.000
1605121273668289024,10.0.1.125,402,move_down,-0.440,-0.440,-0.440,0.000,0.000,0.000
1605121275141702912,10.0.1.125,403,move_down,-0.460,-0.460,-0.460,0.000,0.000,0.000
1605121276585607936,10.0.1.125,375,move_down,-0.480,-0.480,-0.480,0.000,0.000,0.000
1605121278028717056,10.0.1.125,390,move_down,-0.500,-0.500,-0.500,0.000,0.000,0.000
1605121279489132032,10.0.1.125,424,move_down,-0.520,-0.520,-0.520,0.000,0.000,0.000
1605121280945518080,10.0.1.125,382,move_down,-0.540,-0.540,-0.540,0.000,0.000,0.000
1605121282396153856,10.0.1.125,375,move_down,-0.560,-0.560,-0.560,0.000,0.000,0.000
1605121283847945984,10.0.1.125,403,move_down,-0.580,-0.580,-0.580,0.000,0.000,0.000
1605121284926650112,10.0.1.125,32,pick,-0.590,-0.590,-0.590,0.000,0.000,0.000
1605121285948143872,10.0.1.125,52,pick,-0.600,-0.600,-0.600,0.000,0.000,0.000
1605121286946897920,10.0.1.125,48,pick,-0.610,-0.610,-0.610,0.000,0.000,0.000
1605121287946304000,10.0.1.125,46,pick,-0.620,-0.620,-0.620,0.000,0.000,0.000
1605121288945307136,10.0.1.125,44,pick,-0.630,-0.630,-0.630,0.000,0.000,0.000
1605121289945192192,10.0.1.125,42,pick,-0.640,-0.640,-0.640,0.000,0.000,0.000
1605121290945341184,10.0.1.125,41,pick,-0.650,-0.650,-0.650,0.000,0.000,0.000
1605121291965794048,10.0.1.125,60,pick,-0.660,-0.660,-0.660,0.000,0.000,0.000
1605121292945447936,10.0.1.125,39,pick,-0.670,-0.670,-0.670,0.000,0.000,0.000
1605121293962750976,10.0.1.125,55,pick,-0.680,-0.680,-0.680,0.000,0.000,0.000
1605121294945213952,10.0.1.125,36,pick,-0.690,-0.690,-0.690,0.000,0.000,0.000
1605121295952625152,10.0.1.125,42,pick,-0.700,-0.700,-0.700,0.000,0.000,0.000
1605121296945415936,10.0.1.125,33,pick,-0.710,-0.710,-0.710,0.000,0.000,0.000
1605121297945992960,10.0.1.125,33,pick,-0.720,-0.720,-0.720,0.000,0.000,0.000
1605121298948331008,10.0.1.125,34,pick,-0.730,-0.730,-0.730,0.000,0.000,0.000
1605121299966147840,10.0.1.125,50,pick,-0.740,-0.740,-0.740,0.000,0.000,0.000
1605121300972499968,10.0.1.125,55,pick,-0.750,-0.750,-0.750,0.000,0.000,0.000
1605121301970540032,10.0.1.125,52,pick,-0.760,-0.760,-0.760,0.000,0.000,0.000
1605121302967559936,10.0.1.125,48,pick,-0.770,-0.770,-0.770,0.000,0.000,0.000
1605121304316742912,10.0.1.125,396,move_up,-0.750,-0.750,-0.750,0.000,0.000,0.000
1605121305756428032,10.0.1.125,383,move_up,-0.730,-0.730,-0.730,0.000,0.000,0.000
1605121307226183936,10.0.1.125,413,move_up,-0.710,-0.710,-0.710,0.000,0.000,0.000
1605121308698806016,10.0.1.125,398,move_up,-0.690,-0.690,-0.690,0.000,0.000,0.000
1605121310186067200,10.0.1.125,429,move_up,-0.670,-0.670,-0.670,0.000,0.000,0.000
1605121311665356032,10.0.1.125,425,move_up,-0.650,-0.650,-0.650,0.000,0.000,0.000
1605121313115998976,10.0.1.125,395,move_up,-0.630,-0.630,-0.630,0.000,0.000,0.000
1605121314526024192,10.0.1.125,372,move_up,-0.610,-0.610,-0.610,0.000,0.000,0.000
1605121315946312960,10.0.1.125,365,move_up,-0.590,-0.590,-0.590,0.000,0.000,0.000
1605121317439747072,10.0.1.125,384,move_up,-0.570,-0.570,-0.570,0.000,0.000,0.000
1605121318877733120,10.0.1.125,377,move_up,-0.550,-0.550,-0.550,0.000,0.000,0.000
1605121320316082944,10.0.1.125,391,move_up,-0.530,-0.530,-0.530,0.000,0.000,0.000
1605121321766545152,10.0.1.125,390,move_up,-0.510,-0.510,-0.510,0.000,0.000,0.000
1605121323238977792,10.0.1.125,385,move_up,-0.490,-0.490,-0.490,0.000,0.000,0.000
1605121324706466816,10.0.1.125,409,move_up,-0.470,-0.470,-0.470,0.000,0.000,0.000
1605121326131467008,10.0.1.125,388,move_up,-0.450,-0.450,-0.450,0.000,0.000,0.000
1605121327548100096,10.0.1.125,388,move_up,-0.430,-0.430,-0.430,0.000,0.000,0.000
1605121329000283904,10.0.1.125,396,move_up,-0.410,-0.410,-0.410,0.000,0.000,0.000
1605121330466238976,10.0.1.125,386,move_up,-0.390,-0.390,-0.390,0.000,0.000,0.000
1605121331906362112,10.0.1.125,381,move_up,-0.370,-0.370,-0.370,0.000,0.000,0.000
1605121333375906048,10.0.1.125,405,move_up,-0.350,-0.350,-0.350,0.000,0.000,0.000
1605121334857253120,10.0.1.125,408,move_up,-0.330,-0.330,-0.330,0.000,0.000,0.000
1605121336321910016,10.0.1.125,388,move_up,-0.310,-0.310,-0.310,0.000,0.000,0.000
1605121337746094848,10.0.1.125,383,move_up,-0.290,-0.290,-0.290,0.000,0.000,0.000
1605121339210035968,10.0.1.125,407,move_up,-0.270,-0.270,-0.270,0.000,0.000,0.000
1605121340659305216,10.0.1.125,379,move_up,-0.250,-0.250,-0.250,0.000,0.000,0.000
1605121342096695040,10.0.1.125,382,move_up,-0.230,-0.230,-0.230,0.000,0.000,0.000
1605121343536067840,10.0.1.125,393,move_up,-0.210,-0.210,-0.210,0.000,0.000,0.000
1605121344979723008,10.0.1.125,429,move_up,-0.190,-0.190,-0.190,0.000,0.000,0.000
1605121346055998976,10.0.1.125,33,place,-0.180,-0.180,-0.180,0.000,0.000,0.000
1605121347061165056,10.0.1.125,38,place,-0.170,-0.170,-0.170,0.000,0.000,0.000
1605121348055751936,10.0.1.125,31,place,-0.160,-0.160,-0.160,0.000,0.000,0.000
1605121349057289984,10.0.1.125,31,place,-0.150,-0.150,-0.150,0.000,0.000,0.000
1605121350077143808,10.0.1.125,50,place,-0.140,-0.140,-0.140,0.000,0.000,0.000
1605121351083355904,10.0.1.125,55,place,-0.130,-0.130,-0.130,0.000,0.000,0.000
1605121352081441024,10.0.1.125,52,place,-0.120,-0.120,-0.120,0.000,0.000,0.000
1605121353085586176,10.0.1.125,54,place,-0.110,-0.110,-0.110,0.000,0.000,0.000
1605121354075462144,10.0.1.125,43,place,-0.100,-0.100,-0.100,0.000,0.000,0.000
1605121355076553984,10.0.1.125,43,place,-0.090,-0.090,-0.090,0.000,0.000,0.000
1605121356076118016,10.0.1.125,41,place,-0.080,-0.080,-0.080,0.000,0.000,0.000
1605121357086505984,10.0.1.125,51,place,-0.070,-0.070,-0.070,0.000,0.000,0.000
1605121358086555904,10.0.1.125,49,place,-0.060,-0.060,-0.060,0.000,0.000,0.000
1605121359095987968,10.0.1.125,57,place,-0.050,-0.050,-0.050,0.000,0.000,0.000
1605121360091911936,10.0.1.125,52,place,-0.040,-0.040,-0.040,0.000,0.000,0.000
1605121361082689024,10.0.1.125,42,place,-0.030,-0.030,-0.030,0.000,0.000,0.000
1605121362082768896,10.0.1.125,41,place,-0.020,-0.020,-0.020,0.000,0.000,0.000
1605121363097940992,10.0.1.125,51,place,-0.010,-0.010,-0.010,0.000,0.000,0.000
1605121364097459968,10.0.1.125,49,place,0.000,0.000,0.000,0.000,0.000,0.000
1605121365426519040,10.0.1.125,376,move_down,-0.020,-0.020,-0.020,0.000,0.000,0.000
1605121366897831936,10.0.1.125,411,move_down,-0.040,-0.040,-0.040,0.000,0.000,0.000
1605121368316823040,10.0.1.125,386,move_down,-0.060,-0.060,-0.060,0.000,0.000,0.000
1605121369745496064,10.0.1.125,387,move_down,-0.080,-0.080,-0.080,0.000,0.000,0.000
1605121371186255872,10.0.1.125,385,move_down,-0.100,-0.100,-0.100,0.000,0.000,0.000
1605121372615959040,10.0.1.125,382,move_down,-0.120,-0.120,-0.120,0.000,0.000,0.000
1605121374091053056,10.0.1.125,414,move_down,-0.140,-0.140,-0.140,0.000,0.000,0.000
1605121375516200960,10.0.1.125,400,move_down,-0.160,-0.160,-0.160,0.000,0.000,0.000
1605121376935400960,10.0.1.125,392,move_down,-0.180,-0.180,-0.180,0.000,0.000,0.000
1605121378358953984,10.0.1.125,387,move_down,-0.200,-0.200,-0.200,0.000,0.000,0.000
1605121379785765888,10.0.1.125,396,move_down,-0.220,-0.220,-0.220,0.000,0.000,0.000
1605121381206710016,10.0.1.125,393,move_down,-0.240,-0.240,-0.240,0.000,0.000,0.000
1605121382681606144,10.0.1.125,403,move_down,-0.260,-0.260,-0.260,0.000,0.000,0.000
1605121384128442880,10.0.1.125,403,move_down,-0.280,-0.280,-0.280,0.000,0.000,0.000
1605121385575418112,10.0.1.125,405,move_down,-0.300,-0.300,-0.300,0.000,0.000,0.000
1605121387031759104,10.0.1.125,413,move_down,-0.320,-0.320,-0.320,0.000,0.000,0.000
1605121388478149888,10.0.1.125,383,move_down,-0.340,-0.340,-0.340,0.000,0.000,0.000
1605121389975450112,10.0.1.125,400,move_down,-0.360,-0.360,-0.360,0.000,0.000,0.000
1605121391395374080,10.0.1.125,375,move_down,-0.380,-0.380,-0.380,0.000,0.000,0.000
1605121392855753984,10.0.1.125,408,move_down,-0.400,-0.400,-0.400,0.000,0.000,0.000
1605121394295625984,10.0.1.125,400,move_down,-0.420,-0.420,-0.420,0.000,0.000,0.000
1605121395727417088,10.0.1.125,382,move_down,-0.440,-0.440,-0.440,0.000,0.000,0.000
1605121397216329216,10.0.1.125,395,move_down,-0.460,-0.460,-0.460,0.000,0.000,0.000
1605121398676621824,10.0.1.125,403,move_down,-0.480,-0.480,-0.480,0.000,0.000,0.000
1605121400109271040,10.0.1.125,397,move_down,-0.500,-0.500,-0.500,0.000,0.000,0.000
1605121401572446976,10.0.1.125,383,move_down,-0.520,-0.520,-0.520,0.000,0.000,0.000
1605121402975943936,10.0.1.125,362,move_down,-0.540,-0.540,-0.540,0.000,0.000,0.000
1605121404436641024,10.0.1.125,393,move_down,-0.560,-0.560,-0.560,0.000,0.000,0.000
1605121405901532928,10.0.1.125,401,move_down,-0.580,-0.580,-0.580,0.000,0.000,0.000
1605121406967976960,10.0.1.125,48,pick,-0.590,-0.590,-0.590,0.000,0.000,0.000
1605121407969927936,10.0.1.125,48,pick,-0.600,-0.600,-0.600,0.000,0.000,0.000
1605121408969692928,10.0.1.125,47,pick,-0.610,-0.610,-0.610,0.000,0.000,0.000
1605121409970727936,10.0.1.125,47,pick,-0.620,-0.620,-0.620,0.000,0.000,0.000
1605121410967633920,10.0.1.125,42,pick,-0.630,-0.630,-0.630,0.000,0.000,0.000
1605121411987831040,10.0.1.125,61,pick,-0.640,-0.640,-0.640,0.000,0.000,0.000
1605121412965985024,10.0.1.125,38,pick,-0.650,-0.650,-0.650,0.000,0.000,0.000
1605121413970864128,10.0.1.125,41,pick,-0.660,-0.660,-0.660,0.000,0.000,0.000
1605121414966420992,10.0.1.125,36,pick,-0.670,-0.670,-0.670,0.000,0.000,0.000
1605121415968327936,10.0.1.125,37,pick,-0.680,-0.680,-0.680,0.000,0.000,0.000
1605121416965814016,10.0.1.125,34,pick,-0.690,-0.690,-0.690,0.000,0.000,0.000
1605121417965997056,10.0.1.125,33,pick,-0.700,-0.700,-0.700,0.000,0.000,0.000
1605121418970406144,10.0.1.125,36,pick,-0.710,-0.710,-0.710,0.000,0.000,0.000
1605121419988090880,10.0.1.125,52,pick,-0.720,-0.720,-0.720,0.000,0.000,0.000
1605121420989536000,10.0.1.125,52,pick,-0.730,-0.730,-0.730,0.000,0.000,0.000
1605121421985977856,10.0.1.125,47,pick,-0.740,-0.740,-0.740,0.000,0.000,0.000
1605121422988302080,10.0.1.125,49,pick,-0.750,-0.750,-0.750,0.000,0.000,0.000
1605121423986545152,10.0.1.125,46,pick,-0.760,-0.760,-0.760,0.000,0.000,0.000
1605121424986462208,10.0.1.125,45,pick,-0.770,-0.770,-0.770,0.000,0.000,0.000
1605121426337742080,10.0.1.125,395,move_up,-0.750,-0.750,-0.750,0.000,0.000,0.000
1605121427756022016,10.0.1.125,385,move_up,-0.730,-0.730,-0.730,0.000,0.000,0.000
1605121429155788800,10.0.1.125,400,move_up,-0.710,-0.710,-0.710,0.000,0.000,0.000
1605121430627371008,10.0.1.125,387,move_up,-0.690,-0.690,-0.690,0.000,0.000,0.000
1605121432035913984,10.0.1.125,384,move_up,-0.670,-0.670,-0.670,0.000,0.000,0.000
1605121433483047936,10.0.1.125,383,move_up,-0.650,-0.650,-0.650,0.000,0.000,0.000
1605121434956301824,10.0.1.125,381,move_up,-0.630,-0.630,-0.630,0.000,0.000,0.000
1605121436395739136,10.0.1.125,375,move_up,-0.610,-0.610,-0.610,0.000,0.000,0.000
1605121437836769024,10.0.1.125,389,move_up,-0.590,-0.590,-0.590,0.000,0.000,0.000
1605121439302066944,10.0.1.125,407,move_up,-0.570,-0.570,-0.570,0.000,0.000,0.000
1605121440726962944,10.0.1.125,374,move_up,-0.550,-0.550,-0.550,0.000,0.000,0.000
1605121442176683008,10.0.1.125,398,move_up,-0.530,-0.530,-0.530,0.000,0.000,0.000
1605121443635441152,10.0.1.125,409,move_up,-0.510,-0.510,-0.510,0.000,0.000,0.000
1605121445089862144,10.0.1.125,387,move_up,-0.490,-0.490,-0.490,0.000,0.000,0.000
1605121446536184064,10.0.1.125,402,move_up,-0.470,-0.470,-0.470,0.000,0.000,0.000
1605121447978132992,10.0.1.125,390,move_up,-0.450,-0.450,-0.450,0.000,0.000,0.000
1605121449398292992,10.0.1.125,378,move_up,-0.430,-0.430,-0.430,0.000,0.000,0.000
1605121450849584128,10.0.1.125,408,move_up,-0.410,-0.410,-0.410,0.000,0.000,0.000
1605121452293543936,10.0.1.125,395,move_up,-0.390,-0.390,-0.390,0.000,0.000,0.000
1605121453746362880,10.0.1.125,372,move_up,-0.370,-0.370,-0.370,0.000,0.000,0.000
1605121455158273024,10.0.1.125,364,move_up,-0.350,-0.350,-0.350,0.000,0.000,0.000
1605121456596494848,10.0.1.125,391,move_up,-0.330,-0.330,-0.330,0.000,0.000,0.000
1605121457986068992,10.0.1.125,369,move_up,-0.310,-0.310,-0.310,0.000,0.000,0.000
1605121459426369792,10.0.1.125,389,move_up,-0.290,-0.290,-0.290,0.000,0.000,0.000
1605121460906313984,10.0.1.125,422,move_up,-0.270,-0.270,-0.270,0.000,0.000,0.000
1605121461967394048,10.0.1.125,-1,move_up,-0.250,-0.250,-0.250,0.000,0.000,0.000
1605121463766865920,10.0.1.125,353,move_up,-0.230,-0.230,-0.230,0.000,0.000,0.000
1605121465226974976,10.0.1.125,396,move_up,-0.210,-0.210,-0.210,0.000,0.000,0.000
1605121466686110976,10.0.1.125,398,move_up,-0.190,-0.190,-0.190,0.000,0.000,0.000
1605121467808964096,10.0.1.125,43,place,-0.180,-0.180,-0.180,0.000,0.000,0.000
1605121468811547136,10.0.1.125,44,place,-0.170,-0.170,-0.170,0.000,0.000,0.000
1605121469807524864,10.0.1.125,39,place,-0.160,-0.160,-0.160,0.000,0.000,0.000
1605121470807773184,10.0.1.125,38,place,-0.150,-0.150,-0.150,0.000,0.000,0.000
1605121471806505984,10.0.1.125,36,place,-0.140,-0.140,-0.140,0.000,0.000,0.000
1605121472807610112,10.0.1.125,35,place,-0.130,-0.130,-0.130,0.000,0.000,0.000
1605121473808918016,10.0.1.125,35,place,-0.120,-0.120,-0.120,0.000,0.000,0.000
1605121474808388096,10.0.1.125,33,place,-0.110,-0.110,-0.110,0.000,0.000,0.000
1605121475812130816,10.0.1.125,33,place,-0.100,-0.100,-0.100,0.000,0.000,0.000
1605121476830125056,10.0.1.125,49,place,-0.090,-0.090,-0.090,0.000,0.000,0.000
1605121477826891008,10.0.1.125,45,place,-0.080,-0.080,-0.080,0.000,0.000,0.000
1605121478831463936,10.0.1.125,48,place,-0.070,-0.070,-0.070,0.000,0.000,0.000
1605121479826984960,10.0.1.125,42,place,-0.060,-0.060,-0.060,0.000,0.000,0.000
1605121480827164928,10.0.1.125,41,place,-0.050,-0.050,-0.050,0.000,0.000,0.000
1605121481829988096,10.0.1.125,42,place,-0.040,-0.040,-0.040,0.000,0.000,0.000
1605121482829097984,10.0.1.125,41,place,-0.030,-0.030,-0.030,0.000,0.000,0.000
1605121483827966976,10.0.1.125,38,place,-0.020,-0.020,-0.020,0.000,0.000,0.000
1605121484828438016,10.0.1.125,38,place,-0.010,-0.010,-0.010,0.000,0.000,0.000
1605121485828574976,10.0.1.125,36,place,0.000,0.000,0.000,0.000,0.000,0.000
1605121487188141056,10.0.1.125,395,move_down,-0.020,-0.020,-0.020,0.000,0.000,0.000
1605121488682513920,10.0.1.125,412,move_down,-0.040,-0.040,-0.040,0.000,0.000,0.000
1605121490148987136,10.0.1.125,383,move_down,-0.060,-0.060,-0.060,0.000,0.000,0.000
1605121491608804096,10.0.1.125,412,move_down,-0.080,-0.080,-0.080,0.000,0.000,0.000
1605121493070091008,10.0.1.125,387,move_down,-0.100,-0.100,-0.100,0.000,0.000,0.000
1605121494502007040,10.0.1.125,390,move_down,-0.120,-0.120,-0.120,0.000,0.000,0.000
1605121495979365120,10.0.1.125,422,move_down,-0.140,-0.140,-0.140,0.000,0.000,0.000
1605121497420070912,10.0.1.125,372,move_down,-0.160,-0.160,-0.160,0.000,0.000,0.000
1605121498898825984,10.0.1.125,407,move_down,-0.180,-0.180,-0.180,0.000,0.000,0.000
1605121500350110976,10.0.1.125,398,move_down,-0.200,-0.200,-0.200,0.000,0.000,0.000
1605121501789433856,10.0.1.125,387,move_down,-0.220,-0.220,-0.220,0.000,0.000,0.000
1605121503250845952,10.0.1.125,419,move_down,-0.240,-0.240,-0.240,0.000,0.000,0.000
1605121504691972864,10.0.1.125,379,move_down,-0.260,-0.260,-0.260,0.000,0.000,0.000
1605121506121129984,10.0.1.125,387,move_down,-0.280,-0.280,-0.280,0.000,0.000,0.000
1605121507599777024,10.0.1.125,415,move_down,-0.300,-0.300,-0.300,0.000,0.000,0.000
1605121509089786880,10.0.1.125,424,move_down,-0.320,-0.320,-0.320,0.000,0.000,0.000
1605121510499887872,10.0.1.125,378,move_down,-0.340,-0.340,-0.340,0.000,0.000,0.000
1605121511929230080,10.0.1.125,409,move_down,-0.360,-0.360,-0.360,0.000,0.000,0.000
1605121513372570880,10.0.1.125,405,move_down,-0.380,-0.380,-0.380,0.000,0.000,0.000
1605121514908870912,10.0.1.125,417,move_down,-0.400,-0.400,-0.400,0.000,0.000,0.000
1605121516338622208,10.0.1.125,385,move_down,-0.420,-0.420,-0.420,0.000,0.000,0.000
1605121517788328960,10.0.1.125,388,move_down,-0.440,-0.440,-0.440,0.000,0.000,0.000
1605121519227277056,10.0.1.125,379,move_down,-0.460,-0.460,-0.460,0.000,0.000,0.000
1605121520612862208,10.0.1.125,385,move_down,-0.480,-0.480,-0.480,0.000,0.000,0.000
1605121522092988928,10.0.1.125,425,move_down,-0.500,-0.500,-0.500,0.000,0.000,0.000
1605121523538572032,10.0.1.125,391,move_down,-0.520,-0.520,-0.520,0.000,0.000,0.000
1605121525008217088,10.0.1.125,386,move_down,-0.540,-0.540,-0.540,0.000,0.000,0.000
1605121526449337856,10.0.1.125,409,move_down,-0.560,-0.560,-0.560,0.000,0.000,0.000
1605121527898780160,10.0.1.125,383,move_down,-0.580,-0.580,-0.580,0.000,0.000,0.000
1605121528959361024,10.0.1.125,32,pick,-0.590,-0.590,-0.590,0.000,0.000,0.000
1605121529980788992,10.0.1.125,52,pick,-0.600,-0.600,-0.600,0.000,0.000,0.000
1605121530979991040,10.0.1.125,50,pick,-0.610,-0.610,-0.610,0.000,0.000,0.000
1605121531980196864,10.0.1.125,49,pick,-0.620,-0.620,-0.620,0.000,0.000,0.000
1605121532978385920,10.0.1.125,46,pick,-0.630,-0.630,-0.630,0.000,0.000,0.000
1605121533980989952,10.0.1.125,48,pick,-0.640,-0.640,-0.640,0.000,0.000,0.000
1605121534979811072,10.0.1.125,45,pick,-0.650,-0.650,-0.650,0.000,0.000,0.000
1605121535983984896,10.0.1.125,48,pick,-0.660,-0.660,-0.660,0.000,0.000,0.000
1605121536980807936,10.0.1.125,43,pick,-0.670,-0.670,-0.670,0.000,0.000,0.000
1605121537979706880,10.0.1.125,41,pick,-0.680,-0.680,-0.680,0.000,0.000,0.000
1605121538978443008,10.0.1.125,39,pick,-0.690,-0.690,-0.690,0.000,0.000,0.000
1605121539978900992,10.0.1.125,38,pick,-0.700,-0.700,-0.700,0.000,0.000,0.000
1605121540979554816,10.0.1.125,37,pick,-0.710,-0.710,-0.710,0.000,0.000,0.000
1605121541978609152,10.0.1.125,33,pick,-0.720,-0.720,-0.720,0.000,0.000,0.000
1605121542979176960,10.0.1.125,32,pick,-0.730,-0.730,-0.730,0.000,0.000,0.000
1605121544001714944,10.0.1.125,54,pick,-0.740,-0.740,-0.740,0.000,0.000,0.000
1605121544999305984,10.0.1.125,50,pick,-0.750,-0.750,-0.750,0.000,0.000,0.000
1605121545998610944,10.0.1.125,48,pick,-0.760,-0.760,-0.760,0.000,0.000,0.000
1605121546979012864,10.0.1.125,27,pick,-0.770,-0.770,-0.770,0.000,0.000,0.000
1605121548378779904,10.0.1.125,425,move_up,-0.750,-0.750,-0.750,0.000,0.000,0.000
1605121549839879936,10.0.1.125,396,move_up,-0.730,-0.730,-0.730,0.000,0.000,0.000
1605121551294812928,10.0.1.125,399,move_up,-0.710,-0.710,-0.710,0.000,0.000,0.000
1605121552782546944,10.0.1.125,406,move_up,-0.690,-0.690,-0.690,0.000,0.000,0.000
1605121554170874112,10.0.1.125,350,move_up,-0.670,-0.670,-0.670,0.000,0.000,0.000
1605121555628268032,10.0.1.125,390,move_up,-0.650,-0.650,-0.650,0.000,0.000,0.000
1605121557093213184,10.0.1.125,406,move_up,-0.630,-0.630,-0.630,0.000,0.000,0.000
1605121558547249152,10.0.1.125,393,move_up,-0.610,-0.610,-0.610,0.000,0.000,0.000
1605121559997064960,10.0.1.125,393,move_up,-0.590,-0.590,-0.590,0.000,0.000,0.000
1605121561441582080,10.0.1.125,401,move_up,-0.570,-0.570,-0.570,0.000,0.000,0.000
1605121562886867968,10.0.1.125,362,move_up,-0.550,-0.550,-0.550,0.000,0.000,0.000
1605121564356677120,10.0.1.125,405,move_up,-0.530,-0.530,-0.530,0.000,0.000,0.000
1605121565856256000,10.0.1.125,420,move_up,-0.510,-0.510,-0.510,0.000,0.000,0.000
1605121567290575104,10.0.1.125,378,move_up,-0.490,-0.490,-0.490,0.000,0.000,0.000
1605121568716916992,10.0.1.125,381,move_up,-0.470,-0.470,-0.470,0.000,0.000,0.000
1605121570166770944,10.0.1.125,404,move_up,-0.450,-0.450,-0.450,0.000,0.000,0.000
1605121571626502144,10.0.1.125,386,move_up,-0.430,-0.430,-0.430,0.000,0.000,0.000
1605121573057740800,10.0.1.125,378,move_up,-0.410,-0.410,-0.410,0.000,0.000,0.000
1605121574498842880,10.0.1.125,391,move_up,-0.390,-0.390,-0.390,0.000,0.000,0.000
1605121575947772928,10.0.1.125,383,move_up,-0.370,-0.370,-0.370,0.000,0.000,0.000
1605121577380302848,10.0.1.125,373,move_up,-0.350,-0.350,-0.350,0.000,0.000,0.000
1605121578816353024,10.0.1.125,395,move_up,-0.330,-0.330,-0.330,0.000,0.000,0.000
1605121580297719040,10.0.1.125,428,move_up,-0.310,-0.310,-0.310,0.000,0.000,0.000
1605121581721960192,10.0.1.125,359,move_up,-0.290,-0.290,-0.290,0.000,0.000,0.000
1605121583202742016,10.0.1.125,428,move_up,-0.270,-0.270,-0.270,0.000,0.000,0.000
1605121584642060032,10.0.1.125,414,move_up,-0.250,-0.250,-0.250,0.000,0.000,0.000
1605121586102539008,10.0.1.125,398,move_up,-0.230,-0.230,-0.230,0.000,0.000,0.000
1605121587581804032,10.0.1.125,402,move_up,-0.210,-0.210,-0.210,0.000,0.000,0.000
1605121589059265024,10.0.1.125,398,move_up,-0.190,-0.190,-0.190,0.000,0.000,0.000
1605121590134247936,10.0.1.125,45,place,-0.180,-0.180,-0.180,0.000,0.000,0.000
1605121591133558016,10.0.1.125,43,place,-0.170,-0.170,-0.170,0.000,0.000,0.000
1605121592135917056,10.0.1.125,44,place,-0.160,-0.160,-0.160,0.000,0.000,0.000
1605121593133687040,10.0.1.125,40,place,-0.150,-0.150,-0.150,0.000,0.000,0.000
1605121594133682944,10.0.1.125,39,place,-0.140,-0.140,-0.140,0.000,0.000,0.000
1605121595141213952,10.0.1.125,45,place,-0.130,-0.130,-0.130,0.000,0.000,0.000
1605121596134140928,10.0.1.125,37,place,-0.120,-0.120,-0.120,0.000,0.000,0.000
1605121597133534976,10.0.1.125,35,place,-0.110,-0.110,-0.110,0.000,0.000,0.000
1605121598133620992,10.0.1.125,34,place,-0.100,-0.100,-0.100,0.000,0.000,0.000
1605121599134216192,10.0.1.125,33,place,-0.090,-0.090,-0.090,0.000,0.000,0.000
1605121600133703936,10.0.1.125,31,place,-0.080,-0.080,-0.080,0.000,0.000,0.000
1605121601153448192,10.0.1.125,49,place,-0.070,-0.070,-0.070,0.000,0.000,0.000
1605121602154311936,10.0.1.125,49,place,-0.060,-0.060,-0.060,0.000,0.000,0.000
1605121603158199040,10.0.1.125,51,place,-0.050,-0.050,-0.050,0.000,0.000,0.000
1605121604153455104,10.0.1.125,45,place,-0.040,-0.040,-0.040,0.000,0.000,0.000
1605121605153124096,10.0.1.125,44,place,-0.030,-0.030,-0.030,0.000,0.000,0.000
1605121606153713920,10.0.1.125,43,place,-0.020,-0.020,-0.020,0.000,0.000,0.000
1605121607156120064,10.0.1.125,44,place,-0.010,-0.010,-0.010,0.000,0.000,0.000
1605121608152982016,10.0.1.125,39,place,0.000,0.000,0.000,0.000,0.000,0.000
1605121609513554176,10.0.1.125,398,move_down,-0.020,-0.020,-0.020,0.000,0.000,0.000
1605121610954190080,10.0.1.125,396,move_down,-0.040,-0.040,-0.040,0.000,0.000,0.000
1605121612386050048,10.0.1.125,379,move_down,-0.060,-0.060,-0.060,0.000,0.000,0.000
1605121613833985024,10.0.1.125,406,move_down,-0.080,-0.080,-0.080,0.000,0.000,0.000
1605121615244276992,10.0.1.125,394,move_down,-0.100,-0.100,-0.100,0.000,0.000,0.000
1605121616723970816,10.0.1.125,396,move_down,-0.120,-0.120,-0.120,0.000,0.000,0.000
1605121618199030016,10.0.1.125,427,move_down,-0.140,-0.140,-0.140,0.000,0.000,0.000
1605121619653980928,10.0.1.125,434,move_down,-0.160,-0.160,-0.160,0.000,0.000,0.000
1605121621123888896,10.0.1.125,407,move_down,-0.180,-0.180,-0.180,0.000,0.000,0.000
1605121622559017984,10.0.1.125,398,move_down,-0.200,-0.200,-0.200,0.000,0.000,0.000
1605121624056636928,10.0.1.125,444,move_down,-0.220,-0.220,-0.220,0.000,0.000,0.000
1605121625585441024,10.0.1.125,429,move_down,-0.240,-0.240,-0.240,0.000,0.000,0.000
1605121626983777024,10.0.1.125,388,move_down,-0.260,-0.260,-0.260,0.000,0.000,0.000
1605121628465069056,10.0.1.125,412,move_down,-0.280,-0.280,-0.280,0.000,0.000,0.000
1605121629894021120,10.0.1.125,367,move_down,-0.300,-0.300,-0.300,0.000,0.000,0.000
1605121631344214016,10.0.1.125,388,move_down,-0.320,-0.320,-0.320,0.000,0.000,0.000
1605121632798722048,10.0.1.125,393,move_down,-0.340,-0.340,-0.340,0.000,0.000,0.000
1605121634250663936,10.0.1.125,386,move_down,-0.360,-0.360,-0.360,0.000,0.000,0.000
1605121635708784128,10.0.1.125,393,move_down,-0.380,-0.380,-0.380,0.000,0.000,0.000
1605121637174889984,10.0.1.125,414,move_down,-0.400,-0.400,-0.400,0.000,0.000,0.000
1605121638638843904,10.0.1.125,415,move_down,-0.420,-0.420,-0.420,0.000,0.000,0.000
1605121640083131136,10.0.1.125,385,move_down,-0.440,-0.440,-0.440,0.000,0.000,0.000
1605121641550316032,10.0.1.125,402,move_down,-0.460,-0.460,-0.460,0.000,0.000,0.000
1605121642999238912,10.0.1.125,368,move_down,-0.480,-0.480,-0.480,0.000,0.000,0.000
1605121644451136000,10.0.1.125,391,move_down,-0.500,-0.500,-0.500,0.000,0.000,0.000
1605121645869512192,10.0.1.125,390,move_down,-0.520,-0.520,-0.520,0.000,0.000,0.000
1605121647315341824,10.0.1.125,382,move_down,-0.540,-0.540,-0.540,0.000,0.000,0.000
1605121648734220032,10.0.1.125,389,move_down,-0.560,-0.560,-0.560,0.000,0.000,0.000
1605121650221977088,10.0.1.125,401,move_down,-0.580,-0.580,-0.580,0.000,0.000,0.000
1605121651300380928,10.0.1.125,43,pick,-0.590,-0.590,-0.590,0.000,0.000,0.000
1605121652299539200,10.0.1.125,41,pick,-0.600,-0.600,-0.600,0.000,0.000,0.000
1605121653299952896,10.0.1.125,40,pick,-0.610,-0.610,-0.610,0.000,0.000,0.000
1605121654306763776,10.0.1.125,45,pick,-0.620,-0.620,-0.620,0.000,0.000,0.000
1605121655304105984,10.0.1.125,41,pick,-0.630,-0.630,-0.630,0.000,0.000,0.000
1605121656300032000,10.0.1.125,36,pick,-0.640,-0.640,-0.640,0.000,0.000,0.000
1605121657300803072,10.0.1.125,35,pick,-0.650,-0.650,-0.650,0.000,0.000,0.000
1605121658299470848,10.0.1.125,33,pick,-0.660,-0.660,-0.660,0.000,0.000,0.000
1605121659302304000,10.0.1.125,34,pick,-0.670,-0.670,-0.670,0.000,0.000,0.000
1605121660320122880,10.0.1.125,51,pick,-0.680,-0.680,-0.680,0.000,0.000,0.000
1605121661320779008,10.0.1.125,50,pick,-0.690,-0.690,-0.690,0.000,0.000,0.000
1605121662298995968,10.0.1.125,27,pick,-0.700,-0.700,-0.700,0.000,0.000,0.000
1605121663324558080,10.0.1.125,51,pick,-0.710,-0.710,-0.710,0.000,0.000,0.000
1605121664318703872,10.0.1.125,44,pick,-0.720,-0.720,-0.720,0.000,0.000,0.000
1605121665322284032,10.0.1.125,47,pick,-0.730,-0.730,-0.730,0.000,0.000,0.000
1605121666320925952,10.0.1.125,45,pick,-0.740,-0.740,-0.740,0.000,0.000,0.000
1605121667318833152,10.0.1.125,42,pick,-0.750,-0.750,-0.750,0.000,0.000,0.000
1605121668318728960,10.0.1.125,40,pick,-0.760,-0.760,-0.760,0.000,0.000,0.000
1605121669328263168,10.0.1.125,48,pick,-0.770,-0.770,-0.770,0.000,0.000,0.000
1605121670702258944,10.0.1.125,422,move_up,-0.750,-0.750,-0.750,0.000,0.000,0.000
1605121672161669120,10.0.1.125,398,move_up,-0.730,-0.730,-0.730,0.000,0.000,0.000
1605121673579196928,10.0.1.125,364,move_up,-0.710,-0.710,-0.710,0.000,0.000,0.000
1605121675049294848,10.0.1.125,406,move_up,-0.690,-0.690,-0.690,0.000,0.000,0.000
1605121676487708160,10.0.1.125,408,move_up,-0.670,-0.670,-0.670,0.000,0.000,0.000
1605121677919333888,10.0.1.125,369,move_up,-0.650,-0.650,-0.650,0.000,0.000,0.000
1605121679359268864,10.0.1.125,384,move_up,-0.630,-0.630,-0.630,0.000,0.000,0.000
1605121680785736960,10.0.1.125,396,move_up,-0.610,-0.610,-0.610,0.000,0.000,0.000
1605121682229607936,10.0.1.125,394,move_up,-0.590,-0.590,-0.590,0.000,0.000,0.000
1605121683688841216,10.0.1.125,408,move_up,-0.570,-0.570,-0.570,0.000,0.000,0.000
1605121685171139072,10.0.1.125,420,move_up,-0.550,-0.550,-0.550,0.000,0.000,0.000
1605121686609522176,10.0.1.125,384,move_up,-0.530,-0.530,-0.530,0.000,0.000,0.000
1605121688049593856,10.0.1.125,406,move_up,-0.510,-0.510,-0.510,0.000,0.000,0.000
1605121689469842944,10.0.1.125,372,move_up,-0.490,-0.490,-0.490,0.000,0.000,0.000
1605121690868845824,10.0.1.125,393,move_up,-0.470,-0.470,-0.470,0.000,0.000,0.000
1605121692339215872,10.0.1.125,422,move_up,-0.450,-0.450,-0.450,0.000,0.000,0.000
1605121693826051072,10.0.1.125,425,move_up,-0.430,-0.430,-0.430,0.000,0.000,0.000
1605121695259524096,10.0.1.125,372,move_up,-0.410,-0.410,-0.410,0.000,0.000,0.000
1605121696700704000,10.0.1.125,401,move_up,-0.390,-0.390,-0.390,0.000,0.000,0.000
1605121698179596032,10.0.1.125,404,move_up,-0.370,-0.370,-0.370,0.000,0.000,0.000
1605121699700243968,10.0.1.125,438,move_up,-0.350,-0.350,-0.350,0.000,0.000,0.000
1605121701090217216,10.0.1.125,354,move_up,-0.330,-0.330,-0.330,0.000,0.000,0.000
1605121702539098880,10.0.1.125,383,move_up,-0.310,-0.310,-0.310,0.000,0.000,0.000
1605121704011642880,10.0.1.125,409,move_up,-0.290,-0.290,-0.290,0.000,0.000,0.000
1605121705412733952,10.0.1.125,376,move_up,-0.270,-0.270,-0.270,0.000,0.000,0.000
1605121706900455936,10.0.1.125,440,move_up,-0.250,-0.250,-0.250,0.000,0.000,0.000
1605121708328948992,10.0.1.125,388,move_up,-0.230,-0.230,-0.230,0.000,0.000,0.000
1605121709783552000,10.0.1.125,398,move_up,-0.210,-0.210,-0.210,0.000,0.000,0.000
1605121711230830848,10.0.1.125,412,move_up,-0.190,-0.190,-0.190,0.000,0.000,0.000
1605121712329211904,10.0.1.125,36,place,-0.180,-0.180,-0.180,0.000,0.000,0.000
1605121713329507072,10.0.1.125,35,place,-0.170,-0.170,-0.170,0.000,0.000,0.000
1605121714329435136,10.0.1.125,34,place,-0.160,-0.160,-0.160,0.000,0.000,0.000
1605121715330713088,10.0.1.125,35,place,-0.150,-0.150,-0.150,0.000,0.000,0.000
1605121716330112000,10.0.1.125,33,place,-0.140,-0.140,-0.140,0.000,0.000,0.000
1605121717330277888,10.0.1.125,32,place,-0.130,-0.130,-0.130,0.000,0.000,0.000
1605121718350547200,10.0.1.125,50,place,-0.120,-0.120,-0.120,0.000,0.000,0.000
1605121719349636096,10.0.1.125,48,place,-0.110,-0.110,-0.110,0.000,0.000,0.000
1605121720350624000,10.0.1.125,48,place,-0.100,-0.100,-0.100,0.000,0.000,0.000
1605121721349971968,10.0.1.125,46,place,-0.090,-0.090,-0.090,0.000,0.000,0.000
1605121722356847104,10.0.1.125,53,place,-0.080,-0.080,-0.080,0.000,0.000,0.000
1605121723351869952,10.0.1.125,46,place,-0.070,-0.070,-0.070,0.000,0.000,0.000
1605121724349628928,10.0.1.125,42,place,-0.060,-0.060,-0.060,0.000,0.000,0.000
1605121725352060160,10.0.1.125,44,place,-0.050,-0.050,-0.050,0.000,0.000,0.000
1605121726349512192,10.0.1.125,35,place,-0.040,-0.040,-0.040,0.000,0.000,0.000
1605121727375979008,10.0.1.125,60,place,-0.030,-0.030,-0.030,0.000,0.000,0.000
1605121728352505856,10.0.1.125,35,place,-0.020,-0.020,-0.020,0.000,0.000,0.000
1605121729379528960,10.0.1.125,61,place,-0.010,-0.010,-0.010,0.000,0.000,0.000
1605121730374288128,10.0.1.125,54,place,0.000,0.000,0.000,0.000,0.000,0.000
1605121731719867904,10.0.1.125,399,move_down,-0.020,-0.020,-0.020,0.000,0.000,0.000
1605121733200269824,10.0.1.125,396,move_down,-0.040,-0.040,-0.040,0.000,0.000,0.000
1605121734652282112,10.0.1.125,367,move_down,-0.060,-0.060,-0.060,0.000,0.000,0.000
1605121736042529024,10.0.1.125,383,move_down,-0.080,-0.080,-0.080,0.000,0.000,0.000
1605121737499435008,10.0.1.125,401,move_down,-0.100,-0.100,-0.100,0.000,0.000,0.000
1605121738949526016,10.0.1.125,400,move_down,-0.120,-0.120,-0.120,0.000,0.000,0.000
1605121740354132992,10.0.1.125,365,move_down,-0.140,-0.140,-0.140,0.000,0.000,0.000
1605121741814008832,10.0.1.125,391,move_down,-0.160,-0.160,-0.160,0.000,0.000,0.000
1605121743259533056,10.0.1.125,370,move_down,-0.180,-0.180,-0.180,0.000,0.000,0.000
1605121744711905024,10.0.1.125,398,move_down,-0.200,-0.200,-0.200,0.000,0.000,0.000
1605121746110976000,10.0.1.125,373,move_down,-0.220,-0.220,-0.220,0.000,0.000,0.000
1605121747531238144,10.0.1.125,352,move_down,-0.240,-0.240,-0.240,0.000,0.000,0.000
1605121749011001088,10.0.1.125,387,move_down,-0.260,-0.260,-0.260,0.000,0.000,0.000
1605121750493558784,10.0.1.125,424,move_down,-0.280,-0.280,-0.280,0.000,0.000,0.000
1605121751949739008,10.0.1.125,396,move_down,-0.300,-0.300,-0.300,0.000,0.000,0.000
1605121753400477952,10.0.1.125,366,move_down,-0.320,-0.320,-0.320,0.000,0.000,0.000
1605121754860891136,10.0.1.125,396,move_down,-0.340,-0.340,-0.340,0.000,0.000,0.000
1605121756292403968,10.0.1.125,378,move_down,-0.360,-0.360,-0.360,0.000,0.000,0.000
1605121757721203968,10.0.1.125,379,move_down,-0.380,-0.380,-0.380,0.000,0.000,0.000
1605121759192790016,10.0.1.125,404,move_down,-0.400,-0.400,-0.400,0.000,0.000,0.000
1605121760611803136,10.0.1.125,398,move_down,-0.420,-0.420,-0.420,0.000,0.000,0.000
1605121762110408192,10.0.1.125,422,move_down,-0.440,-0.440,-0.440,0.000,0.000,0.000
1605121763548057088,10.0.1.125,422,move_down,-0.460,-0.460,-0.460,0.000,0.000,0.000
1605121764991004928,10.0.1.125,412,move_down,-0.480,-0.480,-0.480,0.000,0.000,0.000
1605121766422366976,10.0.1.125,369,move_down,-0.500,-0.500,-0.500,0.000,0.000,0.000
1605121767902949120,10.0.1.125,397,move_down,-0.520,-0.520,-0.520,0.000,0.000,0.000
1605121769380913920,10.0.1.125,401,move_down,-0.540,-0.540,-0.540,0.000,0.000,0.000
1605121770810905856,10.0.1.125,351,move_down,-0.560,-0.560,-0.560,0.000,0.000,0.000
1605121772261254144,10.0.1.125,391,move_down,-0.580,-0.580,-0.580,0.000,0.000,0.000
1605121773361171968,10.0.1.125,37,pick,-0.590,-0.590,-0.590,0.000,0.000,0.000
1605121774363343872,10.0.1.125,38,pick,-0.600,-0.600,-0.600,0.000,0.000,0.000
1605121775360304128,10.0.1.125,33,pick,-0.610,-0.610,-0.610,0.000,0.000,0.000
1605121776360531200,10.0.1.125,32,pick,-0.620,-0.620,-0.620,0.000,0.000,0.000
1605121777366089216,10.0.1.125,37,pick,-0.630,-0.630,-0.630,0.000,0.000,0.000
1605121778380476928,10.0.1.125,50,pick,-0.640,-0.640,-0.640,0.000,0.000,0.000
1605121779380748032,10.0.1.125,49,pick,-0.650,-0.650,-0.650,0.000,0.000,0.000
1605121780381989120,10.0.1.125,49,pick,-0.660,-0.660,-0.660,0.000,0.000,0.000
1605121781383350016,10.0.1.125,46,pick,-0.670,-0.670,-0.670,0.000,0.000,0.000
1605121782380305920,10.0.1.125,42,pick,-0.680,-0.680,-0.680,0.000,0.000,0.000
1605121783387109120,10.0.1.125,47,pick,-0.690,-0.690,-0.690,0.000,0.000,0.000
1605121784380701184,10.0.1.125,41,pick,-0.700,-0.700,-0.700,0.000,0.000,0.000
1605121785382006016,10.0.1.125,40,pick,-0.710,-0.710,-0.710,0.000,0.000,0.000
1605121786380676096,10.0.1.125,37,pick,-0.720,-0.720,-0.720,0.000,0.000,0.000
1605121787384268032,10.0.1.125,40,pick,-0.730,-0.730,-0.730,0.000,0.000,0.000
1605121788401309952,10.0.1.125,56,pick,-0.740,-0.740,-0.740,0.000,0.000,0.000
1605121789401763072,10.0.1.125,55,pick,-0.750,-0.750,-0.750,0.000,0.000,0.000
1605121790385499904,10.0.1.125,37,pick,-0.760,-0.760,-0.760,0.000,0.000,0.000
1605121791391563776,10.0.1.125,42,pick,-0.770,-0.770,-0.770,0.000,0.000,0.000
1605121792741180928,10.0.1.125,391,move_up,-0.750,-0.750,-0.750,0.000,0.000,0.000
1605121794200901120,10.0.1.125,413,move_up,-0.730,-0.730,-0.730,0.000,0.000,0.000
1605121795675676160,10.0.1.125,409,move_up,-0.710,-0.710,-0.710,0.000,0.000,0.000
1605121797110142976,10.0.1.125,401,move_up,-0.690,-0.690,-0.690,0.000,0.000,0.000
1605121798566415104,10.0.1.125,404,move_up,-0.670,-0.670,-0.670,0.000,0.000,0.000
1605121800031075840,10.0.1.125,408,move_up,-0.650,-0.650,-0.650,0.000,0.000,0.000
1605121801521192960,10.0.1.125,412,move_up,-0.630,-0.630,-0.630,0.000,0.000,0.000
1605121802973481984,10.0.1.125,390,move_up,-0.610,-0.610,-0.610,0.000,0.000,0.000
1605121804401138944,10.0.1.125,391,move_up,-0.590,-0.590,-0.590,0.000,0.000,0.000
1605121805810957824,10.0.1.125,388,move_up,-0.570,-0.570,-0.570,0.000,0.000,0.000
1605121807270187008,10.0.1.125,405,move_up,-0.550,-0.550,-0.550,0.000,0.000,0.000
1605121808772195072,10.0.1.125,409,move_up,-0.530,-0.530,-0.530,0.000,0.000,0.000
1605121810222851072,10.0.1.125,369,move_up,-0.510,-0.510,-0.510,0.000,0.000,0.000
1605121811710875136,10.0.1.125,421,move_up,-0.490,-0.490,-0.490,0.000,0.000,0.000
1605121813154279936,10.0.1.125,403,move_up,-0.470,-0.470,-0.470,0.000,0.000,0.000
1605121814642332928,10.0.1.125,372,move_up,-0.450,-0.450,-0.450,0.000,0.000,0.000
1605121816134455040,10.0.1.125,384,move_up,-0.430,-0.430,-0.430,0.000,0.000,0.000
1605121817592502016,10.0.1.125,394,move_up,-0.410,-0.410,-0.410,0.000,0.000,0.000
1605121819065170176,10.0.1.125,421,move_up,-0.390,-0.390,-0.390,0.000,0.000,0.000
1605121820541778944,10.0.1.125,407,move_up,-0.370,-0.370,-0.370,0.000,0.000,0.000
1605121821986388992,10.0.1.125,399,move_up,-0.350,-0.350,-0.350,0.000,0.000,0.000
1605121823425314816,10.0.1.125,390,move_up,-0.330,-0.330,-0.330,0.000,0.000,0.000
1605121824889126912,10.0.1.125,376,move_up,-0.310,-0.310,-0.310,0.000,0.000,0.000
1605121826334492928,10.0.1.125,401,move_up,-0.290,-0.290,-0.290,0.000,0.000,0.000
1605121827838038016,10.0.1.125,417,move_up,-0.270,-0.270,-0.270,0.000,0.000,0.000
1605121829250636032,10.0.1.125,381,move_up,-0.250,-0.250,-0.250,0.000,0.000,0.000
1605121830694427136,10.0.1.125,401,move_up,-0.230,-0.230,-0.230,0.000,0.000,0.000
1605121832173918976,10.0.1.125,394,move_up,-0.210,-0.210,-0.210,0.000,0.000,0.000
1605121833606758144,10.0.1.125,384,move_up,-0.190,-0.190,-0.190,0.000,0.000,0.000
1605121834667474944,10.0.1.125,36,place,-0.180,-0.180,-0.180,0.000,0.000,0.000
1605121835663862016,10.0.1.125,31,place,-0.170,-0.170,-0.170,0.000,0.000,0.000
1605121836686338048,10.0.1.125,52,place,-0.160,-0.160,-0.160,0.000,0.000,0.000
1605121837687265024,10.0.1.125,52,place,-0.150,-0.150,-0.150,0.000,0.000,0.000
1605121838691363072,10.0.1.125,55,place,-0.140,-0.140,-0.140,0.000,0.000,0.000
1605121839694273024,10.0.1.125,57,place,-0.130,-0.130,-0.130,0.000,0.000,0.000
1605121840685355776,10.0.1.125,47,place,-0.120,-0.120,-0.120,0.000,0.000,0.000
1605121841688396032,10.0.1.125,48,place,-0.110,-0.110,-0.110,0.000,0.000,0.000
1605121842688332032,10.0.1.125,47,place,-0.100,-0.100,-0.100,0.000,0.000,0.000
1605121843683579904,10.0.1.125,41,place,-0.090,-0.090,-0.090,0.000,0.000,0.000
1605121844686127872,10.0.1.125,43,place,-0.080,-0.080,-0.080,0.000,0.000,0.000
1605121845688754176,10.0.1.125,45,place,-0.070,-0.070,-0.070,0.000,0.000,0.000
1605121846683838976,10.0.1.125,39,place,-0.060,-0.060,-0.060,0.000,0.000,0.000
1605121847688134912,10.0.1.125,43,place,-0.050,-0.050,-0.050,0.000,0.000,0.000
1605121849686820096,10.0.1.125,41,place,-0.030,-0.030,-0.030,0.000,0.000,0.000
1605121851684019968,10.0.1.125,36,place,-0.010,-0.010,-0.010,0.000,0.000,0.000
1605121852687488000,10.0.1.125,38,place,0.000,0.000,0.000,0.000,0.000,0.000
1605121854034304000,10.0.1.125,383,move_down,-0.020,-0.020,-0.020,0.000,0.000,0.000
1605121855461982976,10.0.1.125,379,move_down,-0.040,-0.040,-0.040,0.000,0.000,0.000
1605121856905633024,10.0.1.125,399,move_down,-0.060,-0.060,-0.060,0.000,0.000,0.000
1605121858397165056,10.0.1.125,373,move_down,-0.080,-0.080,-0.080,0.000,0.000,0.000
1605121859834182912,10.0.1.125,391,move_down,-0.100,-0.100,-0.100,0.000,0.000,0.000
1605121861284547072,10.0.1.125,394,move_down,-0.120,-0.120,-0.120,0.000,0.000,0.000
1605121862744110080,10.0.1.125,405,move_down,-0.140,-0.140,-0.140,0.000,0.000,0.000
1605121864253278976,10.0.1.125,431,move_down,-0.160,-0.160,-0.160,0.000,0.000,0.000
1605121865751815168,10.0.1.125,406,move_down,-0.180,-0.180,-0.180,0.000,0.000,0.000
1605121867208893184,10.0.1.125,405,move_down,-0.200,-0.200,-0.200,0.000,0.000,0.000
1605121868594116096,10.0.1.125,372,move_down,-0.220,-0.220,-0.220,0.000,0.000,0.000
1605121870035401216,10.0.1.125,399,move_down,-0.240,-0.240,-0.240,0.000,0.000,0.000
1605121871500647168,10.0.1.125,389,move_down,-0.260,-0.260,-0.260,0.000,0.000,0.000
1605121872934055936,10.0.1.125,394,move_down,-0.280,-0.280,-0.280,0.000,0.000,0.000
1605121874334619904,10.0.1.125,383,move_down,-0.300,-0.300,-0.300,0.000,0.000,0.000
1605121875794102016,10.0.1.125,397,move_down,-0.320,-0.320,-0.320,0.000,0.000,0.000
1605121877218465024,10.0.1.125,374,move_down,-0.340,-0.340,-0.340,0.000,0.000,0.000
1605121878724935936,10.0.1.125,441,move_down,-0.360,-0.360,-0.360,0.000,0.000,0.000
1605121880207435008,10.0.1.125,442,move_down,-0.380,-0.380,-0.380,0.000,0.000,0.000
1605121881635446016,10.0.1.125,380,move_down,-0.400,-0.400,-0.400,0.000,0.000,0.000
1605121883094258944,10.0.1.125,408,move_down,-0.420,-0.420,-0.420,0.000,0.000,0.000
1605121884587904000,10.0.1.125,455,move_down,-0.440,-0.440,-0.440,0.000,0.000,0.000
1605121885961967104,10.0.1.125,377,move_down,-0.460,-0.460,-0.460,0.000,0.000,0.000
1605121887416943104,10.0.1.125,408,move_down,-0.480,-0.480,-0.480,0.000,0.000,0.000
1605121888879024128,10.0.1.125,389,move_down,-0.500,-0.500,-0.500,0.000,0.000,0.000
1605121890314817024,10.0.1.125,393,move_down,-0.520,-0.520,-0.520,0.000,0.000,0.000
1605121891764893952,10.0.1.125,405,move_down,-0.540,-0.540,-0.540,0.000,0.000,0.000
1605121893181843968,10.0.1.125,380,move_down,-0.560,-0.560,-0.560,0.000,0.000,0.000
1605121894657725952,10.0.1.125,426,move_down,-0.580,-0.580,-0.580,0.000,0.000,0.000
1605121896740201984,10.0.1.125,47,pick,-0.600,-0.600,-0.600,0.000,0.000,0.000
1605121897737661952,10.0.1.125,43,pick,-0.610,-0.610,-0.610,0.000,0.000,0.000
1605121898738050816,10.0.1.125,42,pick,-0.620,-0.620,-0.620,0.000,0.000,0.000
1605121899734277120,10.0.1.125,35,pick,-0.630,-0.630,-0.630,0.000,0.000,0.000
1605121900735629056,10.0.1.125,35,pick,-0.640,-0.640,-0.640,0.000,0.000,0.000
1605121901734215936,10.0.1.125,32,pick,-0.650,-0.650,-0.650,0.000,0.000,0.000
1605121902734622976,10.0.1.125,31,pick,-0.660,-0.660,-0.660,0.000,0.000,0.000
1605121903759258112,10.0.1.125,55,pick,-0.670,-0.670,-0.670,0.000,0.000,0.000
1605121904755297792,10.0.1.125,49,pick,-0.680,-0.680,-0.680,0.000,0.000,0.000
1605121905756891136,10.0.1.125,49,pick,-0.690,-0.690,-0.690,0.000,0.000,0.000
1605121906753787904,10.0.1.125,46,pick,-0.700,-0.700,-0.700,0.000,0.000,0.000
1605121907757821952,10.0.1.125,48,pick,-0.710,-0.710,-0.710,0.000,0.000,0.000
1605121908754530048,10.0.1.125,44,pick,-0.720,-0.720,-0.720,0.000,0.000,0.000
1605121909756529152,10.0.1.125,45,pick,-0.730,-0.730,-0.730,0.000,0.000,0.000
1605121910754123008,10.0.1.125,41,pick,-0.740,-0.740,-0.740,0.000,0.000,0.000
1605121911755141120,10.0.1.125,39,pick,-0.750,-0.750,-0.750,0.000,0.000,0.000
1605121912756573952,10.0.1.125,39,pick,-0.760,-0.760,-0.760,0.000,0.000,0.000
1605121913754223104,10.0.1.125,36,pick,-0.770,-0.770,-0.770,0.000,0.000,0.000
1605121915104892928,10.0.1.125,385,move_up,-0.750,-0.750,-0.750,0.000,0.000,0.000
1605121916516582912,10.0.1.125,377,move_up,-0.730,-0.730,-0.730,0.000,0.000,0.000
1605121917954087936,10.0.1.125,394,move_up,-0.710,-0.710,-0.710,0.000,0.000,0.000
1605121919366112000,10.0.1.125,356,move_up,-0.690,-0.690,-0.690,0.000,0.000,0.000
1605121920836327168,10.0.1.125,402,move_up,-0.670,-0.670,-0.670,0.000,0.000,0.000
1605121922296713984,10.0.1.125,413,move_up,-0.650,-0.650,-0.650,0.000,0.000,0.000
1605121923732312832,10.0.1.125,384,move_up,-0.630,-0.630,-0.630,0.000,0.000,0.000
1605121925113789952,10.0.1.125,388,move_up,-0.610,-0.610,-0.610,0.000,0.000,0.000
1605121926633875968,10.0.1.125,433,move_up,-0.590,-0.590,-0.590,0.000,0.000,0.000
1605121928098427136,10.0.1.125,413,move_up,-0.570,-0.570,-0.570,0.000,0.000,0.000
1605121929554708992,10.0.1.125,399,move_up,-0.550,-0.550,-0.550,0.000,0.000,0.000
1605121931017811968,10.0.1.125,399,move_up,-0.530,-0.530,-0.530,0.000,0.000,0.000
1605121932460784896,10.0.1.125,388,move_up,-0.510,-0.510,-0.510,0.000,0.000,0.000
1605121933868165120,10.0.1.125,366,move_up,-0.490,-0.490,-0.490,0.000,0.000,0.000
1605121935288705024,10.0.1.125,378,move_up,-0.470,-0.470,-0.470,0.000,0.000,0.000
1605121936705761792,10.0.1.125,382,move_up,-0.450,-0.450,-0.450,0.000,0.000,0.000
1605121938137952000,10.0.1.125,387,move_up,-0.430,-0.430,-0.430,0.000,0.000,0.000
1605121939576232960,10.0.1.125,383,move_up,-0.410,-0.410,-0.410,0.000,0.000,0.000
1605121941060101120,10.0.1.125,413,move_up,-0.390,-0.390,-0.390,0.000,0.000,0.000
1605121942495491072,10.0.1.125,385,move_up,-0.370,-0.370,-0.370,0.000,0.000,0.000
1605121943961586944,10.0.1.125,418,move_up,-0.350,-0.350,-0.350,0.000,0.000,0.000
1605121945431452928,10.0.1.125,415,move_up,-0.330,-0.330,-0.330,0.000,0.000,0.000
1605121946904836864,10.0.1.125,391,move_up,-0.310,-0.310,-0.310,0.000,0.000,0.000
1605121948344486912,10.0.1.125,384,move_up,-0.290,-0.290,-0.290,0.000,0.000,0.000
1605121949817463040,10.0.1.125,443,move_up,-0.270,-0.270,-0.270,0.000,0.000,0.000
1605121951216151040,10.0.1.125,382,move_up,-0.250,-0.250,-0.250,0.000,0.000,0.000
1605121952692008960,10.0.1.125,370,move_up,-0.230,-0.230,-0.230,0.000,0.000,0.000
1605121954124103936,10.0.1.125,392,move_up,-0.210,-0.210,-0.210,0.000,0.000,0.000
1605121955660877056,10.0.1.125,453,move_up,-0.190,-0.190,-0.190,0.000,0.000,0.000
1605121956774712064,10.0.1.125,47,place,-0.180,-0.180,-0.180,0.000,0.000,0.000
1605121957774533888,10.0.1.125,45,place,-0.170,-0.170,-0.170,0.000,0.000,0.000
1605121958774864896,10.0.1.125,44,place,-0.160,-0.160,-0.160,0.000,0.000,0.000
1605121959779715072,10.0.1.125,48,place,-0.150,-0.150,-0.150,0.000,0.000,0.000
1605121960773946112,10.0.1.125,41,place,-0.140,-0.140,-0.140,0.000,0.000,0.000
1605121961776365056,10.0.1.125,42,place,-0.130,-0.130,-0.130,0.000,0.000,0.000
1605121962774233088,10.0.1.125,39,place,-0.120,-0.120,-0.120,0.000,0.000,0.000
1605121963773613824,10.0.1.125,38,place,-0.110,-0.110,-0.110,0.000,0.000,0.000
1605121964776592128,10.0.1.125,40,place,-0.100,-0.100,-0.100,0.000,0.000,0.000
1605121965773966080,10.0.1.125,36,place,-0.090,-0.090,-0.090,0.000,0.000,0.000
1605121966773905152,10.0.1.125,34,place,-0.080,-0.080,-0.080,0.000,0.000,0.000
1605121967775238144,10.0.1.125,34,place,-0.070,-0.070,-0.070,0.000,0.000,0.000
1605121968775148032,10.0.1.125,33,place,-0.060,-0.060,-0.060,0.000,0.000,0.000
1605121969778482944,10.0.1.125,35,place,-0.050,-0.050,-0.050,0.000,0.000,0.000
1605121970797455104,10.0.1.125,53,place,-0.040,-0.040,-0.040,0.000,0.000,0.000
1605121971793276160,10.0.1.125,48,place,-0.030,-0.030,-0.030,0.000,0.000,0.000
1605121972794440960,10.0.1.125,48,place,-0.020,-0.020,-0.020,0.000,0.000,0.000
1605121973800443904,10.0.1.125,52,place,-0.010,-0.010,-0.010,0.000,0.000,0.000
1605121974794529792,10.0.1.125,45,place,0.000,0.000,0.000,0.000,0.000,0.000
1605121976144825088,10.0.1.125,394,move_down,-0.020,-0.020,-0.020,0.000,0.000,0.000
1605121977584145152,10.0.1.125,389,move_down,-0.040,-0.040,-0.040,0.000,0.000,0.000
1605121979095470848,10.0.1.125,419,move_down,-0.060,-0.060,-0.060,0.000,0.000,0.000
1605121980569331968,10.0.1.125,398,move_down,-0.080,-0.080,-0.080,0.000,0.000,0.000
1605121982034158080,10.0.1.125,384,move_down,-0.100,-0.100,-0.100,0.000,0.000,0.000
1605121983498055936,10.0.1.125,397,move_down,-0.120,-0.120,-0.120,0.000,0.000,0.000
1605121984900608000,10.0.1.125,381,move_down,-0.140,-0.140,-0.140,0.000,0.000,0.000
1605121986367270912,10.0.1.125,398,move_down,-0.160,-0.160,-0.160,0.000,0.000,0.000
1605121987792814080,10.0.1.125,396,move_down,-0.180,-0.180,-0.180,0.000,0.000,0.000
1605121989314196992,10.0.1.125,396,move_down,-0.200,-0.200,-0.200,0.000,0.000,0.000
1605121990766083072,10.0.1.125,395,move_down,-0.220,-0.220,-0.220,0.000,0.000,0.000
1605121992253068032,10.0.1.125,405,move_down,-0.240,-0.240,-0.240,0.000,0.000,0.000
1605121993734216960,10.0.1.125,402,move_down,-0.260,-0.260,-0.260,0.000,0.000,0.000
1605121995164641024,10.0.1.125,379,move_down,-0.280,-0.280,-0.280,0.000,0.000,0.000
1605121996675052032,10.0.1.125,437,move_down,-0.300,-0.300,-0.300,0.000,0.000,0.000
1605121998148446976,10.0.1.125,425,move_down,-0.320,-0.320,-0.320,0.000,0.000,0.000
1605121999575158016,10.0.1.125,363,move_down,-0.340,-0.340,-0.340,0.000,0.000,0.000
1605122000976110080,10.0.1.125,380,move_down,-0.360,-0.360,-0.360,0.000,0.000,0.000
1605122002466540032,10.0.1.125,424,move_down,-0.380,-0.380,-0.380,0.000,0.000,0.000
1605122003921667072,10.0.1.125,393,move_down,-0.400,-0.400,-0.400,0.000,0.000,0.000
1605122005337327104,10.0.1.125,386,move_down,-0.420,-0.420,-0.420,0.000,0.000,0.000
1605122006726036992,10.0.1.125,359,move_down,-0.440,-0.440,-0.440,0.000,0.000,0.000
1605122008185445120,10.0.1.125,404,move_down,-0.460,-0.460,-0.460,0.000,0.000,0.000
1605122009616448000,10.0.1.125,359,move_down,-0.480,-0.480,-0.480,0.000,0.000,0.000
1605122011096344832,10.0.1.125,405,move_down,-0.500,-0.500,-0.500,0.000,0.000,0.000
1605122012518910976,10.0.1.125,371,move_down,-0.520,-0.520,-0.520,0.000,0.000,0.000
1605122013938551040,10.0.1.125,383,move_down,-0.540,-0.540,-0.540,0.000,0.000,0.000
1605122015385971968,10.0.1.125,401,move_down,-0.560,-0.560,-0.560,0.000,0.000,0.000
1605122016875960064,10.0.1.125,418,move_down,-0.580,-0.580,-0.580,0.000,0.000,0.000
1605122017974930944,10.0.1.125,33,pick,-0.590,-0.590,-0.590,0.000,0.000,0.000
1605122018974982912,10.0.1.125,32,pick,-0.600,-0.600,-0.600,0.000,0.000,0.000
1605122019975936000,10.0.1.125,32,pick,-0.610,-0.610,-0.610,0.000,0.000,0.000
1605122020994728960,10.0.1.125,49,pick,-0.620,-0.620,-0.620,0.000,0.000,0.000
1605122021996891904,10.0.1.125,50,pick,-0.630,-0.630,-0.630,0.000,0.000,0.000
1605122022997827072,10.0.1.125,50,pick,-0.640,-0.640,-0.640,0.000,0.000,0.000
1605122023995322112,10.0.1.125,46,pick,-0.650,-0.650,-0.650,0.000,0.000,0.000
1605122024996886016,10.0.1.125,46,pick,-0.660,-0.660,-0.660,0.000,0.000,0.000
1605122025995292928,10.0.1.125,43,pick,-0.670,-0.670,-0.670,0.000,0.000,0.000
1605122026995120128,10.0.1.125,42,pick,-0.680,-0.680,-0.680,0.000,0.000,0.000
1605122027995110912,10.0.1.125,41,pick,-0.690,-0.690,-0.690,0.000,0.000,0.000
1605122028996349184,10.0.1.125,41,pick,-0.700,-0.700,-0.700,0.000,0.000,0.000
1605122029994808832,10.0.1.125,39,pick,-0.710,-0.710,-0.710,0.000,0.000,0.000
1605122030994949120,10.0.1.125,37,pick,-0.720,-0.720,-0.720,0.000,0.000,0.000
1605122031995376128,10.0.1.125,36,pick,-0.730,-0.730,-0.730,0.000,0.000,0.000
1605122032994558208,10.0.1.125,34,pick,-0.740,-0.740,-0.740,0.000,0.000,0.000
1605122033994507008,10.0.1.125,33,pick,-0.750,-0.750,-0.750,0.000,0.000,0.000
1605122035005243904,10.0.1.125,43,pick,-0.760,-0.760,-0.760,0.000,0.000,0.000
1605122035994347008,10.0.1.125,30,pick,-0.770,-0.770,-0.770,0.000,0.000,0.000
1605122037365235968,10.0.1.125,400,move_up,-0.750,-0.750,-0.750,0.000,0.000,0.000
1605122038790929152,10.0.1.125,375,move_up,-0.730,-0.730,-0.730,0.000,0.000,0.000
1605122040224560128,10.0.1.125,387,move_up,-0.710,-0.710,-0.710,0.000,0.000,0.000
1605122041676783104,10.0.1.125,408,move_up,-0.690,-0.690,-0.690,0.000,0.000,0.000
1605122043130301952,10.0.1.125,383,move_up,-0.670,-0.670,-0.670,0.000,0.000,0.000
1605122044534717952,10.0.1.125,360,move_up,-0.650,-0.650,-0.650,0.000,0.000,0.000
1605122045997457152,10.0.1.125,375,move_up,-0.630,-0.630,-0.630,0.000,0.000,0.000
1605122047465688064,10.0.1.125,395,move_up,-0.610,-0.610,-0.610,0.000,0.000,0.000
1605122048944986112,10.0.1.125,423,move_up,-0.590,-0.590,-0.590,0.000,0.000,0.000
1605122050354870016,10.0.1.125,382,move_up,-0.570,-0.570,-0.570,0.000,0.000,0.000
1605122051816222976,10.0.1.125,391,move_up,-0.550,-0.550,-0.550,0.000,0.000,0.000
1605122053294029056,10.0.1.125,399,move_up,-0.530,-0.530,-0.530,0.000,0.000,0.000
1605122054735699968,10.0.1.125,394,move_up,-0.510,-0.510,-0.510,0.000,0.000,0.000
1605122056206093056,10.0.1.125,422,move_up,-0.490,-0.490,-0.490,0.000,0.000,0.000
1605122057690054912,10.0.1.125,423,move_up,-0.470,-0.470,-0.470,0.000,0.000,0.000
1605122059195857920,10.0.1.125,448,move_up,-0.450,-0.450,-0.450,0.000,0.000,0.000
1605122060696701952,10.0.1.125,449,move_up,-0.430,-0.430,-0.430,0.000,0.000,0.000
1605122062195065088,10.0.1.125,460,move_up,-0.410,-0.410,-0.410,0.000,0.000,0.000
1605122063647678976,10.0.1.125,402,move_up,-0.390,-0.390,-0.390,0.000,0.000,0.000
1605122065185522944,10.0.1.125,424,move_up,-0.370,-0.370,-0.370,0.000,0.000,0.000
1605122066635734016,10.0.1.125,364,move_up,-0.350,-0.350,-0.350,0.000,0.000,0.000
1605122068104913920,10.0.1.125,387,move_up,-0.330,-0.330,-0.330,0.000,0.000,0.000
1605122069615341056,10.0.1.125,422,move_up,-0.310,-0.310,-0.310,0.000,0.000,0.000
1605122071118820864,10.0.1.125,411,move_up,-0.290,-0.290,-0.290,0.000,0.000,0.000
1605122072585300992,10.0.1.125,395,move_up,-0.270,-0.270,-0.270,0.000,0.000,0.000
1605122074104819968,10.0.1.125,430,move_up,-0.250,-0.250,-0.250,0.000,0.000,0.000
1605122075584628224,10.0.1.125,404,move_up,-0.230,-0.230,-0.230,0.000,0.000,0.000
1605122077034501120,10.0.1.125,375,move_up,-0.210,-0.210,-0.210,0.000,0.000,0.000
1605122078555768064,10.0.1.125,388,move_up,-0.190,-0.190,-0.190,0.000,0.000,0.000
1605122079635345920,10.0.1.125,47,place,-0.180,-0.180,-0.180,0.000,0.000,0.000
1605122080635695872,10.0.1.125,46,place,-0.170,-0.170,-0.170,0.000,0.000,0.000
1605122081634180096,10.0.1.125,43,place,-0.160,-0.160,-0.160,0.000,0.000,0.000
1605122082634967040,10.0.1.125,42,place,-0.150,-0.150,-0.150,0.000,0.000,0.000
1605122083635243776,10.0.1.125,41,place,-0.140,-0.140,-0.140,0.000,0.000,0.000
1605122084634827008,10.0.1.125,40,place,-0.130,-0.130,-0.130,0.000,0.000,0.000
1605122085634377984,10.0.1.125,38,place,-0.120,-0.120,-0.120,0.000,0.000,0.000
1605122086640429056,10.0.1.125,43,place,-0.110,-0.110,-0.110,0.000,0.000,0.000
1605122087637375232,10.0.1.125,38,place,-0.100,-0.100,-0.100,0.000,0.000,0.000
1605122088635118848,10.0.1.125,35,place,-0.090,-0.090,-0.090,0.000,0.000,0.000
1605122089634396160,10.0.1.125,33,place,-0.080,-0.080,-0.080,0.000,0.000,0.000
1605122090637367040,10.0.1.125,35,place,-0.070,-0.070,-0.070,0.000,0.000,0.000
1605122091634525184,10.0.1.125,30,place,-0.060,-0.060,-0.060,0.000,0.000,0.000
1605122092659107072,10.0.1.125,48,place,-0.050,-0.050,-0.050,0.000,0.000,0.000
1605122093657433088,10.0.1.125,45,place,-0.040,-0.040,-0.040,0.000,0.000,0.000
1605122094658472960,10.0.1.125,45,place,-0.030,-0.030,-0.030,0.000,0.000,0.000
1605122095654644992,10.0.1.125,35,place,-0.020,-0.020,-0.020,0.000,0.000,0.000
1605122096657457152,10.0.1.125,36,place,-0.010,-0.010,-0.010,0.000,0.000,0.000
1605122097654868992,10.0.1.125,33,place,0.000,0.000,0.000,0.000,0.000,0.000
1605122099039635968,10.0.1.125,416,move_down,-0.020,-0.020,-0.020,0.000,0.000,0.000
1605122100490694144,10.0.1.125,384,move_down,-0.040,-0.040,-0.040,0.000,0.000,0.000
1605122101912886016,10.0.1.125,363,move_down,-0.060,-0.060,-0.060,0.000,0.000,0.000
1605122103361597952,10.0.1.125,401,move_down,-0.080,-0.080,-0.080,0.000,0.000,0.000
1605122104796765184,10.0.1.125,376,move_down,-0.100,-0.100,-0.100,0.000,0.000,0.000
1605122106220144128,10.0.1.125,380,move_down,-0.120,-0.120,-0.120,0.000,0.000,0.000
1605122107688329984,10.0.1.125,417,move_down,-0.140,-0.140,-0.140,0.000,0.000,0.000
1605122109148546048,10.0.1.125,396,move_down,-0.160,-0.160,-0.160,0.000,0.000,0.000
1605122110585043968,10.0.1.125,360,move_down,-0.180,-0.180,-0.180,0.000,0.000,0.000
1605122112006158080,10.0.1.125,362,move_down,-0.200,-0.200,-0.200,0.000,0.000,0.000
1605122113424688128,10.0.1.125,402,move_down,-0.220,-0.220,-0.220,0.000,0.000,0.000
1605122114878652160,10.0.1.125,380,move_down,-0.240,-0.240,-0.240,0.000,0.000,0.000
1605122116385971968,10.0.1.125,404,move_down,-0.260,-0.260,-0.260,0.000,0.000,0.000
1605122117854789120,10.0.1.125,419,move_down,-0.280,-0.280,-0.280,0.000,0.000,0.000
1605122119305938944,10.0.1.125,378,move_down,-0.300,-0.300,-0.300,0.000,0.000,0.000
1605122120725030912,10.0.1.125,382,move_down,-0.320,-0.320,-0.320,0.000,0.000,0.000
1605122122170422016,10.0.1.125,409,move_down,-0.340,-0.340,-0.340,0.000,0.000,0.000
1605122123632329984,10.0.1.125,401,move_down,-0.360,-0.360,-0.360,0.000,0.000,0.000
1605122125098115840,10.0.1.125,423,move_down,-0.380,-0.380,-0.380,0.000,0.000,0.000
1605122126552062976,10.0.1.125,397,move_down,-0.400,-0.400,-0.400,0.000,0.000,0.000
1605122127996537856,10.0.1.125,393,move_down,-0.420,-0.420,-0.420,0.000,0.000,0.000
1605122129450573824,10.0.1.125,371,move_down,-0.440,-0.440,-0.440,0.000,0.000,0.000
1605122130964907008,10.0.1.125,410,move_down,-0.460,-0.460,-0.460,0.000,0.000,0.000
1605122132401101056,10.0.1.125,391,move_down,-0.480,-0.480,-0.480,0.000,0.000,0.000
1605122133838540032,10.0.1.125,378,move_down,-0.500,-0.500,-0.500,0.000,0.000,0.000
1605122135312659968,10.0.1.125,442,move_down,-0.520,-0.520,-0.520,0.000,0.000,0.000
1605122136732833024,10.0.1.125,381,move_down,-0.540,-0.540,-0.540,0.000,0.000,0.000
1605122138136507136,10.0.1.125,368,move_down,-0.560,-0.560,-0.560,0.000,0.000,0.000
1605122139596928000,10.0.1.125,406,move_down,-0.580,-0.580,-0.580,0.000,0.000,0.000
1605122140739321088,10.0.1.125,52,pick,-0.590,-0.590,-0.590,0.000,0.000,0.000
1605122141734993920,10.0.1.125,47,pick,-0.600,-0.600,-0.600,0.000,0.000,0.000
1605122142737684992,10.0.1.125,48,pick,-0.610,-0.610,-0.610,0.000,0.000,0.000
1605122143735384832,10.0.1.125,44,pick,-0.620,-0.620,-0.620,0.000,0.000,0.000
1605122144735811072,10.0.1.125,44,pick,-0.630,-0.630,-0.630,0.000,0.000,0.000
1605122145735891968,10.0.1.125,37,pick,-0.640,-0.640,-0.640,0.000,0.000,0.000
1605122146739770880,10.0.1.125,40,pick,-0.650,-0.650,-0.650,0.000,0.000,0.000
1605122147739195136,10.0.1.125,35,pick,-0.660,-0.660,-0.660,0.000,0.000,0.000
1605122148754736896,10.0.1.125,49,pick,-0.670,-0.670,-0.670,0.000,0.000,0.000
1605122149757188096,10.0.1.125,50,pick,-0.680,-0.680,-0.680,0.000,0.000,0.000
1605122150755225856,10.0.1.125,47,pick,-0.690,-0.690,-0.690,0.000,0.000,0.000
1605122151757185024,10.0.1.125,48,pick,-0.700,-0.700,-0.700,0.000,0.000,0.000
1605122152756913920,10.0.1.125,46,pick,-0.710,-0.710,-0.710,0.000,0.000,0.000
1605122153754742016,10.0.1.125,37,pick,-0.720,-0.720,-0.720,0.000,0.000,0.000
1605122154756418048,10.0.1.125,37,pick,-0.730,-0.730,-0.730,0.000,0.000,0.000
1605122155758310144,10.0.1.125,38,pick,-0.740,-0.740,-0.740,0.000,0.000,0.000
1605122156761715968,10.0.1.125,40,pick,-0.750,-0.750,-0.750,0.000,0.000,0.000
1605122157758404096,10.0.1.125,35,pick,-0.760,-0.760,-0.760,0.000,0.000,0.000
1605122158758289152,10.0.1.125,34,pick,-0.770,-0.770,-0.770,0.000,0.000,0.000
1605122160127859968,10.0.1.125,402,move_up,-0.750,-0.750,-0.750,0.000,0.000,0.000
1605122161580873984,10.0.1.125,418,move_up,-0.730,-0.730,-0.730,0.000,0.000,0.000
1605122163026182912,10.0.1.125,366,move_up,-0.710,-0.710,-0.710,0.000,0.000,0.000
1605122164501321984,10.0.1.125,411,move_up,-0.690,-0.690,-0.690,0.000,0.000,0.000
1605122165952823040,10.0.1.125,398,move_up,-0.670,-0.670,-0.670,0.000,0.000,0.000
1605122167397640960,10.0.1.125,381,move_up,-0.650,-0.650,-0.650,0.000,0.000,0.000
1605122168806873088,10.0.1.125,383,move_up,-0.630,-0.630,-0.630,0.000,0.000,0.000
1605122170267606016,10.0.1.125,396,move_up,-0.610,-0.610,-0.610,0.000,0.000,0.000
1605122171679188992,10.0.1.125,383,move_up,-0.590,-0.590,-0.590,0.000,0.000,0.000
1605122173148978944,10.0.1.125,424,move_up,-0.570,-0.570,-0.570,0.000,0.000,0.000
1605122174580111872,10.0.1.125,397,move_up,-0.550,-0.550,-0.550,0.000,0.000,0.000
1605122176027764992,10.0.1.125,383,move_up,-0.530,-0.530,-0.530,0.000,0.000,0.000
1605122177468045824,10.0.1.125,359,move_up,-0.510,-0.510,-0.510,0.000,0.000,0.000
1605122178927236096,10.0.1.125,397,move_up,-0.490,-0.490,-0.490,0.000,0.000,0.000
1605122180375463936,10.0.1.125,397,move_up,-0.470,-0.470,-0.470,0.000,0.000,0.000
1605122181840992000,10.0.1.125,389,move_up,-0.450,-0.450,-0.450,0.000,0.000,0.000
1605122183275032064,10.0.1.125,409,move_up,-0.430,-0.430,-0.430,0.000,0.000,0.000
1605122184738534912,10.0.1.125,394,move_up,-0.410,-0.410,-0.410,0.000,0.000,0.000
1605122186175703040,10.0.1.125,383,move_up,-0.390,-0.390,-0.390,0.000,0.000,0.000
1605122187653361152,10.0.1.125,410,move_up,-0.370,-0.370,-0.370,0.000,0.000,0.000
1605122189149555968,10.0.1.125,417,move_up,-0.350,-0.350,-0.350,0.000,0.000,0.000
1605122190577522944,10.0.1.125,374,move_up,-0.330,-0.330,-0.330,0.000,0.000,0.000
1605122192005284096,10.0.1.125,375,move_up,-0.310,-0.310,-0.310,0.000,0.000,0.000
1605122193474744064,10.0.1.125,427,move_up,-0.290,-0.290,-0.290,0.000,0.000,0.000
1605122194890817024,10.0.1.125,376,move_up,-0.270,-0.270,-0.270,0.000,0.000,0.000
1605122196325371904,10.0.1.125,396,move_up,-0.250,-0.250,-0.250,0.000,0.000,0.000
1605122197765412096,10.0.1.125,381,move_up,-0.230,-0.230,-0.230,0.000,0.000,0.000
1605122199196584960,10.0.1.125,363,move_up,-0.210,-0.210,-0.210,0.000,0.000,0.000
1605122200630528000,10.0.1.125,367,move_up,-0.190,-0.190,-0.190,0.000,0.000,0.000
1605122201748768000,10.0.1.125,42,place,-0.180,-0.180,-0.180,0.000,0.000,0.000
1605122202745573120,10.0.1.125,39,place,-0.170,-0.170,-0.170,0.000,0.000,0.000
1605122203747927040,10.0.1.125,40,place,-0.160,-0.160,-0.160,0.000,0.000,0.000
1605122204745232128,10.0.1.125,36,place,-0.150,-0.150,-0.150,0.000,0.000,0.000
1605122205745606912,10.0.1.125,35,place,-0.140,-0.140,-0.140,0.000,0.000,0.000
1605122206744872960,10.0.1.125,33,place,-0.130,-0.130,-0.130,0.000,0.000,0.000
1605122207745775872,10.0.1.125,33,place,-0.120,-0.120,-0.120,0.000,0.000,0.000
1605122208751336192,10.0.1.125,37,place,-0.110,-0.110,-0.110,0.000,0.000,0.000
1605122209764939008,10.0.1.125,49,place,-0.100,-0.100,-0.100,0.000,0.000,0.000
1605122210765280000,10.0.1.125,47,place,-0.090,-0.090,-0.090,0.000,0.000,0.000
1605122211765675008,10.0.1.125,46,place,-0.080,-0.080,-0.080,0.000,0.000,0.000
1605122212765753088,10.0.1.125,45,place,-0.070,-0.070,-0.070,0.000,0.000,0.000
1605122213765507840,10.0.1.125,44,place,-0.060,-0.060,-0.060,0.000,0.000,0.000
1605122214764836096,10.0.1.125,42,place,-0.050,-0.050,-0.050,0.000,0.000,0.000
1605122215766874112,10.0.1.125,42,place,-0.040,-0.040,-0.040,0.000,0.000,0.000
1605122216765857024,10.0.1.125,40,place,-0.030,-0.030,-0.030,0.000,0.000,0.000
1605122217765011200,10.0.1.125,38,place,-0.020,-0.020,-0.020,0.000,0.000,0.000
1605122218764528896,10.0.1.125,36,place,-0.010,-0.010,-0.010,0.000,0.000,0.000
1605122219764733184,10.0.1.125,35,place,0.000,0.000,0.000,0.000,0.000,0.000
1605122221154494976,10.0.1.125,423,move_down,-0.020,-0.020,-0.020,0.000,0.000,0.000
1605122222621346048,10.0.1.125,399,move_down,-0.040,-0.040,-0.040,0.000,0.000,0.000
1605122224025393920,10.0.1.125,393,move_down,-0.060,-0.060,-0.060,0.000,0.000,0.000
1605122225450028800,10.0.1.125,399,move_down,-0.080,-0.080,-0.080,0.000,0.000,0.000
1605122226901485056,10.0.1.125,384,move_down,-0.100,-0.100,-0.100,0.000,0.000,0.000
1605122228319077888,10.0.1.125,360,move_down,-0.120,-0.120,-0.120,0.000,0.000,0.000
1605122229806505984,10.0.1.125,415,move_down,-0.140,-0.140,-0.140,0.000,0.000,0.000
1605122231282959872,10.0.1.125,411,move_down,-0.160,-0.160,-0.160,0.000,0.000,0.000
1605122232785032960,10.0.1.125,416,move_down,-0.180,-0.180,-0.180,0.000,0.000,0.000
1605122234225172992,10.0.1.125,397,move_down,-0.200,-0.200,-0.200,0.000,0.000,0.000
1605122235735153920,10.0.1.125,448,move_down,-0.220,-0.220,-0.220,0.000,0.000,0.000
1605122237171654912,10.0.1.125,387,move_down,-0.240,-0.240,-0.240,0.000,0.000,0.000
1605122238636747008,10.0.1.125,405,move_down,-0.260,-0.260,-0.260,0.000,0.000,0.000
1605122240125910016,10.0.1.125,449,move_down,-0.280,-0.280,-0.280,0.000,0.000,0.000
1605122241595289088,10.0.1.125,395,move_down,-0.300,-0.300,-0.300,0.000,0.000,0.000
1605122242999977216,10.0.1.125,379,move_down,-0.320,-0.320,-0.320,0.000,0.000,0.000
1605122244450205952,10.0.1.125,399,move_down,-0.340,-0.340,-0.340,0.000,0.000,0.000
1605122245996367104,10.0.1.125,491,move_down,-0.360,-0.360,-0.360,0.000,0.000,0.000
1605122247414499072,10.0.1.125,383,move_down,-0.380,-0.380,-0.380,0.000,0.000,0.000
1605122248856278016,10.0.1.125,395,move_down,-0.400,-0.400,-0.400,0.000,0.000,0.000
1605122250346178048,10.0.1.125,408,move_down,-0.420,-0.420,-0.420,0.000,0.000,0.000
1605122251780545024,10.0.1.125,389,move_down,-0.440,-0.440,-0.440,0.000,0.000,0.000
1605122253221093888,10.0.1.125,418,move_down,-0.460,-0.460,-0.460,0.000,0.000,0.000
1605122254696530944,10.0.1.125,415,move_down,-0.480,-0.480,-0.480,0.000,0.000,0.000
1605122256175270912,10.0.1.125,423,move_down,-0.500,-0.500,-0.500,0.000,0.000,0.000
1605122257624978176,10.0.1.125,385,move_down,-0.520,-0.520,-0.520,0.000,0.000,0.000
1605122259095149056,10.0.1.125,410,move_down,-0.540,-0.540,-0.540,0.000,0.000,0.000
1605122260576199936,10.0.1.125,427,move_down,-0.560,-0.560,-0.560,0.000,0.000,0.000
1605122261967677952,10.0.1.125,378,move_down,-0.580,-0.580,-0.580,0.000,0.000,0.000
1605122263095088128,10.0.1.125,47,pick,-0.590,-0.590,-0.590,0.000,0.000,0.000
1605122264093058048,10.0.1.125,44,pick,-0.600,-0.600,-0.600,0.000,0.000,0.000
1605122265091074816,10.0.1.125,41,pick,-0.610,-0.610,-0.610,0.000,0.000,0.000
1605122266090046976,10.0.1.125,38,pick,-0.620,-0.620,-0.620,0.000,0.000,0.000
1605122267093502976,10.0.1.125,41,pick,-0.630,-0.630,-0.630,0.000,0.000,0.000
1605122268084902144,10.0.1.125,32,pick,-0.640,-0.640,-0.640,0.000,0.000,0.000
1605122269105178112,10.0.1.125,49,pick,-0.650,-0.650,-0.650,0.000,0.000,0.000
1605122270106278912,10.0.1.125,49,pick,-0.660,-0.660,-0.660,0.000,0.000,0.000
1605122271087853056,10.0.1.125,29,pick,-0.670,-0.670,-0.670,0.000,0.000,0.000
1605122272105950208,10.0.1.125,46,pick,-0.680,-0.680,-0.680,0.000,0.000,0.000
1605122273109026048,10.0.1.125,47,pick,-0.690,-0.690,-0.690,0.000,0.000,0.000
1605122274105104896,10.0.1.125,42,pick,-0.700,-0.700,-0.700,0.000,0.000,0.000
1605122275105042944,10.0.1.125,41,pick,-0.710,-0.710,-0.710,0.000,0.000,0.000
1605122276105540096,10.0.1.125,40,pick,-0.720,-0.720,-0.720,0.000,0.000,0.000
1605122277104777984,10.0.1.125,38,pick,-0.730,-0.730,-0.730,0.000,0.000,0.000
1605122278106947840,10.0.1.125,39,pick,-0.740,-0.740,-0.740,0.000,0.000,0.000
1605122279105917952,10.0.1.125,36,pick,-0.750,-0.750,-0.750,0.000,0.000,0.000
1605122280105824000,10.0.1.125,35,pick,-0.760,-0.760,-0.760,0.000,0.000,0.000
1605122281114907904,10.0.1.125,43,pick,-0.770,-0.770,-0.770,0.000,0.000,0.000
1605122282479827968,10.0.1.125,406,move_up,-0.750,-0.750,-0.750,0.000,0.000,0.000
1605122283938107904,10.0.1.125,394,move_up,-0.730,-0.730,-0.730,0.000,0.000,0.000
1605122285375052032,10.0.1.125,411,move_up,-0.710,-0.710,-0.710,0.000,0.000,0.000
1605122286814796032,10.0.1.125,364,move_up,-0.690,-0.690,-0.690,0.000,0.000,0.000
1605122288314749952,10.0.1.125,415,move_up,-0.670,-0.670,-0.670,0.000,0.000,0.000
1605122289735200768,10.0.1.125,389,move_up,-0.650,-0.650,-0.650,0.000,0.000,0.000
1605122291217008128,10.0.1.125,395,move_up,-0.630,-0.630,-0.630,0.000,0.000,0.000
1605122292645507072,10.0.1.125,376,move_up,-0.610,-0.610,-0.610,0.000,0.000,0.000
1605122294120964096,10.0.1.125,397,move_up,-0.590,-0.590,-0.590,0.000,0.000,0.000
1605122295574224896,10.0.1.125,399,move_up,-0.570,-0.570,-0.570,0.000,0.000,0.000
1605122297045246976,10.0.1.125,383,move_up,-0.550,-0.550,-0.550,0.000,0.000,0.000
1605122298515191040,10.0.1.125,401,move_up,-0.530,-0.530,-0.530,0.000,0.000,0.000
1605122299986315008,10.0.1.125,385,move_up,-0.510,-0.510,-0.510,0.000,0.000,0.000
1605122301419128064,10.0.1.125,372,move_up,-0.490,-0.490,-0.490,0.000,0.000,0.000
1605122302935406848,10.0.1.125,412,move_up,-0.470,-0.470,-0.470,0.000,0.000,0.000
1605122304386109952,10.0.1.125,378,move_up,-0.450,-0.450,-0.450,0.000,0.000,0.000
1605122305879947776,10.0.1.125,388,move_up,-0.430,-0.430,-0.430,0.000,0.000,0.000
1605122307388307200,10.0.1.125,385,move_up,-0.410,-0.410,-0.410,0.000,0.000,0.000
1605122308851900928,10.0.1.125,431,move_up,-0.390,-0.390,-0.390,0.000,0.000,0.000
1605122310268248064,10.0.1.125,365,move_up,-0.370,-0.370,-0.370,0.000,0.000,0.000
1605122311735384064,10.0.1.125,383,move_up,-0.350,-0.350,-0.350,0.000,0.000,0.000
1605122313198982912,10.0.1.125,402,move_up,-0.330,-0.330,-0.330,0.000,0.000,0.000
1605122314700248064,10.0.1.125,424,move_up,-0.310,-0.310,-0.310,0.000,0.000,0.000
1605122316166984192,10.0.1.125,401,move_up,-0.290,-0.290,-0.290,0.000,0.000,0.000
1605122317588186112,10.0.1.125,383,move_up,-0.270,-0.270,-0.270,0.000,0.000,0.000
1605122319065992192,10.0.1.125,426,move_up,-0.250,-0.250,-0.250,0.000,0.000,0.000
1605122320479620096,10.0.1.125,394,move_up,-0.230,-0.230,-0.230,0.000,0.000,0.000
1605122321986212864,10.0.1.125,436,move_up,-0.210,-0.210,-0.210,0.000,0.000,0.000
1605122323451919104,10.0.1.125,410,move_up,-0.190,-0.190,-0.190,0.000,0.000,0.000
1605122324585549056,10.0.1.125,49,place,-0.180,-0.180,-0.180,0.000,0.000,0.000
1605122325585267968,10.0.1.125,47,place,-0.170,-0.170,-0.170,0.000,0.000,0.000
1605122326585388800,10.0.1.125,46,place,-0.160,-0.160,-0.160,0.000,0.000,0.000
1605122327584800000,10.0.1.125,44,place,-0.150,-0.150,-0.150,0.000,0.000,0.000
1605122328585108992,10.0.1.125,43,place,-0.140,-0.140,-0.140,0.000,0.000,0.000
1605122329581442048,10.0.1.125,38,place,-0.130,-0.130,-0.130,0.000,0.000,0.000
1605122330584871936,10.0.1.125,41,place,-0.120,-0.120,-0.120,0.000,0.000,0.000
1605122331584943104,10.0.1.125,39,place,-0.110,-0.110,-0.110,0.000,0.000,0.000
1605122332585323008,10.0.1.125,39,place,-0.100,-0.100,-0.100,0.000,0.000,0.000
1605122333588313088,10.0.1.125,40,place,-0.090,-0.090,-0.090,0.000,0.000,0.000
1605122334587134976,10.0.1.125,38,place,-0.080,-0.080,-0.080,0.000,0.000,0.000
1605122335587308032,10.0.1.125,37,place,-0.070,-0.070,-0.070,0.000,0.000,0.000
1605122336584584960,10.0.1.125,33,place,-0.060,-0.060,-0.060,0.000,0.000,0.000
1605122337585361920,10.0.1.125,32,place,-0.050,-0.050,-0.050,0.000,0.000,0.000
1605122338584633088,10.0.1.125,30,place,-0.040,-0.040,-0.040,0.000,0.000,0.000
1605122339610027008,10.0.1.125,54,place,-0.030,-0.030,-0.030,0.000,0.000,0.000
1605122340605122048,10.0.1.125,48,place,-0.020,-0.020,-0.020,0.000,0.000,0.000
1605122341604841984,10.0.1.125,46,place,-0.010,-0.010,-0.010,0.000,0.000,0.000
1605122342606993920,10.0.1.125,47,place,0.000,0.000,0.000,0.000,0.000,0.000
1605122343993181952,10.0.1.125,433,move_down,-0.020,-0.020,-0.020,0.000,0.000,0.000
1605122345381259008,10.0.1.125,387,move_down,-0.040,-0.040,-0.040,0.000,0.000,0.000
1605122346824353024,10.0.1.125,394,move_down,-0.060,-0.060,-0.060,0.000,0.000,0.000
1605122348264658944,10.0.1.125,376,move_down,-0.080,-0.080,-0.080,0.000,0.000,0.000
1605122349700588032,10.0.1.125,359,move_down,-0.100,-0.100,-0.100,0.000,0.000,0.000
1605122351135270144,10.0.1.125,383,move_down,-0.120,-0.120,-0.120,0.000,0.000,0.000
1605122352603458816,10.0.1.125,405,move_down,-0.140,-0.140,-0.140,0.000,0.000,0.000
1605122353986323968,10.0.1.125,373,move_down,-0.160,-0.160,-0.160,0.000,0.000,0.000
1605122355385648896,10.0.1.125,361,move_down,-0.180,-0.180,-0.180,0.000,0.000,0.000
1605122356825419776,10.0.1.125,384,move_down,-0.200,-0.200,-0.200,0.000,0.000,0.000
1605122358265389056,10.0.1.125,369,move_down,-0.220,-0.220,-0.220,0.000,0.000,0.000
1605122359735840000,10.0.1.125,387,move_down,-0.240,-0.240,-0.240,0.000,0.000,0.000
1605122361225474048,10.0.1.125,401,move_down,-0.260,-0.260,-0.260,0.000,0.000,0.000
1605122362705007104,10.0.1.125,393,move_down,-0.280,-0.280,-0.280,0.000,0.000,0.000
1605122364125430016,10.0.1.125,371,move_down,-0.300,-0.300,-0.300,0.000,0.000,0.000
1605122365544920064,10.0.1.125,368,move_down,-0.320,-0.320,-0.320,0.000,0.000,0.000
1605122366986306048,10.0.1.125,398,move_down,-0.340,-0.340,-0.340,0.000,0.000,0.000
1605122368426175232,10.0.1.125,390,move_down,-0.360,-0.360,-0.360,0.000,0.000,0.000
1605122369896104960,10.0.1.125,417,move_down,-0.380,-0.380,-0.380,0.000,0.000,0.000
1605122371370775040,10.0.1.125,414,move_down,-0.400,-0.400,-0.400,0.000,0.000,0.000
1605122372855161856,10.0.1.125,381,move_down,-0.420,-0.420,-0.420,0.000,0.000,0.000
1605122374376941824,10.0.1.125,418,move_down,-0.440,-0.440,-0.440,0.000,0.000,0.000
1605122375857676032,10.0.1.125,423,move_down,-0.460,-0.460,-0.460,0.000,0.000,0.000
1605122377347390976,10.0.1.125,434,move_down,-0.480,-0.480,-0.480,0.000,0.000,0.000
1605122378775122944,10.0.1.125,386,move_down,-0.500,-0.500,-0.500,0.000,0.000,0.000
1605122380198190848,10.0.1.125,400,move_down,-0.520,-0.520,-0.520,0.000,0.000,0.000
1605122381695717120,10.0.1.125,421,move_down,-0.540,-0.540,-0.540,0.000,0.000,0.000
1605122383125917952,10.0.1.125,378,move_down,-0.560,-0.560,-0.560,0.000,0.000,0.000
1605122384580288768,10.0.1.125,404,move_down,-0.580,-0.580,-0.580,0.000,0.000,0.000
1605122385708787968,10.0.1.125,47,pick,-0.590,-0.590,-0.590,0.000,0.000,0.000
1605122386702144000,10.0.1.125,39,pick,-0.600,-0.600,-0.600,0.000,0.000,0.000
1605122387716865024,10.0.1.125,52,pick,-0.610,-0.610,-0.610,0.000,0.000,0.000
1605122388699950848,10.0.1.125,34,pick,-0.620,-0.620,-0.620,0.000,0.000,0.000
1605122389698704128,10.0.1.125,31,pick,-0.630,-0.630,-0.630,0.000,0.000,0.000
1605122390723427072,10.0.1.125,55,pick,-0.640,-0.640,-0.640,0.000,0.000,0.000
1605122391718710016,10.0.1.125,49,pick,-0.650,-0.650,-0.650,0.000,0.000,0.000
1605122392715781888,10.0.1.125,45,pick,-0.660,-0.660,-0.660,0.000,0.000,0.000
1605122393715905792,10.0.1.125,43,pick,-0.670,-0.670,-0.670,0.000,0.000,0.000
1605122394723485952,10.0.1.125,50,pick,-0.680,-0.680,-0.680,0.000,0.000,0.000
1605122395718238976,10.0.1.125,43,pick,-0.690,-0.690,-0.690,0.000,0.000,0.000
1605122396715568896,10.0.1.125,39,pick,-0.700,-0.700,-0.700,0.000,0.000,0.000
1605122397715408128,10.0.1.125,38,pick,-0.710,-0.710,-0.710,0.000,0.000,0.000
1605122398716582144,10.0.1.125,38,pick,-0.720,-0.720,-0.720,0.000,0.000,0.000
1605122400716727040,10.0.1.125,36,pick,-0.740,-0.740,-0.740,0.000,0.000,0.000
1605122401716538880,10.0.1.125,34,pick,-0.750,-0.750,-0.750,0.000,0.000,0.000
1605122402715085056,10.0.1.125,31,pick,-0.760,-0.760,-0.760,0.000,0.000,0.000
1605122403715831040,10.0.1.125,32,pick,-0.770,-0.770,-0.770,0.000,0.000,0.000
1605122405101438976,10.0.1.125,416,move_up,-0.750,-0.750,-0.750,0.000,0.000,0.000
1605122406578994944,10.0.1.125,399,move_up,-0.730,-0.730,-0.730,0.000,0.000,0.000
1605122408027708928,10.0.1.125,373,move_up,-0.710,-0.710,-0.710,0.000,0.000,0.000
1605122409466466816,10.0.1.125,378,move_up,-0.690,-0.690,-0.690,0.000,0.000,0.000
1605122410988922112,10.0.1.125,405,move_up,-0.670,-0.670,-0.670,0.000,0.000,0.000
1605122412442737152,10.0.1.125,377,move_up,-0.650,-0.650,-0.650,0.000,0.000,0.000
1605122413916420864,10.0.1.125,372,move_up,-0.630,-0.630,-0.630,0.000,0.000,0.000
1605122415386377984,10.0.1.125,404,move_up,-0.610,-0.610,-0.610,0.000,0.000,0.000
1605122416817037056,10.0.1.125,387,move_up,-0.590,-0.590,-0.590,0.000,0.000,0.000
1605122418287753216,10.0.1.125,399,move_up,-0.570,-0.570,-0.570,0.000,0.000,0.000
1605122419747986944,10.0.1.125,402,move_up,-0.550,-0.550,-0.550,0.000,0.000,0.000
1605122421220526080,10.0.1.125,388,move_up,-0.530,-0.530,-0.530,0.000,0.000,0.000
1605122422690285824,10.0.1.125,374,move_up,-0.510,-0.510,-0.510,0.000,0.000,0.000
1605122424115705088,10.0.1.125,378,move_up,-0.490,-0.490,-0.490,0.000,0.000,0.000
1605122425569335040,10.0.1.125,389,move_up,-0.470,-0.470,-0.470,0.000,0.000,0.000
1605122427008558080,10.0.1.125,356,move_up,-0.450,-0.450,-0.450,0.000,0.000,0.000
1605122428487994880,10.0.1.125,399,move_up,-0.430,-0.430,-0.430,0.000,0.000,0.000
1605122429940162816,10.0.1.125,398,move_up,-0.410,-0.410,-0.410,0.000,0.000,0.000
1605122431387158016,10.0.1.125,394,move_up,-0.390,-0.390,-0.390,0.000,0.000,0.000
1605122432778213120,10.0.1.125,368,move_up,-0.370,-0.370,-0.370,0.000,0.000,0.000
1605122434230846976,10.0.1.125,396,move_up,-0.350,-0.350,-0.350,0.000,0.000,0.000
1605122435740637952,10.0.1.125,433,move_up,-0.330,-0.330,-0.330,0.000,0.000,0.000
1605122437188521984,10.0.1.125,389,move_up,-0.310,-0.310,-0.310,0.000,0.000,0.000
1605122438658797056,10.0.1.125,409,move_up,-0.290,-0.290,-0.290,0.000,0.000,0.000
1605122440140715008,10.0.1.125,409,move_up,-0.270,-0.270,-0.270,0.000,0.000,0.000
1605122441589036032,10.0.1.125,377,move_up,-0.250,-0.250,-0.250,0.000,0.000,0.000
1605122443056322048,10.0.1.125,412,move_up,-0.230,-0.230,-0.230,0.000,0.000,0.000
1605122444553658112,10.0.1.125,411,move_up,-0.210,-0.210,-0.210,0.000,0.000,0.000
1605122446001872896,10.0.1.125,403,move_up,-0.190,-0.190,-0.190,0.000,0.000,0.000
1605122447138530048,10.0.1.125,32,place,-0.180,-0.180,-0.180,0.000,0.000,0.000
1605122448161113856,10.0.1.125,53,place,-0.170,-0.170,-0.170,0.000,0.000,0.000
1605122449161217024,10.0.1.125,52,place,-0.160,-0.160,-0.160,0.000,0.000,0.000
1605122450158494976,10.0.1.125,48,place,-0.150,-0.150,-0.150,0.000,0.000,0.000
1605122451163767040,10.0.1.125,51,place,-0.140,-0.140,-0.140,0.000,0.000,0.000
1605122452159395072,10.0.1.125,45,place,-0.130,-0.130,-0.130,0.000,0.000,0.000
1605122453161448960,10.0.1.125,47,place,-0.120,-0.120,-0.120,0.000,0.000,0.000
1605122454160851968,10.0.1.125,45,place,-0.110,-0.110,-0.110,0.000,0.000,0.000
1605122455159691008,10.0.1.125,42,place,-0.100,-0.100,-0.100,0.000,0.000,0.000
1605122456158334976,10.0.1.125,40,place,-0.090,-0.090,-0.090,0.000,0.000,0.000
1605122457159596800,10.0.1.125,39,place,-0.080,-0.080,-0.080,0.000,0.000,0.000
1605122458159544832,10.0.1.125,38,place,-0.070,-0.070,-0.070,0.000,0.000,0.000
1605122459159845120,10.0.1.125,37,place,-0.060,-0.060,-0.060,0.000,0.000,0.000
1605122460157847808,10.0.1.125,34,place,-0.050,-0.050,-0.050,0.000,0.000,0.000
1605122461158760960,10.0.1.125,33,place,-0.040,-0.040,-0.040,0.000,0.000,0.000
1605122462158021888,10.0.1.125,31,place,-0.030,-0.030,-0.030,0.000,0.000,0.000
1605122463180006144,10.0.1.125,52,place,-0.020,-0.020,-0.020,0.000,0.000,0.000
1605122464180582144,10.0.1.125,51,place,-0.010,-0.010,-0.010,0.000,0.000,0.000
1605122465184250112,10.0.1.125,50,place,0.000,0.000,0.000,0.000,0.000,0.000
1605122466507816960,10.0.1.125,373,move_down,-0.020,-0.020,-0.020,0.000,0.000,0.000
1605122467972836096,10.0.1.125,410,move_down,-0.040,-0.040,-0.040,0.000,0.000,0.000
1605122469495585024,10.0.1.125,437,move_down,-0.060,-0.060,-0.060,0.000,0.000,0.000
1605122470984550912,10.0.1.125,412,move_down,-0.080,-0.080,-0.080,0.000,0.000,0.000
1605122472457849088,10.0.1.125,436,move_down,-0.100,-0.100,-0.100,0.000,0.000,0.000
1605122473943450880,10.0.1.125,424,move_down,-0.120,-0.120,-0.120,0.000,0.000,0.000
1605122475419043072,10.0.1.125,397,move_down,-0.140,-0.140,-0.140,0.000,0.000,0.000
1605122476857629952,10.0.1.125,387,move_down,-0.160,-0.160,-0.160,0.000,0.000,0.000
1605122478291599104,10.0.1.125,383,move_down,-0.180,-0.180,-0.180,0.000,0.000,0.000
1605122479787744000,10.0.1.125,426,move_down,-0.200,-0.200,-0.200,0.000,0.000,0.000
1605122481307804160,10.0.1.125,413,move_down,-0.220,-0.220,-0.220,0.000,0.000,0.000
1605122482748406784,10.0.1.125,389,move_down,-0.240,-0.240,-0.240,0.000,0.000,0.000
1605122484211298816,10.0.1.125,395,move_down,-0.260,-0.260,-0.260,0.000,0.000,0.000
1605122485708734976,10.0.1.125,411,move_down,-0.280,-0.280,-0.280,0.000,0.000,0.000
1605122487138691072,10.0.1.125,387,move_down,-0.300,-0.300,-0.300,0.000,0.000,0.000
1605122488629534976,10.0.1.125,402,move_down,-0.320,-0.320,-0.320,0.000,0.000,0.000
1605122490128171008,10.0.1.125,390,move_down,-0.340,-0.340,-0.340,0.000,0.000,0.000
1605122491638868992,10.0.1.125,422,move_down,-0.360,-0.360,-0.360,0.000,0.000,0.000
1605122493086621952,10.0.1.125,382,move_down,-0.380,-0.380,-0.380,0.000,0.000,0.000
1605122494573851136,10.0.1.125,381,move_down,-0.400,-0.400,-0.400,0.000,0.000,0.000
1605122496018162944,10.0.1.125,381,move_down,-0.420,-0.420,-0.420,0.000,0.000,0.000
1605122497489783040,10.0.1.125,409,move_down,-0.440,-0.440,-0.440,0.000,0.000,0.000
1605122498981491968,10.0.1.125,400,move_down,-0.460,-0.460,-0.460,0.000,0.000,0.000
1605122500461576960,10.0.1.125,398,move_down,-0.480,-0.480,-0.480,0.000,0.000,0.000
1605122501950716928,10.0.1.125,413,move_down,-0.500,-0.500,-0.500,0.000,0.000,0.000
1605122503441550080,10.0.1.125,427,move_down,-0.520,-0.520,-0.520,0.000,0.000,0.000
1605122504896009984,10.0.1.125,399,move_down,-0.540,-0.540,-0.540,0.000,0.000,0.000
1605122506329155840,10.0.1.125,378,move_down,-0.560,-0.560,-0.560,0.000,0.000,0.000
1605122507786642176,10.0.1.125,391,move_down,-0.580,-0.580,-0.580,0.000,0.000,0.000
1605122508866842112,10.0.1.125,56,pick,-0.590,-0.590,-0.590,0.000,0.000,0.000
1605122509865936128,10.0.1.125,54,pick,-0.600,-0.600,-0.600,0.000,0.000,0.000
1605122510855143168,10.0.1.125,42,pick,-0.610,-0.610,-0.610,0.000,0.000,0.000
1605122511858955008,10.0.1.125,44,pick,-0.620,-0.620,-0.620,0.000,0.000,0.000
1605122512858311936,10.0.1.125,42,pick,-0.630,-0.630,-0.630,0.000,0.000,0.000
1605122513860589056,10.0.1.125,43,pick,-0.640,-0.640,-0.640,0.000,0.000,0.000
1605122514858297088,10.0.1.125,40,pick,-0.650,-0.650,-0.650,0.000,0.000,0.000
1605122515857792000,10.0.1.125,37,pick,-0.660,-0.660,-0.660,0.000,0.000,0.000
1605122516858532864,10.0.1.125,37,pick,-0.670,-0.670,-0.670,0.000,0.000,0.000
1605122517861892096,10.0.1.125,39,pick,-0.680,-0.680,-0.680,0.000,0.000,0.000
1605122518858056960,10.0.1.125,34,pick,-0.690,-0.690,-0.690,0.000,0.000,0.000
1605122519888762880,10.0.1.125,63,pick,-0.700,-0.700,-0.700,0.000,0.000,0.000
1605122520880864000,10.0.1.125,54,pick,-0.710,-0.710,-0.710,0.000,0.000,0.000
1605122521886424064,10.0.1.125,58,pick,-0.720,-0.720,-0.720,0.000,0.000,0.000
1605122522882842112,10.0.1.125,53,pick,-0.730,-0.730,-0.730,0.000,0.000,0.000
1605122523888590080,10.0.1.125,58,pick,-0.740,-0.740,-0.740,0.000,0.000,0.000
1605122524881940992,10.0.1.125,50,pick,-0.750,-0.750,-0.750,0.000,0.000,0.000
1605122525887270912,10.0.1.125,54,pick,-0.760,-0.760,-0.760,0.000,0.000,0.000
1605122526884007936,10.0.1.125,50,pick,-0.770,-0.770,-0.770,0.000,0.000,0.000
1605122528284080128,10.0.1.125,448,move_up,-0.750,-0.750,-0.750,0.000,0.000,0.000
1605122529712805888,10.0.1.125,383,move_up,-0.730,-0.730,-0.730,0.000,0.000,0.000
1605122531188916992,10.0.1.125,428,move_up,-0.710,-0.710,-0.710,0.000,0.000,0.000
1605122532712857856,10.0.1.125,421,move_up,-0.690,-0.690,-0.690,0.000,0.000,0.000
1605122534203099904,10.0.1.125,414,move_up,-0.670,-0.670,-0.670,0.000,0.000,0.000
1605122535691684864,10.0.1.125,385,move_up,-0.650,-0.650,-0.650,0.000,0.000,0.000
1605122537133543936,10.0.1.125,390,move_up,-0.630,-0.630,-0.630,0.000,0.000,0.000
1605122538622937088,10.0.1.125,436,move_up,-0.610,-0.610,-0.610,0.000,0.000,0.000
1605122540066843904,10.0.1.125,442,move_up,-0.590,-0.590,-0.590,0.000,0.000,0.000
1605122541524036864,10.0.1.125,402,move_up,-0.570,-0.570,-0.570,0.000,0.000,0.000
1605122543039410176,10.0.1.125,424,move_up,-0.550,-0.550,-0.550,0.000,0.000,0.000
1605122544509913856,10.0.1.125,384,move_up,-0.530,-0.530,-0.530,0.000,0.000,0.000
1605122546008816896,10.0.1.125,401,move_up,-0.510,-0.510,-0.510,0.000,0.000,0.000
1605122547530812928,10.0.1.125,445,move_up,-0.490,-0.490,-0.490,0.000,0.000,0.000
1605122549059528192,10.0.1.125,439,move_up,-0.470,-0.470,-0.470,0.000,0.000,0.000
1605122550498336000,10.0.1.125,382,move_up,-0.450,-0.450,-0.450,0.000,0.000,0.000
1605122551961993984,10.0.1.125,405,move_up,-0.430,-0.430,-0.430,0.000,0.000,0.000
1605122553422425088,10.0.1.125,376,move_up,-0.410,-0.410,-0.410,0.000,0.000,0.000
