milangroshev/digital-twin-scalability/logs/run5-3600s-nan/10.0.1.122.csv
timestamp,node,latency,action,joint_1,joint_2,joint_3,joint_4,joint_5,joint_6
1605191516374407936,10.0.1.122,NaN,,0.000,0.000,0.000,0.000,0.000,0.000
1605191518380158976,10.0.1.122,2005,,0.000,0.000,0.000,0.000,0.000,0.000
1605191520860038144,10.0.1.122,480,move_down,-0.020,-0.020,-0.020,0.000,0.000,0.000
1605191522270141952,10.0.1.122,364,move_down,-0.040,-0.040,-0.040,0.000,0.000,0.000
1605191523679079936,10.0.1.122,349,move_down,-0.060,-0.060,-0.060,0.000,0.000,0.000
1605191525109168896,10.0.1.122,363,move_down,-0.080,-0.080,-0.080,0.000,0.000,0.000
1605191526538600960,10.0.1.122,367,move_down,-0.100,-0.100,-0.100,0.000,0.000,0.000
1605191527928845056,10.0.1.122,348,move_down,-0.120,-0.120,-0.120,0.000,0.000,0.000
1605191529342331904,10.0.1.122,350,move_down,-0.140,-0.140,-0.140,0.000,0.000,0.000
1605191530749591040,10.0.1.122,347,move_down,-0.160,-0.160,-0.160,0.000,0.000,0.000
1605191532168948992,10.0.1.122,356,move_down,-0.180,-0.180,-0.180,0.000,0.000,0.000
1605191533618746112,10.0.1.122,398,move_down,-0.200,-0.200,-0.200,0.000,0.000,0.000
1605191535016185088,10.0.1.122,356,move_down,-0.220,-0.220,-0.220,0.000,0.000,0.000
1605191536408529920,10.0.1.122,374,move_down,-0.240,-0.240,-0.240,0.000,0.000,0.000
1605191537799591936,10.0.1.122,357,move_down,-0.260,-0.260,-0.260,0.000,0.000,0.000
1605191539249913088,10.0.1.122,380,move_down,-0.280,-0.280,-0.280,0.000,0.000,0.000
1605191540679543040,10.0.1.122,370,move_down,-0.300,-0.300,-0.300,0.000,0.000,0.000
1605191542109879040,10.0.1.122,377,move_down,-0.320,-0.320,-0.320,0.000,0.000,0.000
1605191543519378944,10.0.1.122,347,move_down,-0.340,-0.340,-0.340,0.000,0.000,0.000
1605191544909390848,10.0.1.122,366,move_down,-0.360,-0.360,-0.360,0.000,0.000,0.000
1605191546318799104,10.0.1.122,361,move_down,-0.380,-0.380,-0.380,0.000,0.000,0.000
1605191547769243904,10.0.1.122,386,move_down,-0.400,-0.400,-0.400,0.000,0.000,0.000
1605191549179416064,10.0.1.122,381,move_down,-0.420,-0.420,-0.420,0.000,0.000,0.000
1605191550589425920,10.0.1.122,350,move_down,-0.440,-0.440,-0.440,0.000,0.000,0.000
1605191552019252992,10.0.1.122,366,move_down,-0.460,-0.460,-0.460,0.000,0.000,0.000
1605191553448921856,10.0.1.122,388,move_down,-0.480,-0.480,-0.480,0.000,0.000,0.000
1605191554889938176,10.0.1.122,390,move_down,-0.500,-0.500,-0.500,0.000,0.000,0.000
1605191556339065088,10.0.1.122,399,move_down,-0.520,-0.520,-0.520,0.000,0.000,0.000
1605191557729180160,10.0.1.122,366,move_down,-0.540,-0.540,-0.540,0.000,0.000,0.000
1605191559138840832,10.0.1.122,365,move_down,-0.560,-0.560,-0.560,0.000,0.000,0.000
1605191560549360128,10.0.1.122,365,move_down,-0.580,-0.580,-0.580,0.000,0.000,0.000
1605191561630289920,10.0.1.122,38,pick,-0.590,-0.590,-0.590,0.000,0.000,0.000
1605191562629292032,10.0.1.122,36,pick,-0.600,-0.600,-0.600,0.000,0.000,0.000
1605191563630156032,10.0.1.122,36,pick,-0.610,-0.610,-0.610,0.000,0.000,0.000
1605191564628776192,10.0.1.122,33,pick,-0.620,-0.620,-0.620,0.000,0.000,0.000
1605191565628495872,10.0.1.122,31,pick,-0.630,-0.630,-0.630,0.000,0.000,0.000
1605191566649121024,10.0.1.122,50,pick,-0.640,-0.640,-0.640,0.000,0.000,0.000
1605191567649187072,10.0.1.122,49,pick,-0.650,-0.650,-0.650,0.000,0.000,0.000
1605191568649457920,10.0.1.122,48,pick,-0.660,-0.660,-0.660,0.000,0.000,0.000
1605191569648779008,10.0.1.122,46,pick,-0.670,-0.670,-0.670,0.000,0.000,0.000
1605191570649792000,10.0.1.122,45,pick,-0.680,-0.680,-0.680,0.000,0.000,0.000
1605191571648644096,10.0.1.122,43,pick,-0.690,-0.690,-0.690,0.000,0.000,0.000
1605191572650834944,10.0.1.122,44,pick,-0.700,-0.700,-0.700,0.000,0.000,0.000
1605191573648871936,10.0.1.122,41,pick,-0.710,-0.710,-0.710,0.000,0.000,0.000
1605191574649357056,10.0.1.122,41,pick,-0.720,-0.720,-0.720,0.000,0.000,0.000
1605191575649789184,10.0.1.122,40,pick,-0.730,-0.730,-0.730,0.000,0.000,0.000
1605191576648702976,10.0.1.122,38,pick,-0.740,-0.740,-0.740,0.000,0.000,0.000
1605191577649341952,10.0.1.122,37,pick,-0.750,-0.750,-0.750,0.000,0.000,0.000
1605191578648507136,10.0.1.122,35,pick,-0.760,-0.760,-0.760,0.000,0.000,0.000
1605191579648881920,10.0.1.122,34,pick,-0.770,-0.770,-0.770,0.000,0.000,0.000
1605191580999233024,10.0.1.122,383,move_up,-0.750,-0.750,-0.750,0.000,0.000,0.000
1605191582428891904,10.0.1.122,372,move_up,-0.730,-0.730,-0.730,0.000,0.000,0.000
1605191583839854080,10.0.1.122,365,move_up,-0.710,-0.710,-0.710,0.000,0.000,0.000
1605191585288754944,10.0.1.122,375,move_up,-0.690,-0.690,-0.690,0.000,0.000,0.000
1605191586700005120,10.0.1.122,370,move_up,-0.670,-0.670,-0.670,0.000,0.000,0.000
1605191588109159936,10.0.1.122,365,move_up,-0.650,-0.650,-0.650,0.000,0.000,0.000
1605191589518967040,10.0.1.122,366,move_up,-0.630,-0.630,-0.630,0.000,0.000,0.000
1605191590949209088,10.0.1.122,386,move_up,-0.610,-0.610,-0.610,0.000,0.000,0.000
1605191592358859008,10.0.1.122,357,move_up,-0.590,-0.590,-0.590,0.000,0.000,0.000
1605191593790021888,10.0.1.122,370,move_up,-0.570,-0.570,-0.570,0.000,0.000,0.000
1605191595178814976,10.0.1.122,344,move_up,-0.550,-0.550,-0.550,0.000,0.000,0.000
1605191596628983040,10.0.1.122,370,move_up,-0.530,-0.530,-0.530,0.000,0.000,0.000
1605191598039078912,10.0.1.122,365,move_up,-0.510,-0.510,-0.510,0.000,0.000,0.000
1605191599449479936,10.0.1.122,367,move_up,-0.490,-0.490,-0.490,0.000,0.000,0.000
1605191600861035008,10.0.1.122,370,move_up,-0.470,-0.470,-0.470,0.000,0.000,0.000
1605191602269251072,10.0.1.122,363,move_up,-0.450,-0.450,-0.450,0.000,0.000,0.000
1605191603679426048,10.0.1.122,362,move_up,-0.430,-0.430,-0.430,0.000,0.000,0.000
1605191605109426944,10.0.1.122,352,move_up,-0.410,-0.410,-0.410,0.000,0.000,0.000
1605191606561085952,10.0.1.122,387,move_up,-0.390,-0.390,-0.390,0.000,0.000,0.000
1605191607988908032,10.0.1.122,374,move_up,-0.370,-0.370,-0.370,0.000,0.000,0.000
1605191609359723008,10.0.1.122,374,move_up,-0.350,-0.350,-0.350,0.000,0.000,0.000
1605191610788738048,10.0.1.122,378,move_up,-0.330,-0.330,-0.330,0.000,0.000,0.000
1605191612198991104,10.0.1.122,365,move_up,-0.310,-0.310,-0.310,0.000,0.000,0.000
1605191613609124864,10.0.1.122,365,move_up,-0.290,-0.290,-0.290,0.000,0.000,0.000
1605191615003334912,10.0.1.122,350,move_up,-0.270,-0.270,-0.270,0.000,0.000,0.000
1605191616429212160,10.0.1.122,367,move_up,-0.250,-0.250,-0.250,0.000,0.000,0.000
1605191617858828032,10.0.1.122,383,move_up,-0.230,-0.230,-0.230,0.000,0.000,0.000
1605191619288891904,10.0.1.122,388,move_up,-0.210,-0.210,-0.210,0.000,0.000,0.000
1605191620699289088,10.0.1.122,386,move_up,-0.190,-0.190,-0.190,0.000,0.000,0.000
1605191621760251136,10.0.1.122,35,place,-0.180,-0.180,-0.180,0.000,0.000,0.000
1605191622758886144,10.0.1.122,32,place,-0.170,-0.170,-0.170,0.000,0.000,0.000
1605191623759040000,10.0.1.122,31,place,-0.160,-0.160,-0.160,0.000,0.000,0.000
1605191624779325952,10.0.1.122,50,place,-0.150,-0.150,-0.150,0.000,0.000,0.000
1605191625778964992,10.0.1.122,49,place,-0.140,-0.140,-0.140,0.000,0.000,0.000
1605191626779120896,10.0.1.122,47,place,-0.130,-0.130,-0.130,0.000,0.000,0.000
1605191627779366144,10.0.1.122,46,place,-0.120,-0.120,-0.120,0.000,0.000,0.000
1605191628778994944,10.0.1.122,45,place,-0.110,-0.110,-0.110,0.000,0.000,0.000
1605191629778924032,10.0.1.122,43,place,-0.100,-0.100,-0.100,0.000,0.000,0.000
1605191630778675200,10.0.1.122,42,place,-0.090,-0.090,-0.090,0.000,0.000,0.000
1605191631779019008,10.0.1.122,41,place,-0.080,-0.080,-0.080,0.000,0.000,0.000
1605191632780070144,10.0.1.122,40,place,-0.070,-0.070,-0.070,0.000,0.000,0.000
1605191633779344128,10.0.1.122,38,place,-0.060,-0.060,-0.060,0.000,0.000,0.000
1605191634780428032,10.0.1.122,38,place,-0.050,-0.050,-0.050,0.000,0.000,0.000
1605191635778966784,10.0.1.122,35,place,-0.040,-0.040,-0.040,0.000,0.000,0.000
1605191636779639040,10.0.1.122,35,place,-0.030,-0.030,-0.030,0.000,0.000,0.000
1605191637778971904,10.0.1.122,33,place,-0.020,-0.020,-0.020,0.000,0.000,0.000
1605191638779252992,10.0.1.122,32,place,-0.010,-0.010,-0.010,0.000,0.000,0.000
1605191639799006976,10.0.1.122,50,place,0.000,0.000,0.000,0.000,0.000,0.000
1605191641128815872,10.0.1.122,379,move_down,-0.020,-0.020,-0.020,0.000,0.000,0.000
1605191642539024128,10.0.1.122,365,move_down,-0.040,-0.040,-0.040,0.000,0.000,0.000
1605191643969295872,10.0.1.122,380,move_down,-0.060,-0.060,-0.060,0.000,0.000,0.000
1605191645418881024,10.0.1.122,390,move_down,-0.080,-0.080,-0.080,0.000,0.000,0.000
1605191646808503040,10.0.1.122,366,move_down,-0.100,-0.100,-0.100,0.000,0.000,0.000
1605191648218588160,10.0.1.122,366,move_down,-0.120,-0.120,-0.120,0.000,0.000,0.000
1605191649608877056,10.0.1.122,347,move_down,-0.140,-0.140,-0.140,0.000,0.000,0.000
1605191651018637056,10.0.1.122,347,move_down,-0.160,-0.160,-0.160,0.000,0.000,0.000
1605191652449209088,10.0.1.122,368,move_down,-0.180,-0.180,-0.180,0.000,0.000,0.000
1605191653879046912,10.0.1.122,382,move_down,-0.200,-0.200,-0.200,0.000,0.000,0.000
1605191655310516992,10.0.1.122,374,move_down,-0.220,-0.220,-0.220,0.000,0.000,0.000
1605191656728919040,10.0.1.122,375,move_down,-0.240,-0.240,-0.240,0.000,0.000,0.000
1605191658139528960,10.0.1.122,360,move_down,-0.260,-0.260,-0.260,0.000,0.000,0.000
1605191659569037056,10.0.1.122,363,move_down,-0.280,-0.280,-0.280,0.000,0.000,0.000
1605191660958976000,10.0.1.122,345,move_down,-0.300,-0.300,-0.300,0.000,0.000,0.000
1605191662389150976,10.0.1.122,366,move_down,-0.320,-0.320,-0.320,0.000,0.000,0.000
1605191663799220992,10.0.1.122,368,move_down,-0.340,-0.340,-0.340,0.000,0.000,0.000
1605191665229068032,10.0.1.122,382,move_down,-0.360,-0.360,-0.360,0.000,0.000,0.000
1605191666660086016,10.0.1.122,373,move_down,-0.380,-0.380,-0.380,0.000,0.000,0.000
1605191668088613120,10.0.1.122,375,move_down,-0.400,-0.400,-0.400,0.000,0.000,0.000
1605191669519421184,10.0.1.122,381,move_down,-0.420,-0.420,-0.420,0.000,0.000,0.000
1605191670929384960,10.0.1.122,366,move_down,-0.440,-0.440,-0.440,0.000,0.000,0.000
1605191672358899968,10.0.1.122,387,move_down,-0.460,-0.460,-0.460,0.000,0.000,0.000
1605191673768610048,10.0.1.122,381,move_down,-0.480,-0.480,-0.480,0.000,0.000,0.000
1605191675199269120,10.0.1.122,372,move_down,-0.500,-0.500,-0.500,0.000,0.000,0.000
1605191676628819968,10.0.1.122,383,move_down,-0.520,-0.520,-0.520,0.000,0.000,0.000
1605191678059057920,10.0.1.122,387,move_down,-0.540,-0.540,-0.540,0.000,0.000,0.000
1605191679498900992,10.0.1.122,388,move_down,-0.560,-0.560,-0.560,0.000,0.000,0.000
1605191680928615168,10.0.1.122,377,move_down,-0.580,-0.580,-0.580,0.000,0.000,0.000
1605191682029786112,10.0.1.122,39,pick,-0.590,-0.590,-0.590,0.000,0.000,0.000
1605191683029673984,10.0.1.122,37,pick,-0.600,-0.600,-0.600,0.000,0.000,0.000
1605191684028909056,10.0.1.122,35,pick,-0.610,-0.610,-0.610,0.000,0.000,0.000
1605191685029381120,10.0.1.122,35,pick,-0.620,-0.620,-0.620,0.000,0.000,0.000
1605191686029690880,10.0.1.122,34,pick,-0.630,-0.630,-0.630,0.000,0.000,0.000
1605191687029920000,10.0.1.122,33,pick,-0.640,-0.640,-0.640,0.000,0.000,0.000
1605191688049089024,10.0.1.122,50,pick,-0.650,-0.650,-0.650,0.000,0.000,0.000
1605191689048914944,10.0.1.122,49,pick,-0.660,-0.660,-0.660,0.000,0.000,0.000
1605191690048371968,10.0.1.122,47,pick,-0.670,-0.670,-0.670,0.000,0.000,0.000
1605191691049124864,10.0.1.122,47,pick,-0.680,-0.680,-0.680,0.000,0.000,0.000
1605191692049076992,10.0.1.122,46,pick,-0.690,-0.690,-0.690,0.000,0.000,0.000
1605191693049169152,10.0.1.122,45,pick,-0.700,-0.700,-0.700,0.000,0.000,0.000
1605191694049207040,10.0.1.122,43,pick,-0.710,-0.710,-0.710,0.000,0.000,0.000
1605191695048989184,10.0.1.122,42,pick,-0.720,-0.720,-0.720,0.000,0.000,0.000
1605191696049485824,10.0.1.122,41,pick,-0.730,-0.730,-0.730,0.000,0.000,0.000
1605191697049195008,10.0.1.122,40,pick,-0.740,-0.740,-0.740,0.000,0.000,0.000
1605191698048487936,10.0.1.122,38,pick,-0.750,-0.750,-0.750,0.000,0.000,0.000
1605191699049019136,10.0.1.122,37,pick,-0.760,-0.760,-0.760,0.000,0.000,0.000
1605191700049024000,10.0.1.122,36,pick,-0.770,-0.770,-0.770,0.000,0.000,0.000
1605191701389040896,10.0.1.122,374,move_up,-0.750,-0.750,-0.750,0.000,0.000,0.000
1605191702799232000,10.0.1.122,369,move_up,-0.730,-0.730,-0.730,0.000,0.000,0.000
1605191704209136896,10.0.1.122,366,move_up,-0.710,-0.710,-0.710,0.000,0.000,0.000
1605191705619015936,10.0.1.122,364,move_up,-0.690,-0.690,-0.690,0.000,0.000,0.000
1605191707028904960,10.0.1.122,363,move_up,-0.670,-0.670,-0.670,0.000,0.000,0.000
1605191708439117056,10.0.1.122,365,move_up,-0.650,-0.650,-0.650,0.000,0.000,0.000
1605191709848751104,10.0.1.122,365,move_up,-0.630,-0.630,-0.630,0.000,0.000,0.000
1605191711299799040,10.0.1.122,409,move_up,-0.610,-0.610,-0.610,0.000,0.000,0.000
1605191712708771840,10.0.1.122,378,move_up,-0.590,-0.590,-0.590,0.000,0.000,0.000
1605191714119256064,10.0.1.122,364,move_up,-0.570,-0.570,-0.570,0.000,0.000,0.000
1605191715528492800,10.0.1.122,357,move_up,-0.550,-0.550,-0.550,0.000,0.000,0.000
1605191716978857984,10.0.1.122,368,move_up,-0.530,-0.530,-0.530,0.000,0.000,0.000
1605191718389585920,10.0.1.122,356,move_up,-0.510,-0.510,-0.510,0.000,0.000,0.000
1605191719839468032,10.0.1.122,383,move_up,-0.490,-0.490,-0.490,0.000,0.000,0.000
1605191721248920832,10.0.1.122,351,move_up,-0.470,-0.470,-0.470,0.000,0.000,0.000
1605191722678512128,10.0.1.122,364,move_up,-0.450,-0.450,-0.450,0.000,0.000,0.000
1605191724109458944,10.0.1.122,384,move_up,-0.430,-0.430,-0.430,0.000,0.000,0.000
1605191725538831872,10.0.1.122,374,move_up,-0.410,-0.410,-0.410,0.000,0.000,0.000
1605191726938941952,10.0.1.122,355,move_up,-0.390,-0.390,-0.390,0.000,0.000,0.000
1605191728328572160,10.0.1.122,373,move_up,-0.370,-0.370,-0.370,0.000,0.000,0.000
1605191729759137024,10.0.1.122,378,move_up,-0.350,-0.350,-0.350,0.000,0.000,0.000
1605191731189011968,10.0.1.122,368,move_up,-0.330,-0.330,-0.330,0.000,0.000,0.000
1605191732619293952,10.0.1.122,381,move_up,-0.310,-0.310,-0.310,0.000,0.000,0.000
1605191734029068032,10.0.1.122,365,move_up,-0.290,-0.290,-0.290,0.000,0.000,0.000
1605191735439580928,10.0.1.122,367,move_up,-0.270,-0.270,-0.270,0.000,0.000,0.000
1605191736869281024,10.0.1.122,381,move_up,-0.250,-0.250,-0.250,0.000,0.000,0.000
1605191738299112192,10.0.1.122,384,move_up,-0.230,-0.230,-0.230,0.000,0.000,0.000
1605191739729294080,10.0.1.122,369,move_up,-0.210,-0.210,-0.210,0.000,0.000,0.000
1605191741139520000,10.0.1.122,366,move_up,-0.190,-0.190,-0.190,0.000,0.000,0.000
1605191742180204032,10.0.1.122,35,place,-0.180,-0.180,-0.180,0.000,0.000,0.000
1605191743179938048,10.0.1.122,33,place,-0.170,-0.170,-0.170,0.000,0.000,0.000
1605191744178915072,10.0.1.122,31,place,-0.160,-0.160,-0.160,0.000,0.000,0.000
1605191745199089920,10.0.1.122,50,place,-0.150,-0.150,-0.150,0.000,0.000,0.000
1605191746202594048,10.0.1.122,52,place,-0.140,-0.140,-0.140,0.000,0.000,0.000
1605191747198721792,10.0.1.122,47,place,-0.130,-0.130,-0.130,0.000,0.000,0.000
1605191748199739904,10.0.1.122,46,place,-0.120,-0.120,-0.120,0.000,0.000,0.000
1605191749199379968,10.0.1.122,45,place,-0.110,-0.110,-0.110,0.000,0.000,0.000
1605191750198697216,10.0.1.122,43,place,-0.100,-0.100,-0.100,0.000,0.000,0.000
1605191751198898944,10.0.1.122,42,place,-0.090,-0.090,-0.090,0.000,0.000,0.000
1605191752200332032,10.0.1.122,42,place,-0.080,-0.080,-0.080,0.000,0.000,0.000
1605191753200805888,10.0.1.122,41,place,-0.070,-0.070,-0.070,0.000,0.000,0.000
1605191754200276992,10.0.1.122,39,place,-0.060,-0.060,-0.060,0.000,0.000,0.000
1605191755200046080,10.0.1.122,38,place,-0.050,-0.050,-0.050,0.000,0.000,0.000
1605191756199314176,10.0.1.122,36,place,-0.040,-0.040,-0.040,0.000,0.000,0.000
1605191757199755008,10.0.1.122,35,place,-0.030,-0.030,-0.030,0.000,0.000,0.000
1605191758199691008,10.0.1.122,34,place,-0.020,-0.020,-0.020,0.000,0.000,0.000
1605191759198900992,10.0.1.122,32,place,-0.010,-0.010,-0.010,0.000,0.000,0.000
1605191760219109120,10.0.1.122,50,place,0.000,0.000,0.000,0.000,0.000,0.000
1605191761549292032,10.0.1.122,379,move_down,-0.020,-0.020,-0.020,0.000,0.000,0.000
1605191762958843904,10.0.1.122,362,move_down,-0.040,-0.040,-0.040,0.000,0.000,0.000
1605191764369893120,10.0.1.122,345,move_down,-0.060,-0.060,-0.060,0.000,0.000,0.000
1605191765800781056,10.0.1.122,367,move_down,-0.080,-0.080,-0.080,0.000,0.000,0.000
1605191767259051008,10.0.1.122,397,move_down,-0.100,-0.100,-0.100,0.000,0.000,0.000
1605191768669382144,10.0.1.122,382,move_down,-0.120,-0.120,-0.120,0.000,0.000,0.000
1605191770079705856,10.0.1.122,352,move_down,-0.140,-0.140,-0.140,0.000,0.000,0.000
1605191771508776960,10.0.1.122,364,move_down,-0.160,-0.160,-0.160,0.000,0.000,0.000
1605191772919003136,10.0.1.122,365,move_down,-0.180,-0.180,-0.180,0.000,0.000,0.000
1605191774352242944,10.0.1.122,389,move_down,-0.200,-0.200,-0.200,0.000,0.000,0.000
1605191775779002880,10.0.1.122,376,move_down,-0.220,-0.220,-0.220,0.000,0.000,0.000
1605191777189039104,10.0.1.122,370,move_down,-0.240,-0.240,-0.240,0.000,0.000,0.000
1605191778598916096,10.0.1.122,367,move_down,-0.260,-0.260,-0.260,0.000,0.000,0.000
1605191780038849024,10.0.1.122,396,move_down,-0.280,-0.280,-0.280,0.000,0.000,0.000
1605191781449282048,10.0.1.122,363,move_down,-0.300,-0.300,-0.300,0.000,0.000,0.000
1605191782878918912,10.0.1.122,385,move_down,-0.320,-0.320,-0.320,0.000,0.000,0.000
1605191784310368000,10.0.1.122,377,move_down,-0.340,-0.340,-0.340,0.000,0.000,0.000
1605191785742435072,10.0.1.122,386,move_down,-0.360,-0.360,-0.360,0.000,0.000,0.000
1605191787170833152,10.0.1.122,374,move_down,-0.380,-0.380,-0.380,0.000,0.000,0.000
1605191788580272896,10.0.1.122,366,move_down,-0.400,-0.400,-0.400,0.000,0.000,0.000
1605191790009848064,10.0.1.122,383,move_down,-0.420,-0.420,-0.420,0.000,0.000,0.000
1605191791441400064,10.0.1.122,375,move_down,-0.440,-0.440,-0.440,0.000,0.000,0.000
1605191792869788928,10.0.1.122,386,move_down,-0.460,-0.460,-0.460,0.000,0.000,0.000
1605191794299110912,10.0.1.122,375,move_down,-0.480,-0.480,-0.480,0.000,0.000,0.000
1605191795709958144,10.0.1.122,362,move_down,-0.500,-0.500,-0.500,0.000,0.000,0.000
1605191797120225024,10.0.1.122,365,move_down,-0.520,-0.520,-0.520,0.000,0.000,0.000
1605191798530968064,10.0.1.122,367,move_down,-0.540,-0.540,-0.540,0.000,0.000,0.000
1605191799899878144,10.0.1.122,364,move_down,-0.560,-0.560,-0.560,0.000,0.000,0.000
1605191801328915968,10.0.1.122,367,move_down,-0.580,-0.580,-0.580,0.000,0.000,0.000
1605191802409911040,10.0.1.122,38,pick,-0.590,-0.590,-0.590,0.000,0.000,0.000
1605191803410403840,10.0.1.122,37,pick,-0.600,-0.600,-0.600,0.000,0.000,0.000
1605191804409090048,10.0.1.122,34,pick,-0.610,-0.610,-0.610,0.000,0.000,0.000
1605191805412918016,10.0.1.122,37,pick,-0.620,-0.620,-0.620,0.000,0.000,0.000
1605191806409102848,10.0.1.122,32,pick,-0.630,-0.630,-0.630,0.000,0.000,0.000
1605191807408996096,10.0.1.122,30,pick,-0.640,-0.640,-0.640,0.000,0.000,0.000
1605191808429018880,10.0.1.122,49,pick,-0.650,-0.650,-0.650,0.000,0.000,0.000
1605191809429448960,10.0.1.122,49,pick,-0.660,-0.660,-0.660,0.000,0.000,0.000
1605191810429147904,10.0.1.122,48,pick,-0.670,-0.670,-0.670,0.000,0.000,0.000
1605191811430258944,10.0.1.122,48,pick,-0.680,-0.680,-0.680,0.000,0.000,0.000
1605191812428997120,10.0.1.122,45,pick,-0.690,-0.690,-0.690,0.000,0.000,0.000
1605191813428772864,10.0.1.122,43,pick,-0.700,-0.700,-0.700,0.000,0.000,0.000
1605191814429441024,10.0.1.122,43,pick,-0.710,-0.710,-0.710,0.000,0.000,0.000
1605191815429428224,10.0.1.122,42,pick,-0.720,-0.720,-0.720,0.000,0.000,0.000
1605191816428822016,10.0.1.122,40,pick,-0.730,-0.730,-0.730,0.000,0.000,0.000
1605191817429003008,10.0.1.122,38,pick,-0.740,-0.740,-0.740,0.000,0.000,0.000
1605191818429862912,10.0.1.122,38,pick,-0.750,-0.750,-0.750,0.000,0.000,0.000
1605191819428916992,10.0.1.122,36,pick,-0.760,-0.760,-0.760,0.000,0.000,0.000
1605191820428845056,10.0.1.122,34,pick,-0.770,-0.770,-0.770,0.000,0.000,0.000
1605191821779211008,10.0.1.122,384,move_up,-0.750,-0.750,-0.750,0.000,0.000,0.000
1605191823208834048,10.0.1.122,369,move_up,-0.730,-0.730,-0.730,0.000,0.000,0.000
1605191824639009024,10.0.1.122,384,move_up,-0.710,-0.710,-0.710,0.000,0.000,0.000
1605191826049755136,10.0.1.122,366,move_up,-0.690,-0.690,-0.690,0.000,0.000,0.000
1605191827459582208,10.0.1.122,366,move_up,-0.670,-0.670,-0.670,0.000,0.000,0.000
1605191828888984832,10.0.1.122,386,move_up,-0.650,-0.650,-0.650,0.000,0.000,0.000
1605191830340007936,10.0.1.122,396,move_up,-0.630,-0.630,-0.630,0.000,0.000,0.000
1605191831748909056,10.0.1.122,379,move_up,-0.610,-0.610,-0.610,0.000,0.000,0.000
1605191833159024896,10.0.1.122,363,move_up,-0.590,-0.590,-0.590,0.000,0.000,0.000
1605191834609056000,10.0.1.122,370,move_up,-0.570,-0.570,-0.570,0.000,0.000,0.000
1605191836029175040,10.0.1.122,378,move_up,-0.550,-0.550,-0.550,0.000,0.000,0.000
1605191837419148032,10.0.1.122,359,move_up,-0.530,-0.530,-0.530,0.000,0.000,0.000
1605191838848754944,10.0.1.122,364,move_up,-0.510,-0.510,-0.510,0.000,0.000,0.000
1605191840258526976,10.0.1.122,363,move_up,-0.490,-0.490,-0.490,0.000,0.000,0.000
1605191841709267968,10.0.1.122,373,move_up,-0.470,-0.470,-0.470,0.000,0.000,0.000
1605191843139076096,10.0.1.122,379,move_up,-0.450,-0.450,-0.450,0.000,0.000,0.000
1605191844549284096,10.0.1.122,364,move_up,-0.430,-0.430,-0.430,0.000,0.000,0.000
1605191845959238144,10.0.1.122,360,move_up,-0.410,-0.410,-0.410,0.000,0.000,0.000
1605191847408736000,10.0.1.122,378,move_up,-0.390,-0.390,-0.390,0.000,0.000,0.000
1605191848848701952,10.0.1.122,395,move_up,-0.370,-0.370,-0.370,0.000,0.000,0.000
1605191850238491136,10.0.1.122,356,move_up,-0.350,-0.350,-0.350,0.000,0.000,0.000
1605191851668772864,10.0.1.122,366,move_up,-0.330,-0.330,-0.330,0.000,0.000,0.000
1605191853119816192,10.0.1.122,393,move_up,-0.310,-0.310,-0.310,0.000,0.000,0.000
1605191854528901120,10.0.1.122,378,move_up,-0.290,-0.290,-0.290,0.000,0.000,0.000
1605191855958991104,10.0.1.122,384,move_up,-0.270,-0.270,-0.270,0.000,0.000,0.000
1605191857369012224,10.0.1.122,363,move_up,-0.250,-0.250,-0.250,0.000,0.000,0.000
1605191858818896896,10.0.1.122,370,move_up,-0.230,-0.230,-0.230,0.000,0.000,0.000
1605191860248851968,10.0.1.122,376,move_up,-0.210,-0.210,-0.210,0.000,0.000,0.000
1605191861659550976,10.0.1.122,361,move_up,-0.190,-0.190,-0.190,0.000,0.000,0.000
1605191862758821888,10.0.1.122,35,place,-0.180,-0.180,-0.180,0.000,0.000,0.000
1605191863759543808,10.0.1.122,34,place,-0.170,-0.170,-0.170,0.000,0.000,0.000
1605191864758856960,10.0.1.122,32,place,-0.160,-0.160,-0.160,0.000,0.000,0.000
1605191865759340032,10.0.1.122,31,place,-0.150,-0.150,-0.150,0.000,0.000,0.000
1605191866779037952,10.0.1.122,50,place,-0.140,-0.140,-0.140,0.000,0.000,0.000
1605191867779393792,10.0.1.122,49,place,-0.130,-0.130,-0.130,0.000,0.000,0.000
1605191868778764032,10.0.1.122,47,place,-0.120,-0.120,-0.120,0.000,0.000,0.000
1605191869779493120,10.0.1.122,46,place,-0.110,-0.110,-0.110,0.000,0.000,0.000
1605191870779126016,10.0.1.122,45,place,-0.100,-0.100,-0.100,0.000,0.000,0.000
1605191871779595008,10.0.1.122,44,place,-0.090,-0.090,-0.090,0.000,0.000,0.000
1605191872779275008,10.0.1.122,42,place,-0.080,-0.080,-0.080,0.000,0.000,0.000
1605191873778850048,10.0.1.122,40,place,-0.070,-0.070,-0.070,0.000,0.000,0.000
1605191874783625984,10.0.1.122,44,place,-0.060,-0.060,-0.060,0.000,0.000,0.000
1605191875779435008,10.0.1.122,38,place,-0.050,-0.050,-0.050,0.000,0.000,0.000
1605191876778980096,10.0.1.122,37,place,-0.040,-0.040,-0.040,0.000,0.000,0.000
1605191877778839040,10.0.1.122,35,place,-0.030,-0.030,-0.030,0.000,0.000,0.000
1605191878779566080,10.0.1.122,35,place,-0.020,-0.020,-0.020,0.000,0.000,0.000
1605191879778678784,10.0.1.122,33,place,-0.010,-0.010,-0.010,0.000,0.000,0.000
1605191880779386112,10.0.1.122,32,place,0.000,0.000,0.000,0.000,0.000,0.000
1605191882108966144,10.0.1.122,360,move_down,-0.020,-0.020,-0.020,0.000,0.000,0.000
1605191883559000064,10.0.1.122,384,move_down,-0.040,-0.040,-0.040,0.000,0.000,0.000
1605191884988930816,10.0.1.122,374,move_down,-0.060,-0.060,-0.060,0.000,0.000,0.000
1605191886420327936,10.0.1.122,381,move_down,-0.080,-0.080,-0.080,0.000,0.000,0.000
1605191887849033984,10.0.1.122,369,move_down,-0.100,-0.100,-0.100,0.000,0.000,0.000
1605191889259283968,10.0.1.122,364,move_down,-0.120,-0.120,-0.120,0.000,0.000,0.000
1605191890669799168,10.0.1.122,366,move_down,-0.140,-0.140,-0.140,0.000,0.000,0.000
1605191892080118016,10.0.1.122,360,move_down,-0.160,-0.160,-0.160,0.000,0.000,0.000
1605191893549107968,10.0.1.122,388,move_down,-0.180,-0.180,-0.180,0.000,0.000,0.000
1605191894979409920,10.0.1.122,377,move_down,-0.200,-0.200,-0.200,0.000,0.000,0.000
1605191896409549056,10.0.1.122,379,move_down,-0.220,-0.220,-0.220,0.000,0.000,0.000
1605191897819695872,10.0.1.122,349,move_down,-0.240,-0.240,-0.240,0.000,0.000,0.000
1605191899248850944,10.0.1.122,368,move_down,-0.260,-0.260,-0.260,0.000,0.000,0.000
1605191900659842048,10.0.1.122,363,move_down,-0.280,-0.280,-0.280,0.000,0.000,0.000
1605191902069197824,10.0.1.122,365,move_down,-0.300,-0.300,-0.300,0.000,0.000,0.000
1605191903479352064,10.0.1.122,367,move_down,-0.320,-0.320,-0.320,0.000,0.000,0.000
1605191904909804032,10.0.1.122,381,move_down,-0.340,-0.340,-0.340,0.000,0.000,0.000
1605191906339425024,10.0.1.122,385,move_down,-0.360,-0.360,-0.360,0.000,0.000,0.000
1605191907748697088,10.0.1.122,353,move_down,-0.380,-0.380,-0.380,0.000,0.000,0.000
1605191909219607040,10.0.1.122,399,move_down,-0.400,-0.400,-0.400,0.000,0.000,0.000
1605191910629487104,10.0.1.122,383,move_down,-0.420,-0.420,-0.420,0.000,0.000,0.000
1605191912019223808,10.0.1.122,364,move_down,-0.440,-0.440,-0.440,0.000,0.000,0.000
1605191913489571072,10.0.1.122,394,move_down,-0.460,-0.460,-0.460,0.000,0.000,0.000
1605191914899265024,10.0.1.122,378,move_down,-0.480,-0.480,-0.480,0.000,0.000,0.000
1605191916309428992,10.0.1.122,362,move_down,-0.500,-0.500,-0.500,0.000,0.000,0.000
1605191917739102976,10.0.1.122,382,move_down,-0.520,-0.520,-0.520,0.000,0.000,0.000
1605191919169133824,10.0.1.122,367,move_down,-0.540,-0.540,-0.540,0.000,0.000,0.000
1605191920579117056,10.0.1.122,366,move_down,-0.560,-0.560,-0.560,0.000,0.000,0.000
1605191921989236224,10.0.1.122,367,move_down,-0.580,-0.580,-0.580,0.000,0.000,0.000
1605191923069181952,10.0.1.122,32,pick,-0.590,-0.590,-0.590,0.000,0.000,0.000
1605191924068948992,10.0.1.122,31,pick,-0.600,-0.600,-0.600,0.000,0.000,0.000
1605191925088989952,10.0.1.122,49,pick,-0.610,-0.610,-0.610,0.000,0.000,0.000
1605191926088841984,10.0.1.122,49,pick,-0.620,-0.620,-0.620,0.000,0.000,0.000
1605191927088852992,10.0.1.122,47,pick,-0.630,-0.630,-0.630,0.000,0.000,0.000
1605191928089217024,10.0.1.122,47,pick,-0.640,-0.640,-0.640,0.000,0.000,0.000
1605191929089988864,10.0.1.122,46,pick,-0.650,-0.650,-0.650,0.000,0.000,0.000
1605191930089451008,10.0.1.122,44,pick,-0.660,-0.660,-0.660,0.000,0.000,0.000
1605191931090009856,10.0.1.122,43,pick,-0.670,-0.670,-0.670,0.000,0.000,0.000
1605191932089668096,10.0.1.122,42,pick,-0.680,-0.680,-0.680,0.000,0.000,0.000
1605191933089127936,10.0.1.122,38,pick,-0.690,-0.690,-0.690,0.000,0.000,0.000
1605191934089692160,10.0.1.122,38,pick,-0.700,-0.700,-0.700,0.000,0.000,0.000
1605191935089117952,10.0.1.122,36,pick,-0.710,-0.710,-0.710,0.000,0.000,0.000
1605191936089266944,10.0.1.122,35,pick,-0.720,-0.720,-0.720,0.000,0.000,0.000
1605191937089556992,10.0.1.122,34,pick,-0.730,-0.730,-0.730,0.000,0.000,0.000
1605191938089385984,10.0.1.122,32,pick,-0.740,-0.740,-0.740,0.000,0.000,0.000
1605191939109127936,10.0.1.122,51,pick,-0.750,-0.750,-0.750,0.000,0.000,0.000
1605191940109165824,10.0.1.122,49,pick,-0.760,-0.760,-0.760,0.000,0.000,0.000
1605191941109364992,10.0.1.122,48,pick,-0.770,-0.770,-0.770,0.000,0.000,0.000
1605191942419223040,10.0.1.122,357,move_up,-0.750,-0.750,-0.750,0.000,0.000,0.000
1605191943879041792,10.0.1.122,397,move_up,-0.730,-0.730,-0.730,0.000,0.000,0.000
1605191945249200128,10.0.1.122,351,move_up,-0.710,-0.710,-0.710,0.000,0.000,0.000
1605191946678693120,10.0.1.122,363,move_up,-0.690,-0.690,-0.690,0.000,0.000,0.000
1605191948129549056,10.0.1.122,373,move_up,-0.670,-0.670,-0.670,0.000,0.000,0.000
1605191949518703872,10.0.1.122,345,move_up,-0.650,-0.650,-0.650,0.000,0.000,0.000
1605191950954722816,10.0.1.122,370,move_up,-0.630,-0.630,-0.630,0.000,0.000,0.000
1605191952378947072,10.0.1.122,377,move_up,-0.610,-0.610,-0.610,0.000,0.000,0.000
1605191953828871936,10.0.1.122,399,move_up,-0.590,-0.590,-0.590,0.000,0.000,0.000
1605191955219034880,10.0.1.122,364,move_up,-0.570,-0.570,-0.570,0.000,0.000,0.000
1605191956669807872,10.0.1.122,374,move_up,-0.550,-0.550,-0.550,0.000,0.000,0.000
1605191958099378944,10.0.1.122,380,move_up,-0.530,-0.530,-0.530,0.000,0.000,0.000
1605191959529061120,10.0.1.122,370,move_up,-0.510,-0.510,-0.510,0.000,0.000,0.000
1605191960939341056,10.0.1.122,368,move_up,-0.490,-0.490,-0.490,0.000,0.000,0.000
1605191962352966912,10.0.1.122,366,move_up,-0.470,-0.470,-0.470,0.000,0.000,0.000
1605191963780214016,10.0.1.122,385,move_up,-0.450,-0.450,-0.450,0.000,0.000,0.000
1605191965189483008,10.0.1.122,355,move_up,-0.430,-0.430,-0.430,0.000,0.000,0.000
1605191966639683072,10.0.1.122,388,move_up,-0.410,-0.410,-0.410,0.000,0.000,0.000
1605191968069200128,10.0.1.122,378,move_up,-0.390,-0.390,-0.390,0.000,0.000,0.000
1605191969499694080,10.0.1.122,369,move_up,-0.370,-0.370,-0.370,0.000,0.000,0.000
1605191970909285120,10.0.1.122,364,move_up,-0.350,-0.350,-0.350,0.000,0.000,0.000
1605191972358825984,10.0.1.122,374,move_up,-0.330,-0.330,-0.330,0.000,0.000,0.000
1605191973769260800,10.0.1.122,365,move_up,-0.310,-0.310,-0.310,0.000,0.000,0.000
1605191975219970048,10.0.1.122,403,move_up,-0.290,-0.290,-0.290,0.000,0.000,0.000
1605191976629210880,10.0.1.122,373,move_up,-0.270,-0.270,-0.270,0.000,0.000,0.000
1605191978018520064,10.0.1.122,345,move_up,-0.250,-0.250,-0.250,0.000,0.000,0.000
1605191979469167872,10.0.1.122,381,move_up,-0.230,-0.230,-0.230,0.000,0.000,0.000
1605191980879582976,10.0.1.122,366,move_up,-0.210,-0.210,-0.210,0.000,0.000,0.000
1605191982289529088,10.0.1.122,363,move_up,-0.190,-0.190,-0.190,0.000,0.000,0.000
1605191983368791040,10.0.1.122,35,place,-0.180,-0.180,-0.180,0.000,0.000,0.000
1605191984368624896,10.0.1.122,33,place,-0.170,-0.170,-0.170,0.000,0.000,0.000
1605191985369028096,10.0.1.122,32,place,-0.160,-0.160,-0.160,0.000,0.000,0.000
1605191986372493056,10.0.1.122,34,place,-0.150,-0.150,-0.150,0.000,0.000,0.000
1605191987369167104,10.0.1.122,30,place,-0.140,-0.140,-0.140,0.000,0.000,0.000
1605191988389242880,10.0.1.122,49,place,-0.130,-0.130,-0.130,0.000,0.000,0.000
1605191989389133824,10.0.1.122,47,place,-0.120,-0.120,-0.120,0.000,0.000,0.000
1605191990388796928,10.0.1.122,46,place,-0.110,-0.110,-0.110,0.000,0.000,0.000
1605191991388753920,10.0.1.122,44,place,-0.100,-0.100,-0.100,0.000,0.000,0.000
1605191992388835072,10.0.1.122,43,place,-0.090,-0.090,-0.090,0.000,0.000,0.000
1605191993389032960,10.0.1.122,42,place,-0.080,-0.080,-0.080,0.000,0.000,0.000
1605191994388956928,10.0.1.122,41,place,-0.070,-0.070,-0.070,0.000,0.000,0.000
1605191995389861120,10.0.1.122,40,place,-0.060,-0.060,-0.060,0.000,0.000,0.000
1605191996389338880,10.0.1.122,38,place,-0.050,-0.050,-0.050,0.000,0.000,0.000
1605191997389748992,10.0.1.122,38,place,-0.040,-0.040,-0.040,0.000,0.000,0.000
1605191998389307904,10.0.1.122,36,place,-0.030,-0.030,-0.030,0.000,0.000,0.000
1605191999389432064,10.0.1.122,35,place,-0.020,-0.020,-0.020,0.000,0.000,0.000
1605192000389688064,10.0.1.122,34,place,-0.010,-0.010,-0.010,0.000,0.000,0.000
1605192001389210880,10.0.1.122,32,place,0.000,0.000,0.000,0.000,0.000,0.000
1605192002739248896,10.0.1.122,381,move_down,-0.020,-0.020,-0.020,0.000,0.000,0.000
1605192004169271040,10.0.1.122,383,move_down,-0.040,-0.040,-0.040,0.000,0.000,0.000
1605192005603124992,10.0.1.122,377,move_down,-0.060,-0.060,-0.060,0.000,0.000,0.000
1605192007008783104,10.0.1.122,357,move_down,-0.080,-0.080,-0.080,0.000,0.000,0.000
1605192008459325952,10.0.1.122,383,move_down,-0.100,-0.100,-0.100,0.000,0.000,0.000
1605192009869296128,10.0.1.122,353,move_down,-0.120,-0.120,-0.120,0.000,0.000,0.000
1605192011239852032,10.0.1.122,352,move_down,-0.140,-0.140,-0.140,0.000,0.000,0.000
1605192012668841984,10.0.1.122,365,move_down,-0.160,-0.160,-0.160,0.000,0.000,0.000
1605192014079019008,10.0.1.122,364,move_down,-0.180,-0.180,-0.180,0.000,0.000,0.000
1605192015489295104,10.0.1.122,362,move_down,-0.200,-0.200,-0.200,0.000,0.000,0.000
1605192016939558144,10.0.1.122,388,move_down,-0.220,-0.220,-0.220,0.000,0.000,0.000
1605192018349031936,10.0.1.122,380,move_down,-0.240,-0.240,-0.240,0.000,0.000,0.000
1605192019749304064,10.0.1.122,356,move_down,-0.260,-0.260,-0.260,0.000,0.000,0.000
1605192021178714112,10.0.1.122,362,move_down,-0.280,-0.280,-0.280,0.000,0.000,0.000
1605192022609081856,10.0.1.122,383,move_down,-0.300,-0.300,-0.300,0.000,0.000,0.000
1605192024000255232,10.0.1.122,360,move_down,-0.320,-0.320,-0.320,0.000,0.000,0.000
1605192025429667072,10.0.1.122,381,move_down,-0.340,-0.340,-0.340,0.000,0.000,0.000
1605192026849585920,10.0.1.122,375,move_down,-0.360,-0.360,-0.360,0.000,0.000,0.000
1605192028298952960,10.0.1.122,383,move_down,-0.380,-0.380,-0.380,0.000,0.000,0.000
1605192029708980992,10.0.1.122,367,move_down,-0.400,-0.400,-0.400,0.000,0.000,0.000
1605192031119073024,10.0.1.122,362,move_down,-0.420,-0.420,-0.420,0.000,0.000,0.000
1605192032588998912,10.0.1.122,392,move_down,-0.440,-0.440,-0.440,0.000,0.000,0.000
1605192033985413120,10.0.1.122,370,move_down,-0.460,-0.460,-0.460,0.000,0.000,0.000
1605192035388998144,10.0.1.122,365,move_down,-0.480,-0.480,-0.480,0.000,0.000,0.000
1605192036818952960,10.0.1.122,379,move_down,-0.500,-0.500,-0.500,0.000,0.000,0.000
1605192038249057024,10.0.1.122,370,move_down,-0.520,-0.520,-0.520,0.000,0.000,0.000
1605192039639596032,10.0.1.122,346,move_down,-0.540,-0.540,-0.540,0.000,0.000,0.000
1605192041069430016,10.0.1.122,367,move_down,-0.560,-0.560,-0.560,0.000,0.000,0.000
1605192042479173888,10.0.1.122,368,move_down,-0.580,-0.580,-0.580,0.000,0.000,0.000
1605192043558917120,10.0.1.122,37,pick,-0.590,-0.590,-0.590,0.000,0.000,0.000
1605192044559336960,10.0.1.122,36,pick,-0.600,-0.600,-0.600,0.000,0.000,0.000
1605192045559383040,10.0.1.122,35,pick,-0.610,-0.610,-0.610,0.000,0.000,0.000
1605192046559258880,10.0.1.122,34,pick,-0.620,-0.620,-0.620,0.000,0.000,0.000
1605192047559076096,10.0.1.122,32,pick,-0.630,-0.630,-0.630,0.000,0.000,0.000
1605192048560018944,10.0.1.122,32,pick,-0.640,-0.640,-0.640,0.000,0.000,0.000
1605192049579243776,10.0.1.122,50,pick,-0.650,-0.650,-0.650,0.000,0.000,0.000
1605192050579216896,10.0.1.122,48,pick,-0.660,-0.660,-0.660,0.000,0.000,0.000
1605192051578983168,10.0.1.122,47,pick,-0.670,-0.670,-0.670,0.000,0.000,0.000
1605192052580019968,10.0.1.122,47,pick,-0.680,-0.680,-0.680,0.000,0.000,0.000
1605192053579128064,10.0.1.122,44,pick,-0.690,-0.690,-0.690,0.000,0.000,0.000
1605192054579196928,10.0.1.122,43,pick,-0.700,-0.700,-0.700,0.000,0.000,0.000
1605192055579453952,10.0.1.122,42,pick,-0.710,-0.710,-0.710,0.000,0.000,0.000
1605192056579024128,10.0.1.122,40,pick,-0.720,-0.720,-0.720,0.000,0.000,0.000
1605192057578982144,10.0.1.122,39,pick,-0.730,-0.730,-0.730,0.000,0.000,0.000
1605192058579781888,10.0.1.122,39,pick,-0.740,-0.740,-0.740,0.000,0.000,0.000
1605192059578525952,10.0.1.122,36,pick,-0.750,-0.750,-0.750,0.000,0.000,0.000
1605192060579577088,10.0.1.122,36,pick,-0.760,-0.760,-0.760,0.000,0.000,0.000
1605192061578790912,10.0.1.122,35,pick,-0.770,-0.770,-0.770,0.000,0.000,0.000
1605192062918919168,10.0.1.122,373,move_up,-0.750,-0.750,-0.750,0.000,0.000,0.000
1605192064329202944,10.0.1.122,365,move_up,-0.730,-0.730,-0.730,0.000,0.000,0.000
1605192065769190912,10.0.1.122,365,move_up,-0.710,-0.710,-0.710,0.000,0.000,0.000
1605192067218529024,10.0.1.122,371,move_up,-0.690,-0.690,-0.690,0.000,0.000,0.000
1605192068628900096,10.0.1.122,357,move_up,-0.670,-0.670,-0.670,0.000,0.000,0.000
1605192070058782208,10.0.1.122,368,move_up,-0.650,-0.650,-0.650,0.000,0.000,0.000
1605192071449554944,10.0.1.122,348,move_up,-0.630,-0.630,-0.630,0.000,0.000,0.000
1605192072879127040,10.0.1.122,366,move_up,-0.610,-0.610,-0.610,0.000,0.000,0.000
1605192074288774912,10.0.1.122,365,move_up,-0.590,-0.590,-0.590,0.000,0.000,0.000
1605192075729067008,10.0.1.122,395,move_up,-0.570,-0.570,-0.570,0.000,0.000,0.000
1605192077159745024,10.0.1.122,384,move_up,-0.550,-0.550,-0.550,0.000,0.000,0.000
1605192078589783040,10.0.1.122,374,move_up,-0.530,-0.530,-0.530,0.000,0.000,0.000
1605192080001773056,10.0.1.122,361,move_up,-0.510,-0.510,-0.510,0.000,0.000,0.000
1605192081449963008,10.0.1.122,385,move_up,-0.490,-0.490,-0.490,0.000,0.000,0.000
1605192082860734976,10.0.1.122,367,move_up,-0.470,-0.470,-0.470,0.000,0.000,0.000
1605192084269798912,10.0.1.122,368,move_up,-0.450,-0.450,-0.450,0.000,0.000,0.000
1605192085689416960,10.0.1.122,377,move_up,-0.430,-0.430,-0.430,0.000,0.000,0.000
1605192087099526912,10.0.1.122,371,move_up,-0.410,-0.410,-0.410,0.000,0.000,0.000
1605192088509076224,10.0.1.122,365,move_up,-0.390,-0.390,-0.390,0.000,0.000,0.000
1605192089898703104,10.0.1.122,346,move_up,-0.370,-0.370,-0.370,0.000,0.000,0.000
1605192091329212928,10.0.1.122,363,move_up,-0.350,-0.350,-0.350,0.000,0.000,0.000
1605192092738785024,10.0.1.122,365,move_up,-0.330,-0.330,-0.330,0.000,0.000,0.000
1605192094169176064,10.0.1.122,379,move_up,-0.310,-0.310,-0.310,0.000,0.000,0.000
1605192095559331840,10.0.1.122,346,move_up,-0.290,-0.290,-0.290,0.000,0.000,0.000
1605192097009197056,10.0.1.122,385,move_up,-0.270,-0.270,-0.270,0.000,0.000,0.000
1605192098439145216,10.0.1.122,376,move_up,-0.250,-0.250,-0.250,0.000,0.000,0.000
1605192099869411072,10.0.1.122,382,move_up,-0.230,-0.230,-0.230,0.000,0.000,0.000
1605192101298996992,10.0.1.122,371,move_up,-0.210,-0.210,-0.210,0.000,0.000,0.000
1605192102732881152,10.0.1.122,382,move_up,-0.190,-0.190,-0.190,0.000,0.000,0.000
1605192103808494080,10.0.1.122,32,place,-0.180,-0.180,-0.180,0.000,0.000,0.000
1605192104829659904,10.0.1.122,52,place,-0.170,-0.170,-0.170,0.000,0.000,0.000
1605192105829157120,10.0.1.122,50,place,-0.160,-0.160,-0.160,0.000,0.000,0.000
1605192106829536000,10.0.1.122,49,place,-0.150,-0.150,-0.150,0.000,0.000,0.000
1605192107828958976,10.0.1.122,48,place,-0.140,-0.140,-0.140,0.000,0.000,0.000
1605192108829426944,10.0.1.122,47,place,-0.130,-0.130,-0.130,0.000,0.000,0.000
1605192109829576960,10.0.1.122,46,place,-0.120,-0.120,-0.120,0.000,0.000,0.000
1605192110828464128,10.0.1.122,43,place,-0.110,-0.110,-0.110,0.000,0.000,0.000
1605192111829139968,10.0.1.122,43,place,-0.100,-0.100,-0.100,0.000,0.000,0.000
1605192112829139968,10.0.1.122,42,place,-0.090,-0.090,-0.090,0.000,0.000,0.000
1605192113829019136,10.0.1.122,41,place,-0.080,-0.080,-0.080,0.000,0.000,0.000
1605192114829327104,10.0.1.122,40,place,-0.070,-0.070,-0.070,0.000,0.000,0.000
1605192115828804864,10.0.1.122,38,place,-0.060,-0.060,-0.060,0.000,0.000,0.000
1605192116829302016,10.0.1.122,37,place,-0.050,-0.050,-0.050,0.000,0.000,0.000
1605192117829498880,10.0.1.122,37,place,-0.040,-0.040,-0.040,0.000,0.000,0.000
1605192118829083904,10.0.1.122,35,place,-0.030,-0.030,-0.030,0.000,0.000,0.000
1605192119828761088,10.0.1.122,34,place,-0.020,-0.020,-0.020,0.000,0.000,0.000
1605192120829108992,10.0.1.122,33,place,-0.010,-0.010,-0.010,0.000,0.000,0.000
1605192121829117184,10.0.1.122,32,place,0.000,0.000,0.000,0.000,0.000,0.000
1605192123179492864,10.0.1.122,382,move_down,-0.020,-0.020,-0.020,0.000,0.000,0.000
1605192124589483008,10.0.1.122,365,move_down,-0.040,-0.040,-0.040,0.000,0.000,0.000
1605192125999162880,10.0.1.122,364,move_down,-0.060,-0.060,-0.060,0.000,0.000,0.000
1605192127409960960,10.0.1.122,366,move_down,-0.080,-0.080,-0.080,0.000,0.000,0.000
1605192128818979072,10.0.1.122,365,move_down,-0.100,-0.100,-0.100,0.000,0.000,0.000
1605192130228954112,10.0.1.122,364,move_down,-0.120,-0.120,-0.120,0.000,0.000,0.000
1605192131649558016,10.0.1.122,377,move_down,-0.140,-0.140,-0.140,0.000,0.000,0.000
1605192133058885120,10.0.1.122,371,move_down,-0.160,-0.160,-0.160,0.000,0.000,0.000
1605192134468851968,10.0.1.122,367,move_down,-0.180,-0.180,-0.180,0.000,0.000,0.000
1605192135898647040,10.0.1.122,385,move_down,-0.200,-0.200,-0.200,0.000,0.000,0.000
1605192137329591040,10.0.1.122,375,move_down,-0.220,-0.220,-0.220,0.000,0.000,0.000
1605192138749885952,10.0.1.122,371,move_down,-0.240,-0.240,-0.240,0.000,0.000,0.000
1605192140199676160,10.0.1.122,381,move_down,-0.260,-0.260,-0.260,0.000,0.000,0.000
1605192141599374080,10.0.1.122,354,move_down,-0.280,-0.280,-0.280,0.000,0.000,0.000
1605192143029185024,10.0.1.122,367,move_down,-0.300,-0.300,-0.300,0.000,0.000,0.000
1605192144459528960,10.0.1.122,382,move_down,-0.320,-0.320,-0.320,0.000,0.000,0.000
1605192145889607936,10.0.1.122,372,move_down,-0.340,-0.340,-0.340,0.000,0.000,0.000
1605192147319463936,10.0.1.122,378,move_down,-0.360,-0.360,-0.360,0.000,0.000,0.000
1605192148748706048,10.0.1.122,382,move_down,-0.380,-0.380,-0.380,0.000,0.000,0.000
1605192150158961920,10.0.1.122,366,move_down,-0.400,-0.400,-0.400,0.000,0.000,0.000
1605192151589340928,10.0.1.122,367,move_down,-0.420,-0.420,-0.420,0.000,0.000,0.000
1605192152999293952,10.0.1.122,368,move_down,-0.440,-0.440,-0.440,0.000,0.000,0.000
1605192154429222144,10.0.1.122,383,move_down,-0.460,-0.460,-0.460,0.000,0.000,0.000
1605192155860616960,10.0.1.122,374,move_down,-0.480,-0.480,-0.480,0.000,0.000,0.000
1605192157268925952,10.0.1.122,358,move_down,-0.500,-0.500,-0.500,0.000,0.000,0.000
1605192158719898880,10.0.1.122,385,move_down,-0.520,-0.520,-0.520,0.000,0.000,0.000
1605192160128947968,10.0.1.122,368,move_down,-0.540,-0.540,-0.540,0.000,0.000,0.000
1605192161538959872,10.0.1.122,366,move_down,-0.560,-0.560,-0.560,0.000,0.000,0.000
1605192162929025792,10.0.1.122,385,move_down,-0.580,-0.580,-0.580,0.000,0.000,0.000
1605192164028753152,10.0.1.122,42,pick,-0.590,-0.590,-0.590,0.000,0.000,0.000
1605192165029086208,10.0.1.122,41,pick,-0.600,-0.600,-0.600,0.000,0.000,0.000
1605192166029308160,10.0.1.122,39,pick,-0.610,-0.610,-0.610,0.000,0.000,0.000
1605192167029647104,10.0.1.122,39,pick,-0.620,-0.620,-0.620,0.000,0.000,0.000
1605192168029299968,10.0.1.122,38,pick,-0.630,-0.630,-0.630,0.000,0.000,0.000
1605192169028978944,10.0.1.122,37,pick,-0.640,-0.640,-0.640,0.000,0.000,0.000
1605192170029411072,10.0.1.122,37,pick,-0.650,-0.650,-0.650,0.000,0.000,0.000
1605192171028798208,10.0.1.122,36,pick,-0.660,-0.660,-0.660,0.000,0.000,0.000
1605192172028980992,10.0.1.122,35,pick,-0.670,-0.670,-0.670,0.000,0.000,0.000
1605192173029517824,10.0.1.122,35,pick,-0.680,-0.680,-0.680,0.000,0.000,0.000
1605192174029083904,10.0.1.122,33,pick,-0.690,-0.690,-0.690,0.000,0.000,0.000
1605192175029305088,10.0.1.122,32,pick,-0.700,-0.700,-0.700,0.000,0.000,0.000
1605192176029086976,10.0.1.122,31,pick,-0.710,-0.710,-0.710,0.000,0.000,0.000
1605192177049102080,10.0.1.122,50,pick,-0.720,-0.720,-0.720,0.000,0.000,0.000
1605192178048688896,10.0.1.122,48,pick,-0.730,-0.730,-0.730,0.000,0.000,0.000
1605192179048460032,10.0.1.122,46,pick,-0.740,-0.740,-0.740,0.000,0.000,0.000
1605192180049082880,10.0.1.122,46,pick,-0.750,-0.750,-0.750,0.000,0.000,0.000
1605192181049604864,10.0.1.122,45,pick,-0.760,-0.760,-0.760,0.000,0.000,0.000
1605192182048943104,10.0.1.122,43,pick,-0.770,-0.770,-0.770,0.000,0.000,0.000
1605192183358854912,10.0.1.122,352,move_up,-0.750,-0.750,-0.750,0.000,0.000,0.000
1605192184789110016,10.0.1.122,366,move_up,-0.730,-0.730,-0.730,0.000,0.000,0.000
1605192186199363840,10.0.1.122,366,move_up,-0.710,-0.710,-0.710,0.000,0.000,0.000
1605192187628768000,10.0.1.122,380,move_up,-0.690,-0.690,-0.690,0.000,0.000,0.000
1605192189018982912,10.0.1.122,344,move_up,-0.670,-0.670,-0.670,0.000,0.000,0.000
1605192190459918848,10.0.1.122,376,move_up,-0.650,-0.650,-0.650,0.000,0.000,0.000
1605192191839704064,10.0.1.122,341,move_up,-0.630,-0.630,-0.630,0.000,0.000,0.000
1605192193289184000,10.0.1.122,382,move_up,-0.610,-0.610,-0.610,0.000,0.000,0.000
1605192194698742016,10.0.1.122,353,move_up,-0.590,-0.590,-0.590,0.000,0.000,0.000
1605192196139249152,10.0.1.122,379,move_up,-0.570,-0.570,-0.570,0.000,0.000,0.000
1605192197528764928,10.0.1.122,345,move_up,-0.550,-0.550,-0.550,0.000,0.000,0.000
1605192198978606848,10.0.1.122,385,move_up,-0.530,-0.530,-0.530,0.000,0.000,0.000
1605192200369206784,10.0.1.122,358,move_up,-0.510,-0.510,-0.510,0.000,0.000,0.000
1605192201778963200,10.0.1.122,344,move_up,-0.490,-0.490,-0.490,0.000,0.000,0.000
1605192203228748032,10.0.1.122,383,move_up,-0.470,-0.470,-0.470,0.000,0.000,0.000
1605192204658948864,10.0.1.122,373,move_up,-0.450,-0.450,-0.450,0.000,0.000,0.000
1605192206069209088,10.0.1.122,359,move_up,-0.430,-0.430,-0.430,0.000,0.000,0.000
1605192207478894848,10.0.1.122,343,move_up,-0.410,-0.410,-0.410,0.000,0.000,0.000
1605192208928965120,10.0.1.122,383,move_up,-0.390,-0.390,-0.390,0.000,0.000,0.000
1605192210349499904,10.0.1.122,391,move_up,-0.370,-0.370,-0.370,0.000,0.000,0.000
1605192211779524096,10.0.1.122,375,move_up,-0.350,-0.350,-0.350,0.000,0.000,0.000
1605192213209094144,10.0.1.122,379,move_up,-0.330,-0.330,-0.330,0.000,0.000,0.000
1605192214658829056,10.0.1.122,403,move_up,-0.310,-0.310,-0.310,0.000,0.000,0.000
1605192216049444864,10.0.1.122,354,move_up,-0.290,-0.290,-0.290,0.000,0.000,0.000
1605192217461306112,10.0.1.122,349,move_up,-0.270,-0.270,-0.270,0.000,0.000,0.000
1605192218899225088,10.0.1.122,378,move_up,-0.250,-0.250,-0.250,0.000,0.000,0.000
1605192220329315072,10.0.1.122,384,move_up,-0.230,-0.230,-0.230,0.000,0.000,0.000
1605192221759963136,10.0.1.122,373,move_up,-0.210,-0.210,-0.210,0.000,0.000,0.000
1605192223178867968,10.0.1.122,378,move_up,-0.190,-0.190,-0.190,0.000,0.000,0.000
1605192224259182848,10.0.1.122,36,place,-0.180,-0.180,-0.180,0.000,0.000,0.000
1605192225259067136,10.0.1.122,34,place,-0.170,-0.170,-0.170,0.000,0.000,0.000
1605192226259439104,10.0.1.122,33,place,-0.160,-0.160,-0.160,0.000,0.000,0.000
1605192227259424000,10.0.1.122,32,place,-0.150,-0.150,-0.150,0.000,0.000,0.000
1605192228279713024,10.0.1.122,46,place,-0.140,-0.140,-0.140,0.000,0.000,0.000
1605192229279154176,10.0.1.122,44,place,-0.130,-0.130,-0.130,0.000,0.000,0.000
1605192230279488000,10.0.1.122,43,place,-0.120,-0.120,-0.120,0.000,0.000,0.000
1605192231279275776,10.0.1.122,42,place,-0.110,-0.110,-0.110,0.000,0.000,0.000
1605192232279037952,10.0.1.122,40,place,-0.100,-0.100,-0.100,0.000,0.000,0.000
1605192233279609088,10.0.1.122,40,place,-0.090,-0.090,-0.090,0.000,0.000,0.000
1605192234279105792,10.0.1.122,38,place,-0.080,-0.080,-0.080,0.000,0.000,0.000
1605192235278931968,10.0.1.122,37,place,-0.070,-0.070,-0.070,0.000,0.000,0.000
1605192236279011840,10.0.1.122,36,place,-0.060,-0.060,-0.060,0.000,0.000,0.000
1605192237280181760,10.0.1.122,36,place,-0.050,-0.050,-0.050,0.000,0.000,0.000
1605192238279017984,10.0.1.122,34,place,-0.040,-0.040,-0.040,0.000,0.000,0.000
1605192239279248896,10.0.1.122,33,place,-0.030,-0.030,-0.030,0.000,0.000,0.000
1605192240280473856,10.0.1.122,32,place,-0.020,-0.020,-0.020,0.000,0.000,0.000
1605192241299175936,10.0.1.122,50,place,-0.010,-0.010,-0.010,0.000,0.000,0.000
1605192242298904064,10.0.1.122,48,place,0.000,0.000,0.000,0.000,0.000,0.000
1605192243629071104,10.0.1.122,377,move_down,-0.020,-0.020,-0.020,0.000,0.000,0.000
1605192245059424000,10.0.1.122,379,move_down,-0.040,-0.040,-0.040,0.000,0.000,0.000
1605192246489938944,10.0.1.122,384,move_down,-0.060,-0.060,-0.060,0.000,0.000,0.000
1605192247919112960,10.0.1.122,383,move_down,-0.080,-0.080,-0.080,0.000,0.000,0.000
1605192249350379008,10.0.1.122,372,move_down,-0.100,-0.100,-0.100,0.000,0.000,0.000
1605192250779400960,10.0.1.122,375,move_down,-0.120,-0.120,-0.120,0.000,0.000,0.000
1605192252211116032,10.0.1.122,385,move_down,-0.140,-0.140,-0.140,0.000,0.000,0.000
1605192253639709952,10.0.1.122,373,move_down,-0.160,-0.160,-0.160,0.000,0.000,0.000
1605192255030183936,10.0.1.122,345,move_down,-0.180,-0.180,-0.180,0.000,0.000,0.000
1605192256459422208,10.0.1.122,366,move_down,-0.200,-0.200,-0.200,0.000,0.000,0.000
1605192257889286144,10.0.1.122,379,move_down,-0.220,-0.220,-0.220,0.000,0.000,0.000
1605192259300093952,10.0.1.122,365,move_down,-0.240,-0.240,-0.240,0.000,0.000,0.000
1605192260729024000,10.0.1.122,378,move_down,-0.260,-0.260,-0.260,0.000,0.000,0.000
1605192262099086080,10.0.1.122,374,move_down,-0.280,-0.280,-0.280,0.000,0.000,0.000
1605192263530298112,10.0.1.122,384,move_down,-0.300,-0.300,-0.300,0.000,0.000,0.000
1605192264938908928,10.0.1.122,363,move_down,-0.320,-0.320,-0.320,0.000,0.000,0.000
1605192266388958976,10.0.1.122,373,move_down,-0.340,-0.340,-0.340,0.000,0.000,0.000
1605192267799283968,10.0.1.122,366,move_down,-0.360,-0.360,-0.360,0.000,0.000,0.000
1605192269230022912,10.0.1.122,385,move_down,-0.380,-0.380,-0.380,0.000,0.000,0.000
1605192270659218176,10.0.1.122,373,move_down,-0.400,-0.400,-0.400,0.000,0.000,0.000
1605192272078928896,10.0.1.122,374,move_down,-0.420,-0.420,-0.420,0.000,0.000,0.000
1605192273469364992,10.0.1.122,346,move_down,-0.440,-0.440,-0.440,0.000,0.000,0.000
1605192274919150080,10.0.1.122,384,move_down,-0.460,-0.460,-0.460,0.000,0.000,0.000
1605192276348824064,10.0.1.122,372,move_down,-0.480,-0.480,-0.480,0.000,0.000,0.000
1605192277778737920,10.0.1.122,384,move_down,-0.500,-0.500,-0.500,0.000,0.000,0.000
1605192279211051008,10.0.1.122,377,move_down,-0.520,-0.520,-0.520,0.000,0.000,0.000
1605192280628910080,10.0.1.122,369,move_down,-0.540,-0.540,-0.540,0.000,0.000,0.000
1605192282080210944,10.0.1.122,380,move_down,-0.560,-0.560,-0.560,0.000,0.000,0.000
1605192283509142016,10.0.1.122,370,move_down,-0.580,-0.580,-0.580,0.000,0.000,0.000
1605192284589148928,10.0.1.122,32,pick,-0.590,-0.590,-0.590,0.000,0.000,0.000
1605192285588983040,10.0.1.122,31,pick,-0.600,-0.600,-0.600,0.000,0.000,0.000
1605192286610035968,10.0.1.122,51,pick,-0.610,-0.610,-0.610,0.000,0.000,0.000
1605192287611196928,10.0.1.122,50,pick,-0.620,-0.620,-0.620,0.000,0.000,0.000
1605192288609634048,10.0.1.122,48,pick,-0.630,-0.630,-0.630,0.000,0.000,0.000
1605192289609245184,10.0.1.122,46,pick,-0.640,-0.640,-0.640,0.000,0.000,0.000
1605192290609283072,10.0.1.122,45,pick,-0.650,-0.650,-0.650,0.000,0.000,0.000
1605192291610359040,10.0.1.122,44,pick,-0.660,-0.660,-0.660,0.000,0.000,0.000
1605192292610944000,10.0.1.122,44,pick,-0.670,-0.670,-0.670,0.000,0.000,0.000
1605192293610196992,10.0.1.122,42,pick,-0.680,-0.680,-0.680,0.000,0.000,0.000
1605192294610960128,10.0.1.122,41,pick,-0.690,-0.690,-0.690,0.000,0.000,0.000
1605192295610144000,10.0.1.122,39,pick,-0.700,-0.700,-0.700,0.000,0.000,0.000
1605192296609251072,10.0.1.122,37,pick,-0.710,-0.710,-0.710,0.000,0.000,0.000
1605192297609047808,10.0.1.122,35,pick,-0.720,-0.720,-0.720,0.000,0.000,0.000
1605192298609193984,10.0.1.122,34,pick,-0.730,-0.730,-0.730,0.000,0.000,0.000
1605192299610932992,10.0.1.122,35,pick,-0.740,-0.740,-0.740,0.000,0.000,0.000
1605192300609870848,10.0.1.122,32,pick,-0.750,-0.750,-0.750,0.000,0.000,0.000
1605192301629050880,10.0.1.122,50,pick,-0.760,-0.760,-0.760,0.000,0.000,0.000
1605192302630157056,10.0.1.122,50,pick,-0.770,-0.770,-0.770,0.000,0.000,0.000
1605192303958596864,10.0.1.122,377,move_up,-0.750,-0.750,-0.750,0.000,0.000,0.000
1605192305390232064,10.0.1.122,383,move_up,-0.730,-0.730,-0.730,0.000,0.000,0.000
1605192306802507008,10.0.1.122,353,move_up,-0.710,-0.710,-0.710,0.000,0.000,0.000
1605192308193670144,10.0.1.122,365,move_up,-0.690,-0.690,-0.690,0.000,0.000,0.000
1605192309639041024,10.0.1.122,383,move_up,-0.670,-0.670,-0.670,0.000,0.000,0.000
1605192311070023936,10.0.1.122,374,move_up,-0.650,-0.650,-0.650,0.000,0.000,0.000
1605192312480113920,10.0.1.122,368,move_up,-0.630,-0.630,-0.630,0.000,0.000,0.000
1605192313908870912,10.0.1.122,356,move_up,-0.610,-0.610,-0.610,0.000,0.000,0.000
1605192315299421184,10.0.1.122,369,move_up,-0.590,-0.590,-0.590,0.000,0.000,0.000
1605192316729035008,10.0.1.122,382,move_up,-0.570,-0.570,-0.570,0.000,0.000,0.000
1605192318139131136,10.0.1.122,384,move_up,-0.550,-0.550,-0.550,0.000,0.000,0.000
1605192319570861056,10.0.1.122,376,move_up,-0.530,-0.530,-0.530,0.000,0.000,0.000
1605192320999361024,10.0.1.122,379,move_up,-0.510,-0.510,-0.510,0.000,0.000,0.000
1605192322411639040,10.0.1.122,365,move_up,-0.490,-0.490,-0.490,0.000,0.000,0.000
1605192323859904000,10.0.1.122,384,move_up,-0.470,-0.470,-0.470,0.000,0.000,0.000
1605192325298734848,10.0.1.122,380,move_up,-0.450,-0.450,-0.450,0.000,0.000,0.000
1605192326709419008,10.0.1.122,365,move_up,-0.430,-0.430,-0.430,0.000,0.000,0.000
1605192328140305920,10.0.1.122,385,move_up,-0.410,-0.410,-0.410,0.000,0.000,0.000
1605192329569839872,10.0.1.122,371,move_up,-0.390,-0.390,-0.390,0.000,0.000,0.000
1605192330999373824,10.0.1.122,383,move_up,-0.370,-0.370,-0.370,0.000,0.000,0.000
1605192332420083968,10.0.1.122,377,move_up,-0.350,-0.350,-0.350,0.000,0.000,0.000
1605192333810728192,10.0.1.122,350,move_up,-0.330,-0.330,-0.330,0.000,0.000,0.000
1605192335260246016,10.0.1.122,383,move_up,-0.310,-0.310,-0.310,0.000,0.000,0.000
1605192336688908032,10.0.1.122,372,move_up,-0.290,-0.290,-0.290,0.000,0.000,0.000
1605192338098611200,10.0.1.122,356,move_up,-0.270,-0.270,-0.270,0.000,0.000,0.000
1605192339549593088,10.0.1.122,383,move_up,-0.250,-0.250,-0.250,0.000,0.000,0.000
1605192340960189952,10.0.1.122,352,move_up,-0.230,-0.230,-0.230,0.000,0.000,0.000
1605192342390403072,10.0.1.122,366,move_up,-0.210,-0.210,-0.210,0.000,0.000,0.000
1605192343820472832,10.0.1.122,381,move_up,-0.190,-0.190,-0.190,0.000,0.000,0.000
1605192344899182080,10.0.1.122,33,place,-0.180,-0.180,-0.180,0.000,0.000,0.000
1605192345900913920,10.0.1.122,33,place,-0.170,-0.170,-0.170,0.000,0.000,0.000
1605192346920943872,10.0.1.122,52,place,-0.160,-0.160,-0.160,0.000,0.000,0.000
1605192347920183040,10.0.1.122,50,place,-0.150,-0.150,-0.150,0.000,0.000,0.000
1605192348919462912,10.0.1.122,48,place,-0.140,-0.140,-0.140,0.000,0.000,0.000
1605192349920867840,10.0.1.122,48,place,-0.130,-0.130,-0.130,0.000,0.000,0.000
1605192350918988032,10.0.1.122,45,place,-0.120,-0.120,-0.120,0.000,0.000,0.000
1605192351919729920,10.0.1.122,44,place,-0.110,-0.110,-0.110,0.000,0.000,0.000
1605192352919209984,10.0.1.122,42,place,-0.100,-0.100,-0.100,0.000,0.000,0.000
1605192353919201024,10.0.1.122,41,place,-0.090,-0.090,-0.090,0.000,0.000,0.000
1605192354918796032,10.0.1.122,39,place,-0.080,-0.080,-0.080,0.000,0.000,0.000
1605192355918940928,10.0.1.122,37,place,-0.070,-0.070,-0.070,0.000,0.000,0.000
1605192356918921984,10.0.1.122,36,place,-0.060,-0.060,-0.060,0.000,0.000,0.000
1605192357919090944,10.0.1.122,35,place,-0.050,-0.050,-0.050,0.000,0.000,0.000
1605192358921235968,10.0.1.122,36,place,-0.040,-0.040,-0.040,0.000,0.000,0.000
1605192359919168000,10.0.1.122,32,place,-0.030,-0.030,-0.030,0.000,0.000,0.000
1605192360918916864,10.0.1.122,31,place,-0.020,-0.020,-0.020,0.000,0.000,0.000
1605192361939297792,10.0.1.122,50,place,-0.010,-0.010,-0.010,0.000,0.000,0.000
1605192362941737984,10.0.1.122,51,place,0.000,0.000,0.000,0.000,0.000,0.000
1605192364289270016,10.0.1.122,397,move_down,-0.020,-0.020,-0.020,0.000,0.000,0.000
1605192365679013120,10.0.1.122,360,move_down,-0.040,-0.040,-0.040,0.000,0.000,0.000
1605192367109390848,10.0.1.122,364,move_down,-0.060,-0.060,-0.060,0.000,0.000,0.000
1605192368519181056,10.0.1.122,364,move_down,-0.080,-0.080,-0.080,0.000,0.000,0.000
1605192369928858880,10.0.1.122,364,move_down,-0.100,-0.100,-0.100,0.000,0.000,0.000
1605192371359110144,10.0.1.122,383,move_down,-0.120,-0.120,-0.120,0.000,0.000,0.000
1605192372789117952,10.0.1.122,373,move_down,-0.140,-0.140,-0.140,0.000,0.000,0.000
1605192374218763008,10.0.1.122,378,move_down,-0.160,-0.160,-0.160,0.000,0.000,0.000
1605192375628528128,10.0.1.122,347,move_down,-0.180,-0.180,-0.180,0.000,0.000,0.000
1605192377059201024,10.0.1.122,369,move_down,-0.200,-0.200,-0.200,0.000,0.000,0.000
1605192378468524032,10.0.1.122,368,move_down,-0.220,-0.220,-0.220,0.000,0.000,0.000
1605192379881360896,10.0.1.122,356,move_down,-0.240,-0.240,-0.240,0.000,0.000,0.000
1605192381309314048,10.0.1.122,366,move_down,-0.260,-0.260,-0.260,0.000,0.000,0.000
1605192382699408896,10.0.1.122,383,move_down,-0.280,-0.280,-0.280,0.000,0.000,0.000
1605192384109505792,10.0.1.122,365,move_down,-0.300,-0.300,-0.300,0.000,0.000,0.000
1605192385548957952,10.0.1.122,391,move_down,-0.320,-0.320,-0.320,0.000,0.000,0.000
1605192386978656000,10.0.1.122,381,move_down,-0.340,-0.340,-0.340,0.000,0.000,0.000
1605192388392459008,10.0.1.122,355,move_down,-0.360,-0.360,-0.360,0.000,0.000,0.000
1605192389830465024,10.0.1.122,376,move_down,-0.380,-0.380,-0.380,0.000,0.000,0.000
1605192391258884864,10.0.1.122,378,move_down,-0.400,-0.400,-0.400,0.000,0.000,0.000
1605192392688954112,10.0.1.122,368,move_down,-0.420,-0.420,-0.420,0.000,0.000,0.000
1605192394099024128,10.0.1.122,354,move_down,-0.440,-0.440,-0.440,0.000,0.000,0.000
1605192395569321984,10.0.1.122,400,move_down,-0.460,-0.460,-0.460,0.000,0.000,0.000
1605192396982927104,10.0.1.122,373,move_down,-0.480,-0.480,-0.480,0.000,0.000,0.000
1605192398400252160,10.0.1.122,377,move_down,-0.500,-0.500,-0.500,0.000,0.000,0.000
1605192399830240000,10.0.1.122,383,move_down,-0.520,-0.520,-0.520,0.000,0.000,0.000
1605192401239748864,10.0.1.122,353,move_down,-0.540,-0.540,-0.540,0.000,0.000,0.000
1605192402669434112,10.0.1.122,364,move_down,-0.560,-0.560,-0.560,0.000,0.000,0.000
1605192404099023104,10.0.1.122,382,move_down,-0.580,-0.580,-0.580,0.000,0.000,0.000
1605192405198867200,10.0.1.122,50,pick,-0.590,-0.590,-0.590,0.000,0.000,0.000
1605192406198777856,10.0.1.122,49,pick,-0.600,-0.600,-0.600,0.000,0.000,0.000
1605192407202236928,10.0.1.122,51,pick,-0.610,-0.610,-0.610,0.000,0.000,0.000
1605192408200599808,10.0.1.122,48,pick,-0.620,-0.620,-0.620,0.000,0.000,0.000
1605192409199301888,10.0.1.122,46,pick,-0.630,-0.630,-0.630,0.000,0.000,0.000
1605192410199596800,10.0.1.122,45,pick,-0.640,-0.640,-0.640,0.000,0.000,0.000
1605192411199939840,10.0.1.122,44,pick,-0.650,-0.650,-0.650,0.000,0.000,0.000
1605192412198898944,10.0.1.122,42,pick,-0.660,-0.660,-0.660,0.000,0.000,0.000
1605192413199682048,10.0.1.122,41,pick,-0.670,-0.670,-0.670,0.000,0.000,0.000
1605192414201273856,10.0.1.122,41,pick,-0.680,-0.680,-0.680,0.000,0.000,0.000
1605192415199611904,10.0.1.122,38,pick,-0.690,-0.690,-0.690,0.000,0.000,0.000
1605192416199235072,10.0.1.122,37,pick,-0.700,-0.700,-0.700,0.000,0.000,0.000
1605192417199488000,10.0.1.122,36,pick,-0.710,-0.710,-0.710,0.000,0.000,0.000
1605192418201302016,10.0.1.122,36,pick,-0.720,-0.720,-0.720,0.000,0.000,0.000
1605192419198930944,10.0.1.122,33,pick,-0.730,-0.730,-0.730,0.000,0.000,0.000
1605192420200355072,10.0.1.122,33,pick,-0.740,-0.740,-0.740,0.000,0.000,0.000
1605192421218599936,10.0.1.122,50,pick,-0.750,-0.750,-0.750,0.000,0.000,0.000
1605192422219491072,10.0.1.122,49,pick,-0.760,-0.760,-0.760,0.000,0.000,0.000
1605192423219363840,10.0.1.122,48,pick,-0.770,-0.770,-0.770,0.000,0.000,0.000
1605192424551745024,10.0.1.122,379,move_up,-0.750,-0.750,-0.750,0.000,0.000,0.000
1605192425988750080,10.0.1.122,391,move_up,-0.730,-0.730,-0.730,0.000,0.000,0.000
1605192427400336128,10.0.1.122,363,move_up,-0.710,-0.710,-0.710,0.000,0.000,0.000
1605192428849547008,10.0.1.122,381,move_up,-0.690,-0.690,-0.690,0.000,0.000,0.000
1605192430279047936,10.0.1.122,371,move_up,-0.670,-0.670,-0.670,0.000,0.000,0.000
1605192431689105152,10.0.1.122,356,move_up,-0.650,-0.650,-0.650,0.000,0.000,0.000
1605192433139354112,10.0.1.122,382,move_up,-0.630,-0.630,-0.630,0.000,0.000,0.000
1605192434569544192,10.0.1.122,372,move_up,-0.610,-0.610,-0.610,0.000,0.000,0.000
1605192436000072960,10.0.1.122,378,move_up,-0.590,-0.590,-0.590,0.000,0.000,0.000
1605192437409832960,10.0.1.122,363,move_up,-0.570,-0.570,-0.570,0.000,0.000,0.000
1605192438839899136,10.0.1.122,366,move_up,-0.550,-0.550,-0.550,0.000,0.000,0.000
1605192440288932096,10.0.1.122,374,move_up,-0.530,-0.530,-0.530,0.000,0.000,0.000
1605192441719990016,10.0.1.122,380,move_up,-0.510,-0.510,-0.510,0.000,0.000,0.000
1605192443149046784,10.0.1.122,381,move_up,-0.490,-0.490,-0.490,0.000,0.000,0.000
1605192444559174912,10.0.1.122,351,move_up,-0.470,-0.470,-0.470,0.000,0.000,0.000
1605192446011712000,10.0.1.122,389,move_up,-0.450,-0.450,-0.450,0.000,0.000,0.000
1605192447418692096,10.0.1.122,380,move_up,-0.430,-0.430,-0.430,0.000,0.000,0.000
1605192448829117184,10.0.1.122,351,move_up,-0.410,-0.410,-0.410,0.000,0.000,0.000
1605192450278528000,10.0.1.122,381,move_up,-0.390,-0.390,-0.390,0.000,0.000,0.000
1605192451699265024,10.0.1.122,376,move_up,-0.370,-0.370,-0.370,0.000,0.000,0.000
1605192453109207040,10.0.1.122,367,move_up,-0.350,-0.350,-0.350,0.000,0.000,0.000
1605192454518874880,10.0.1.122,369,move_up,-0.330,-0.330,-0.330,0.000,0.000,0.000
1605192455929070080,10.0.1.122,364,move_up,-0.310,-0.310,-0.310,0.000,0.000,0.000
1605192457369158912,10.0.1.122,392,move_up,-0.290,-0.290,-0.290,0.000,0.000,0.000
1605192458779371008,10.0.1.122,372,move_up,-0.270,-0.270,-0.270,0.000,0.000,0.000
1605192460229357056,10.0.1.122,402,move_up,-0.250,-0.250,-0.250,0.000,0.000,0.000
1605192461619043072,10.0.1.122,363,move_up,-0.230,-0.230,-0.230,0.000,0.000,0.000
1605192463071073024,10.0.1.122,375,move_up,-0.210,-0.210,-0.210,0.000,0.000,0.000
1605192464499640832,10.0.1.122,379,move_up,-0.190,-0.190,-0.190,0.000,0.000,0.000
1605192465599005952,10.0.1.122,38,place,-0.180,-0.180,-0.180,0.000,0.000,0.000
1605192466600076800,10.0.1.122,38,place,-0.170,-0.170,-0.170,0.000,0.000,0.000
1605192467599811072,10.0.1.122,36,place,-0.160,-0.160,-0.160,0.000,0.000,0.000
1605192468598999040,10.0.1.122,34,place,-0.150,-0.150,-0.150,0.000,0.000,0.000
1605192469599424000,10.0.1.122,33,place,-0.140,-0.140,-0.140,0.000,0.000,0.000
1605192470598915072,10.0.1.122,32,place,-0.130,-0.130,-0.130,0.000,0.000,0.000
1605192471618665984,10.0.1.122,50,place,-0.120,-0.120,-0.120,0.000,0.000,0.000
1605192472618670080,10.0.1.122,49,place,-0.110,-0.110,-0.110,0.000,0.000,0.000
1605192473619010816,10.0.1.122,48,place,-0.100,-0.100,-0.100,0.000,0.000,0.000
1605192474619280128,10.0.1.122,47,place,-0.090,-0.090,-0.090,0.000,0.000,0.000
1605192475619303936,10.0.1.122,45,place,-0.080,-0.080,-0.080,0.000,0.000,0.000
1605192476619083008,10.0.1.122,44,place,-0.070,-0.070,-0.070,0.000,0.000,0.000
1605192477619041024,10.0.1.122,43,place,-0.060,-0.060,-0.060,0.000,0.000,0.000
1605192478619121920,10.0.1.122,42,place,-0.050,-0.050,-0.050,0.000,0.000,0.000
1605192479620624896,10.0.1.122,42,place,-0.040,-0.040,-0.040,0.000,0.000,0.000
1605192480619344896,10.0.1.122,39,place,-0.030,-0.030,-0.030,0.000,0.000,0.000
1605192481618818048,10.0.1.122,38,place,-0.020,-0.020,-0.020,0.000,0.000,0.000
1605192482619124992,10.0.1.122,37,place,-0.010,-0.010,-0.010,0.000,0.000,0.000
1605192483618834944,10.0.1.122,35,place,0.000,0.000,0.000,0.000,0.000,0.000
1605192484979102976,10.0.1.122,394,move_down,-0.020,-0.020,-0.020,0.000,0.000,0.000
1605192486409310208,10.0.1.122,382,move_down,-0.040,-0.040,-0.040,0.000,0.000,0.000
1605192487819163136,10.0.1.122,365,move_down,-0.060,-0.060,-0.060,0.000,0.000,0.000
1605192489269005056,10.0.1.122,396,move_down,-0.080,-0.080,-0.080,0.000,0.000,0.000
1605192490658672128,10.0.1.122,365,move_down,-0.100,-0.100,-0.100,0.000,0.000,0.000
1605192492109656064,10.0.1.122,402,move_down,-0.120,-0.120,-0.120,0.000,0.000,0.000
1605192493518672896,10.0.1.122,372,move_down,-0.140,-0.140,-0.140,0.000,0.000,0.000
1605192494959721216,10.0.1.122,388,move_down,-0.160,-0.160,-0.160,0.000,0.000,0.000
1605192496389383936,10.0.1.122,379,move_down,-0.180,-0.180,-0.180,0.000,0.000,0.000
1605192497779378944,10.0.1.122,345,move_down,-0.200,-0.200,-0.200,0.000,0.000,0.000
1605192499249372928,10.0.1.122,391,move_down,-0.220,-0.220,-0.220,0.000,0.000,0.000
1605192500679318784,10.0.1.122,376,move_down,-0.240,-0.240,-0.240,0.000,0.000,0.000
1605192502108777984,10.0.1.122,380,move_down,-0.260,-0.260,-0.260,0.000,0.000,0.000
1605192503519070976,10.0.1.122,363,move_down,-0.280,-0.280,-0.280,0.000,0.000,0.000
1605192504968784128,10.0.1.122,373,move_down,-0.300,-0.300,-0.300,0.000,0.000,0.000
1605192506399084032,10.0.1.122,378,move_down,-0.320,-0.320,-0.320,0.000,0.000,0.000
1605192507810564096,10.0.1.122,365,move_down,-0.340,-0.340,-0.340,0.000,0.000,0.000
1605192509219454976,10.0.1.122,361,move_down,-0.360,-0.360,-0.360,0.000,0.000,0.000
1605192510648953856,10.0.1.122,365,move_down,-0.380,-0.380,-0.380,0.000,0.000,0.000
1605192512078657024,10.0.1.122,376,move_down,-0.400,-0.400,-0.400,0.000,0.000,0.000
1605192513498842880,10.0.1.122,370,move_down,-0.420,-0.420,-0.420,0.000,0.000,0.000
1605192514911021056,10.0.1.122,355,move_down,-0.440,-0.440,-0.440,0.000,0.000,0.000
1605192516358967040,10.0.1.122,384,move_down,-0.460,-0.460,-0.460,0.000,0.000,0.000
1605192517789253120,10.0.1.122,364,move_down,-0.480,-0.480,-0.480,0.000,0.000,0.000
1605192519219170048,10.0.1.122,381,move_down,-0.500,-0.500,-0.500,0.000,0.000,0.000
1605192520649116928,10.0.1.122,386,move_down,-0.520,-0.520,-0.520,0.000,0.000,0.000
1605192522099073024,10.0.1.122,395,move_down,-0.540,-0.540,-0.540,0.000,0.000,0.000
1605192523509281024,10.0.1.122,381,move_down,-0.560,-0.560,-0.560,0.000,0.000,0.000
1605192524928973824,10.0.1.122,360,move_down,-0.580,-0.580,-0.580,0.000,0.000,0.000
1605192526028974080,10.0.1.122,35,pick,-0.590,-0.590,-0.590,0.000,0.000,0.000
1605192527029485056,10.0.1.122,34,pick,-0.600,-0.600,-0.600,0.000,0.000,0.000
1605192528028776960,10.0.1.122,33,pick,-0.610,-0.610,-0.610,0.000,0.000,0.000
1605192529029319936,10.0.1.122,32,pick,-0.620,-0.620,-0.620,0.000,0.000,0.000
1605192530048950784,10.0.1.122,50,pick,-0.630,-0.630,-0.630,0.000,0.000,0.000
1605192531048948992,10.0.1.122,49,pick,-0.640,-0.640,-0.640,0.000,0.000,0.000
1605192532049214976,10.0.1.122,48,pick,-0.650,-0.650,-0.650,0.000,0.000,0.000
1605192533049519104,10.0.1.122,47,pick,-0.660,-0.660,-0.660,0.000,0.000,0.000
1605192534048547072,10.0.1.122,45,pick,-0.670,-0.670,-0.670,0.000,0.000,0.000
1605192535049197824,10.0.1.122,44,pick,-0.680,-0.680,-0.680,0.000,0.000,0.000
1605192536048660992,10.0.1.122,42,pick,-0.690,-0.690,-0.690,0.000,0.000,0.000
1605192537050471168,10.0.1.122,43,pick,-0.700,-0.700,-0.700,0.000,0.000,0.000
1605192538049481984,10.0.1.122,41,pick,-0.710,-0.710,-0.710,0.000,0.000,0.000
1605192539050542080,10.0.1.122,41,pick,-0.720,-0.720,-0.720,0.000,0.000,0.000
1605192540049181952,10.0.1.122,39,pick,-0.730,-0.730,-0.730,0.000,0.000,0.000
1605192541048662016,10.0.1.122,37,pick,-0.740,-0.740,-0.740,0.000,0.000,0.000
1605192542049676032,10.0.1.122,37,pick,-0.750,-0.750,-0.750,0.000,0.000,0.000
1605192543048666112,10.0.1.122,34,pick,-0.760,-0.760,-0.760,0.000,0.000,0.000
1605192544051611904,10.0.1.122,36,pick,-0.770,-0.770,-0.770,0.000,0.000,0.000
1605192545358797056,10.0.1.122,342,move_up,-0.750,-0.750,-0.750,0.000,0.000,0.000
1605192546808573952,10.0.1.122,384,move_up,-0.730,-0.730,-0.730,0.000,0.000,0.000
1605192548218898176,10.0.1.122,354,move_up,-0.710,-0.710,-0.710,0.000,0.000,0.000
1605192549650106880,10.0.1.122,365,move_up,-0.690,-0.690,-0.690,0.000,0.000,0.000
1605192551079016960,10.0.1.122,378,move_up,-0.670,-0.670,-0.670,0.000,0.000,0.000
1605192552519860992,10.0.1.122,395,move_up,-0.650,-0.650,-0.650,0.000,0.000,0.000
1605192553939828992,10.0.1.122,370,move_up,-0.630,-0.630,-0.630,0.000,0.000,0.000
1605192555388843008,10.0.1.122,379,move_up,-0.610,-0.610,-0.610,0.000,0.000,0.000
1605192556818688000,10.0.1.122,377,move_up,-0.590,-0.590,-0.590,0.000,0.000,0.000
1605192558249090048,10.0.1.122,384,move_up,-0.570,-0.570,-0.570,0.000,0.000,0.000
1605192559660159232,10.0.1.122,379,move_up,-0.550,-0.550,-0.550,0.000,0.000,0.000
1605192561069243904,10.0.1.122,361,move_up,-0.530,-0.530,-0.530,0.000,0.000,0.000
1605192562498989056,10.0.1.122,377,move_up,-0.510,-0.510,-0.510,0.000,0.000,0.000
1605192563908759040,10.0.1.122,364,move_up,-0.490,-0.490,-0.490,0.000,0.000,0.000
1605192565329672192,10.0.1.122,371,move_up,-0.470,-0.470,-0.470,0.000,0.000,0.000
1605192566759071232,10.0.1.122,375,move_up,-0.450,-0.450,-0.450,0.000,0.000,0.000
1605192568209558016,10.0.1.122,401,move_up,-0.430,-0.430,-0.430,0.000,0.000,0.000
1605192569619268864,10.0.1.122,361,move_up,-0.410,-0.410,-0.410,0.000,0.000,0.000
1605192571069178112,10.0.1.122,381,move_up,-0.390,-0.390,-0.390,0.000,0.000,0.000
1605192572479983104,10.0.1.122,350,move_up,-0.370,-0.370,-0.370,0.000,0.000,0.000
1605192573909435904,10.0.1.122,366,move_up,-0.350,-0.350,-0.350,0.000,0.000,0.000
1605192575318888960,10.0.1.122,365,move_up,-0.330,-0.330,-0.330,0.000,0.000,0.000
1605192576748742144,10.0.1.122,380,move_up,-0.310,-0.310,-0.310,0.000,0.000,0.000
1605192578178978048,10.0.1.122,372,move_up,-0.290,-0.290,-0.290,0.000,0.000,0.000
1605192579588983040,10.0.1.122,361,move_up,-0.270,-0.270,-0.270,0.000,0.000,0.000
1605192581028673024,10.0.1.122,374,move_up,-0.250,-0.250,-0.250,0.000,0.000,0.000
1605192582440068096,10.0.1.122,367,move_up,-0.230,-0.230,-0.230,0.000,0.000,0.000
1605192583829453824,10.0.1.122,345,move_up,-0.210,-0.210,-0.210,0.000,0.000,0.000
1605192585268722176,10.0.1.122,375,move_up,-0.190,-0.190,-0.190,0.000,0.000,0.000
1605192586368737024,10.0.1.122,49,place,-0.180,-0.180,-0.180,0.000,0.000,0.000
1605192587368971008,10.0.1.122,48,place,-0.170,-0.170,-0.170,0.000,0.000,0.000
1605192588369126144,10.0.1.122,47,place,-0.160,-0.160,-0.160,0.000,0.000,0.000
1605192589368814848,10.0.1.122,45,place,-0.150,-0.150,-0.150,0.000,0.000,0.000
1605192590368478976,10.0.1.122,44,place,-0.140,-0.140,-0.140,0.000,0.000,0.000
1605192591370131968,10.0.1.122,44,place,-0.130,-0.130,-0.130,0.000,0.000,0.000
1605192592369165824,10.0.1.122,42,place,-0.120,-0.120,-0.120,0.000,0.000,0.000
1605192593369249024,10.0.1.122,40,place,-0.110,-0.110,-0.110,0.000,0.000,0.000
1605192594369136128,10.0.1.122,39,place,-0.100,-0.100,-0.100,0.000,0.000,0.000
1605192595370467840,10.0.1.122,39,place,-0.090,-0.090,-0.090,0.000,0.000,0.000
1605192596369165056,10.0.1.122,36,place,-0.080,-0.080,-0.080,0.000,0.000,0.000
1605192597368566016,10.0.1.122,34,place,-0.070,-0.070,-0.070,0.000,0.000,0.000
1605192598369357056,10.0.1.122,34,place,-0.060,-0.060,-0.060,0.000,0.000,0.000
1605192599369219072,10.0.1.122,32,place,-0.050,-0.050,-0.050,0.000,0.000,0.000
1605192600369138944,10.0.1.122,31,place,-0.040,-0.040,-0.040,0.000,0.000,0.000
1605192601389782016,10.0.1.122,50,place,-0.030,-0.030,-0.030,0.000,0.000,0.000
1605192602389061888,10.0.1.122,48,place,-0.020,-0.020,-0.020,0.000,0.000,0.000
1605192603388797952,10.0.1.122,47,place,-0.010,-0.010,-0.010,0.000,0.000,0.000
1605192604389230848,10.0.1.122,46,place,0.000,0.000,0.000,0.000,0.000,0.000
1605192605719047168,10.0.1.122,375,move_down,-0.020,-0.020,-0.020,0.000,0.000,0.000
1605192607149038080,10.0.1.122,378,move_down,-0.040,-0.040,-0.040,0.000,0.000,0.000
1605192608561495040,10.0.1.122,367,move_down,-0.060,-0.060,-0.060,0.000,0.000,0.000
1605192610010210048,10.0.1.122,376,move_down,-0.080,-0.080,-0.080,0.000,0.000,0.000
1605192611424012800,10.0.1.122,372,move_down,-0.100,-0.100,-0.100,0.000,0.000,0.000
1605192612808914944,10.0.1.122,386,move_down,-0.120,-0.120,-0.120,0.000,0.000,0.000
1605192614239429888,10.0.1.122,377,move_down,-0.140,-0.140,-0.140,0.000,0.000,0.000
1605192615639098880,10.0.1.122,358,move_down,-0.160,-0.160,-0.160,0.000,0.000,0.000
1605192617059015936,10.0.1.122,362,move_down,-0.180,-0.180,-0.180,0.000,0.000,0.000
1605192618469104896,10.0.1.122,359,move_down,-0.200,-0.200,-0.200,0.000,0.000,0.000
1605192619905731840,10.0.1.122,371,move_down,-0.220,-0.220,-0.220,0.000,0.000,0.000
1605192621319247104,10.0.1.122,370,move_down,-0.240,-0.240,-0.240,0.000,0.000,0.000
1605192622749007104,10.0.1.122,372,move_down,-0.260,-0.260,-0.260,0.000,0.000,0.000
1605192624188730112,10.0.1.122,391,move_down,-0.280,-0.280,-0.280,0.000,0.000,0.000
1605192625639570944,10.0.1.122,402,move_down,-0.300,-0.300,-0.300,0.000,0.000,0.000
1605192627049200896,10.0.1.122,370,move_down,-0.320,-0.320,-0.320,0.000,0.000,0.000
1605192628479031040,10.0.1.122,374,move_down,-0.340,-0.340,-0.340,0.000,0.000,0.000
1605192629909086976,10.0.1.122,379,move_down,-0.360,-0.360,-0.360,0.000,0.000,0.000
1605192631319040000,10.0.1.122,363,move_down,-0.380,-0.380,-0.380,0.000,0.000,0.000
1605192632728986112,10.0.1.122,362,move_down,-0.400,-0.400,-0.400,0.000,0.000,0.000
1605192634158998016,10.0.1.122,383,move_down,-0.420,-0.420,-0.420,0.000,0.000,0.000
1605192635558973184,10.0.1.122,374,move_down,-0.440,-0.440,-0.440,0.000,0.000,0.000
1605192636989244928,10.0.1.122,381,move_down,-0.460,-0.460,-0.460,0.000,0.000,0.000
1605192638378583808,10.0.1.122,344,move_down,-0.480,-0.480,-0.480,0.000,0.000,0.000
1605192639813920000,10.0.1.122,368,move_down,-0.500,-0.500,-0.500,0.000,0.000,0.000
1605192641218884864,10.0.1.122,365,move_down,-0.520,-0.520,-0.520,0.000,0.000,0.000
1605192642648760064,10.0.1.122,354,move_down,-0.540,-0.540,-0.540,0.000,0.000,0.000
1605192644039371008,10.0.1.122,371,move_down,-0.560,-0.560,-0.560,0.000,0.000,0.000
1605192645449675008,10.0.1.122,366,move_down,-0.580,-0.580,-0.580,0.000,0.000,0.000
1605192646549513216,10.0.1.122,51,pick,-0.590,-0.590,-0.590,0.000,0.000,0.000
1605192647549489920,10.0.1.122,49,pick,-0.600,-0.600,-0.600,0.000,0.000,0.000
1605192648549225216,10.0.1.122,48,pick,-0.610,-0.610,-0.610,0.000,0.000,0.000
1605192649549336832,10.0.1.122,47,pick,-0.620,-0.620,-0.620,0.000,0.000,0.000
1605192650549121024,10.0.1.122,45,pick,-0.630,-0.630,-0.630,0.000,0.000,0.000
1605192651549305088,10.0.1.122,44,pick,-0.640,-0.640,-0.640,0.000,0.000,0.000
1605192652548978176,10.0.1.122,42,pick,-0.650,-0.650,-0.650,0.000,0.000,0.000
1605192653548588032,10.0.1.122,41,pick,-0.660,-0.660,-0.660,0.000,0.000,0.000
1605192654549270016,10.0.1.122,37,pick,-0.670,-0.670,-0.670,0.000,0.000,0.000
1605192655550157056,10.0.1.122,37,pick,-0.680,-0.680,-0.680,0.000,0.000,0.000
1605192656549079040,10.0.1.122,34,pick,-0.690,-0.690,-0.690,0.000,0.000,0.000
1605192657548947200,10.0.1.122,33,pick,-0.700,-0.700,-0.700,0.000,0.000,0.000
1605192658549464832,10.0.1.122,32,pick,-0.710,-0.710,-0.710,0.000,0.000,0.000
1605192659570092032,10.0.1.122,51,pick,-0.720,-0.720,-0.720,0.000,0.000,0.000
1605192660569233920,10.0.1.122,49,pick,-0.730,-0.730,-0.730,0.000,0.000,0.000
1605192661568783872,10.0.1.122,47,pick,-0.740,-0.740,-0.740,0.000,0.000,0.000
1605192662571922944,10.0.1.122,49,pick,-0.750,-0.750,-0.750,0.000,0.000,0.000
1605192663569010944,10.0.1.122,45,pick,-0.760,-0.760,-0.760,0.000,0.000,0.000
1605192664569116160,10.0.1.122,44,pick,-0.770,-0.770,-0.770,0.000,0.000,0.000
1605192665899174912,10.0.1.122,373,move_up,-0.750,-0.750,-0.750,0.000,0.000,0.000
1605192667312165888,10.0.1.122,361,move_up,-0.730,-0.730,-0.730,0.000,0.000,0.000
1605192668698776064,10.0.1.122,372,move_up,-0.710,-0.710,-0.710,0.000,0.000,0.000
1605192670089569024,10.0.1.122,345,move_up,-0.690,-0.690,-0.690,0.000,0.000,0.000
1605192671518699008,10.0.1.122,365,move_up,-0.670,-0.670,-0.670,0.000,0.000,0.000
1605192672929328896,10.0.1.122,359,move_up,-0.650,-0.650,-0.650,0.000,0.000,0.000
1605192674358864128,10.0.1.122,361,move_up,-0.630,-0.630,-0.630,0.000,0.000,0.000
1605192675789235200,10.0.1.122,380,move_up,-0.610,-0.610,-0.610,0.000,0.000,0.000
1605192677199374080,10.0.1.122,365,move_up,-0.590,-0.590,-0.590,0.000,0.000,0.000
1605192678648963840,10.0.1.122,389,move_up,-0.570,-0.570,-0.570,0.000,0.000,0.000
1605192680079421952,10.0.1.122,379,move_up,-0.550,-0.550,-0.550,0.000,0.000,0.000
1605192681508479232,10.0.1.122,381,move_up,-0.530,-0.530,-0.530,0.000,0.000,0.000
1605192682918964992,10.0.1.122,351,move_up,-0.510,-0.510,-0.510,0.000,0.000,0.000
1605192684329030144,10.0.1.122,348,move_up,-0.490,-0.490,-0.490,0.000,0.000,0.000
1605192685778991104,10.0.1.122,383,move_up,-0.470,-0.470,-0.470,0.000,0.000,0.000
1605192687189248000,10.0.1.122,353,move_up,-0.450,-0.450,-0.450,0.000,0.000,0.000
1605192688639152128,10.0.1.122,385,move_up,-0.430,-0.430,-0.430,0.000,0.000,0.000
1605192690078790912,10.0.1.122,384,move_up,-0.410,-0.410,-0.410,0.000,0.000,0.000
1605192691488460032,10.0.1.122,351,move_up,-0.390,-0.390,-0.390,0.000,0.000,0.000
1605192692919483904,10.0.1.122,368,move_up,-0.370,-0.370,-0.370,0.000,0.000,0.000
1605192694339983104,10.0.1.122,374,move_up,-0.350,-0.350,-0.350,0.000,0.000,0.000
1605192695789863168,10.0.1.122,384,move_up,-0.330,-0.330,-0.330,0.000,0.000,0.000
1605192697218885888,10.0.1.122,381,move_up,-0.310,-0.310,-0.310,0.000,0.000,0.000
1605192698628663040,10.0.1.122,351,move_up,-0.290,-0.290,-0.290,0.000,0.000,0.000
1605192700079636224,10.0.1.122,388,move_up,-0.270,-0.270,-0.270,0.000,0.000,0.000
1605192701469292032,10.0.1.122,363,move_up,-0.250,-0.250,-0.250,0.000,0.000,0.000
1605192702919041024,10.0.1.122,370,move_up,-0.230,-0.230,-0.230,0.000,0.000,0.000
1605192704358856960,10.0.1.122,390,move_up,-0.210,-0.210,-0.210,0.000,0.000,0.000
1605192705789496832,10.0.1.122,381,move_up,-0.190,-0.190,-0.190,0.000,0.000,0.000
1605192706888506880,10.0.1.122,49,place,-0.180,-0.180,-0.180,0.000,0.000,0.000
1605192707888854016,10.0.1.122,48,place,-0.170,-0.170,-0.170,0.000,0.000,0.000
1605192708890504960,10.0.1.122,49,place,-0.160,-0.160,-0.160,0.000,0.000,0.000
1605192709889168896,10.0.1.122,46,place,-0.150,-0.150,-0.150,0.000,0.000,0.000
1605192710889332992,10.0.1.122,45,place,-0.140,-0.140,-0.140,0.000,0.000,0.000
1605192711888992000,10.0.1.122,44,place,-0.130,-0.130,-0.130,0.000,0.000,0.000
1605192712888611072,10.0.1.122,42,place,-0.120,-0.120,-0.120,0.000,0.000,0.000
1605192713888933888,10.0.1.122,41,place,-0.110,-0.110,-0.110,0.000,0.000,0.000
1605192714888955136,10.0.1.122,39,place,-0.100,-0.100,-0.100,0.000,0.000,0.000
1605192715889059072,10.0.1.122,38,place,-0.090,-0.090,-0.090,0.000,0.000,0.000
1605192716888628992,10.0.1.122,37,place,-0.080,-0.080,-0.080,0.000,0.000,0.000
1605192717889163008,10.0.1.122,36,place,-0.070,-0.070,-0.070,0.000,0.000,0.000
1605192718889230080,10.0.1.122,35,place,-0.060,-0.060,-0.060,0.000,0.000,0.000
1605192719891220992,10.0.1.122,35,place,-0.050,-0.050,-0.050,0.000,0.000,0.000
1605192720891330048,10.0.1.122,34,place,-0.040,-0.040,-0.040,0.000,0.000,0.000
1605192721891688960,10.0.1.122,33,place,-0.030,-0.030,-0.030,0.000,0.000,0.000
1605192722891233024,10.0.1.122,31,place,-0.020,-0.020,-0.020,0.000,0.000,0.000
1605192723912841984,10.0.1.122,52,place,-0.010,-0.010,-0.010,0.000,0.000,0.000
1605192724912297984,10.0.1.122,50,place,0.000,0.000,0.000,0.000,0.000,0.000
1605192726221651968,10.0.1.122,358,move_down,-0.020,-0.020,-0.020,0.000,0.000,0.000
1605192727672375040,10.0.1.122,382,move_down,-0.040,-0.040,-0.040,0.000,0.000,0.000
1605192729081651968,10.0.1.122,365,move_down,-0.060,-0.060,-0.060,0.000,0.000,0.000
1605192730532018944,10.0.1.122,375,move_down,-0.080,-0.080,-0.080,0.000,0.000,0.000
1605192731941284864,10.0.1.122,358,move_down,-0.100,-0.100,-0.100,0.000,0.000,0.000
1605192733371907072,10.0.1.122,362,move_down,-0.120,-0.120,-0.120,0.000,0.000,0.000
1605192734833043968,10.0.1.122,413,move_down,-0.140,-0.140,-0.140,0.000,0.000,0.000
1605192736262456064,10.0.1.122,370,move_down,-0.160,-0.160,-0.160,0.000,0.000,0.000
1605192737691741952,10.0.1.122,383,move_down,-0.180,-0.180,-0.180,0.000,0.000,0.000
1605192739101427200,10.0.1.122,380,move_down,-0.200,-0.200,-0.200,0.000,0.000,0.000
1605192740471554048,10.0.1.122,374,move_down,-0.220,-0.220,-0.220,0.000,0.000,0.000
1605192741901901056,10.0.1.122,384,move_down,-0.240,-0.240,-0.240,0.000,0.000,0.000
1605192743342840832,10.0.1.122,383,move_down,-0.260,-0.260,-0.260,0.000,0.000,0.000
1605192744725346048,10.0.1.122,347,move_down,-0.280,-0.280,-0.280,0.000,0.000,0.000
1605192746131762944,10.0.1.122,379,move_down,-0.300,-0.300,-0.300,0.000,0.000,0.000
1605192747542144000,10.0.1.122,363,move_down,-0.320,-0.320,-0.320,0.000,0.000,0.000
1605192748980914176,10.0.1.122,359,move_down,-0.340,-0.340,-0.340,0.000,0.000,0.000
1605192750362121984,10.0.1.122,369,move_down,-0.360,-0.360,-0.360,0.000,0.000,0.000
1605192751801460992,10.0.1.122,389,move_down,-0.380,-0.380,-0.380,0.000,0.000,0.000
1605192753211891968,10.0.1.122,359,move_down,-0.400,-0.400,-0.400,0.000,0.000,0.000
1605192754641350144,10.0.1.122,348,move_down,-0.420,-0.420,-0.420,0.000,0.000,0.000
1605192756081129984,10.0.1.122,373,move_down,-0.440,-0.440,-0.440,0.000,0.000,0.000
1605192757511612928,10.0.1.122,390,move_down,-0.460,-0.460,-0.460,0.000,0.000,0.000
1605192758943558912,10.0.1.122,380,move_down,-0.480,-0.480,-0.480,0.000,0.000,0.000
1605192760372108032,10.0.1.122,383,move_down,-0.500,-0.500,-0.500,0.000,0.000,0.000
1605192761781596928,10.0.1.122,352,move_down,-0.520,-0.520,-0.520,0.000,0.000,0.000
1605192763232899840,10.0.1.122,377,move_down,-0.540,-0.540,-0.540,0.000,0.000,0.000
1605192764646274048,10.0.1.122,364,move_down,-0.560,-0.560,-0.560,0.000,0.000,0.000
1605192766071628032,10.0.1.122,381,move_down,-0.580,-0.580,-0.580,0.000,0.000,0.000
1605192767171760128,10.0.1.122,41,pick,-0.590,-0.590,-0.590,0.000,0.000,0.000
1605192768171111168,10.0.1.122,39,pick,-0.600,-0.600,-0.600,0.000,0.000,0.000
1605192769173132032,10.0.1.122,40,pick,-0.610,-0.610,-0.610,0.000,0.000,0.000
1605192770171844096,10.0.1.122,37,pick,-0.620,-0.620,-0.620,0.000,0.000,0.000
1605192771172844800,10.0.1.122,37,pick,-0.630,-0.630,-0.630,0.000,0.000,0.000
1605192772171268096,10.0.1.122,34,pick,-0.640,-0.640,-0.640,0.000,0.000,0.000
1605192773171525120,10.0.1.122,33,pick,-0.650,-0.650,-0.650,0.000,0.000,0.000
1605192774171382784,10.0.1.122,32,pick,-0.660,-0.660,-0.660,0.000,0.000,0.000
1605192775171638016,10.0.1.122,31,pick,-0.670,-0.670,-0.670,0.000,0.000,0.000
1605192776192936960,10.0.1.122,51,pick,-0.680,-0.680,-0.680,0.000,0.000,0.000
1605192777191137024,10.0.1.122,48,pick,-0.690,-0.690,-0.690,0.000,0.000,0.000
1605192778191992064,10.0.1.122,47,pick,-0.700,-0.700,-0.700,0.000,0.000,0.000
1605192779191956992,10.0.1.122,46,pick,-0.710,-0.710,-0.710,0.000,0.000,0.000
1605192780191208960,10.0.1.122,44,pick,-0.720,-0.720,-0.720,0.000,0.000,0.000
1605192781191337216,10.0.1.122,43,pick,-0.730,-0.730,-0.730,0.000,0.000,0.000
1605192782191684096,10.0.1.122,42,pick,-0.740,-0.740,-0.740,0.000,0.000,0.000
1605192783191304960,10.0.1.122,40,pick,-0.750,-0.750,-0.750,0.000,0.000,0.000
1605192784191934976,10.0.1.122,39,pick,-0.760,-0.760,-0.760,0.000,0.000,0.000
1605192785191205888,10.0.1.122,37,pick,-0.770,-0.770,-0.770,0.000,0.000,0.000
1605192786501623040,10.0.1.122,347,move_up,-0.750,-0.750,-0.750,0.000,0.000,0.000
1605192787941978880,10.0.1.122,374,move_up,-0.730,-0.730,-0.730,0.000,0.000,0.000
1605192789351913984,10.0.1.122,368,move_up,-0.710,-0.710,-0.710,0.000,0.000,0.000
1605192790791384832,10.0.1.122,397,move_up,-0.690,-0.690,-0.690,0.000,0.000,0.000
1605192792220944896,10.0.1.122,381,move_up,-0.670,-0.670,-0.670,0.000,0.000,0.000
1605192793621614080,10.0.1.122,355,move_up,-0.650,-0.650,-0.650,0.000,0.000,0.000
1605192795071791872,10.0.1.122,384,move_up,-0.630,-0.630,-0.630,0.000,0.000,0.000
1605192796502063872,10.0.1.122,375,move_up,-0.610,-0.610,-0.610,0.000,0.000,0.000
1605192797941364992,10.0.1.122,390,move_up,-0.590,-0.590,-0.590,0.000,0.000,0.000
1605192799371742976,10.0.1.122,380,move_up,-0.570,-0.570,-0.570,0.000,0.000,0.000
1605192800801240832,10.0.1.122,370,move_up,-0.550,-0.550,-0.550,0.000,0.000,0.000
1605192802211954176,10.0.1.122,363,move_up,-0.530,-0.530,-0.530,0.000,0.000,0.000
1605192803648914176,10.0.1.122,360,move_up,-0.510,-0.510,-0.510,0.000,0.000,0.000
1605192805071811072,10.0.1.122,364,move_up,-0.490,-0.490,-0.490,0.000,0.000,0.000
1605192806501487872,10.0.1.122,382,move_up,-0.470,-0.470,-0.470,0.000,0.000,0.000
1605192807941620992,10.0.1.122,377,move_up,-0.450,-0.450,-0.450,0.000,0.000,0.000
1605192809372915968,10.0.1.122,393,move_up,-0.430,-0.430,-0.430,0.000,0.000,0.000
1605192810801292800,10.0.1.122,381,move_up,-0.410,-0.410,-0.410,0.000,0.000,0.000
1605192812231414016,10.0.1.122,371,move_up,-0.390,-0.390,-0.390,0.000,0.000,0.000
1605192813662075904,10.0.1.122,381,move_up,-0.370,-0.370,-0.370,0.000,0.000,0.000
1605192815092113920,10.0.1.122,383,move_up,-0.350,-0.350,-0.350,0.000,0.000,0.000
1605192816502044928,10.0.1.122,353,move_up,-0.330,-0.330,-0.330,0.000,0.000,0.000
1605192817931355904,10.0.1.122,367,move_up,-0.310,-0.310,-0.310,0.000,0.000,0.000
1605192819341434880,10.0.1.122,363,move_up,-0.290,-0.290,-0.290,0.000,0.000,0.000
1605192820791075840,10.0.1.122,372,move_up,-0.270,-0.270,-0.270,0.000,0.000,0.000
1605192822211939072,10.0.1.122,372,move_up,-0.250,-0.250,-0.250,0.000,0.000,0.000
1605192823661488896,10.0.1.122,382,move_up,-0.230,-0.230,-0.230,0.000,0.000,0.000
1605192825101888768,10.0.1.122,395,move_up,-0.210,-0.210,-0.210,0.000,0.000,0.000
1605192826511739904,10.0.1.122,364,move_up,-0.190,-0.190,-0.190,0.000,0.000,0.000
1605192827612073984,10.0.1.122,50,place,-0.180,-0.180,-0.180,0.000,0.000,0.000
1605192828611911168,10.0.1.122,49,place,-0.170,-0.170,-0.170,0.000,0.000,0.000
1605192829612487168,10.0.1.122,48,place,-0.160,-0.160,-0.160,0.000,0.000,0.000
1605192830612761088,10.0.1.122,47,place,-0.150,-0.150,-0.150,0.000,0.000,0.000
1605192831611480832,10.0.1.122,45,place,-0.140,-0.140,-0.140,0.000,0.000,0.000
1605192832611727872,10.0.1.122,44,place,-0.130,-0.130,-0.130,0.000,0.000,0.000
1605192833611692032,10.0.1.122,42,place,-0.120,-0.120,-0.120,0.000,0.000,0.000
1605192834611974912,10.0.1.122,42,place,-0.110,-0.110,-0.110,0.000,0.000,0.000
1605192835612888064,10.0.1.122,41,place,-0.100,-0.100,-0.100,0.000,0.000,0.000
1605192836612199168,10.0.1.122,39,place,-0.090,-0.090,-0.090,0.000,0.000,0.000
1605192837611433984,10.0.1.122,37,place,-0.080,-0.080,-0.080,0.000,0.000,0.000
1605192838611369984,10.0.1.122,35,place,-0.070,-0.070,-0.070,0.000,0.000,0.000
1605192839611409920,10.0.1.122,34,place,-0.060,-0.060,-0.060,0.000,0.000,0.000
1605192840611617024,10.0.1.122,33,place,-0.050,-0.050,-0.050,0.000,0.000,0.000
1605192841611432192,10.0.1.122,32,place,-0.040,-0.040,-0.040,0.000,0.000,0.000
1605192842611738880,10.0.1.122,31,place,-0.030,-0.030,-0.030,0.000,0.000,0.000
1605192843631858944,10.0.1.122,50,place,-0.020,-0.020,-0.020,0.000,0.000,0.000
1605192844631678208,10.0.1.122,49,place,-0.010,-0.010,-0.010,0.000,0.000,0.000
1605192845632275200,10.0.1.122,48,place,0.000,0.000,0.000,0.000,0.000,0.000
1605192846962917120,10.0.1.122,378,move_down,-0.020,-0.020,-0.020,0.000,0.000,0.000
1605192848370908928,10.0.1.122,361,move_down,-0.040,-0.040,-0.040,0.000,0.000,0.000
1605192849801573888,10.0.1.122,361,move_down,-0.060,-0.060,-0.060,0.000,0.000,0.000
1605192851251748096,10.0.1.122,383,move_down,-0.080,-0.080,-0.080,0.000,0.000,0.000
1605192852661868032,10.0.1.122,353,move_down,-0.100,-0.100,-0.100,0.000,0.000,0.000
1605192854091262976,10.0.1.122,362,move_down,-0.120,-0.120,-0.120,0.000,0.000,0.000
1605192855521656064,10.0.1.122,366,move_down,-0.140,-0.140,-0.140,0.000,0.000,0.000
1605192856951150848,10.0.1.122,380,move_down,-0.160,-0.160,-0.160,0.000,0.000,0.000
1605192858361932032,10.0.1.122,365,move_down,-0.180,-0.180,-0.180,0.000,0.000,0.000
1605192859781858048,10.0.1.122,374,move_down,-0.200,-0.200,-0.200,0.000,0.000,0.000
1605192861191656192,10.0.1.122,367,move_down,-0.220,-0.220,-0.220,0.000,0.000,0.000
1605192862581878784,10.0.1.122,346,move_down,-0.240,-0.240,-0.240,0.000,0.000,0.000
1605192864032048896,10.0.1.122,379,move_down,-0.260,-0.260,-0.260,0.000,0.000,0.000
1605192865461415936,10.0.1.122,369,move_down,-0.280,-0.280,-0.280,0.000,0.000,0.000
1605192866892335872,10.0.1.122,385,move_down,-0.300,-0.300,-0.300,0.000,0.000,0.000
1605192868321729792,10.0.1.122,374,move_down,-0.320,-0.320,-0.320,0.000,0.000,0.000
1605192869751699968,10.0.1.122,379,move_down,-0.340,-0.340,-0.340,0.000,0.000,0.000
1605192871182041856,10.0.1.122,370,move_down,-0.360,-0.360,-0.360,0.000,0.000,0.000
1605192872571892992,10.0.1.122,385,move_down,-0.380,-0.380,-0.380,0.000,0.000,0.000
1605192874001792000,10.0.1.122,375,move_down,-0.400,-0.400,-0.400,0.000,0.000,0.000
1605192875452400896,10.0.1.122,382,move_down,-0.420,-0.420,-0.420,0.000,0.000,0.000
1605192876922290176,10.0.1.122,412,move_down,-0.440,-0.440,-0.440,0.000,0.000,0.000
1605192878342199040,10.0.1.122,389,move_down,-0.460,-0.460,-0.460,0.000,0.000,0.000
1605192879771718144,10.0.1.122,379,move_down,-0.480,-0.480,-0.480,0.000,0.000,0.000
1605192881202353920,10.0.1.122,369,move_down,-0.500,-0.500,-0.500,0.000,0.000,0.000
1605192882631852032,10.0.1.122,379,move_down,-0.520,-0.520,-0.520,0.000,0.000,0.000
1605192884061961984,10.0.1.122,384,move_down,-0.540,-0.540,-0.540,0.000,0.000,0.000
1605192885472335104,10.0.1.122,353,move_down,-0.560,-0.560,-0.560,0.000,0.000,0.000
1605192886941324032,10.0.1.122,380,move_down,-0.580,-0.580,-0.580,0.000,0.000,0.000
1605192888021855232,10.0.1.122,33,pick,-0.590,-0.590,-0.590,0.000,0.000,0.000
1605192889021477888,10.0.1.122,32,pick,-0.600,-0.600,-0.600,0.000,0.000,0.000
1605192890021789952,10.0.1.122,31,pick,-0.610,-0.610,-0.610,0.000,0.000,0.000
1605192891042157824,10.0.1.122,50,pick,-0.620,-0.620,-0.620,0.000,0.000,0.000
1605192892042046976,10.0.1.122,48,pick,-0.630,-0.630,-0.630,0.000,0.000,0.000
1605192893042445824,10.0.1.122,48,pick,-0.640,-0.640,-0.640,0.000,0.000,0.000
1605192894041650944,10.0.1.122,46,pick,-0.650,-0.650,-0.650,0.000,0.000,0.000
1605192895041976064,10.0.1.122,45,pick,-0.660,-0.660,-0.660,0.000,0.000,0.000
1605192896041292800,10.0.1.122,43,pick,-0.670,-0.670,-0.670,0.000,0.000,0.000
1605192897042223104,10.0.1.122,42,pick,-0.680,-0.680,-0.680,0.000,0.000,0.000
1605192898041732096,10.0.1.122,40,pick,-0.690,-0.690,-0.690,0.000,0.000,0.000
1605192899042726144,10.0.1.122,40,pick,-0.700,-0.700,-0.700,0.000,0.000,0.000
1605192900042169088,10.0.1.122,38,pick,-0.710,-0.710,-0.710,0.000,0.000,0.000
1605192901042202112,10.0.1.122,37,pick,-0.720,-0.720,-0.720,0.000,0.000,0.000
1605192902042129152,10.0.1.122,36,pick,-0.730,-0.730,-0.730,0.000,0.000,0.000
1605192903044740864,10.0.1.122,37,pick,-0.740,-0.740,-0.740,0.000,0.000,0.000
1605192904041761024,10.0.1.122,34,pick,-0.750,-0.750,-0.750,0.000,0.000,0.000
1605192905043176960,10.0.1.122,34,pick,-0.760,-0.760,-0.760,0.000,0.000,0.000
1605192906041796096,10.0.1.122,31,pick,-0.770,-0.770,-0.770,0.000,0.000,0.000
1605192907391761152,10.0.1.122,380,move_up,-0.750,-0.750,-0.750,0.000,0.000,0.000
1605192908781575936,10.0.1.122,344,move_up,-0.730,-0.730,-0.730,0.000,0.000,0.000
1605192910231972096,10.0.1.122,379,move_up,-0.710,-0.710,-0.710,0.000,0.000,0.000
1605192911661729024,10.0.1.122,370,move_up,-0.690,-0.690,-0.690,0.000,0.000,0.000
1605192913113157120,10.0.1.122,377,move_up,-0.670,-0.670,-0.670,0.000,0.000,0.000
1605192914521862144,10.0.1.122,367,move_up,-0.650,-0.650,-0.650,0.000,0.000,0.000
1605192915931613952,10.0.1.122,366,move_up,-0.630,-0.630,-0.630,0.000,0.000,0.000
1605192917362000896,10.0.1.122,384,move_up,-0.610,-0.610,-0.610,0.000,0.000,0.000
1605192918791632896,10.0.1.122,374,move_up,-0.590,-0.590,-0.590,0.000,0.000,0.000
1605192920221690880,10.0.1.122,378,move_up,-0.570,-0.570,-0.570,0.000,0.000,0.000
1605192921636877056,10.0.1.122,363,move_up,-0.550,-0.550,-0.550,0.000,0.000,0.000
1605192923021437952,10.0.1.122,372,move_up,-0.530,-0.530,-0.530,0.000,0.000,0.000
1605192924452102912,10.0.1.122,385,move_up,-0.510,-0.510,-0.510,0.000,0.000,0.000
1605192925841843968,10.0.1.122,359,move_up,-0.490,-0.490,-0.490,0.000,0.000,0.000
1605192927292459008,10.0.1.122,369,move_up,-0.470,-0.470,-0.470,0.000,0.000,0.000
1605192928721536000,10.0.1.122,380,move_up,-0.450,-0.450,-0.450,0.000,0.000,0.000
1605192930153063168,10.0.1.122,386,move_up,-0.430,-0.430,-0.430,0.000,0.000,0.000
1605192931551706112,10.0.1.122,376,move_up,-0.410,-0.410,-0.410,0.000,0.000,0.000
1605192932962626816,10.0.1.122,361,move_up,-0.390,-0.390,-0.390,0.000,0.000,0.000
1605192934411899136,10.0.1.122,378,move_up,-0.370,-0.370,-0.370,0.000,0.000,0.000
1605192935841651968,10.0.1.122,382,move_up,-0.350,-0.350,-0.350,0.000,0.000,0.000
1605192937271038976,10.0.1.122,371,move_up,-0.330,-0.330,-0.330,0.000,0.000,0.000
1605192938711927808,10.0.1.122,393,move_up,-0.310,-0.310,-0.310,0.000,0.000,0.000
1605192940142798848,10.0.1.122,383,move_up,-0.290,-0.290,-0.290,0.000,0.000,0.000
1605192941551685120,10.0.1.122,380,move_up,-0.270,-0.270,-0.270,0.000,0.000,0.000
1605192942981357056,10.0.1.122,368,move_up,-0.250,-0.250,-0.250,0.000,0.000,0.000
1605192944411536896,10.0.1.122,380,move_up,-0.230,-0.230,-0.230,0.000,0.000,0.000
1605192945822817024,10.0.1.122,363,move_up,-0.210,-0.210,-0.210,0.000,0.000,0.000
1605192947191905024,10.0.1.122,355,move_up,-0.190,-0.190,-0.190,0.000,0.000,0.000
1605192948312195072,10.0.1.122,51,place,-0.180,-0.180,-0.180,0.000,0.000,0.000
1605192949311216128,10.0.1.122,49,place,-0.170,-0.170,-0.170,0.000,0.000,0.000
1605192950312147968,10.0.1.122,48,place,-0.160,-0.160,-0.160,0.000,0.000,0.000
1605192951311964928,10.0.1.122,47,place,-0.150,-0.150,-0.150,0.000,0.000,0.000
1605192952312035072,10.0.1.122,46,place,-0.140,-0.140,-0.140,0.000,0.000,0.000
1605192953311870208,10.0.1.122,44,place,-0.130,-0.130,-0.130,0.000,0.000,0.000
1605192954312741120,10.0.1.122,44,place,-0.120,-0.120,-0.120,0.000,0.000,0.000
1605192955311974912,10.0.1.122,42,place,-0.110,-0.110,-0.110,0.000,0.000,0.000
1605192956311611904,10.0.1.122,40,place,-0.100,-0.100,-0.100,0.000,0.000,0.000
1605192957311542016,10.0.1.122,39,place,-0.090,-0.090,-0.090,0.000,0.000,0.000
1605192958312769792,10.0.1.122,39,place,-0.080,-0.080,-0.080,0.000,0.000,0.000
1605192959311700224,10.0.1.122,36,place,-0.070,-0.070,-0.070,0.000,0.000,0.000
1605192960312228864,10.0.1.122,36,place,-0.060,-0.060,-0.060,0.000,0.000,0.000
1605192961311901184,10.0.1.122,34,place,-0.050,-0.050,-0.050,0.000,0.000,0.000
1605192962311748096,10.0.1.122,34,place,-0.040,-0.040,-0.040,0.000,0.000,0.000
1605192963311922944,10.0.1.122,33,place,-0.030,-0.030,-0.030,0.000,0.000,0.000
1605192964311675136,10.0.1.122,32,place,-0.020,-0.020,-0.020,0.000,0.000,0.000
1605192965311820032,10.0.1.122,32,place,-0.010,-0.010,-0.010,0.000,0.000,0.000
1605192966311592192,10.0.1.122,31,place,0.000,0.000,0.000,0.000,0.000,0.000
1605192967661097984,10.0.1.122,380,move_down,-0.020,-0.020,-0.020,0.000,0.000,0.000
1605192969092156928,10.0.1.122,371,move_down,-0.040,-0.040,-0.040,0.000,0.000,0.000
1605192970551651840,10.0.1.122,390,move_down,-0.060,-0.060,-0.060,0.000,0.000,0.000
1605192971981035008,10.0.1.122,391,move_down,-0.080,-0.080,-0.080,0.000,0.000,0.000
1605192973432135168,10.0.1.122,370,move_down,-0.100,-0.100,-0.100,0.000,0.000,0.000
1605192974861882880,10.0.1.122,383,move_down,-0.120,-0.120,-0.120,0.000,0.000,0.000
1605192976271972864,10.0.1.122,353,move_down,-0.140,-0.140,-0.140,0.000,0.000,0.000
1605192977701865984,10.0.1.122,373,move_down,-0.160,-0.160,-0.160,0.000,0.000,0.000
1605192979142327040,10.0.1.122,385,move_down,-0.180,-0.180,-0.180,0.000,0.000,0.000
1605192980552040960,10.0.1.122,367,move_down,-0.200,-0.200,-0.200,0.000,0.000,0.000
1605192981981736960,10.0.1.122,380,move_down,-0.220,-0.220,-0.220,0.000,0.000,0.000
1605192983413602048,10.0.1.122,382,move_down,-0.240,-0.240,-0.240,0.000,0.000,0.000
1605192984851461888,10.0.1.122,394,move_down,-0.260,-0.260,-0.260,0.000,0.000,0.000
1605192986304656128,10.0.1.122,374,move_down,-0.280,-0.280,-0.280,0.000,0.000,0.000
1605192987712270080,10.0.1.122,363,move_down,-0.300,-0.300,-0.300,0.000,0.000,0.000
1605192989142188032,10.0.1.122,353,move_down,-0.320,-0.320,-0.320,0.000,0.000,0.000
1605192990591717888,10.0.1.122,379,move_down,-0.340,-0.340,-0.340,0.000,0.000,0.000
1605192992021652992,10.0.1.122,367,move_down,-0.360,-0.360,-0.360,0.000,0.000,0.000
1605192993451896832,10.0.1.122,379,move_down,-0.380,-0.380,-0.380,0.000,0.000,0.000
1605192994891654912,10.0.1.122,374,move_down,-0.400,-0.400,-0.400,0.000,0.000,0.000
1605192996302476032,10.0.1.122,358,move_down,-0.420,-0.420,-0.420,0.000,0.000,0.000
1605192997772114944,10.0.1.122,387,move_down,-0.440,-0.440,-0.440,0.000,0.000,0.000
1605192999202148864,10.0.1.122,378,move_down,-0.460,-0.460,-0.460,0.000,0.000,0.000
1605193000631876096,10.0.1.122,379,move_down,-0.480,-0.480,-0.480,0.000,0.000,0.000
1605193002041946880,10.0.1.122,363,move_down,-0.500,-0.500,-0.500,0.000,0.000,0.000
1605193003451945984,10.0.1.122,364,move_down,-0.520,-0.520,-0.520,0.000,0.000,0.000
1605193004902324992,10.0.1.122,375,move_down,-0.540,-0.540,-0.540,0.000,0.000,0.000
1605193006311297792,10.0.1.122,365,move_down,-0.560,-0.560,-0.560,0.000,0.000,0.000
1605193007721865984,10.0.1.122,366,move_down,-0.580,-0.580,-0.580,0.000,0.000,0.000
1605193008824678912,10.0.1.122,53,pick,-0.590,-0.590,-0.590,0.000,0.000,0.000
1605193009821504000,10.0.1.122,48,pick,-0.600,-0.600,-0.600,0.000,0.000,0.000
1605193010821428992,10.0.1.122,47,pick,-0.610,-0.610,-0.610,0.000,0.000,0.000
1605193011822503936,10.0.1.122,47,pick,-0.620,-0.620,-0.620,0.000,0.000,0.000
1605193012821871872,10.0.1.122,45,pick,-0.630,-0.630,-0.630,0.000,0.000,0.000
1605193013823086080,10.0.1.122,45,pick,-0.640,-0.640,-0.640,0.000,0.000,0.000
1605193014821579008,10.0.1.122,42,pick,-0.650,-0.650,-0.650,0.000,0.000,0.000
1605193015821506048,10.0.1.122,41,pick,-0.660,-0.660,-0.660,0.000,0.000,0.000
1605193016822525952,10.0.1.122,41,pick,-0.670,-0.670,-0.670,0.000,0.000,0.000
1605193017822433024,10.0.1.122,40,pick,-0.680,-0.680,-0.680,0.000,0.000,0.000
1605193018821830912,10.0.1.122,38,pick,-0.690,-0.690,-0.690,0.000,0.000,0.000
1605193019822063872,10.0.1.122,37,pick,-0.700,-0.700,-0.700,0.000,0.000,0.000
1605193020821618944,10.0.1.122,35,pick,-0.710,-0.710,-0.710,0.000,0.000,0.000
1605193021821762048,10.0.1.122,34,pick,-0.720,-0.720,-0.720,0.000,0.000,0.000
1605193022821369856,10.0.1.122,32,pick,-0.730,-0.730,-0.730,0.000,0.000,0.000
1605193023822360064,10.0.1.122,32,pick,-0.740,-0.740,-0.740,0.000,0.000,0.000
1605193024841979136,10.0.1.122,50,pick,-0.750,-0.750,-0.750,0.000,0.000,0.000
1605193025841545216,10.0.1.122,48,pick,-0.760,-0.760,-0.760,0.000,0.000,0.000
1605193026841650944,10.0.1.122,47,pick,-0.770,-0.770,-0.770,0.000,0.000,0.000
1605193028153691136,10.0.1.122,358,move_up,-0.750,-0.750,-0.750,0.000,0.000,0.000
1605193029601891072,10.0.1.122,380,move_up,-0.730,-0.730,-0.730,0.000,0.000,0.000
1605193031032614912,10.0.1.122,382,move_up,-0.710,-0.710,-0.710,0.000,0.000,0.000
1605193032431438848,10.0.1.122,353,move_up,-0.690,-0.690,-0.690,0.000,0.000,0.000
1605193033891580160,10.0.1.122,393,move_up,-0.670,-0.670,-0.670,0.000,0.000,0.000
1605193035312593920,10.0.1.122,367,move_up,-0.650,-0.650,-0.650,0.000,0.000,0.000
1605193036774168064,10.0.1.122,388,move_up,-0.630,-0.630,-0.630,0.000,0.000,0.000
1605193038213766144,10.0.1.122,388,move_up,-0.610,-0.610,-0.610,0.000,0.000,0.000
1605193039654993920,10.0.1.122,386,move_up,-0.590,-0.590,-0.590,0.000,0.000,0.000
1605193041081135104,10.0.1.122,371,move_up,-0.570,-0.570,-0.570,0.000,0.000,0.000
1605193042491097856,10.0.1.122,363,move_up,-0.550,-0.550,-0.550,0.000,0.000,0.000
1605193043901401088,10.0.1.122,401,move_up,-0.530,-0.530,-0.530,0.000,0.000,0.000
1605193045312473088,10.0.1.122,373,move_up,-0.510,-0.510,-0.510,0.000,0.000,0.000
