milangroshev/digital-twin-scalability/logs/run5-3600s-nan/10.0.1.146.csv
timestamp,node,latency,action,joint_1,joint_2,joint_3,joint_4,joint_5,joint_6
1605220925857363968,10.0.1.146,NaN,,0.000,0.000,0.000,0.000,0.000,0.000
1605220929859960064,10.0.1.146,NaN,move_down,-0.020,-0.020,-0.020,0.000,0.000,0.000
1605220932342649088,10.0.1.146,NaN,move_down,-0.040,-0.040,-0.040,0.000,0.000,0.000
1605220934491632896,10.0.1.146,NaN,move_down,-0.060,-0.060,-0.060,0.000,0.000,0.000
1605220936525615104,10.0.1.146,NaN,move_down,-0.080,-0.080,-0.080,0.000,0.000,0.000
1605220938596480000,10.0.1.146,NaN,move_down,-0.100,-0.100,-0.100,0.000,0.000,0.000
1605220940687879936,10.0.1.146,NaN,move_down,-0.120,-0.120,-0.120,0.000,0.000,0.000
1605220942768750080,10.0.1.146,NaN,move_down,-0.140,-0.140,-0.140,0.000,0.000,0.000
1605220944908410112,10.0.1.146,NaN,move_down,-0.160,-0.160,-0.160,0.000,0.000,0.000
1605220948247776000,10.0.1.146,3339,move_down,-0.160,-0.160,-0.160,0.000,0.000,0.000
1605220950162432000,10.0.1.146,676,move_down,-0.180,-0.180,-0.180,0.000,0.000,0.000
1605220952514642944,10.0.1.146,1120,move_down,-0.200,-0.200,-0.200,0.000,0.000,0.000
1605220954444641024,10.0.1.146,866,move_down,-0.220,-0.220,-0.220,0.000,0.000,0.000
1605220956452467968,10.0.1.146,932,move_down,-0.240,-0.240,-0.240,0.000,0.000,0.000
1605220958504548096,10.0.1.146,719,move_down,-0.260,-0.260,-0.260,0.000,0.000,0.000
1605220960369275136,10.0.1.146,749,move_down,-0.280,-0.280,-0.280,0.000,0.000,0.000
1605220962078027008,10.0.1.146,701,move_down,-0.300,-0.300,-0.300,0.000,0.000,0.000
1605220965289547008,10.0.1.146,1362,move_down,-0.320,-0.320,-0.320,0.000,0.000,0.000
1605220966952684032,10.0.1.146,561,move_down,-0.340,-0.340,-0.340,0.000,0.000,0.000
1605220968806765056,10.0.1.146,786,move_down,-0.360,-0.360,-0.360,0.000,0.000,0.000
1605220970757186048,10.0.1.146,880,move_down,-0.380,-0.380,-0.380,0.000,0.000,0.000
1605220973349986048,10.0.1.146,1529,move_down,-0.400,-0.400,-0.400,0.000,0.000,0.000
1605220975085051136,10.0.1.146,719,move_down,-0.420,-0.420,-0.420,0.000,0.000,0.000
1605220977135162112,10.0.1.146,888,move_down,-0.440,-0.440,-0.440,0.000,0.000,0.000
1605220978896651008,10.0.1.146,596,move_down,-0.460,-0.460,-0.460,0.000,0.000,0.000
1605220980900804096,10.0.1.146,867,move_down,-0.480,-0.480,-0.480,0.000,0.000,0.000
1605220982948379136,10.0.1.146,916,move_down,-0.500,-0.500,-0.500,0.000,0.000,0.000
1605220984940964864,10.0.1.146,840,move_down,-0.520,-0.520,-0.520,0.000,0.000,0.000
1605220987011610112,10.0.1.146,860,move_down,-0.540,-0.540,-0.540,0.000,0.000,0.000
1605220989011034880,10.0.1.146,731,move_down,-0.560,-0.560,-0.560,0.000,0.000,0.000
1605220991129942016,10.0.1.146,1030,move_down,-0.580,-0.580,-0.580,0.000,0.000,0.000
1605220993294277888,10.0.1.146,1112,move_down,-0.600,-0.600,-0.600,0.000,0.000,0.000
1605220995212923904,10.0.1.146,829,move_down,-0.620,-0.620,-0.620,0.000,0.000,0.000
1605220996965400832,10.0.1.146,724,move_down,-0.640,-0.640,-0.640,0.000,0.000,0.000
1605220998585899008,10.0.1.146,568,move_down,-0.660,-0.660,-0.660,0.000,0.000,0.000
1605221000591151104,10.0.1.146,914,move_down,-0.680,-0.680,-0.680,0.000,0.000,0.000
1605221002294200832,10.0.1.146,714,move_down,-0.700,-0.700,-0.700,0.000,0.000,0.000
1605221004103741952,10.0.1.146,630,move_down,-0.720,-0.720,-0.720,0.000,0.000,0.000
1605221005518942208,10.0.1.146,95,pick,-0.730,-0.730,-0.730,0.000,0.000,0.000
1605221007425473024,10.0.1.146,NaN,pick,-0.750,-0.750,-0.750,0.000,0.000,0.000
1605221007490808064,10.0.1.146,65,pick,-0.750,-0.750,-0.750,0.000,0.000,0.000
1605221009431550976,10.0.1.146,NaN,pick,-0.770,-0.770,-0.770,0.000,0.000,0.000
1605221010433020160,10.0.1.146,NaN,pick,-0.780,-0.780,-0.780,0.000,0.000,0.000
1605221010543973888,10.0.1.146,110,pick,-0.780,-0.780,-0.780,0.000,0.000,0.000
1605221012435873024,10.0.1.146,NaN,pick,-0.800,-0.800,-0.800,0.000,0.000,0.000
1605221012493854976,10.0.1.146,57,pick,-0.800,-0.800,-0.800,0.000,0.000,0.000
1605221013543329024,10.0.1.146,103,pick,-0.810,-0.810,-0.810,0.000,0.000,0.000
1605221014582148096,10.0.1.146,140,pick,-0.820,-0.820,-0.820,0.000,0.000,0.000
1605221015494884096,10.0.1.146,43,pick,-0.830,-0.830,-0.830,0.000,0.000,0.000
1605221016523757056,10.0.1.146,69,pick,-0.840,-0.840,-0.840,0.000,0.000,0.000
1605221018456877056,10.0.1.146,NaN,pick,-0.860,-0.860,-0.860,0.000,0.000,0.000
1605221018570606080,10.0.1.146,113,pick,-0.860,-0.860,-0.860,0.000,0.000,0.000
1605221019511534848,10.0.1.146,53,pick,-0.870,-0.870,-0.870,0.000,0.000,0.000
1605221020536833024,10.0.1.146,65,pick,-0.880,-0.880,-0.880,0.000,0.000,0.000
1605221021535099136,10.0.1.146,61,pick,-0.890,-0.890,-0.890,0.000,0.000,0.000
1605221022514190080,10.0.1.146,36,pick,-0.900,-0.900,-0.900,0.000,0.000,0.000
1605221023569158912,10.0.1.146,89,pick,-0.910,-0.910,-0.910,0.000,0.000,0.000
1605221025936350208,10.0.1.146,1455,move_up,-0.890,-0.890,-0.890,0.000,0.000,0.000
1605221027628120064,10.0.1.146,677,move_up,-0.870,-0.870,-0.870,0.000,0.000,0.000
1605221030082243840,10.0.1.146,1219,move_up,-0.850,-0.850,-0.850,0.000,0.000,0.000
1605221032328686848,10.0.1.146,1215,move_up,-0.830,-0.830,-0.830,0.000,0.000,0.000
1605221034200993024,10.0.1.146,801,move_up,-0.810,-0.810,-0.810,0.000,0.000,0.000
1605221037007571968,10.0.1.146,622,move_up,-0.790,-0.790,-0.790,0.000,0.000,0.000
1605221038920584960,10.0.1.146,783,move_up,-0.770,-0.770,-0.770,0.000,0.000,0.000
1605221040758603008,10.0.1.146,752,move_up,-0.750,-0.750,-0.750,0.000,0.000,0.000
1605221042670632960,10.0.1.146,799,move_up,-0.730,-0.730,-0.730,0.000,0.000,0.000
1605221044594544896,10.0.1.146,802,move_up,-0.710,-0.710,-0.710,0.000,0.000,0.000
1605221046493347840,10.0.1.146,796,move_up,-0.690,-0.690,-0.690,0.000,0.000,0.000
1605221048292218880,10.0.1.146,724,move_up,-0.670,-0.670,-0.670,0.000,0.000,0.000
1605221050155271168,10.0.1.146,819,move_up,-0.650,-0.650,-0.650,0.000,0.000,0.000
1605221052193378816,10.0.1.146,944,move_up,-0.630,-0.630,-0.630,0.000,0.000,0.000
1605221053979173888,10.0.1.146,704,move_up,-0.610,-0.610,-0.610,0.000,0.000,0.000
1605221056002396160,10.0.1.146,927,move_up,-0.590,-0.590,-0.590,0.000,0.000,0.000
1605221057834130176,10.0.1.146,758,move_up,-0.570,-0.570,-0.570,0.000,0.000,0.000
1605221059950715904,10.0.1.146,697,move_up,-0.550,-0.550,-0.550,0.000,0.000,0.000
1605221061800183040,10.0.1.146,796,move_up,-0.530,-0.530,-0.530,0.000,0.000,0.000
1605221063791891200,10.0.1.146,804,move_up,-0.510,-0.510,-0.510,0.000,0.000,0.000
1605221065948666112,10.0.1.146,1079,move_up,-0.490,-0.490,-0.490,0.000,0.000,0.000
1605221067817105152,10.0.1.146,674,move_up,-0.470,-0.470,-0.470,0.000,0.000,0.000
1605221069889924096,10.0.1.146,785,move_up,-0.450,-0.450,-0.450,0.000,0.000,0.000
1605221072842725888,10.0.1.146,725,move_up,-0.430,-0.430,-0.430,0.000,0.000,0.000
1605221074788553984,10.0.1.146,569,move_up,-0.410,-0.410,-0.410,0.000,0.000,0.000
1605221076979161088,10.0.1.146,1099,move_up,-0.390,-0.390,-0.390,0.000,0.000,0.000
1605221078961060096,10.0.1.146,845,move_up,-0.370,-0.370,-0.370,0.000,0.000,0.000
1605221080705150976,10.0.1.146,663,move_up,-0.350,-0.350,-0.350,0.000,0.000,0.000
1605221082779766016,10.0.1.146,975,move_up,-0.330,-0.330,-0.330,0.000,0.000,0.000
1605221083907131904,10.0.1.146,51,place,-0.320,-0.320,-0.320,0.000,0.000,0.000
1605221084921370880,10.0.1.146,64,place,-0.310,-0.310,-0.310,0.000,0.000,0.000
1605221085923933952,10.0.1.146,57,place,-0.300,-0.300,-0.300,0.000,0.000,0.000
1605221086942902016,10.0.1.146,74,place,-0.290,-0.290,-0.290,0.000,0.000,0.000
1605221087925022976,10.0.1.146,55,place,-0.280,-0.280,-0.280,0.000,0.000,0.000
1605221088927897856,10.0.1.146,52,place,-0.270,-0.270,-0.270,0.000,0.000,0.000
1605221090879847936,10.0.1.146,NaN,place,-0.250,-0.250,-0.250,0.000,0.000,0.000
1605221090929191168,10.0.1.146,49,place,-0.250,-0.250,-0.250,0.000,0.000,0.000
1605221092882745856,10.0.1.146,NaN,place,-0.230,-0.230,-0.230,0.000,0.000,0.000
1605221092932871936,10.0.1.146,50,place,-0.230,-0.230,-0.230,0.000,0.000,0.000
1605221093923955968,10.0.1.146,36,place,-0.220,-0.220,-0.220,0.000,0.000,0.000
1605221094947174144,10.0.1.146,53,place,-0.210,-0.210,-0.210,0.000,0.000,0.000
1605221096900320000,10.0.1.146,NaN,place,-0.190,-0.190,-0.190,0.000,0.000,0.000
1605221097903907072,10.0.1.146,NaN,place,-0.180,-0.180,-0.180,0.000,0.000,0.000
1605221097972506112,10.0.1.146,67,place,-0.180,-0.180,-0.180,0.000,0.000,0.000
1605221098940506880,10.0.1.146,33,place,-0.170,-0.170,-0.170,0.000,0.000,0.000
1605221099968545792,10.0.1.146,60,place,-0.160,-0.160,-0.160,0.000,0.000,0.000
1605221101909272064,10.0.1.146,NaN,place,-0.140,-0.140,-0.140,0.000,0.000,0.000
1605221101942786816,10.0.1.146,33,place,-0.140,-0.140,-0.140,0.000,0.000,0.000
1605221103552804864,10.0.1.146,636,move_down,-0.160,-0.160,-0.160,0.000,0.000,0.000
1605221108173849088,10.0.1.146,518,move_down,-0.180,-0.180,-0.180,0.000,0.000,0.000
1605221109986441984,10.0.1.146,721,move_down,-0.200,-0.200,-0.200,0.000,0.000,0.000
1605221112718966016,10.0.1.146,927,move_down,-0.220,-0.220,-0.220,0.000,0.000,0.000
1605221115327290112,10.0.1.146,1575,move_down,-0.240,-0.240,-0.240,0.000,0.000,0.000
1605221117157577984,10.0.1.146,722,move_down,-0.260,-0.260,-0.260,0.000,0.000,0.000
1605221119262839040,10.0.1.146,945,move_down,-0.280,-0.280,-0.280,0.000,0.000,0.000
1605221121564862976,10.0.1.146,1199,move_down,-0.300,-0.300,-0.300,0.000,0.000,0.000
1605221124302598912,10.0.1.146,1591,move_down,-0.320,-0.320,-0.320,0.000,0.000,0.000
1605221126486797056,10.0.1.146,1099,move_down,-0.340,-0.340,-0.340,0.000,0.000,0.000
1605221128576282112,10.0.1.146,806,move_down,-0.360,-0.360,-0.360,0.000,0.000,0.000
1605221130403664128,10.0.1.146,690,move_down,-0.380,-0.380,-0.380,0.000,0.000,0.000
1605221136419451904,10.0.1.146,1028,move_down,-0.400,-0.400,-0.400,0.000,0.000,0.000
1605221138519748864,10.0.1.146,795,move_down,-0.420,-0.420,-0.420,0.000,0.000,0.000
1605221140500020992,10.0.1.146,500,move_down,-0.440,-0.440,-0.440,0.000,0.000,0.000
1605221142707207936,10.0.1.146,1064,move_down,-0.460,-0.460,-0.460,0.000,0.000,0.000
1605221145077334784,10.0.1.146,1088,move_down,-0.480,-0.480,-0.480,0.000,0.000,0.000
1605221146747920896,10.0.1.146,610,move_down,-0.500,-0.500,-0.500,0.000,0.000,0.000
1605221148451972864,10.0.1.146,639,move_down,-0.520,-0.520,-0.520,0.000,0.000,0.000
1605221150261327872,10.0.1.146,625,move_down,-0.540,-0.540,-0.540,0.000,0.000,0.000
1605221152028871936,10.0.1.146,671,move_down,-0.560,-0.560,-0.560,0.000,0.000,0.000
1605221153989044992,10.0.1.146,843,move_down,-0.580,-0.580,-0.580,0.000,0.000,0.000
1605221155691440128,10.0.1.146,638,move_down,-0.600,-0.600,-0.600,0.000,0.000,0.000
1605221157685372160,10.0.1.146,882,move_down,-0.620,-0.620,-0.620,0.000,0.000,0.000
1605221159352503040,10.0.1.146,457,move_down,-0.640,-0.640,-0.640,0.000,0.000,0.000
1605221161232032000,10.0.1.146,796,move_down,-0.660,-0.660,-0.660,0.000,0.000,0.000
1605221163756059904,10.0.1.146,894,move_down,-0.680,-0.680,-0.680,0.000,0.000,0.000
1605221165564312064,10.0.1.146,719,move_down,-0.700,-0.700,-0.700,0.000,0.000,0.000
1605221167202151168,10.0.1.146,577,move_down,-0.720,-0.720,-0.720,0.000,0.000,0.000
1605221169301701120,10.0.1.146,NaN,pick,-0.740,-0.740,-0.740,0.000,0.000,0.000
1605221169360101888,10.0.1.146,58,pick,-0.740,-0.740,-0.740,0.000,0.000,0.000
1605221170356391936,10.0.1.146,49,pick,-0.750,-0.750,-0.750,0.000,0.000,0.000
1605221171395952896,10.0.1.146,83,pick,-0.760,-0.760,-0.760,0.000,0.000,0.000
1605221172376290048,10.0.1.146,58,pick,-0.770,-0.770,-0.770,0.000,0.000,0.000
1605221173378873088,10.0.1.146,59,pick,-0.780,-0.780,-0.780,0.000,0.000,0.000
1605221175321860096,10.0.1.146,NaN,pick,-0.800,-0.800,-0.800,0.000,0.000,0.000
1605221176323198208,10.0.1.146,NaN,pick,-0.810,-0.810,-0.810,0.000,0.000,0.000
1605221176378827008,10.0.1.146,55,pick,-0.810,-0.810,-0.810,0.000,0.000,0.000
1605221177427728896,10.0.1.146,104,pick,-0.820,-0.820,-0.820,0.000,0.000,0.000
1605221178390921984,10.0.1.146,55,pick,-0.830,-0.830,-0.830,0.000,0.000,0.000
1605221179376743168,10.0.1.146,33,pick,-0.840,-0.840,-0.840,0.000,0.000,0.000
1605221180423866880,10.0.1.146,80,pick,-0.850,-0.850,-0.850,0.000,0.000,0.000
1605221181397928960,10.0.1.146,52,pick,-0.860,-0.860,-0.860,0.000,0.000,0.000
1605221183347779072,10.0.1.146,NaN,pick,-0.880,-0.880,-0.880,0.000,0.000,0.000
1605221183400816896,10.0.1.146,52,pick,-0.880,-0.880,-0.880,0.000,0.000,0.000
1605221184406526208,10.0.1.146,58,pick,-0.890,-0.890,-0.890,0.000,0.000,0.000
1605221185414113024,10.0.1.146,64,pick,-0.900,-0.900,-0.900,0.000,0.000,0.000
1605221186394876928,10.0.1.146,38,pick,-0.910,-0.910,-0.910,0.000,0.000,0.000
1605221188020921856,10.0.1.146,662,move_up,-0.890,-0.890,-0.890,0.000,0.000,0.000
1605221193519751168,10.0.1.146,1009,move_up,-0.870,-0.870,-0.870,0.000,0.000,0.000
1605221195293540096,10.0.1.146,582,move_up,-0.850,-0.850,-0.850,0.000,0.000,0.000
1605221197136702976,10.0.1.146,721,move_up,-0.830,-0.830,-0.830,0.000,0.000,0.000
1605221198970693120,10.0.1.146,687,move_up,-0.810,-0.810,-0.810,0.000,0.000,0.000
1605221201720866816,10.0.1.146,1424,move_up,-0.790,-0.790,-0.790,0.000,0.000,0.000
1605221203363684864,10.0.1.146,652,move_up,-0.770,-0.770,-0.770,0.000,0.000,0.000
1605221205623742976,10.0.1.146,1202,move_up,-0.750,-0.750,-0.750,0.000,0.000,0.000
1605221207583358976,10.0.1.146,694,move_up,-0.730,-0.730,-0.730,0.000,0.000,0.000
1605221209963060992,10.0.1.146,1329,move_up,-0.710,-0.710,-0.710,0.000,0.000,0.000
1605221211964773888,10.0.1.146,777,move_up,-0.690,-0.690,-0.690,0.000,0.000,0.000
1605221214334147072,10.0.1.146,1278,move_up,-0.670,-0.670,-0.670,0.000,0.000,0.000
1605221216532710144,10.0.1.146,1097,move_up,-0.650,-0.650,-0.650,0.000,0.000,0.000
1605221218359718144,10.0.1.146,735,move_up,-0.630,-0.630,-0.630,0.000,0.000,0.000
1605221220415719936,10.0.1.146,726,move_up,-0.610,-0.610,-0.610,0.000,0.000,0.000
1605221222695399168,10.0.1.146,1154,move_up,-0.590,-0.590,-0.590,0.000,0.000,0.000
1605221224397453056,10.0.1.146,587,move_up,-0.570,-0.570,-0.570,0.000,0.000,0.000
1605221226439367936,10.0.1.146,843,move_up,-0.550,-0.550,-0.550,0.000,0.000,0.000
1605221228883559936,10.0.1.146,716,move_up,-0.530,-0.530,-0.530,0.000,0.000,0.000
1605221231395106048,10.0.1.146,1198,move_up,-0.510,-0.510,-0.510,0.000,0.000,0.000
1605221233449089024,10.0.1.146,863,move_up,-0.490,-0.490,-0.490,0.000,0.000,0.000
1605221235517422080,10.0.1.146,976,move_up,-0.470,-0.470,-0.470,0.000,0.000,0.000
1605221237314240000,10.0.1.146,552,move_up,-0.450,-0.450,-0.450,0.000,0.000,0.000
1605221239228583168,10.0.1.146,713,move_up,-0.430,-0.430,-0.430,0.000,0.000,0.000
1605221241439780096,10.0.1.146,1059,move_up,-0.410,-0.410,-0.410,0.000,0.000,0.000
1605221243869335808,10.0.1.146,1216,move_up,-0.390,-0.390,-0.390,0.000,0.000,0.000
1605221246083958016,10.0.1.146,921,move_up,-0.370,-0.370,-0.370,0.000,0.000,0.000
1605221247788315136,10.0.1.146,623,move_up,-0.350,-0.350,-0.350,0.000,0.000,0.000
1605221249416593152,10.0.1.146,541,move_up,-0.330,-0.330,-0.330,0.000,0.000,0.000
1605221251495806976,10.0.1.146,NaN,place,-0.310,-0.310,-0.310,0.000,0.000,0.000
1605221252497116160,10.0.1.146,NaN,place,-0.300,-0.300,-0.300,0.000,0.000,0.000
1605221252558199808,10.0.1.146,61,place,-0.300,-0.300,-0.300,0.000,0.000,0.000
1605221253549325824,10.0.1.146,50,place,-0.290,-0.290,-0.290,0.000,0.000,0.000
1605221254551141888,10.0.1.146,50,place,-0.280,-0.280,-0.280,0.000,0.000,0.000
1605221256503545088,10.0.1.146,NaN,place,-0.260,-0.260,-0.260,0.000,0.000,0.000
1605221257507788032,10.0.1.146,NaN,place,-0.250,-0.250,-0.250,0.000,0.000,0.000
1605221257561196032,10.0.1.146,53,place,-0.250,-0.250,-0.250,0.000,0.000,0.000
1605221258572349952,10.0.1.146,63,place,-0.240,-0.240,-0.240,0.000,0.000,0.000
1605221259584515072,10.0.1.146,74,place,-0.230,-0.230,-0.230,0.000,0.000,0.000
1605221260582001920,10.0.1.146,70,place,-0.220,-0.220,-0.220,0.000,0.000,0.000
1605221261560205056,10.0.1.146,47,place,-0.210,-0.210,-0.210,0.000,0.000,0.000
1605221263523737856,10.0.1.146,NaN,place,-0.190,-0.190,-0.190,0.000,0.000,0.000
1605221263575287040,10.0.1.146,51,place,-0.190,-0.190,-0.190,0.000,0.000,0.000
1605221264571307008,10.0.1.146,46,place,-0.180,-0.180,-0.180,0.000,0.000,0.000
1605221266527566080,10.0.1.146,NaN,place,-0.160,-0.160,-0.160,0.000,0.000,0.000
1605221267528909824,10.0.1.146,NaN,place,-0.150,-0.150,-0.150,0.000,0.000,0.000
1605221267583180032,10.0.1.146,54,place,-0.150,-0.150,-0.150,0.000,0.000,0.000
1605221269531457792,10.0.1.146,NaN,move_down,-0.160,-0.160,-0.160,0.000,0.000,0.000
1605221270616029952,10.0.1.146,1084,move_down,-0.160,-0.160,-0.160,0.000,0.000,0.000
1605221272739234048,10.0.1.146,1047,move_down,-0.180,-0.180,-0.180,0.000,0.000,0.000
1605221274776679936,10.0.1.146,843,move_down,-0.200,-0.200,-0.200,0.000,0.000,0.000
1605221276371324160,10.0.1.146,547,move_down,-0.220,-0.220,-0.220,0.000,0.000,0.000
1605221278527857152,10.0.1.146,1007,move_down,-0.240,-0.240,-0.240,0.000,0.000,0.000
1605221280498276864,10.0.1.146,910,move_down,-0.260,-0.260,-0.260,0.000,0.000,0.000
1605221282524764928,10.0.1.146,876,move_down,-0.280,-0.280,-0.280,0.000,0.000,0.000
1605221284303431936,10.0.1.146,737,move_down,-0.300,-0.300,-0.300,0.000,0.000,0.000
1605221286139698944,10.0.1.146,728,move_down,-0.320,-0.320,-0.320,0.000,0.000,0.000
1605221288052689920,10.0.1.146,556,move_down,-0.340,-0.340,-0.340,0.000,0.000,0.000
1605221290415182080,10.0.1.146,1259,move_down,-0.360,-0.360,-0.360,0.000,0.000,0.000
1605221292599256064,10.0.1.146,1132,move_down,-0.380,-0.380,-0.380,0.000,0.000,0.000
1605221294413729792,10.0.1.146,606,move_down,-0.400,-0.400,-0.400,0.000,0.000,0.000
1605221299227894016,10.0.1.146,763,move_down,-0.420,-0.420,-0.420,0.000,0.000,0.000
1605221301644684032,10.0.1.146,1193,move_down,-0.440,-0.440,-0.440,0.000,0.000,0.000
1605221303449563904,10.0.1.146,699,move_down,-0.460,-0.460,-0.460,0.000,0.000,0.000
1605221305258657024,10.0.1.146,683,move_down,-0.480,-0.480,-0.480,0.000,0.000,0.000
1605221307043868160,10.0.1.146,590,move_down,-0.500,-0.500,-0.500,0.000,0.000,0.000
1605221308968604928,10.0.1.146,808,move_down,-0.520,-0.520,-0.520,0.000,0.000,0.000
1605221311061736192,10.0.1.146,565,move_down,-0.540,-0.540,-0.540,0.000,0.000,0.000
1605221313314691072,10.0.1.146,1055,move_down,-0.560,-0.560,-0.560,0.000,0.000,0.000
1605221315660527872,10.0.1.146,1267,move_down,-0.580,-0.580,-0.580,0.000,0.000,0.000
1605221317616540928,10.0.1.146,792,move_down,-0.600,-0.600,-0.600,0.000,0.000,0.000
1605221319389373952,10.0.1.146,696,move_down,-0.620,-0.620,-0.620,0.000,0.000,0.000
1605221321401843968,10.0.1.146,946,move_down,-0.640,-0.640,-0.640,0.000,0.000,0.000
1605221323430316800,10.0.1.146,998,move_down,-0.660,-0.660,-0.660,0.000,0.000,0.000
1605221325982230016,10.0.1.146,879,move_down,-0.680,-0.680,-0.680,0.000,0.000,0.000
1605221328106148864,10.0.1.146,934,move_down,-0.700,-0.700,-0.700,0.000,0.000,0.000
1605221330249705984,10.0.1.146,1074,move_down,-0.720,-0.720,-0.720,0.000,0.000,0.000
1605221332450063104,10.0.1.146,NaN,pick,-0.740,-0.740,-0.740,0.000,0.000,0.000
1605221333452891136,10.0.1.146,NaN,pick,-0.750,-0.750,-0.750,0.000,0.000,0.000
1605221333524301056,10.0.1.146,71,pick,-0.750,-0.750,-0.750,0.000,0.000,0.000
1605221335459467776,10.0.1.146,NaN,pick,-0.770,-0.770,-0.770,0.000,0.000,0.000
1605221336463249920,10.0.1.146,NaN,pick,-0.780,-0.780,-0.780,0.000,0.000,0.000
1605221337468384000,10.0.1.146,NaN,pick,-0.790,-0.790,-0.790,0.000,0.000,0.000
1605221337503344896,10.0.1.146,34,pick,-0.790,-0.790,-0.790,0.000,0.000,0.000
1605221339473328128,10.0.1.146,NaN,pick,-0.810,-0.810,-0.810,0.000,0.000,0.000
1605221339567947008,10.0.1.146,94,pick,-0.810,-0.810,-0.810,0.000,0.000,0.000
1605221340547198976,10.0.1.146,67,pick,-0.820,-0.820,-0.820,0.000,0.000,0.000
1605221341517117952,10.0.1.146,36,pick,-0.830,-0.830,-0.830,0.000,0.000,0.000
1605221342534177024,10.0.1.146,52,pick,-0.840,-0.840,-0.840,0.000,0.000,0.000
1605221343547924992,10.0.1.146,60,pick,-0.850,-0.850,-0.850,0.000,0.000,0.000
1605221345497438976,10.0.1.146,NaN,pick,-0.870,-0.870,-0.870,0.000,0.000,0.000
1605221345532241152,10.0.1.146,34,pick,-0.870,-0.870,-0.870,0.000,0.000,0.000
1605221346604460032,10.0.1.146,105,pick,-0.880,-0.880,-0.880,0.000,0.000,0.000
1605221347553408000,10.0.1.146,51,pick,-0.890,-0.890,-0.890,0.000,0.000,0.000
1605221348567310080,10.0.1.146,64,pick,-0.900,-0.900,-0.900,0.000,0.000,0.000
1605221349592449792,10.0.1.146,86,pick,-0.910,-0.910,-0.910,0.000,0.000,0.000
1605221351019856896,10.0.1.146,502,move_up,-0.890,-0.890,-0.890,0.000,0.000,0.000
1605221352905102848,10.0.1.146,615,move_up,-0.870,-0.870,-0.870,0.000,0.000,0.000
1605221354826499840,10.0.1.146,863,move_up,-0.850,-0.850,-0.850,0.000,0.000,0.000
1605221356496052992,10.0.1.146,516,move_up,-0.830,-0.830,-0.830,0.000,0.000,0.000
1605221358602124032,10.0.1.146,698,move_up,-0.810,-0.810,-0.810,0.000,0.000,0.000
1605221360277645056,10.0.1.146,717,move_up,-0.790,-0.790,-0.790,0.000,0.000,0.000
1605221362134078976,10.0.1.146,622,move_up,-0.770,-0.770,-0.770,0.000,0.000,0.000
1605221364686137088,10.0.1.146,1079,move_up,-0.750,-0.750,-0.750,0.000,0.000,0.000
1605221366819011840,10.0.1.146,884,move_up,-0.730,-0.730,-0.730,0.000,0.000,0.000
1605221368730243840,10.0.1.146,763,move_up,-0.710,-0.710,-0.710,0.000,0.000,0.000
1605221371137691904,10.0.1.146,1285,move_up,-0.690,-0.690,-0.690,0.000,0.000,0.000
1605221373254905856,10.0.1.146,968,move_up,-0.670,-0.670,-0.670,0.000,0.000,0.000
1605221375284130048,10.0.1.146,588,move_up,-0.650,-0.650,-0.650,0.000,0.000,0.000
1605221377451550976,10.0.1.146,1086,move_up,-0.630,-0.630,-0.630,0.000,0.000,0.000
1605221379408881920,10.0.1.146,915,move_up,-0.610,-0.610,-0.610,0.000,0.000,0.000
1605221381402456064,10.0.1.146,913,move_up,-0.590,-0.590,-0.590,0.000,0.000,0.000
1605221383423950080,10.0.1.146,713,move_up,-0.570,-0.570,-0.570,0.000,0.000,0.000
1605221385720029952,10.0.1.146,1253,move_up,-0.550,-0.550,-0.550,0.000,0.000,0.000
1605221387828774912,10.0.1.146,889,move_up,-0.530,-0.530,-0.530,0.000,0.000,0.000
1605221390023112960,10.0.1.146,1066,move_up,-0.510,-0.510,-0.510,0.000,0.000,0.000
1605221392391704064,10.0.1.146,1344,move_up,-0.490,-0.490,-0.490,0.000,0.000,0.000
1605221394006254848,10.0.1.146,578,move_up,-0.470,-0.470,-0.470,0.000,0.000,0.000
1605221395886800896,10.0.1.146,785,move_up,-0.450,-0.450,-0.450,0.000,0.000,0.000
1605221397621483008,10.0.1.146,645,move_up,-0.430,-0.430,-0.430,0.000,0.000,0.000
1605221399251122944,10.0.1.146,551,move_up,-0.410,-0.410,-0.410,0.000,0.000,0.000
1605221401075891968,10.0.1.146,717,move_up,-0.390,-0.390,-0.390,0.000,0.000,0.000
1605221403304724992,10.0.1.146,1101,move_up,-0.370,-0.370,-0.370,0.000,0.000,0.000
1605221405263740160,10.0.1.146,691,move_up,-0.350,-0.350,-0.350,0.000,0.000,0.000
1605221407815745024,10.0.1.146,1152,move_up,-0.330,-0.330,-0.330,0.000,0.000,0.000
1605221409995992832,10.0.1.146,NaN,place,-0.310,-0.310,-0.310,0.000,0.000,0.000
1605221411000052992,10.0.1.146,NaN,place,-0.300,-0.300,-0.300,0.000,0.000,0.000
1605221412001560064,10.0.1.146,NaN,place,-0.290,-0.290,-0.290,0.000,0.000,0.000
1605221412074039040,10.0.1.146,72,place,-0.290,-0.290,-0.290,0.000,0.000,0.000
1605221414013946112,10.0.1.146,NaN,place,-0.270,-0.270,-0.270,0.000,0.000,0.000
1605221414065611008,10.0.1.146,51,place,-0.270,-0.270,-0.270,0.000,0.000,0.000
1605221416020147968,10.0.1.146,NaN,place,-0.250,-0.250,-0.250,0.000,0.000,0.000
1605221416086443008,10.0.1.146,66,place,-0.250,-0.250,-0.250,0.000,0.000,0.000
1605221417064794112,10.0.1.146,40,place,-0.240,-0.240,-0.240,0.000,0.000,0.000
1605221418072690944,10.0.1.146,47,place,-0.230,-0.230,-0.230,0.000,0.000,0.000
1605221419111643136,10.0.1.146,78,place,-0.220,-0.220,-0.220,0.000,0.000,0.000
1605221420096535040,10.0.1.146,60,place,-0.210,-0.210,-0.210,0.000,0.000,0.000
1605221421094768128,10.0.1.146,57,place,-0.200,-0.200,-0.200,0.000,0.000,0.000
1605221422108814080,10.0.1.146,67,place,-0.190,-0.190,-0.190,0.000,0.000,0.000
1605221424075976960,10.0.1.146,NaN,place,-0.170,-0.170,-0.170,0.000,0.000,0.000
1605221424143926016,10.0.1.146,67,place,-0.170,-0.170,-0.170,0.000,0.000,0.000
1605221426078202112,10.0.1.146,NaN,place,-0.150,-0.150,-0.150,0.000,0.000,0.000
1605221427079531008,10.0.1.146,NaN,place,-0.140,-0.140,-0.140,0.000,0.000,0.000
1605221427121836032,10.0.1.146,42,place,-0.140,-0.140,-0.140,0.000,0.000,0.000
1605221428684756992,10.0.1.146,603,move_down,-0.160,-0.160,-0.160,0.000,0.000,0.000
1605221431004193024,10.0.1.146,1205,move_down,-0.180,-0.180,-0.180,0.000,0.000,0.000
1605221432723323136,10.0.1.146,657,move_down,-0.200,-0.200,-0.200,0.000,0.000,0.000
1605221434619365888,10.0.1.146,818,move_down,-0.220,-0.220,-0.220,0.000,0.000,0.000
1605221436412525824,10.0.1.146,728,move_down,-0.240,-0.240,-0.240,0.000,0.000,0.000
1605221438050508032,10.0.1.146,571,move_down,-0.260,-0.260,-0.260,0.000,0.000,0.000
1605221439674323968,10.0.1.146,579,move_down,-0.280,-0.280,-0.280,0.000,0.000,0.000
1605221441881308160,10.0.1.146,1167,move_down,-0.300,-0.300,-0.300,0.000,0.000,0.000
1605221443727861760,10.0.1.146,788,move_down,-0.320,-0.320,-0.320,0.000,0.000,0.000
1605221445374462976,10.0.1.146,592,move_down,-0.340,-0.340,-0.340,0.000,0.000,0.000
1605221447233959936,10.0.1.146,NaN,move_down,-0.380,-0.380,-0.380,0.000,0.000,0.000
1605221448589315840,10.0.1.146,1355,move_down,-0.380,-0.380,-0.380,0.000,0.000,0.000
1605221450938016768,10.0.1.146,1210,move_down,-0.400,-0.400,-0.400,0.000,0.000,0.000
1605221452750304000,10.0.1.146,642,move_down,-0.420,-0.420,-0.420,0.000,0.000,0.000
1605221454757981184,10.0.1.146,912,move_down,-0.440,-0.440,-0.440,0.000,0.000,0.000
1605221457058746112,10.0.1.146,1203,move_down,-0.460,-0.460,-0.460,0.000,0.000,0.000
1605221458956155136,10.0.1.146,755,move_down,-0.480,-0.480,-0.480,0.000,0.000,0.000
1605221460608261120,10.0.1.146,598,move_down,-0.500,-0.500,-0.500,0.000,0.000,0.000
1605221462387933952,10.0.1.146,663,move_down,-0.520,-0.520,-0.520,0.000,0.000,0.000
1605221464804114944,10.0.1.146,1395,move_down,-0.540,-0.540,-0.540,0.000,0.000,0.000
1605221467535186944,10.0.1.146,1707,move_down,-0.560,-0.560,-0.560,0.000,0.000,0.000
1605221469561952000,10.0.1.146,903,move_down,-0.580,-0.580,-0.580,0.000,0.000,0.000
1605221471931747840,10.0.1.146,1205,move_down,-0.600,-0.600,-0.600,0.000,0.000,0.000
1605221473763292160,10.0.1.146,699,move_down,-0.620,-0.620,-0.620,0.000,0.000,0.000
1605221475531799040,10.0.1.146,685,move_down,-0.640,-0.640,-0.640,0.000,0.000,0.000
1605221477648040960,10.0.1.146,772,move_down,-0.660,-0.660,-0.660,0.000,0.000,0.000
1605221479914836992,10.0.1.146,1056,move_down,-0.680,-0.680,-0.680,0.000,0.000,0.000
1605221481728147968,10.0.1.146,796,move_down,-0.700,-0.700,-0.700,0.000,0.000,0.000
1605221483720946944,10.0.1.146,949,move_down,-0.720,-0.720,-0.720,0.000,0.000,0.000
1605221485571832064,10.0.1.146,703,move_down,-0.740,-0.740,-0.740,0.000,0.000,0.000
1605221487304542976,10.0.1.146,652,move_down,-0.760,-0.760,-0.760,0.000,0.000,0.000
1605221489532258048,10.0.1.146,1234,move_down,-0.780,-0.780,-0.780,0.000,0.000,0.000
1605221491750062080,10.0.1.146,1073,move_down,-0.800,-0.800,-0.800,0.000,0.000,0.000
1605221493723045120,10.0.1.146,684,move_down,-0.820,-0.820,-0.820,0.000,0.000,0.000
1605221495617387008,10.0.1.146,815,move_down,-0.840,-0.840,-0.840,0.000,0.000,0.000
1605221497707787008,10.0.1.146,967,move_down,-0.860,-0.860,-0.860,0.000,0.000,0.000
1605221499561847808,10.0.1.146,819,move_down,-0.880,-0.880,-0.880,0.000,0.000,0.000
1605221501646338816,10.0.1.146,1035,move_down,-0.900,-0.900,-0.900,0.000,0.000,0.000
1605221503333539840,10.0.1.146,605,move_down,-0.920,-0.920,-0.920,0.000,0.000,0.000
1605221504868089856,10.0.1.146,NaN,move_down,-0.960,-0.960,-0.960,0.000,0.000,0.000
1605221505328407040,10.0.1.146,NaN,move_down,-0.980,-0.980,-0.980,0.000,0.000,0.000
1605221506232142080,10.0.1.146,NaN,move_down,-1.000,-1.000,-1.000,0.000,0.000,0.000
1605221507492022016,10.0.1.146,NaN,move_down,-1.020,-1.020,-1.020,0.000,0.000,0.000
1605221508741380864,10.0.1.146,NaN,move_down,-1.040,-1.040,-1.040,0.000,0.000,0.000
1605221509122816000,10.0.1.146,NaN,move_down,-1.060,-1.060,-1.060,0.000,0.000,0.000
1605221509872219136,10.0.1.146,NaN,move_down,-1.080,-1.080,-1.080,0.000,0.000,0.000
1605221510420819968,10.0.1.146,NaN,move_down,-1.100,-1.100,-1.100,0.000,0.000,0.000
1605221510764688896,10.0.1.146,NaN,move_down,-1.120,-1.120,-1.120,0.000,0.000,0.000
1605221511467868928,10.0.1.146,NaN,move_down,-1.140,-1.140,-1.140,0.000,0.000,0.000
1605221512300129024,10.0.1.146,NaN,move_down,-1.160,-1.160,-1.160,0.000,0.000,0.000
1605221513101735168,10.0.1.146,NaN,move_down,-1.180,-1.180,-1.180,0.000,0.000,0.000
1605221513963584000,10.0.1.146,NaN,move_down,-1.200,-1.200,-1.200,0.000,0.000,0.000
1605221515028338944,10.0.1.146,NaN,move_down,-1.220,-1.220,-1.220,0.000,0.000,0.000
1605221515611793920,10.0.1.146,NaN,move_down,-1.240,-1.240,-1.240,0.000,0.000,0.000
1605221516072580096,10.0.1.146,NaN,move_down,-1.260,-1.260,-1.260,0.000,0.000,0.000
1605221516571302912,10.0.1.146,NaN,move_down,-1.280,-1.280,-1.280,0.000,0.000,0.000
1605221517342865920,10.0.1.146,NaN,move_down,-1.300,-1.300,-1.300,0.000,0.000,0.000
1605221517635215872,10.0.1.146,NaN,move_down,-1.320,-1.320,-1.320,0.000,0.000,0.000
1605221518040297984,10.0.1.146,NaN,move_down,-1.340,-1.340,-1.340,0.000,0.000,0.000
1605221518386564096,10.0.1.146,NaN,move_down,-1.360,-1.360,-1.360,0.000,0.000,0.000
1605221518603620096,10.0.1.146,NaN,move_down,-1.380,-1.380,-1.380,0.000,0.000,0.000
1605221518863322112,10.0.1.146,NaN,move_down,-1.400,-1.400,-1.400,0.000,0.000,0.000
1605221519156841984,10.0.1.146,NaN,move_down,-1.420,-1.420,-1.420,0.000,0.000,0.000
1605221519488674048,10.0.1.146,NaN,move_down,-1.440,-1.440,-1.440,0.000,0.000,0.000
1605221519660763904,10.0.1.146,NaN,move_down,-1.460,-1.460,-1.460,0.000,0.000,0.000
1605221519797030912,10.0.1.146,NaN,move_down,-1.480,-1.480,-1.480,0.000,0.000,0.000
1605221520534248192,10.0.1.146,NaN,move_down,-1.500,-1.500,-1.500,0.000,0.000,0.000
1605221520884270848,10.0.1.146,NaN,move_down,-1.520,-1.520,-1.520,0.000,0.000,0.000
1605221521083291904,10.0.1.146,NaN,move_down,-1.540,-1.540,-1.540,0.000,0.000,0.000
1605221521298787072,10.0.1.146,NaN,move_down,-1.560,-1.560,-1.560,0.000,0.000,0.000
1605221521569645824,10.0.1.146,NaN,move_down,-1.580,-1.580,-1.580,0.000,0.000,0.000
1605221522021336064,10.0.1.146,NaN,move_down,-1.600,-1.600,-1.600,0.000,0.000,0.000
1605221522810612992,10.0.1.146,NaN,move_down,-1.620,-1.620,-1.620,0.000,0.000,0.000
1605221522906619136,10.0.1.146,NaN,move_down,-1.640,-1.640,-1.640,0.000,0.000,0.000
1605221523065234944,10.0.1.146,NaN,move_down,-1.660,-1.660,-1.660,0.000,0.000,0.000
1605221523364667904,10.0.1.146,NaN,move_down,-1.680,-1.680,-1.680,0.000,0.000,0.000
1605221523548471040,10.0.1.146,NaN,move_down,-1.700,-1.700,-1.700,0.000,0.000,0.000
1605221523614087168,10.0.1.146,NaN,move_down,-1.720,-1.720,-1.720,0.000,0.000,0.000
1605221523807912192,10.0.1.146,NaN,move_down,-1.740,-1.740,-1.740,0.000,0.000,0.000
1605221523928133120,10.0.1.146,NaN,move_down,-1.760,-1.760,-1.760,0.000,0.000,0.000
1605221524281443072,10.0.1.146,NaN,move_down,-1.780,-1.780,-1.780,0.000,0.000,0.000
1605221524423430912,10.0.1.146,NaN,move_down,-1.800,-1.800,-1.800,0.000,0.000,0.000
1605221524636094208,10.0.1.146,NaN,move_down,-1.820,-1.820,-1.820,0.000,0.000,0.000
1605221524895771904,10.0.1.146,NaN,move_down,-1.840,-1.840,-1.840,0.000,0.000,0.000
1605221525029907968,10.0.1.146,NaN,move_down,-1.860,-1.860,-1.860,0.000,0.000,0.000
1605221525389352960,10.0.1.146,NaN,move_down,-1.880,-1.880,-1.880,0.000,0.000,0.000
1605221525533925120,10.0.1.146,NaN,move_down,-1.900,-1.900,-1.900,0.000,0.000,0.000
1605221525724872192,10.0.1.146,NaN,move_down,-1.920,-1.920,-1.920,0.000,0.000,0.000
1605221525868088064,10.0.1.146,NaN,move_down,-1.940,-1.940,-1.940,0.000,0.000,0.000
1605221526097088000,10.0.1.146,NaN,move_down,-1.960,-1.960,-1.960,0.000,0.000,0.000
1605221526732964096,10.0.1.146,NaN,move_down,-1.980,-1.980,-1.980,0.000,0.000,0.000
1605221526860420096,10.0.1.146,NaN,move_down,-2.000,-2.000,-2.000,0.000,0.000,0.000
1605221527167916032,10.0.1.146,NaN,move_down,-2.020,-2.020,-2.020,0.000,0.000,0.000
1605221527393040896,10.0.1.146,NaN,move_down,-2.040,-2.040,-2.040,0.000,0.000,0.000
1605221527601138176,10.0.1.146,NaN,move_down,-2.060,-2.060,-2.060,0.000,0.000,0.000
1605221527755718912,10.0.1.146,NaN,move_down,-2.080,-2.080,-2.080,0.000,0.000,0.000
1605221528148608000,10.0.1.146,NaN,move_down,-2.100,-2.100,-2.100,0.000,0.000,0.000
1605221528247416064,10.0.1.146,NaN,move_down,-2.120,-2.120,-2.120,0.000,0.000,0.000
1605221528398548992,10.0.1.146,NaN,move_down,-2.140,-2.140,-2.140,0.000,0.000,0.000
1605221528555553792,10.0.1.146,NaN,move_down,-2.160,-2.160,-2.160,0.000,0.000,0.000
1605221528852265984,10.0.1.146,NaN,move_down,-2.180,-2.180,-2.180,0.000,0.000,0.000
1605221529158262016,10.0.1.146,NaN,move_down,-2.200,-2.200,-2.200,0.000,0.000,0.000
1605221529605933056,10.0.1.146,NaN,move_down,-2.220,-2.220,-2.220,0.000,0.000,0.000
1605221529710632192,10.0.1.146,NaN,move_down,-2.240,-2.240,-2.240,0.000,0.000,0.000
1605221529913754880,10.0.1.146,NaN,move_down,-2.260,-2.260,-2.260,0.000,0.000,0.000
1605221530032664064,10.0.1.146,NaN,move_down,-2.280,-2.280,-2.280,0.000,0.000,0.000
1605221530107233024,10.0.1.146,NaN,move_down,-2.300,-2.300,-2.300,0.000,0.000,0.000
1605221530753207808,10.0.1.146,NaN,move_down,-2.320,-2.320,-2.320,0.000,0.000,0.000
1605221530954546944,10.0.1.146,NaN,move_down,-2.340,-2.340,-2.340,0.000,0.000,0.000
1605221531080744960,10.0.1.146,NaN,move_down,-2.360,-2.360,-2.360,0.000,0.000,0.000
1605221531229969152,10.0.1.146,NaN,move_down,-2.380,-2.380,-2.380,0.000,0.000,0.000
1605221531286053888,10.0.1.146,NaN,move_down,-2.400,-2.400,-2.400,0.000,0.000,0.000
1605221531505170944,10.0.1.146,NaN,move_down,-2.420,-2.420,-2.420,0.000,0.000,0.000
1605221531658777856,10.0.1.146,NaN,move_down,-2.440,-2.440,-2.440,0.000,0.000,0.000
1605221531887420928,10.0.1.146,NaN,move_down,-2.460,-2.460,-2.460,0.000,0.000,0.000
1605221532450257920,10.0.1.146,NaN,move_down,-2.480,-2.480,-2.480,0.000,0.000,0.000
1605221532518098944,10.0.1.146,NaN,move_down,-2.500,-2.500,-2.500,0.000,0.000,0.000
1605221532802596096,10.0.1.146,NaN,move_down,-2.520,-2.520,-2.520,0.000,0.000,0.000
1605221533405741824,10.0.1.146,NaN,move_down,-2.540,-2.540,-2.540,0.000,0.000,0.000
1605221533545024000,10.0.1.146,NaN,move_down,-2.560,-2.560,-2.560,0.000,0.000,0.000
1605221533775333888,10.0.1.146,NaN,move_down,-2.580,-2.580,-2.580,0.000,0.000,0.000
1605221533929317888,10.0.1.146,NaN,move_down,-2.600,-2.600,-2.600,0.000,0.000,0.000
1605221534027884032,10.0.1.146,NaN,move_down,-2.620,-2.620,-2.620,0.000,0.000,0.000
1605221534224798976,10.0.1.146,NaN,move_down,-2.640,-2.640,-2.640,0.000,0.000,0.000
1605221535682475008,10.0.1.146,NaN,move_down,-2.660,-2.660,-2.660,0.000,0.000,0.000
1605221536197710080,10.0.1.146,NaN,move_down,-2.680,-2.680,-2.680,0.000,0.000,0.000
1605221536319681792,10.0.1.146,NaN,move_down,-2.700,-2.700,-2.700,0.000,0.000,0.000
1605221536520549120,10.0.1.146,NaN,move_down,-2.720,-2.720,-2.720,0.000,0.000,0.000
1605221536664438016,10.0.1.146,NaN,move_down,-2.740,-2.740,-2.740,0.000,0.000,0.000
1605221536903038976,10.0.1.146,NaN,move_down,-2.760,-2.760,-2.760,0.000,0.000,0.000
1605221537332624896,10.0.1.146,NaN,move_down,-2.780,-2.780,-2.780,0.000,0.000,0.000
1605221537488809984,10.0.1.146,NaN,move_down,-2.800,-2.800,-2.800,0.000,0.000,0.000
1605221537766772992,10.0.1.146,NaN,move_down,-2.820,-2.820,-2.820,0.000,0.000,0.000
1605221537904997120,10.0.1.146,NaN,move_down,-2.840,-2.840,-2.840,0.000,0.000,0.000
1605221538086537984,10.0.1.146,NaN,move_down,-2.860,-2.860,-2.860,0.000,0.000,0.000
1605221538319216128,10.0.1.146,NaN,move_down,-2.880,-2.880,-2.880,0.000,0.000,0.000
1605221538500734976,10.0.1.146,NaN,move_down,-2.900,-2.900,-2.900,0.000,0.000,0.000
1605221538844534016,10.0.1.146,NaN,move_down,-2.920,-2.920,-2.920,0.000,0.000,0.000
1605221539066535936,10.0.1.146,NaN,move_down,-2.940,-2.940,-2.940,0.000,0.000,0.000
1605221539218679808,10.0.1.146,NaN,move_down,-2.960,-2.960,-2.960,0.000,0.000,0.000
1605221539734592000,10.0.1.146,NaN,move_down,-2.980,-2.980,-2.980,0.000,0.000,0.000
1605221539919624960,10.0.1.146,NaN,move_down,-3.000,-3.000,-3.000,0.000,0.000,0.000
1605221540296092928,10.0.1.146,NaN,move_down,-3.020,-3.020,-3.020,0.000,0.000,0.000
1605221540529603840,10.0.1.146,NaN,move_down,-3.040,-3.040,-3.040,0.000,0.000,0.000
1605221540819553024,10.0.1.146,NaN,move_down,-3.060,-3.060,-3.060,0.000,0.000,0.000
1605221541001224960,10.0.1.146,NaN,move_down,-3.080,-3.080,-3.080,0.000,0.000,0.000
1605221541181350912,10.0.1.146,NaN,move_down,-3.100,-3.100,-3.100,0.000,0.000,0.000
1605221541274437888,10.0.1.146,NaN,move_down,-3.120,-3.120,-3.120,0.000,0.000,0.000
1605221541404948992,10.0.1.146,NaN,move_down,-3.140,-3.140,-3.140,0.000,0.000,0.000
1605221541648508160,10.0.1.146,NaN,move_down,-3.160,-3.160,-3.160,0.000,0.000,0.000
1605221541727695872,10.0.1.146,NaN,move_down,-3.180,-3.180,-3.180,0.000,0.000,0.000
1605221541808120064,10.0.1.146,NaN,move_down,-3.200,-3.200,-3.200,0.000,0.000,0.000
1605221542214499840,10.0.1.146,NaN,move_down,-3.220,-3.220,-3.220,0.000,0.000,0.000
1605221542602400000,10.0.1.146,NaN,move_down,-3.240,-3.240,-3.240,0.000,0.000,0.000
1605221543053880832,10.0.1.146,NaN,move_down,-3.260,-3.260,-3.260,0.000,0.000,0.000
1605221543207108864,10.0.1.146,NaN,move_down,-3.280,-3.280,-3.280,0.000,0.000,0.000
1605221543451201024,10.0.1.146,NaN,move_down,-3.300,-3.300,-3.300,0.000,0.000,0.000
1605221543563548928,10.0.1.146,NaN,move_down,-3.320,-3.320,-3.320,0.000,0.000,0.000
1605221543799216128,10.0.1.146,NaN,move_down,-3.340,-3.340,-3.340,0.000,0.000,0.000
1605221543917522944,10.0.1.146,NaN,move_down,-3.360,-3.360,-3.360,0.000,0.000,0.000
1605221544753747968,10.0.1.146,NaN,move_down,-3.380,-3.380,-3.380,0.000,0.000,0.000
1605221545139620096,10.0.1.146,NaN,move_down,-3.400,-3.400,-3.400,0.000,0.000,0.000
1605221545514915840,10.0.1.146,NaN,move_down,-3.420,-3.420,-3.420,0.000,0.000,0.000
1605221545651625984,10.0.1.146,NaN,move_down,-3.440,-3.440,-3.440,0.000,0.000,0.000
1605221545715919872,10.0.1.146,NaN,move_down,-3.460,-3.460,-3.460,0.000,0.000,0.000
1605221545899053056,10.0.1.146,NaN,move_down,-3.480,-3.480,-3.480,0.000,0.000,0.000
1605221546074352128,10.0.1.146,NaN,move_down,-3.500,-3.500,-3.500,0.000,0.000,0.000
1605221546344129024,10.0.1.146,NaN,move_down,-3.520,-3.520,-3.520,0.000,0.000,0.000
1605221546460252160,10.0.1.146,NaN,move_down,-3.540,-3.540,-3.540,0.000,0.000,0.000
1605221546704258816,10.0.1.146,NaN,move_down,-3.560,-3.560,-3.560,0.000,0.000,0.000
1605221546866686976,10.0.1.146,NaN,move_down,-3.580,-3.580,-3.580,0.000,0.000,0.000
1605221547250224128,10.0.1.146,NaN,move_down,-3.600,-3.600,-3.600,0.000,0.000,0.000
1605221547438607104,10.0.1.146,NaN,move_down,-3.620,-3.620,-3.620,0.000,0.000,0.000
1605221547682625024,10.0.1.146,NaN,move_down,-3.640,-3.640,-3.640,0.000,0.000,0.000
1605221548281575936,10.0.1.146,NaN,move_down,-3.660,-3.660,-3.660,0.000,0.000,0.000
1605221548410446848,10.0.1.146,NaN,move_down,-3.680,-3.680,-3.680,0.000,0.000,0.000
1605221548496256000,10.0.1.146,NaN,move_down,-3.700,-3.700,-3.700,0.000,0.000,0.000
1605221548687937024,10.0.1.146,NaN,move_down,-3.720,-3.720,-3.720,0.000,0.000,0.000
1605221548823735040,10.0.1.146,NaN,move_down,-3.740,-3.740,-3.740,0.000,0.000,0.000
1605221549250899200,10.0.1.146,NaN,move_down,-3.760,-3.760,-3.760,0.000,0.000,0.000
1605221549538196992,10.0.1.146,NaN,move_down,-3.780,-3.780,-3.780,0.000,0.000,0.000
1605221549775755008,10.0.1.146,NaN,move_down,-3.800,-3.800,-3.800,0.000,0.000,0.000
1605221550023803904,10.0.1.146,NaN,move_down,-3.820,-3.820,-3.820,0.000,0.000,0.000
1605221550557890816,10.0.1.146,NaN,move_down,-3.840,-3.840,-3.840,0.000,0.000,0.000
1605221550757472000,10.0.1.146,NaN,move_down,-3.860,-3.860,-3.860,0.000,0.000,0.000
1605221551001662976,10.0.1.146,NaN,move_down,-3.880,-3.880,-3.880,0.000,0.000,0.000
1605221551236689920,10.0.1.146,NaN,move_down,-3.900,-3.900,-3.900,0.000,0.000,0.000
1605221551397181952,10.0.1.146,NaN,move_down,-3.920,-3.920,-3.920,0.000,0.000,0.000
1605221551499435776,10.0.1.146,NaN,move_down,-3.940,-3.940,-3.940,0.000,0.000,0.000
1605221551724919040,10.0.1.146,NaN,move_down,-3.960,-3.960,-3.960,0.000,0.000,0.000
1605221552176551168,10.0.1.146,NaN,move_down,-3.980,-3.980,-3.980,0.000,0.000,0.000
1605221552446959872,10.0.1.146,NaN,move_down,-4.000,-4.000,-4.000,0.000,0.000,0.000
1605221552586393088,10.0.1.146,NaN,move_down,-4.020,-4.020,-4.020,0.000,0.000,0.000
1605221552765274880,10.0.1.146,NaN,move_down,-4.040,-4.040,-4.040,0.000,0.000,0.000
1605221552915175936,10.0.1.146,NaN,move_down,-4.060,-4.060,-4.060,0.000,0.000,0.000
1605221553046208000,10.0.1.146,NaN,move_down,-4.080,-4.080,-4.080,0.000,0.000,0.000
1605221553298001920,10.0.1.146,NaN,move_down,-4.100,-4.100,-4.100,0.000,0.000,0.000
1605221553456509952,10.0.1.146,NaN,move_down,-4.120,-4.120,-4.120,0.000,0.000,0.000
1605221554740123136,10.0.1.146,NaN,move_down,-4.140,-4.140,-4.140,0.000,0.000,0.000
1605221554832300800,10.0.1.146,NaN,move_down,-4.160,-4.160,-4.160,0.000,0.000,0.000
1605221554983202816,10.0.1.146,NaN,move_down,-4.180,-4.180,-4.180,0.000,0.000,0.000
1605221555254995200,10.0.1.146,NaN,move_down,-4.200,-4.200,-4.200,0.000,0.000,0.000
1605221555455785984,10.0.1.146,NaN,move_down,-4.220,-4.220,-4.220,0.000,0.000,0.000
1605221555762171904,10.0.1.146,NaN,move_down,-4.240,-4.240,-4.240,0.000,0.000,0.000
1605221556043838976,10.0.1.146,NaN,move_down,-4.260,-4.260,-4.260,0.000,0.000,0.000
1605221556206695936,10.0.1.146,NaN,move_down,-4.280,-4.280,-4.280,0.000,0.000,0.000
1605221556411181824,10.0.1.146,NaN,move_down,-4.300,-4.300,-4.300,0.000,0.000,0.000
1605221556644229888,10.0.1.146,NaN,move_down,-4.320,-4.320,-4.320,0.000,0.000,0.000
1605221556851869952,10.0.1.146,NaN,move_down,-4.340,-4.340,-4.340,0.000,0.000,0.000
1605221557178384128,10.0.1.146,NaN,move_down,-4.360,-4.360,-4.360,0.000,0.000,0.000
1605221557650394880,10.0.1.146,NaN,move_down,-4.380,-4.380,-4.380,0.000,0.000,0.000
1605221558004913152,10.0.1.146,NaN,move_down,-4.400,-4.400,-4.400,0.000,0.000,0.000
1605221558368290816,10.0.1.146,NaN,move_down,-4.420,-4.420,-4.420,0.000,0.000,0.000
1605221558520605184,10.0.1.146,NaN,move_down,-4.440,-4.440,-4.440,0.000,0.000,0.000
1605221558661468928,10.0.1.146,NaN,move_down,-4.460,-4.460,-4.460,0.000,0.000,0.000
1605221558969074944,10.0.1.146,NaN,move_down,-4.480,-4.480,-4.480,0.000,0.000,0.000
1605221559125572864,10.0.1.146,NaN,move_down,-4.500,-4.500,-4.500,0.000,0.000,0.000
1605221559340225024,10.0.1.146,NaN,move_down,-4.520,-4.520,-4.520,0.000,0.000,0.000
1605221559583991040,10.0.1.146,NaN,move_down,-4.540,-4.540,-4.540,0.000,0.000,0.000
1605221559749878784,10.0.1.146,NaN,move_down,-4.560,-4.560,-4.560,0.000,0.000,0.000
1605221559988431104,10.0.1.146,NaN,move_down,-4.580,-4.580,-4.580,0.000,0.000,0.000
1605221560247670016,10.0.1.146,NaN,move_down,-4.600,-4.600,-4.600,0.000,0.000,0.000
1605221560527299840,10.0.1.146,NaN,move_down,-4.620,-4.620,-4.620,0.000,0.000,0.000
1605221560889449984,10.0.1.146,NaN,move_down,-4.640,-4.640,-4.640,0.000,0.000,0.000
1605221561024389888,10.0.1.146,NaN,move_down,-4.660,-4.660,-4.660,0.000,0.000,0.000
1605221561242835968,10.0.1.146,NaN,move_down,-4.680,-4.680,-4.680,0.000,0.000,0.000
1605221561368866816,10.0.1.146,NaN,move_down,-4.700,-4.700,-4.700,0.000,0.000,0.000
1605221561571782144,10.0.1.146,NaN,move_down,-4.720,-4.720,-4.720,0.000,0.000,0.000
1605221562039374080,10.0.1.146,NaN,move_down,-4.740,-4.740,-4.740,0.000,0.000,0.000
1605221562605707776,10.0.1.146,NaN,move_down,-4.760,-4.760,-4.760,0.000,0.000,0.000
1605221562809750016,10.0.1.146,NaN,move_down,-4.780,-4.780,-4.780,0.000,0.000,0.000
1605221563704216832,10.0.1.146,NaN,move_down,-4.800,-4.800,-4.800,0.000,0.000,0.000
1605221563913812992,10.0.1.146,NaN,move_down,-4.820,-4.820,-4.820,0.000,0.000,0.000
1605221564166604032,10.0.1.146,NaN,move_down,-4.840,-4.840,-4.840,0.000,0.000,0.000
1605221564945867008,10.0.1.146,NaN,move_down,-4.860,-4.860,-4.860,0.000,0.000,0.000
1605221565665697024,10.0.1.146,NaN,move_down,-4.880,-4.880,-4.880,0.000,0.000,0.000
1605221565809155840,10.0.1.146,NaN,move_down,-4.900,-4.900,-4.900,0.000,0.000,0.000
1605221566452897024,10.0.1.146,NaN,move_down,-4.920,-4.920,-4.920,0.000,0.000,0.000
1605221566845510912,10.0.1.146,NaN,move_down,-4.940,-4.940,-4.940,0.000,0.000,0.000
1605221567089155840,10.0.1.146,NaN,move_down,-4.960,-4.960,-4.960,0.000,0.000,0.000
1605221567406769152,10.0.1.146,NaN,move_down,-4.980,-4.980,-4.980,0.000,0.000,0.000
1605221567743886080,10.0.1.146,NaN,move_down,-5.000,-5.000,-5.000,0.000,0.000,0.000
1605221568014909952,10.0.1.146,NaN,move_down,-5.020,-5.020,-5.020,0.000,0.000,0.000
1605221568447837952,10.0.1.146,NaN,move_down,-5.040,-5.040,-5.040,0.000,0.000,0.000
1605221568820177152,10.0.1.146,NaN,move_down,-5.060,-5.060,-5.060,0.000,0.000,0.000
1605221569159763200,10.0.1.146,NaN,move_down,-5.080,-5.080,-5.080,0.000,0.000,0.000
1605221569412579072,10.0.1.146,NaN,move_down,-5.100,-5.100,-5.100,0.000,0.000,0.000
1605221569594332928,10.0.1.146,NaN,move_down,-5.120,-5.120,-5.120,0.000,0.000,0.000
1605221569742132992,10.0.1.146,NaN,move_down,-5.140,-5.140,-5.140,0.000,0.000,0.000
1605221570207464960,10.0.1.146,NaN,move_down,-5.160,-5.160,-5.160,0.000,0.000,0.000
1605221570747883008,10.0.1.146,NaN,move_down,-5.180,-5.180,-5.180,0.000,0.000,0.000
1605221571452419072,10.0.1.146,NaN,move_down,-5.200,-5.200,-5.200,0.000,0.000,0.000
1605221571803729152,10.0.1.146,NaN,move_down,-5.220,-5.220,-5.220,0.000,0.000,0.000
1605221572014689024,10.0.1.146,NaN,move_down,-5.240,-5.240,-5.240,0.000,0.000,0.000
1605221572516633088,10.0.1.146,NaN,move_down,-5.260,-5.260,-5.260,0.000,0.000,0.000
1605221572748094976,10.0.1.146,NaN,move_down,-5.280,-5.280,-5.280,0.000,0.000,0.000
1605221572980911872,10.0.1.146,NaN,move_down,-5.300,-5.300,-5.300,0.000,0.000,0.000
1605221573212002048,10.0.1.146,NaN,move_down,-5.320,-5.320,-5.320,0.000,0.000,0.000
1605221573954530048,10.0.1.146,NaN,move_down,-5.340,-5.340,-5.340,0.000,0.000,0.000
1605221574191864064,10.0.1.146,NaN,move_down,-5.360,-5.360,-5.360,0.000,0.000,0.000
1605221574341016064,10.0.1.146,NaN,move_down,-5.380,-5.380,-5.380,0.000,0.000,0.000
1605221574501326080,10.0.1.146,NaN,move_down,-5.400,-5.400,-5.400,0.000,0.000,0.000
1605221574663347968,10.0.1.146,NaN,move_down,-5.420,-5.420,-5.420,0.000,0.000,0.000
1605221574775940864,10.0.1.146,NaN,move_down,-5.440,-5.440,-5.440,0.000,0.000,0.000
1605221575338732032,10.0.1.146,NaN,move_down,-5.460,-5.460,-5.460,0.000,0.000,0.000
1605221575708174080,10.0.1.146,NaN,move_down,-5.480,-5.480,-5.480,0.000,0.000,0.000
1605221575845383936,10.0.1.146,NaN,move_down,-5.500,-5.500,-5.500,0.000,0.000,0.000
1605221576292401152,10.0.1.146,NaN,move_down,-5.520,-5.520,-5.520,0.000,0.000,0.000
1605221576537108992,10.0.1.146,NaN,move_down,-5.540,-5.540,-5.540,0.000,0.000,0.000
1605221576602518016,10.0.1.146,NaN,move_down,-5.560,-5.560,-5.560,0.000,0.000,0.000
1605221576764386048,10.0.1.146,NaN,move_down,-5.580,-5.580,-5.580,0.000,0.000,0.000
1605221576907844096,10.0.1.146,NaN,move_down,-5.600,-5.600,-5.600,0.000,0.000,0.000
1605221577004507904,10.0.1.146,NaN,move_down,-5.620,-5.620,-5.620,0.000,0.000,0.000
1605221577175035904,10.0.1.146,NaN,move_down,-5.640,-5.640,-5.640,0.000,0.000,0.000
1605221577315424000,10.0.1.146,NaN,move_down,-5.660,-5.660,-5.660,0.000,0.000,0.000
1605221577466551040,10.0.1.146,NaN,move_down,-5.680,-5.680,-5.680,0.000,0.000,0.000
1605221577540173056,10.0.1.146,NaN,move_down,-5.700,-5.700,-5.700,0.000,0.000,0.000
1605221577859568128,10.0.1.146,NaN,move_down,-5.720,-5.720,-5.720,0.000,0.000,0.000
1605221578459302912,10.0.1.146,NaN,move_down,-5.740,-5.740,-5.740,0.000,0.000,0.000
1605221578810483968,10.0.1.146,NaN,move_down,-5.760,-5.760,-5.760,0.000,0.000,0.000
1605221578965313024,10.0.1.146,NaN,move_down,-5.780,-5.780,-5.780,0.000,0.000,0.000
1605221579069000960,10.0.1.146,NaN,move_down,-5.800,-5.800,-5.800,0.000,0.000,0.000
1605221579723810816,10.0.1.146,NaN,move_down,-5.820,-5.820,-5.820,0.000,0.000,0.000
1605221579939041024,10.0.1.146,NaN,move_down,-5.840,-5.840,-5.840,0.000,0.000,0.000
1605221580135921920,10.0.1.146,NaN,move_down,-5.860,-5.860,-5.860,0.000,0.000,0.000
1605221580350002176,10.0.1.146,NaN,move_down,-5.880,-5.880,-5.880,0.000,0.000,0.000
1605221581185373184,10.0.1.146,NaN,move_down,-5.900,-5.900,-5.900,0.000,0.000,0.000
1605221581343725056,10.0.1.146,NaN,move_down,-5.920,-5.920,-5.920,0.000,0.000,0.000
1605221581705133056,10.0.1.146,NaN,move_down,-5.940,-5.940,-5.940,0.000,0.000,0.000
1605221581953015040,10.0.1.146,NaN,move_down,-5.960,-5.960,-5.960,0.000,0.000,0.000
1605221582251874816,10.0.1.146,NaN,move_down,-5.980,-5.980,-5.980,0.000,0.000,0.000
1605221582695885824,10.0.1.146,NaN,move_down,-6.000,-6.000,-6.000,0.000,0.000,0.000
1605221583250801152,10.0.1.146,NaN,move_down,-6.020,-6.020,-6.020,0.000,0.000,0.000
1605221584075911936,10.0.1.146,NaN,move_down,-6.040,-6.040,-6.040,0.000,0.000,0.000
1605221584318034944,10.0.1.146,NaN,move_down,-6.060,-6.060,-6.060,0.000,0.000,0.000
1605221584586188032,10.0.1.146,NaN,move_down,-6.080,-6.080,-6.080,0.000,0.000,0.000
1605221584820073984,10.0.1.146,NaN,move_down,-6.100,-6.100,-6.100,0.000,0.000,0.000
1605221584965033984,10.0.1.146,NaN,move_down,-6.120,-6.120,-6.120,0.000,0.000,0.000
1605221585172157952,10.0.1.146,NaN,move_down,-6.140,-6.140,-6.140,0.000,0.000,0.000
1605221585416896000,10.0.1.146,NaN,move_down,-6.160,-6.160,-6.160,0.000,0.000,0.000
1605221585647995904,10.0.1.146,NaN,move_down,-6.180,-6.180,-6.180,0.000,0.000,0.000
1605221586202639104,10.0.1.146,NaN,move_down,-6.200,-6.200,-6.200,0.000,0.000,0.000
1605221587454142208,10.0.1.146,NaN,move_down,-6.220,-6.220,-6.220,0.000,0.000,0.000
1605221587683206912,10.0.1.146,NaN,move_down,-6.240,-6.240,-6.240,0.000,0.000,0.000
1605221587862867200,10.0.1.146,NaN,move_down,-6.260,-6.260,-6.260,0.000,0.000,0.000
1605221588234027008,10.0.1.146,NaN,move_down,-6.280,-6.280,-6.280,0.000,0.000,0.000
1605221588489413120,10.0.1.146,NaN,move_down,-6.300,-6.300,-6.300,0.000,0.000,0.000
1605221588593172992,10.0.1.146,NaN,move_down,-6.320,-6.320,-6.320,0.000,0.000,0.000
1605221588820631040,10.0.1.146,NaN,move_down,-6.340,-6.340,-6.340,0.000,0.000,0.000
1605221589008276992,10.0.1.146,NaN,move_down,-6.360,-6.360,-6.360,0.000,0.000,0.000
1605221589135642112,10.0.1.146,NaN,move_down,-6.380,-6.380,-6.380,0.000,0.000,0.000
1605221589691028224,10.0.1.146,NaN,move_down,-6.400,-6.400,-6.400,0.000,0.000,0.000
1605221590116224000,10.0.1.146,NaN,move_down,-6.420,-6.420,-6.420,0.000,0.000,0.000
1605221590895017984,10.0.1.146,NaN,move_down,-6.440,-6.440,-6.440,0.000,0.000,0.000
1605221591294174976,10.0.1.146,NaN,move_down,-6.460,-6.460,-6.460,0.000,0.000,0.000
1605221592045362944,10.0.1.146,NaN,move_down,-6.480,-6.480,-6.480,0.000,0.000,0.000
1605221592574918912,10.0.1.146,NaN,move_down,-6.500,-6.500,-6.500,0.000,0.000,0.000
1605221593220848128,10.0.1.146,NaN,move_down,-6.520,-6.520,-6.520,0.000,0.000,0.000
1605221593410551040,10.0.1.146,NaN,move_down,-6.540,-6.540,-6.540,0.000,0.000,0.000
1605221593909989120,10.0.1.146,NaN,move_down,-6.560,-6.560,-6.560,0.000,0.000,0.000
1605221594187776000,10.0.1.146,NaN,move_down,-6.580,-6.580,-6.580,0.000,0.000,0.000
1605221594471070976,10.0.1.146,NaN,move_down,-6.600,-6.600,-6.600,0.000,0.000,0.000
1605221594588801024,10.0.1.146,NaN,move_down,-6.620,-6.620,-6.620,0.000,0.000,0.000
1605221594747843072,10.0.1.146,NaN,move_down,-6.640,-6.640,-6.640,0.000,0.000,0.000
1605221594903939840,10.0.1.146,NaN,move_down,-6.660,-6.660,-6.660,0.000,0.000,0.000
1605221595175760128,10.0.1.146,NaN,move_down,-6.680,-6.680,-6.680,0.000,0.000,0.000
1605221595311129088,10.0.1.146,NaN,move_down,-6.700,-6.700,-6.700,0.000,0.000,0.000
1605221595528529920,10.0.1.146,NaN,move_down,-6.720,-6.720,-6.720,0.000,0.000,0.000
1605221596095560960,10.0.1.146,NaN,move_down,-6.740,-6.740,-6.740,0.000,0.000,0.000
1605221596224531968,10.0.1.146,NaN,move_down,-6.760,-6.760,-6.760,0.000,0.000,0.000
1605221596388869888,10.0.1.146,NaN,move_down,-6.780,-6.780,-6.780,0.000,0.000,0.000
1605221596555311872,10.0.1.146,NaN,move_down,-6.800,-6.800,-6.800,0.000,0.000,0.000
1605221597463279104,10.0.1.146,NaN,move_down,-6.820,-6.820,-6.820,0.000,0.000,0.000
1605221598009690880,10.0.1.146,NaN,move_down,-6.840,-6.840,-6.840,0.000,0.000,0.000
1605221598485667072,10.0.1.146,NaN,move_down,-6.860,-6.860,-6.860,0.000,0.000,0.000
1605221599103385088,10.0.1.146,NaN,move_down,-6.880,-6.880,-6.880,0.000,0.000,0.000
1605221599557171200,10.0.1.146,NaN,move_down,-6.900,-6.900,-6.900,0.000,0.000,0.000
1605221599729104128,10.0.1.146,NaN,move_down,-6.920,-6.920,-6.920,0.000,0.000,0.000
1605221600686022144,10.0.1.146,NaN,move_down,-6.940,-6.940,-6.940,0.000,0.000,0.000
1605221600803746816,10.0.1.146,NaN,move_down,-6.960,-6.960,-6.960,0.000,0.000,0.000
1605221601469306112,10.0.1.146,NaN,move_down,-6.980,-6.980,-6.980,0.000,0.000,0.000
1605221601587419136,10.0.1.146,NaN,move_down,-7.000,-7.000,-7.000,0.000,0.000,0.000
1605221602132114944,10.0.1.146,NaN,move_down,-7.020,-7.020,-7.020,0.000,0.000,0.000
1605221602503478016,10.0.1.146,NaN,move_down,-7.040,-7.040,-7.040,0.000,0.000,0.000
1605221602628622080,10.0.1.146,NaN,move_down,-7.060,-7.060,-7.060,0.000,0.000,0.000
1605221602782033920,10.0.1.146,NaN,move_down,-7.080,-7.080,-7.080,0.000,0.000,0.000
1605221602929426944,10.0.1.146,NaN,move_down,-7.100,-7.100,-7.100,0.000,0.000,0.000
1605221603618153216,10.0.1.146,NaN,move_down,-7.120,-7.120,-7.120,0.000,0.000,0.000
1605221603889434112,10.0.1.146,NaN,move_down,-7.140,-7.140,-7.140,0.000,0.000,0.000
1605221604169006080,10.0.1.146,NaN,move_down,-7.160,-7.160,-7.160,0.000,0.000,0.000
1605221604399734016,10.0.1.146,NaN,move_down,-7.180,-7.180,-7.180,0.000,0.000,0.000
1605221604688489984,10.0.1.146,NaN,move_down,-7.200,-7.200,-7.200,0.000,0.000,0.000
1605221605057636096,10.0.1.146,NaN,move_down,-7.220,-7.220,-7.220,0.000,0.000,0.000
1605221605467844096,10.0.1.146,NaN,move_down,-7.240,-7.240,-7.240,0.000,0.000,0.000
1605221605732646912,10.0.1.146,NaN,move_down,-7.260,-7.260,-7.260,0.000,0.000,0.000
1605221605938679808,10.0.1.146,NaN,move_down,-7.280,-7.280,-7.280,0.000,0.000,0.000
1605221606113679872,10.0.1.146,NaN,move_down,-7.300,-7.300,-7.300,0.000,0.000,0.000
1605221606441230080,10.0.1.146,NaN,move_down,-7.320,-7.320,-7.320,0.000,0.000,0.000
1605221606597737984,10.0.1.146,NaN,move_down,-7.340,-7.340,-7.340,0.000,0.000,0.000
1605221607015991808,10.0.1.146,NaN,move_down,-7.360,-7.360,-7.360,0.000,0.000,0.000
1605221607223792128,10.0.1.146,NaN,move_down,-7.380,-7.380,-7.380,0.000,0.000,0.000
1605221607326405888,10.0.1.146,NaN,move_down,-7.400,-7.400,-7.400,0.000,0.000,0.000
1605221607544148992,10.0.1.146,NaN,move_down,-7.420,-7.420,-7.420,0.000,0.000,0.000
1605221607724930048,10.0.1.146,NaN,move_down,-7.440,-7.440,-7.440,0.000,0.000,0.000
1605221609275794944,10.0.1.146,NaN,move_down,-7.460,-7.460,-7.460,0.000,0.000,0.000
1605221609546072064,10.0.1.146,NaN,move_down,-7.480,-7.480,-7.480,0.000,0.000,0.000
1605221609795869184,10.0.1.146,NaN,move_down,-7.500,-7.500,-7.500,0.000,0.000,0.000
1605221609908914176,10.0.1.146,NaN,move_down,-7.520,-7.520,-7.520,0.000,0.000,0.000
1605221610030856960,10.0.1.146,NaN,move_down,-7.540,-7.540,-7.540,0.000,0.000,0.000
1605221610198184960,10.0.1.146,NaN,move_down,-7.560,-7.560,-7.560,0.000,0.000,0.000
1605221610520626944,10.0.1.146,NaN,move_down,-7.580,-7.580,-7.580,0.000,0.000,0.000
1605221610871723008,10.0.1.146,NaN,move_down,-7.600,-7.600,-7.600,0.000,0.000,0.000
1605221611232888832,10.0.1.146,NaN,move_down,-7.620,-7.620,-7.620,0.000,0.000,0.000
1605221611891799808,10.0.1.146,NaN,move_down,-7.640,-7.640,-7.640,0.000,0.000,0.000
1605221612154509056,10.0.1.146,NaN,move_down,-7.660,-7.660,-7.660,0.000,0.000,0.000
1605221612515724800,10.0.1.146,NaN,move_down,-7.680,-7.680,-7.680,0.000,0.000,0.000
1605221612799671808,10.0.1.146,NaN,move_down,-7.700,-7.700,-7.700,0.000,0.000,0.000
1605221612954171904,10.0.1.146,NaN,move_down,-7.720,-7.720,-7.720,0.000,0.000,0.000
1605221613145140992,10.0.1.146,NaN,move_down,-7.740,-7.740,-7.740,0.000,0.000,0.000
1605221613272999168,10.0.1.146,NaN,move_down,-7.760,-7.760,-7.760,0.000,0.000,0.000
1605221613599945984,10.0.1.146,NaN,move_down,-7.780,-7.780,-7.780,0.000,0.000,0.000
1605221613690818048,10.0.1.146,NaN,move_down,-7.800,-7.800,-7.800,0.000,0.000,0.000
1605221613766145024,10.0.1.146,NaN,move_down,-7.820,-7.820,-7.820,0.000,0.000,0.000
1605221614140760832,10.0.1.146,NaN,move_down,-7.840,-7.840,-7.840,0.000,0.000,0.000
1605221614478360064,10.0.1.146,NaN,move_down,-7.860,-7.860,-7.860,0.000,0.000,0.000
1605221614846610176,10.0.1.146,NaN,move_down,-7.880,-7.880,-7.880,0.000,0.000,0.000
1605221615011917056,10.0.1.146,NaN,move_down,-7.900,-7.900,-7.900,0.000,0.000,0.000
1605221615432268032,10.0.1.146,NaN,move_down,-7.920,-7.920,-7.920,0.000,0.000,0.000
1605221615647751936,10.0.1.146,NaN,move_down,-7.940,-7.940,-7.940,0.000,0.000,0.000
1605221615921235200,10.0.1.146,NaN,move_down,-7.960,-7.960,-7.960,0.000,0.000,0.000
1605221616070077952,10.0.1.146,NaN,move_down,-7.980,-7.980,-7.980,0.000,0.000,0.000
1605221616161500928,10.0.1.146,NaN,move_down,-8.000,-8.000,-8.000,0.000,0.000,0.000
1605221616263387904,10.0.1.146,NaN,move_down,-8.020,-8.020,-8.020,0.000,0.000,0.000
1605221616532144896,10.0.1.146,NaN,move_down,-8.040,-8.040,-8.040,0.000,0.000,0.000
1605221616774162176,10.0.1.146,NaN,move_down,-8.060,-8.060,-8.060,0.000,0.000,0.000
1605221616888005120,10.0.1.146,NaN,move_down,-8.080,-8.080,-8.080,0.000,0.000,0.000
1605221617476040960,10.0.1.146,NaN,move_down,-8.100,-8.100,-8.100,0.000,0.000,0.000
1605221617746546944,10.0.1.146,NaN,move_down,-8.120,-8.120,-8.120,0.000,0.000,0.000
1605221618020029184,10.0.1.146,NaN,move_down,-8.140,-8.140,-8.140,0.000,0.000,0.000
1605221618396215040,10.0.1.146,NaN,move_down,-8.160,-8.160,-8.160,0.000,0.000,0.000
1605221618606960128,10.0.1.146,NaN,move_down,-8.180,-8.180,-8.180,0.000,0.000,0.000
1605221618969028096,10.0.1.146,NaN,move_down,-8.200,-8.200,-8.200,0.000,0.000,0.000
1605221619367661056,10.0.1.146,NaN,move_down,-8.220,-8.220,-8.220,0.000,0.000,0.000
1605221619519069952,10.0.1.146,NaN,move_down,-8.240,-8.240,-8.240,0.000,0.000,0.000
1605221619866895872,10.0.1.146,NaN,move_down,-8.260,-8.260,-8.260,0.000,0.000,0.000
1605221620132098816,10.0.1.146,NaN,move_down,-8.280,-8.280,-8.280,0.000,0.000,0.000
1605221620381148928,10.0.1.146,NaN,move_down,-8.300,-8.300,-8.300,0.000,0.000,0.000
1605221620821615104,10.0.1.146,NaN,move_down,-8.320,-8.320,-8.320,0.000,0.000,0.000
1605221620981387008,10.0.1.146,NaN,move_down,-8.340,-8.340,-8.340,0.000,0.000,0.000
1605221621171713024,10.0.1.146,NaN,move_down,-8.360,-8.360,-8.360,0.000,0.000,0.000
1605221621306734080,10.0.1.146,NaN,move_down,-8.380,-8.380,-8.380,0.000,0.000,0.000
1605221621728847104,10.0.1.146,NaN,move_down,-8.400,-8.400,-8.400,0.000,0.000,0.000
1605221622714489856,10.0.1.146,NaN,move_down,-8.420,-8.420,-8.420,0.000,0.000,0.000
1605221622892517120,10.0.1.146,NaN,move_down,-8.440,-8.440,-8.440,0.000,0.000,0.000
1605221623542584064,10.0.1.146,NaN,move_down,-8.460,-8.460,-8.460,0.000,0.000,0.000
1605221623995646976,10.0.1.146,NaN,move_down,-8.480,-8.480,-8.480,0.000,0.000,0.000
1605221624221807104,10.0.1.146,NaN,move_down,-8.500,-8.500,-8.500,0.000,0.000,0.000
1605221624570085888,10.0.1.146,NaN,move_down,-8.520,-8.520,-8.520,0.000,0.000,0.000
1605221624812800768,10.0.1.146,NaN,move_down,-8.540,-8.540,-8.540,0.000,0.000,0.000
1605221624897125888,10.0.1.146,NaN,move_down,-8.560,-8.560,-8.560,0.000,0.000,0.000
1605221625173628160,10.0.1.146,NaN,move_down,-8.580,-8.580,-8.580,0.000,0.000,0.000
1605221625380811008,10.0.1.146,NaN,move_down,-8.600,-8.600,-8.600,0.000,0.000,0.000
1605221625555372032,10.0.1.146,NaN,move_down,-8.620,-8.620,-8.620,0.000,0.000,0.000
1605221625710519040,10.0.1.146,NaN,move_down,-8.640,-8.640,-8.640,0.000,0.000,0.000
1605221625909145088,10.0.1.146,NaN,move_down,-8.660,-8.660,-8.660,0.000,0.000,0.000
1605221626133090048,10.0.1.146,NaN,move_down,-8.680,-8.680,-8.680,0.000,0.000,0.000
1605221626444456192,10.0.1.146,NaN,move_down,-8.700,-8.700,-8.700,0.000,0.000,0.000
1605221626569639936,10.0.1.146,NaN,move_down,-8.720,-8.720,-8.720,0.000,0.000,0.000
1605221626694327040,10.0.1.146,NaN,move_down,-8.740,-8.740,-8.740,0.000,0.000,0.000
1605221626934117120,10.0.1.146,NaN,move_down,-8.760,-8.760,-8.760,0.000,0.000,0.000
1605221627291783936,10.0.1.146,NaN,move_down,-8.780,-8.780,-8.780,0.000,0.000,0.000
1605221627642833920,10.0.1.146,NaN,move_down,-8.800,-8.800,-8.800,0.000,0.000,0.000
1605221627874039808,10.0.1.146,NaN,move_down,-8.820,-8.820,-8.820,0.000,0.000,0.000
1605221628044943104,10.0.1.146,NaN,move_down,-8.840,-8.840,-8.840,0.000,0.000,0.000
1605221628184876800,10.0.1.146,NaN,move_down,-8.860,-8.860,-8.860,0.000,0.000,0.000
1605221628367516160,10.0.1.146,NaN,move_down,-8.880,-8.880,-8.880,0.000,0.000,0.000
1605221628560136960,10.0.1.146,NaN,move_down,-8.900,-8.900,-8.900,0.000,0.000,0.000
1605221628871119104,10.0.1.146,NaN,move_down,-8.920,-8.920,-8.920,0.000,0.000,0.000
1605221629130925824,10.0.1.146,NaN,move_down,-8.940,-8.940,-8.940,0.000,0.000,0.000
1605221630148999936,10.0.1.146,NaN,move_down,-8.960,-8.960,-8.960,0.000,0.000,0.000
1605221630564902144,10.0.1.146,NaN,move_down,-8.980,-8.980,-8.980,0.000,0.000,0.000
1605221630788256000,10.0.1.146,NaN,move_down,-9.000,-9.000,-9.000,0.000,0.000,0.000
1605221630945874944,10.0.1.146,NaN,move_down,-9.020,-9.020,-9.020,0.000,0.000,0.000
1605221631274272000,10.0.1.146,NaN,move_down,-9.040,-9.040,-9.040,0.000,0.000,0.000
1605221631462258944,10.0.1.146,NaN,move_down,-9.060,-9.060,-9.060,0.000,0.000,0.000
1605221631676879872,10.0.1.146,NaN,move_down,-9.080,-9.080,-9.080,0.000,0.000,0.000
1605221631835841024,10.0.1.146,NaN,move_down,-9.100,-9.100,-9.100,0.000,0.000,0.000
1605221631927325952,10.0.1.146,NaN,move_down,-9.120,-9.120,-9.120,0.000,0.000,0.000
1605221632153868800,10.0.1.146,NaN,move_down,-9.140,-9.140,-9.140,0.000,0.000,0.000
1605221632287156224,10.0.1.146,NaN,move_down,-9.160,-9.160,-9.160,0.000,0.000,0.000
1605221632574819072,10.0.1.146,NaN,move_down,-9.180,-9.180,-9.180,0.000,0.000,0.000
1605221633091933952,10.0.1.146,NaN,move_down,-9.200,-9.200,-9.200,0.000,0.000,0.000
1605221633525619968,10.0.1.146,NaN,move_down,-9.220,-9.220,-9.220,0.000,0.000,0.000
1605221633779852032,10.0.1.146,NaN,move_down,-9.240,-9.240,-9.240,0.000,0.000,0.000
1605221634174809856,10.0.1.146,NaN,move_down,-9.260,-9.260,-9.260,0.000,0.000,0.000
1605221634965945088,10.0.1.146,NaN,move_down,-9.280,-9.280,-9.280,0.000,0.000,0.000
1605221635729549056,10.0.1.146,NaN,move_down,-9.300,-9.300,-9.300,0.000,0.000,0.000
1605221635912646144,10.0.1.146,NaN,move_down,-9.320,-9.320,-9.320,0.000,0.000,0.000
1605221636151737856,10.0.1.146,NaN,move_down,-9.340,-9.340,-9.340,0.000,0.000,0.000
1605221636792082176,10.0.1.146,NaN,move_down,-9.360,-9.360,-9.360,0.000,0.000,0.000
1605221637201890048,10.0.1.146,NaN,move_down,-9.380,-9.380,-9.380,0.000,0.000,0.000
1605221637899476992,10.0.1.146,NaN,move_down,-9.400,-9.400,-9.400,0.000,0.000,0.000
1605221638067343104,10.0.1.146,NaN,move_down,-9.420,-9.420,-9.420,0.000,0.000,0.000
1605221638385166848,10.0.1.146,NaN,move_down,-9.440,-9.440,-9.440,0.000,0.000,0.000
1605221638894171904,10.0.1.146,NaN,move_down,-9.460,-9.460,-9.460,0.000,0.000,0.000
1605221639197620992,10.0.1.146,NaN,move_down,-9.480,-9.480,-9.480,0.000,0.000,0.000
1605221639375837184,10.0.1.146,NaN,move_down,-9.500,-9.500,-9.500,0.000,0.000,0.000
1605221639616472064,10.0.1.146,NaN,move_down,-9.520,-9.520,-9.520,0.000,0.000,0.000
1605221640024301056,10.0.1.146,NaN,move_down,-9.540,-9.540,-9.540,0.000,0.000,0.000
1605221640272594944,10.0.1.146,NaN,move_down,-9.560,-9.560,-9.560,0.000,0.000,0.000
1605221640459202048,10.0.1.146,NaN,move_down,-9.580,-9.580,-9.580,0.000,0.000,0.000
1605221640734745856,10.0.1.146,NaN,move_down,-9.600,-9.600,-9.600,0.000,0.000,0.000
1605221640831616000,10.0.1.146,NaN,move_down,-9.620,-9.620,-9.620,0.000,0.000,0.000
1605221640973376000,10.0.1.146,NaN,move_down,-9.640,-9.640,-9.640,0.000,0.000,0.000
1605221641575313152,10.0.1.146,NaN,move_down,-9.660,-9.660,-9.660,0.000,0.000,0.000
1605221641783570176,10.0.1.146,NaN,move_down,-9.680,-9.680,-9.680,0.000,0.000,0.000
1605221642166337024,10.0.1.146,NaN,move_down,-9.700,-9.700,-9.700,0.000,0.000,0.000
1605221642389755136,10.0.1.146,NaN,move_down,-9.720,-9.720,-9.720,0.000,0.000,0.000
1605221642566025984,10.0.1.146,NaN,move_down,-9.740,-9.740,-9.740,0.000,0.000,0.000
1605221642733649920,10.0.1.146,NaN,move_down,-9.760,-9.760,-9.760,0.000,0.000,0.000
1605221643229732864,10.0.1.146,NaN,move_down,-9.780,-9.780,-9.780,0.000,0.000,0.000
1605221643438600960,10.0.1.146,NaN,move_down,-9.800,-9.800,-9.800,0.000,0.000,0.000
1605221643713768960,10.0.1.146,NaN,move_down,-9.820,-9.820,-9.820,0.000,0.000,0.000
1605221643823385856,10.0.1.146,NaN,move_down,-9.840,-9.840,-9.840,0.000,0.000,0.000
1605221644136990976,10.0.1.146,NaN,move_down,-9.860,-9.860,-9.860,0.000,0.000,0.000
1605221644381261056,10.0.1.146,NaN,move_down,-9.880,-9.880,-9.880,0.000,0.000,0.000
1605221644456741120,10.0.1.146,NaN,move_down,-9.900,-9.900,-9.900,0.000,0.000,0.000
1605221644726737920,10.0.1.146,NaN,move_down,-9.920,-9.920,-9.920,0.000,0.000,0.000
1605221645151546112,10.0.1.146,NaN,move_down,-9.940,-9.940,-9.940,0.000,0.000,0.000
1605221645336772864,10.0.1.146,NaN,move_down,-9.960,-9.960,-9.960,0.000,0.000,0.000
1605221645524583936,10.0.1.146,NaN,move_down,-9.980,-9.980,-9.980,0.000,0.000,0.000
1605221645688594176,10.0.1.146,NaN,move_down,-10.000,-10.000,-10.000,0.000,0.000,0.000
1605221645941262080,10.0.1.146,NaN,move_down,-10.020,-10.020,-10.020,0.000,0.000,0.000
1605221646445213184,10.0.1.146,NaN,move_down,-10.040,-10.040,-10.040,0.000,0.000,0.000
1605221646837243136,10.0.1.146,NaN,move_down,-10.060,-10.060,-10.060,0.000,0.000,0.000
1605221646980561920,10.0.1.146,NaN,move_down,-10.080,-10.080,-10.080,0.000,0.000,0.000
1605221647141933824,10.0.1.146,NaN,move_down,-10.100,-10.100,-10.100,0.000,0.000,0.000
1605221647411459072,10.0.1.146,NaN,move_down,-10.120,-10.120,-10.120,0.000,0.000,0.000
1605221647636012032,10.0.1.146,NaN,move_down,-10.140,-10.140,-10.140,0.000,0.000,0.000
1605221647852293120,10.0.1.146,NaN,move_down,-10.160,-10.160,-10.160,0.000,0.000,0.000
1605221648070625024,10.0.1.146,NaN,move_down,-10.180,-10.180,-10.180,0.000,0.000,0.000
1605221648353449216,10.0.1.146,NaN,move_down,-10.200,-10.200,-10.200,0.000,0.000,0.000
1605221648633069056,10.0.1.146,NaN,move_down,-10.220,-10.220,-10.220,0.000,0.000,0.000
1605221649003695104,10.0.1.146,NaN,move_down,-10.240,-10.240,-10.240,0.000,0.000,0.000
1605221649322254848,10.0.1.146,NaN,move_down,-10.260,-10.260,-10.260,0.000,0.000,0.000
1605221650182701056,10.0.1.146,NaN,move_down,-10.280,-10.280,-10.280,0.000,0.000,0.000
1605221650417985024,10.0.1.146,NaN,move_down,-10.300,-10.300,-10.300,0.000,0.000,0.000
1605221651019657984,10.0.1.146,NaN,move_down,-10.320,-10.320,-10.320,0.000,0.000,0.000
1605221651240456960,10.0.1.146,NaN,move_down,-10.340,-10.340,-10.340,0.000,0.000,0.000
1605221651430412032,10.0.1.146,NaN,move_down,-10.360,-10.360,-10.360,0.000,0.000,0.000
1605221651694309888,10.0.1.146,NaN,move_down,-10.380,-10.380,-10.380,0.000,0.000,0.000
1605221651863464960,10.0.1.146,NaN,move_down,-10.400,-10.400,-10.400,0.000,0.000,0.000
1605221651985948160,10.0.1.146,NaN,move_down,-10.420,-10.420,-10.420,0.000,0.000,0.000
1605221652260935168,10.0.1.146,NaN,move_down,-10.440,-10.440,-10.440,0.000,0.000,0.000
1605221652917190912,10.0.1.146,NaN,move_down,-10.460,-10.460,-10.460,0.000,0.000,0.000
1605221653264459008,10.0.1.146,NaN,move_down,-10.480,-10.480,-10.480,0.000,0.000,0.000
1605221653900890112,10.0.1.146,NaN,move_down,-10.500,-10.500,-10.500,0.000,0.000,0.000
1605221654232155136,10.0.1.146,NaN,move_down,-10.520,-10.520,-10.520,0.000,0.000,0.000
1605221654852263936,10.0.1.146,NaN,move_down,-10.540,-10.540,-10.540,0.000,0.000,0.000
1605221655419732992,10.0.1.146,NaN,move_down,-10.560,-10.560,-10.560,0.000,0.000,0.000
1605221655971738112,10.0.1.146,NaN,move_down,-10.580,-10.580,-10.580,0.000,0.000,0.000
1605221656396171008,10.0.1.146,NaN,move_down,-10.600,-10.600,-10.600,0.000,0.000,0.000
1605221656882664960,10.0.1.146,NaN,move_down,-10.620,-10.620,-10.620,0.000,0.000,0.000
1605221657102632960,10.0.1.146,NaN,move_down,-10.640,-10.640,-10.640,0.000,0.000,0.000
1605221657243112960,10.0.1.146,NaN,move_down,-10.660,-10.660,-10.660,0.000,0.000,0.000
1605221657447773952,10.0.1.146,NaN,move_down,-10.680,-10.680,-10.680,0.000,0.000,0.000
1605221657616241920,10.0.1.146,NaN,move_down,-10.700,-10.700,-10.700,0.000,0.000,0.000
1605221657971913984,10.0.1.146,NaN,move_down,-10.720,-10.720,-10.720,0.000,0.000,0.000
1605221658337593088,10.0.1.146,NaN,move_down,-10.740,-10.740,-10.740,0.000,0.000,0.000
1605221658671730944,10.0.1.146,NaN,move_down,-10.760,-10.760,-10.760,0.000,0.000,0.000
1605221659145754112,10.0.1.146,NaN,move_down,-10.780,-10.780,-10.780,0.000,0.000,0.000
1605221659336673024,10.0.1.146,NaN,move_down,-10.800,-10.800,-10.800,0.000,0.000,0.000
1605221659563437056,10.0.1.146,NaN,move_down,-10.820,-10.820,-10.820,0.000,0.000,0.000
1605221660325565184,10.0.1.146,NaN,move_down,-10.840,-10.840,-10.840,0.000,0.000,0.000
1605221660678608896,10.0.1.146,NaN,move_down,-10.860,-10.860,-10.860,0.000,0.000,0.000
1605221660868626176,10.0.1.146,NaN,move_down,-10.880,-10.880,-10.880,0.000,0.000,0.000
1605221661002497024,10.0.1.146,NaN,move_down,-10.900,-10.900,-10.900,0.000,0.000,0.000
1605221661338531072,10.0.1.146,NaN,move_down,-10.920,-10.920,-10.920,0.000,0.000,0.000
1605221661644129024,10.0.1.146,NaN,move_down,-10.940,-10.940,-10.940,0.000,0.000,0.000
1605221661936888832,10.0.1.146,NaN,move_down,-10.960,-10.960,-10.960,0.000,0.000,0.000
1605221662210098944,10.0.1.146,NaN,move_down,-10.980,-10.980,-10.980,0.000,0.000,0.000
1605221662401492992,10.0.1.146,NaN,move_down,-11.000,-11.000,-11.000,0.000,0.000,0.000
1605221662648178176,10.0.1.146,NaN,move_down,-11.020,-11.020,-11.020,0.000,0.000,0.000
1605221662794688000,10.0.1.146,NaN,move_down,-11.040,-11.040,-11.040,0.000,0.000,0.000
1605221663139860992,10.0.1.146,NaN,move_down,-11.060,-11.060,-11.060,0.000,0.000,0.000
1605221663606242816,10.0.1.146,NaN,move_down,-11.080,-11.080,-11.080,0.000,0.000,0.000
1605221663813169920,10.0.1.146,NaN,move_down,-11.100,-11.100,-11.100,0.000,0.000,0.000
1605221664142468096,10.0.1.146,NaN,move_down,-11.120,-11.120,-11.120,0.000,0.000,0.000
1605221664241428992,10.0.1.146,NaN,move_down,-11.140,-11.140,-11.140,0.000,0.000,0.000
1605221664465025024,10.0.1.146,NaN,move_down,-11.160,-11.160,-11.160,0.000,0.000,0.000
1605221664615032064,10.0.1.146,NaN,move_down,-11.180,-11.180,-11.180,0.000,0.000,0.000
1605221664781811968,10.0.1.146,NaN,move_down,-11.200,-11.200,-11.200,0.000,0.000,0.000
1605221664928980992,10.0.1.146,NaN,move_down,-11.220,-11.220,-11.220,0.000,0.000,0.000
1605221665036210176,10.0.1.146,NaN,move_down,-11.240,-11.240,-11.240,0.000,0.000,0.000
1605221665450330112,10.0.1.146,NaN,move_down,-11.260,-11.260,-11.260,0.000,0.000,0.000
1605221665627453952,10.0.1.146,NaN,move_down,-11.280,-11.280,-11.280,0.000,0.000,0.000
1605221665754512128,10.0.1.146,NaN,move_down,-11.300,-11.300,-11.300,0.000,0.000,0.000
1605221665937222912,10.0.1.146,NaN,move_down,-11.320,-11.320,-11.320,0.000,0.000,0.000
1605221666245430016,10.0.1.146,NaN,move_down,-11.340,-11.340,-11.340,0.000,0.000,0.000
1605221666523067904,10.0.1.146,NaN,move_down,-11.360,-11.360,-11.360,0.000,0.000,0.000
1605221666955555840,10.0.1.146,NaN,move_down,-11.380,-11.380,-11.380,0.000,0.000,0.000
1605221667240196864,10.0.1.146,NaN,move_down,-11.400,-11.400,-11.400,0.000,0.000,0.000
1605221667483723008,10.0.1.146,NaN,move_down,-11.420,-11.420,-11.420,0.000,0.000,0.000
1605221667886352128,10.0.1.146,NaN,move_down,-11.440,-11.440,-11.440,0.000,0.000,0.000
1605221668085655040,10.0.1.146,NaN,move_down,-11.460,-11.460,-11.460,0.000,0.000,0.000
1605221668158823936,10.0.1.146,NaN,move_down,-11.480,-11.480,-11.480,0.000,0.000,0.000
1605221668473920000,10.0.1.146,NaN,move_down,-11.500,-11.500,-11.500,0.000,0.000,0.000
1605221668716500992,10.0.1.146,NaN,move_down,-11.520,-11.520,-11.520,0.000,0.000,0.000
1605221668920517888,10.0.1.146,NaN,move_down,-11.540,-11.540,-11.540,0.000,0.000,0.000
1605221669096755968,10.0.1.146,NaN,move_down,-11.560,-11.560,-11.560,0.000,0.000,0.000
1605221669240232960,10.0.1.146,NaN,move_down,-11.580,-11.580,-11.580,0.000,0.000,0.000
1605221669562552064,10.0.1.146,NaN,move_down,-11.600,-11.600,-11.600,0.000,0.000,0.000
1605221669769315072,10.0.1.146,NaN,move_down,-11.620,-11.620,-11.620,0.000,0.000,0.000
1605221670021120000,10.0.1.146,NaN,move_down,-11.640,-11.640,-11.640,0.000,0.000,0.000
1605221670250147072,10.0.1.146,NaN,move_down,-11.660,-11.660,-11.660,0.000,0.000,0.000
1605221670761257984,10.0.1.146,NaN,move_down,-11.680,-11.680,-11.680,0.000,0.000,0.000
1605221671245254144,10.0.1.146,NaN,move_down,-11.700,-11.700,-11.700,0.000,0.000,0.000
1605221671656034048,10.0.1.146,NaN,move_down,-11.720,-11.720,-11.720,0.000,0.000,0.000
1605221671934689024,10.0.1.146,NaN,move_down,-11.740,-11.740,-11.740,0.000,0.000,0.000
1605221672138636032,10.0.1.146,NaN,move_down,-11.760,-11.760,-11.760,0.000,0.000,0.000
1605221672307683840,10.0.1.146,NaN,move_down,-11.780,-11.780,-11.780,0.000,0.000,0.000
1605221672525278208,10.0.1.146,NaN,move_down,-11.800,-11.800,-11.800,0.000,0.000,0.000
1605221672717214976,10.0.1.146,NaN,move_down,-11.820,-11.820,-11.820,0.000,0.000,0.000
1605221673267632128,10.0.1.146,NaN,move_down,-11.840,-11.840,-11.840,0.000,0.000,0.000
1605221673571579904,10.0.1.146,NaN,move_down,-11.860,-11.860,-11.860,0.000,0.000,0.000
1605221673725864960,10.0.1.146,NaN,move_down,-11.880,-11.880,-11.880,0.000,0.000,0.000
1605221673896496128,10.0.1.146,NaN,move_down,-11.900,-11.900,-11.900,0.000,0.000,0.000
1605221674104286976,10.0.1.146,NaN,move_down,-11.920,-11.920,-11.920,0.000,0.000,0.000
1605221674196476928,10.0.1.146,NaN,move_down,-11.940,-11.940,-11.940,0.000,0.000,0.000
1605221674970839040,10.0.1.146,NaN,move_down,-11.960,-11.960,-11.960,0.000,0.000,0.000
1605221675412007168,10.0.1.146,NaN,move_down,-11.980,-11.980,-11.980,0.000,0.000,0.000
1605221675704626176,10.0.1.146,NaN,move_down,-12.000,-12.000,-12.000,0.000,0.000,0.000
1605221675846725888,10.0.1.146,NaN,move_down,-12.020,-12.020,-12.020,0.000,0.000,0.000
1605221675919336960,10.0.1.146,NaN,move_down,-12.040,-12.040,-12.040,0.000,0.000,0.000
1605221676141432064,10.0.1.146,NaN,move_down,-12.060,-12.060,-12.060,0.000,0.000,0.000
1605221676494831104,10.0.1.146,NaN,move_down,-12.080,-12.080,-12.080,0.000,0.000,0.000
1605221677342601984,10.0.1.146,NaN,move_down,-12.100,-12.100,-12.100,0.000,0.000,0.000
1605221677520077824,10.0.1.146,NaN,move_down,-12.120,-12.120,-12.120,0.000,0.000,0.000
1605221678203056128,10.0.1.146,NaN,move_down,-12.140,-12.140,-12.140,0.000,0.000,0.000
1605221678730531840,10.0.1.146,NaN,move_down,-12.160,-12.160,-12.160,0.000,0.000,0.000
1605221678992306944,10.0.1.146,NaN,move_down,-12.180,-12.180,-12.180,0.000,0.000,0.000
1605221679137053952,10.0.1.146,NaN,move_down,-12.200,-12.200,-12.200,0.000,0.000,0.000
1605221679444701952,10.0.1.146,NaN,move_down,-12.220,-12.220,-12.220,0.000,0.000,0.000
1605221679636837120,10.0.1.146,NaN,move_down,-12.240,-12.240,-12.240,0.000,0.000,0.000
1605221680060972032,10.0.1.146,NaN,move_down,-12.260,-12.260,-12.260,0.000,0.000,0.000
1605221680312273152,10.0.1.146,NaN,move_down,-12.280,-12.280,-12.280,0.000,0.000,0.000
1605221680635232000,10.0.1.146,NaN,move_down,-12.300,-12.300,-12.300,0.000,0.000,0.000
1605221680929172992,10.0.1.146,NaN,move_down,-12.320,-12.320,-12.320,0.000,0.000,0.000
1605221681545707008,10.0.1.146,NaN,move_down,-12.340,-12.340,-12.340,0.000,0.000,0.000
1605221681799858944,10.0.1.146,NaN,move_down,-12.360,-12.360,-12.360,0.000,0.000,0.000
1605221682310628864,10.0.1.146,NaN,move_down,-12.380,-12.380,-12.380,0.000,0.000,0.000
1605221682572101120,10.0.1.146,NaN,move_down,-12.400,-12.400,-12.400,0.000,0.000,0.000
1605221682745630976,10.0.1.146,NaN,move_down,-12.420,-12.420,-12.420,0.000,0.000,0.000
1605221682870283008,10.0.1.146,NaN,move_down,-12.440,-12.440,-12.440,0.000,0.000,0.000
1605221683143866112,10.0.1.146,NaN,move_down,-12.460,-12.460,-12.460,0.000,0.000,0.000
1605221683258510080,10.0.1.146,NaN,move_down,-12.480,-12.480,-12.480,0.000,0.000,0.000
1605221683504113920,10.0.1.146,NaN,move_down,-12.500,-12.500,-12.500,0.000,0.000,0.000
1605221683674295040,10.0.1.146,NaN,move_down,-12.520,-12.520,-12.520,0.000,0.000,0.000
1605221684119245056,10.0.1.146,NaN,move_down,-12.540,-12.540,-12.540,0.000,0.000,0.000
1605221684578545152,10.0.1.146,NaN,move_down,-12.560,-12.560,-12.560,0.000,0.000,0.000
1605221684984275200,10.0.1.146,NaN,move_down,-12.580,-12.580,-12.580,0.000,0.000,0.000
1605221685587681024,10.0.1.146,NaN,move_down,-12.600,-12.600,-12.600,0.000,0.000,0.000
1605221685797505024,10.0.1.146,NaN,move_down,-12.620,-12.620,-12.620,0.000,0.000,0.000
1605221686307218176,10.0.1.146,NaN,move_down,-12.640,-12.640,-12.640,0.000,0.000,0.000
1605221686450653184,10.0.1.146,NaN,move_down,-12.660,-12.660,-12.660,0.000,0.000,0.000
1605221686723191040,10.0.1.146,NaN,move_down,-12.680,-12.680,-12.680,0.000,0.000,0.000
1605221686990778880,10.0.1.146,NaN,move_down,-12.700,-12.700,-12.700,0.000,0.000,0.000
1605221687116082944,10.0.1.146,NaN,move_down,-12.720,-12.720,-12.720,0.000,0.000,0.000
1605221687481848064,10.0.1.146,NaN,move_down,-12.740,-12.740,-12.740,0.000,0.000,0.000
1605221687937392896,10.0.1.146,NaN,move_down,-12.760,-12.760,-12.760,0.000,0.000,0.000
1605221688046626048,10.0.1.146,NaN,move_down,-12.780,-12.780,-12.780,0.000,0.000,0.000
1605221688822391040,10.0.1.146,NaN,move_down,-12.800,-12.800,-12.800,0.000,0.000,0.000
1605221689204175872,10.0.1.146,NaN,move_down,-12.820,-12.820,-12.820,0.000,0.000,0.000
1605221689385056000,10.0.1.146,NaN,move_down,-12.840,-12.840,-12.840,0.000,0.000,0.000
1605221689770405888,10.0.1.146,NaN,move_down,-12.860,-12.860,-12.860,0.000,0.000,0.000
1605221689979981824,10.0.1.146,NaN,move_down,-12.880,-12.880,-12.880,0.000,0.000,0.000
1605221690159246080,10.0.1.146,NaN,move_down,-12.900,-12.900,-12.900,0.000,0.000,0.000
1605221690863730944,10.0.1.146,NaN,move_down,-12.920,-12.920,-12.920,0.000,0.000,0.000
1605221691093561856,10.0.1.146,NaN,move_down,-12.940,-12.940,-12.940,0.000,0.000,0.000
1605221691197069056,10.0.1.146,NaN,move_down,-12.960,-12.960,-12.960,0.000,0.000,0.000
1605221691380250880,10.0.1.146,NaN,move_down,-12.980,-12.980,-12.980,0.000,0.000,0.000
1605221691871716096,10.0.1.146,NaN,move_down,-13.000,-13.000,-13.000,0.000,0.000,0.000
1605221692217367040,10.0.1.146,NaN,move_down,-13.020,-13.020,-13.020,0.000,0.000,0.000
1605221692453562112,10.0.1.146,NaN,move_down,-13.040,-13.040,-13.040,0.000,0.000,0.000
1605221692776686848,10.0.1.146,NaN,move_down,-13.060,-13.060,-13.060,0.000,0.000,0.000
1605221692944096000,10.0.1.146,NaN,move_down,-13.080,-13.080,-13.080,0.000,0.000,0.000
1605221693292176896,10.0.1.146,NaN,move_down,-13.100,-13.100,-13.100,0.000,0.000,0.000
1605221693399412992,10.0.1.146,NaN,move_down,-13.120,-13.120,-13.120,0.000,0.000,0.000
1605221693704936960,10.0.1.146,NaN,move_down,-13.140,-13.140,-13.140,0.000,0.000,0.000
1605221694155761920,10.0.1.146,NaN,move_down,-13.160,-13.160,-13.160,0.000,0.000,0.000
1605221694416064000,10.0.1.146,NaN,move_down,-13.180,-13.180,-13.180,0.000,0.000,0.000
1605221694599581952,10.0.1.146,NaN,move_down,-13.200,-13.200,-13.200,0.000,0.000,0.000
1605221696116003072,10.0.1.146,NaN,move_down,-13.220,-13.220,-13.220,0.000,0.000,0.000
1605221696696230912,10.0.1.146,NaN,move_down,-13.240,-13.240,-13.240,0.000,0.000,0.000
1605221697134521856,10.0.1.146,NaN,move_down,-13.260,-13.260,-13.260,0.000,0.000,0.000
1605221697394528000,10.0.1.146,NaN,move_down,-13.280,-13.280,-13.280,0.000,0.000,0.000
1605221697783493888,10.0.1.146,NaN,move_down,-13.300,-13.300,-13.300,0.000,0.000,0.000
1605221698063872000,10.0.1.146,NaN,move_down,-13.320,-13.320,-13.320,0.000,0.000,0.000
1605221698455319808,10.0.1.146,NaN,move_down,-13.340,-13.340,-13.340,0.000,0.000,0.000
1605221698731283968,10.0.1.146,NaN,move_down,-13.360,-13.360,-13.360,0.000,0.000,0.000
1605221699155842048,10.0.1.146,NaN,move_down,-13.380,-13.380,-13.380,0.000,0.000,0.000
1605221699418652160,10.0.1.146,NaN,move_down,-13.400,-13.400,-13.400,0.000,0.000,0.000
1605221699611433984,10.0.1.146,NaN,move_down,-13.420,-13.420,-13.420,0.000,0.000,0.000
1605221699784445952,10.0.1.146,NaN,move_down,-13.440,-13.440,-13.440,0.000,0.000,0.000
1605221700143629056,10.0.1.146,NaN,move_down,-13.460,-13.460,-13.460,0.000,0.000,0.000
1605221700300440064,10.0.1.146,NaN,move_down,-13.480,-13.480,-13.480,0.000,0.000,0.000
1605221700478660096,10.0.1.146,NaN,move_down,-13.500,-13.500,-13.500,0.000,0.000,0.000
1605221700669004032,10.0.1.146,NaN,move_down,-13.520,-13.520,-13.520,0.000,0.000,0.000
1605221701299058944,10.0.1.146,NaN,move_down,-13.540,-13.540,-13.540,0.000,0.000,0.000
1605221701428115968,10.0.1.146,NaN,move_down,-13.560,-13.560,-13.560,0.000,0.000,0.000
1605221701756612096,10.0.1.146,NaN,move_down,-13.580,-13.580,-13.580,0.000,0.000,0.000
1605221701923867904,10.0.1.146,NaN,move_down,-13.600,-13.600,-13.600,0.000,0.000,0.000
1605221702131875072,10.0.1.146,NaN,move_down,-13.620,-13.620,-13.620,0.000,0.000,0.000
1605221702444864000,10.0.1.146,NaN,move_down,-13.640,-13.640,-13.640,0.000,0.000,0.000
1605221702867867904,10.0.1.146,NaN,move_down,-13.660,-13.660,-13.660,0.000,0.000,0.000
1605221703091816960,10.0.1.146,NaN,move_down,-13.680,-13.680,-13.680,0.000,0.000,0.000
1605221703487977984,10.0.1.146,NaN,move_down,-13.700,-13.700,-13.700,0.000,0.000,0.000
1605221703911976192,10.0.1.146,NaN,move_down,-13.720,-13.720,-13.720,0.000,0.000,0.000
1605221704219856128,10.0.1.146,NaN,move_down,-13.740,-13.740,-13.740,0.000,0.000,0.000
1605221704465018112,10.0.1.146,NaN,move_down,-13.760,-13.760,-13.760,0.000,0.000,0.000
1605221704771645952,10.0.1.146,NaN,move_down,-13.780,-13.780,-13.780,0.000,0.000,0.000
1605221704980942080,10.0.1.146,NaN,move_down,-13.800,-13.800,-13.800,0.000,0.000,0.000
1605221705507386880,10.0.1.146,NaN,move_down,-13.820,-13.820,-13.820,0.000,0.000,0.000
1605221705781691136,10.0.1.146,NaN,move_down,-13.840,-13.840,-13.840,0.000,0.000,0.000
1605221706414468096,10.0.1.146,NaN,move_down,-13.860,-13.860,-13.860,0.000,0.000,0.000
1605221706620475904,10.0.1.146,NaN,move_down,-13.880,-13.880,-13.880,0.000,0.000,0.000
1605221707247257856,10.0.1.146,NaN,move_down,-13.900,-13.900,-13.900,0.000,0.000,0.000
1605221708118885120,10.0.1.146,NaN,move_down,-13.920,-13.920,-13.920,0.000,0.000,0.000
1605221708554455040,10.0.1.146,NaN,move_down,-13.940,-13.940,-13.940,0.000,0.000,0.000
1605221708927908864,10.0.1.146,NaN,move_down,-13.960,-13.960,-13.960,0.000,0.000,0.000
1605221709064406016,10.0.1.146,NaN,move_down,-13.980,-13.980,-13.980,0.000,0.000,0.000
1605221709247706880,10.0.1.146,NaN,move_down,-14.000,-14.000,-14.000,0.000,0.000,0.000
1605221709632349952,10.0.1.146,NaN,move_down,-14.020,-14.020,-14.020,0.000,0.000,0.000
1605221709981455104,10.0.1.146,NaN,move_down,-14.040,-14.040,-14.040,0.000,0.000,0.000
1605221710352188160,10.0.1.146,NaN,move_down,-14.060,-14.060,-14.060,0.000,0.000,0.000
1605221711208921856,10.0.1.146,NaN,move_down,-14.080,-14.080,-14.080,0.000,0.000,0.000
1605221711313234944,10.0.1.146,NaN,move_down,-14.100,-14.100,-14.100,0.000,0.000,0.000
1605221711520000000,10.0.1.146,NaN,move_down,-14.120,-14.120,-14.120,0.000,0.000,0.000
1605221712225766912,10.0.1.146,NaN,move_down,-14.140,-14.140,-14.140,0.000,0.000,0.000
1605221712525271808,10.0.1.146,NaN,move_down,-14.160,-14.160,-14.160,0.000,0.000,0.000
1605221713060261888,10.0.1.146,NaN,move_down,-14.180,-14.180,-14.180,0.000,0.000,0.000
1605221713283328000,10.0.1.146,NaN,move_down,-14.200,-14.200,-14.200,0.000,0.000,0.000
1605221713485990912,10.0.1.146,NaN,move_down,-14.220,-14.220,-14.220,0.000,0.000,0.000
1605221713845884928,10.0.1.146,NaN,move_down,-14.240,-14.240,-14.240,0.000,0.000,0.000
1605221713996412928,10.0.1.146,NaN,move_down,-14.260,-14.260,-14.260,0.000,0.000,0.000
1605221714518438144,10.0.1.146,NaN,move_down,-14.280,-14.280,-14.280,0.000,0.000,0.000
1605221714822413056,10.0.1.146,NaN,move_down,-14.300,-14.300,-14.300,0.000,0.000,0.000
1605221715007451136,10.0.1.146,NaN,move_down,-14.320,-14.320,-14.320,0.000,0.000,0.000
1605221715326162176,10.0.1.146,NaN,move_down,-14.340,-14.340,-14.340,0.000,0.000,0.000
1605221715465027072,10.0.1.146,NaN,move_down,-14.360,-14.360,-14.360,0.000,0.000,0.000
1605221715895785984,10.0.1.146,NaN,move_down,-14.380,-14.380,-14.380,0.000,0.000,0.000
1605221715977411072,10.0.1.146,NaN,move_down,-14.400,-14.400,-14.400,0.000,0.000,0.000
1605221716175898112,10.0.1.146,NaN,move_down,-14.420,-14.420,-14.420,0.000,0.000,0.000
1605221716335360000,10.0.1.146,NaN,move_down,-14.440,-14.440,-14.440,0.000,0.000,0.000
1605221716649264128,10.0.1.146,NaN,move_down,-14.460,-14.460,-14.460,0.000,0.000,0.000
1605221716890198016,10.0.1.146,NaN,move_down,-14.480,-14.480,-14.480,0.000,0.000,0.000
1605221717279098112,10.0.1.146,NaN,move_down,-14.500,-14.500,-14.500,0.000,0.000,0.000
1605221717634021888,10.0.1.146,NaN,move_down,-14.520,-14.520,-14.520,0.000,0.000,0.000
1605221717912329984,10.0.1.146,NaN,move_down,-14.540,-14.540,-14.540,0.000,0.000,0.000
1605221718443844096,10.0.1.146,NaN,move_down,-14.560,-14.560,-14.560,0.000,0.000,0.000
1605221718880253952,10.0.1.146,NaN,move_down,-14.580,-14.580,-14.580,0.000,0.000,0.000
1605221719426845952,10.0.1.146,NaN,move_down,-14.600,-14.600,-14.600,0.000,0.000,0.000
1605221719603303936,10.0.1.146,NaN,move_down,-14.620,-14.620,-14.620,0.000,0.000,0.000
1605221719841006080,10.0.1.146,NaN,move_down,-14.640,-14.640,-14.640,0.000,0.000,0.000
1605221720323863040,10.0.1.146,NaN,move_down,-14.660,-14.660,-14.660,0.000,0.000,0.000
1605221720636489984,10.0.1.146,NaN,move_down,-14.680,-14.680,-14.680,0.000,0.000,0.000
1605221720850290944,10.0.1.146,NaN,move_down,-14.700,-14.700,-14.700,0.000,0.000,0.000
1605221721067902976,10.0.1.146,NaN,move_down,-14.720,-14.720,-14.720,0.000,0.000,0.000
1605221721450382080,10.0.1.146,NaN,move_down,-14.740,-14.740,-14.740,0.000,0.000,0.000
1605221721699151104,10.0.1.146,NaN,move_down,-14.760,-14.760,-14.760,0.000,0.000,0.000
1605221722012765952,10.0.1.146,NaN,move_down,-14.780,-14.780,-14.780,0.000,0.000,0.000
1605221722407713792,10.0.1.146,NaN,move_down,-14.800,-14.800,-14.800,0.000,0.000,0.000
1605221722895747840,10.0.1.146,NaN,move_down,-14.820,-14.820,-14.820,0.000,0.000,0.000
1605221723355251968,10.0.1.146,NaN,move_down,-14.840,-14.840,-14.840,0.000,0.000,0.000
1605221723637632000,10.0.1.146,NaN,move_down,-14.860,-14.860,-14.860,0.000,0.000,0.000
1605221725049211904,10.0.1.146,NaN,move_down,-14.880,-14.880,-14.880,0.000,0.000,0.000
1605221725203248128,10.0.1.146,NaN,move_down,-14.900,-14.900,-14.900,0.000,0.000,0.000
1605221725421027840,10.0.1.146,NaN,move_down,-14.920,-14.920,-14.920,0.000,0.000,0.000
1605221725564224000,10.0.1.146,NaN,move_down,-14.940,-14.940,-14.940,0.000,0.000,0.000
1605221725864971008,10.0.1.146,NaN,move_down,-14.960,-14.960,-14.960,0.000,0.000,0.000
1605221726346429184,10.0.1.146,NaN,move_down,-14.980,-14.980,-14.980,0.000,0.000,0.000
1605221726981338112,10.0.1.146,NaN,move_down,-15.000,-15.000,-15.000,0.000,0.000,0.000
1605221727353293056,10.0.1.146,NaN,move_down,-15.020,-15.020,-15.020,0.000,0.000,0.000
1605221727863672064,10.0.1.146,NaN,move_down,-15.040,-15.040,-15.040,0.000,0.000,0.000
1605221728289184000,10.0.1.146,NaN,move_down,-15.060,-15.060,-15.060,0.000,0.000,0.000
1605221728458292992,10.0.1.146,NaN,move_down,-15.080,-15.080,-15.080,0.000,0.000,0.000
1605221728715147008,10.0.1.146,NaN,move_down,-15.100,-15.100,-15.100,0.000,0.000,0.000
1605221729032092928,10.0.1.146,NaN,move_down,-15.120,-15.120,-15.120,0.000,0.000,0.000
1605221730185026816,10.0.1.146,NaN,move_down,-15.140,-15.140,-15.140,0.000,0.000,0.000
1605221730417573888,10.0.1.146,NaN,move_down,-15.160,-15.160,-15.160,0.000,0.000,0.000
1605221730702660096,10.0.1.146,NaN,move_down,-15.180,-15.180,-15.180,0.000,0.000,0.000
1605221730869780992,10.0.1.146,NaN,move_down,-15.200,-15.200,-15.200,0.000,0.000,0.000
1605221731003277056,10.0.1.146,NaN,move_down,-15.220,-15.220,-15.220,0.000,0.000,0.000
1605221731161504000,10.0.1.146,NaN,move_down,-15.240,-15.240,-15.240,0.000,0.000,0.000
1605221731475735808,10.0.1.146,NaN,move_down,-15.260,-15.260,-15.260,0.000,0.000,0.000
1605221731726612992,10.0.1.146,NaN,move_down,-15.280,-15.280,-15.280,0.000,0.000,0.000
1605221732076845824,10.0.1.146,NaN,move_down,-15.300,-15.300,-15.300,0.000,0.000,0.000
1605221732400084992,10.0.1.146,NaN,move_down,-15.320,-15.320,-15.320,0.000,0.000,0.000
1605221733693715968,10.0.1.146,NaN,move_down,-15.340,-15.340,-15.340,0.000,0.000,0.000
1605221733779886080,10.0.1.146,NaN,move_down,-15.360,-15.360,-15.360,0.000,0.000,0.000
1605221733984043008,10.0.1.146,NaN,move_down,-15.380,-15.380,-15.380,0.000,0.000,0.000
1605221734506653184,10.0.1.146,NaN,move_down,-15.400,-15.400,-15.400,0.000,0.000,0.000
1605221734690812160,10.0.1.146,NaN,move_down,-15.420,-15.420,-15.420,0.000,0.000,0.000
1605221735006966016,10.0.1.146,NaN,move_down,-15.440,-15.440,-15.440,0.000,0.000,0.000
1605221735465787904,10.0.1.146,NaN,move_down,-15.460,-15.460,-15.460,0.000,0.000,0.000
1605221735827984128,10.0.1.146,NaN,move_down,-15.480,-15.480,-15.480,0.000,0.000,0.000
1605221736238929152,10.0.1.146,NaN,move_down,-15.500,-15.500,-15.500,0.000,0.000,0.000
1605221736473964032,10.0.1.146,NaN,move_down,-15.520,-15.520,-15.520,0.000,0.000,0.000
1605221736687892992,10.0.1.146,NaN,move_down,-15.540,-15.540,-15.540,0.000,0.000,0.000
1605221737180030208,10.0.1.146,NaN,move_down,-15.560,-15.560,-15.560,0.000,0.000,0.000
1605221737468491008,10.0.1.146,NaN,move_down,-15.580,-15.580,-15.580,0.000,0.000,0.000
1605221737749213952,10.0.1.146,NaN,move_down,-15.600,-15.600,-15.600,0.000,0.000,0.000
1605221737950908928,10.0.1.146,NaN,move_down,-15.620,-15.620,-15.620,0.000,0.000,0.000
1605221738256387840,10.0.1.146,NaN,move_down,-15.640,-15.640,-15.640,0.000,0.000,0.000
1605221738509969920,10.0.1.146,NaN,move_down,-15.660,-15.660,-15.660,0.000,0.000,0.000
1605221738716175104,10.0.1.146,NaN,move_down,-15.680,-15.680,-15.680,0.000,0.000,0.000
1605221739200460800,10.0.1.146,NaN,move_down,-15.700,-15.700,-15.700,0.000,0.000,0.000
1605221740203210240,10.0.1.146,NaN,move_down,-15.720,-15.720,-15.720,0.000,0.000,0.000
1605221740388293120,10.0.1.146,NaN,move_down,-15.740,-15.740,-15.740,0.000,0.000,0.000
1605221740670128128,10.0.1.146,NaN,move_down,-15.760,-15.760,-15.760,0.000,0.000,0.000
1605221741403886080,10.0.1.146,NaN,move_down,-15.780,-15.780,-15.780,0.000,0.000,0.000
1605221741593035008,10.0.1.146,NaN,move_down,-15.800,-15.800,-15.800,0.000,0.000,0.000
1605221742167862784,10.0.1.146,NaN,move_down,-15.820,-15.820,-15.820,0.000,0.000,0.000
1605221742538736128,10.0.1.146,NaN,move_down,-15.840,-15.840,-15.840,0.000,0.000,0.000
1605221743079000064,10.0.1.146,NaN,move_down,-15.860,-15.860,-15.860,0.000,0.000,0.000
1605221743573638912,10.0.1.146,NaN,move_down,-15.880,-15.880,-15.880,0.000,0.000,0.000
1605221744480331776,10.0.1.146,NaN,move_down,-15.900,-15.900,-15.900,0.000,0.000,0.000
1605221744746592000,10.0.1.146,NaN,move_down,-15.920,-15.920,-15.920,0.000,0.000,0.000
1605221745068173824,10.0.1.146,NaN,move_down,-15.940,-15.940,-15.940,0.000,0.000,0.000
1605221745297591040,10.0.1.146,NaN,move_down,-15.960,-15.960,-15.960,0.000,0.000,0.000
1605221745638691072,10.0.1.146,NaN,move_down,-15.980,-15.980,-15.980,0.000,0.000,0.000
1605221746327598080,10.0.1.146,NaN,move_down,-16.000,-16.000,-16.000,0.000,0.000,0.000
1605221746569732864,10.0.1.146,NaN,move_down,-16.020,-16.020,-16.020,0.000,0.000,0.000
1605221746956039936,10.0.1.146,NaN,move_down,-16.040,-16.040,-16.040,0.000,0.000,0.000
1605221747424932864,10.0.1.146,NaN,move_down,-16.060,-16.060,-16.060,0.000,0.000,0.000
1605221747859235072,10.0.1.146,NaN,move_down,-16.080,-16.080,-16.080,0.000,0.000,0.000
1605221748124428032,10.0.1.146,NaN,move_down,-16.100,-16.100,-16.100,0.000,0.000,0.000
1605221748300549120,10.0.1.146,NaN,move_down,-16.120,-16.120,-16.120,0.000,0.000,0.000
1605221748788207104,10.0.1.146,NaN,move_down,-16.140,-16.140,-16.140,0.000,0.000,0.000
1605221749147741952,10.0.1.146,NaN,move_down,-16.160,-16.160,-16.160,0.000,0.000,0.000
1605221749366984960,10.0.1.146,NaN,move_down,-16.180,-16.180,-16.180,0.000,0.000,0.000
1605221749594855936,10.0.1.146,NaN,move_down,-16.200,-16.200,-16.200,0.000,0.000,0.000
1605221749816491008,10.0.1.146,NaN,move_down,-16.220,-16.220,-16.220,0.000,0.000,0.000
1605221750237509888,10.0.1.146,NaN,move_down,-16.240,-16.240,-16.240,0.000,0.000,0.000
1605221750472012032,10.0.1.146,NaN,move_down,-16.260,-16.260,-16.260,0.000,0.000,0.000
1605221750652260096,10.0.1.146,NaN,move_down,-16.280,-16.280,-16.280,0.000,0.000,0.000
1605221750905592832,10.0.1.146,NaN,move_down,-16.300,-16.300,-16.300,0.000,0.000,0.000
1605221751077660928,10.0.1.146,NaN,move_down,-16.320,-16.320,-16.320,0.000,0.000,0.000
1605221751313940992,10.0.1.146,NaN,move_down,-16.340,-16.340,-16.340,0.000,0.000,0.000
1605221751719198976,10.0.1.146,NaN,move_down,-16.360,-16.360,-16.360,0.000,0.000,0.000
1605221752387965952,10.0.1.146,NaN,move_down,-16.380,-16.380,-16.380,0.000,0.000,0.000
1605221753147585024,10.0.1.146,NaN,move_down,-16.400,-16.400,-16.400,0.000,0.000,0.000
1605221753505929984,10.0.1.146,NaN,move_down,-16.420,-16.420,-16.420,0.000,0.000,0.000
1605221754299964928,10.0.1.146,NaN,move_down,-16.440,-16.440,-16.440,0.000,0.000,0.000
1605221754683545088,10.0.1.146,NaN,move_down,-16.460,-16.460,-16.460,0.000,0.000,0.000
1605221755066994944,10.0.1.146,NaN,move_down,-16.480,-16.480,-16.480,0.000,0.000,0.000
1605221755484484864,10.0.1.146,NaN,move_down,-16.500,-16.500,-16.500,0.000,0.000,0.000
1605221755714787840,10.0.1.146,NaN,move_down,-16.520,-16.520,-16.520,0.000,0.000,0.000
1605221756020441088,10.0.1.146,NaN,move_down,-16.540,-16.540,-16.540,0.000,0.000,0.000
1605221756497155072,10.0.1.146,NaN,move_down,-16.560,-16.560,-16.560,0.000,0.000,0.000
1605221756923915008,10.0.1.146,NaN,move_down,-16.580,-16.580,-16.580,0.000,0.000,0.000
1605221757383972864,10.0.1.146,NaN,move_down,-16.600,-16.600,-16.600,0.000,0.000,0.000
1605221758146363136,10.0.1.146,NaN,move_down,-16.620,-16.620,-16.620,0.000,0.000,0.000
1605221758414756096,10.0.1.146,NaN,move_down,-16.640,-16.640,-16.640,0.000,0.000,0.000
1605221758851394816,10.0.1.146,NaN,move_down,-16.660,-16.660,-16.660,0.000,0.000,0.000
1605221759302791168,10.0.1.146,NaN,move_down,-16.680,-16.680,-16.680,0.000,0.000,0.000
1605221759431795968,10.0.1.146,NaN,move_down,-16.700,-16.700,-16.700,0.000,0.000,0.000
1605221759562896128,10.0.1.146,NaN,move_down,-16.720,-16.720,-16.720,0.000,0.000,0.000
1605221760023782912,10.0.1.146,NaN,move_down,-16.740,-16.740,-16.740,0.000,0.000,0.000
1605221760277513984,10.0.1.146,NaN,move_down,-16.760,-16.760,-16.760,0.000,0.000,0.000
1605221760423930880,10.0.1.146,NaN,move_down,-16.780,-16.780,-16.780,0.000,0.000,0.000
1605221760678638080,10.0.1.146,NaN,move_down,-16.800,-16.800,-16.800,0.000,0.000,0.000
1605221760912813056,10.0.1.146,NaN,move_down,-16.820,-16.820,-16.820,0.000,0.000,0.000
1605221761332125952,10.0.1.146,NaN,move_down,-16.840,-16.840,-16.840,0.000,0.000,0.000
1605221761635009024,10.0.1.146,NaN,move_down,-16.860,-16.860,-16.860,0.000,0.000,0.000
1605221761946544896,10.0.1.146,NaN,move_down,-16.880,-16.880,-16.880,0.000,0.000,0.000
1605221762219248128,10.0.1.146,NaN,move_down,-16.900,-16.900,-16.900,0.000,0.000,0.000
1605221762404962048,10.0.1.146,NaN,move_down,-16.920,-16.920,-16.920,0.000,0.000,0.000
1605221762619997952,10.0.1.146,NaN,move_down,-16.940,-16.940,-16.940,0.000,0.000,0.000
1605221762928997120,10.0.1.146,NaN,move_down,-16.960,-16.960,-16.960,0.000,0.000,0.000
1605221763065948928,10.0.1.146,NaN,move_down,-16.980,-16.980,-16.980,0.000,0.000,0.000
1605221763230596096,10.0.1.146,NaN,move_down,-17.000,-17.000,-17.000,0.000,0.000,0.000
1605221763419744000,10.0.1.146,NaN,move_down,-17.020,-17.020,-17.020,0.000,0.000,0.000
1605221763734802944,10.0.1.146,NaN,move_down,-17.040,-17.040,-17.040,0.000,0.000,0.000
1605221763919400960,10.0.1.146,NaN,move_down,-17.060,-17.060,-17.060,0.000,0.000,0.000
1605221764459388928,10.0.1.146,NaN,move_down,-17.080,-17.080,-17.080,0.000,0.000,0.000
1605221765015698944,10.0.1.146,NaN,move_down,-17.100,-17.100,-17.100,0.000,0.000,0.000
1605221765328388864,10.0.1.146,NaN,move_down,-17.120,-17.120,-17.120,0.000,0.000,0.000
1605221765427761152,10.0.1.146,NaN,move_down,-17.140,-17.140,-17.140,0.000,0.000,0.000
1605221765588176896,10.0.1.146,NaN,move_down,-17.160,-17.160,-17.160,0.000,0.000,0.000
1605221765656833792,10.0.1.146,NaN,move_down,-17.180,-17.180,-17.180,0.000,0.000,0.000
1605221765841854208,10.0.1.146,NaN,move_down,-17.200,-17.200,-17.200,0.000,0.000,0.000
1605221766173903104,10.0.1.146,NaN,move_down,-17.220,-17.220,-17.220,0.000,0.000,0.000
1605221766542627072,10.0.1.146,NaN,move_down,-17.240,-17.240,-17.240,0.000,0.000,0.000
1605221766948576000,10.0.1.146,NaN,move_down,-17.260,-17.260,-17.260,0.000,0.000,0.000
1605221767150393856,10.0.1.146,NaN,move_down,-17.280,-17.280,-17.280,0.000,0.000,0.000
1605221767558177024,10.0.1.146,NaN,move_down,-17.300,-17.300,-17.300,0.000,0.000,0.000
1605221767836711936,10.0.1.146,NaN,move_down,-17.320,-17.320,-17.320,0.000,0.000,0.000
1605221768058118144,10.0.1.146,NaN,move_down,-17.340,-17.340,-17.340,0.000,0.000,0.000
1605221768188108032,10.0.1.146,NaN,move_down,-17.360,-17.360,-17.360,0.000,0.000,0.000
1605221768430430976,10.0.1.146,NaN,move_down,-17.380,-17.380,-17.380,0.000,0.000,0.000
1605221769271260928,10.0.1.146,NaN,move_down,-17.400,-17.400,-17.400,0.000,0.000,0.000
1605221769572544000,10.0.1.146,NaN,move_down,-17.420,-17.420,-17.420,0.000,0.000,0.000
1605221770002237184,10.0.1.146,NaN,move_down,-17.440,-17.440,-17.440,0.000,0.000,0.000
1605221770180685056,10.0.1.146,NaN,move_down,-17.460,-17.460,-17.460,0.000,0.000,0.000
1605221770443939072,10.0.1.146,NaN,move_down,-17.480,-17.480,-17.480,0.000,0.000,0.000
1605221770659707136,10.0.1.146,NaN,move_down,-17.500,-17.500,-17.500,0.000,0.000,0.000
1605221770938872064,10.0.1.146,NaN,move_down,-17.520,-17.520,-17.520,0.000,0.000,0.000
1605221771314249984,10.0.1.146,NaN,move_down,-17.540,-17.540,-17.540,0.000,0.000,0.000
1605221771523968000,10.0.1.146,NaN,move_down,-17.560,-17.560,-17.560,0.000,0.000,0.000
1605221771814254080,10.0.1.146,NaN,move_down,-17.580,-17.580,-17.580,0.000,0.000,0.000
1605221771982897152,10.0.1.146,NaN,move_down,-17.600,-17.600,-17.600,0.000,0.000,0.000
1605221772179790848,10.0.1.146,NaN,move_down,-17.620,-17.620,-17.620,0.000,0.000,0.000
