milangroshev/digital-twin-scalability/logs/run5-3600s-nan/10.0.1.137.csv
timestamp,node,latency,action,joint_1,joint_2,joint_3,joint_4,joint_5,joint_6
1605209885011614208,10.0.1.137,NaN,,0.000,0.000,0.000,0.000,0.000,0.000
1605209887017350912,10.0.1.137,2005,,0.000,0.000,0.000,0.000,0.000,0.000
1605209890112133888,10.0.1.137,1092,move_down,-0.020,-0.020,-0.020,0.000,0.000,0.000
1605209891783898112,10.0.1.137,546,move_down,-0.040,-0.040,-0.040,0.000,0.000,0.000
1605209893337862912,10.0.1.137,516,move_down,-0.060,-0.060,-0.060,0.000,0.000,0.000
1605209895163398912,10.0.1.137,692,move_down,-0.080,-0.080,-0.080,0.000,0.000,0.000
1605209896825118976,10.0.1.137,557,move_down,-0.100,-0.100,-0.100,0.000,0.000,0.000
1605209898393222144,10.0.1.137,534,move_down,-0.120,-0.120,-0.120,0.000,0.000,0.000
1605209900130804992,10.0.1.137,659,move_down,-0.140,-0.140,-0.140,0.000,0.000,0.000
1605209901802829056,10.0.1.137,620,move_down,-0.160,-0.160,-0.160,0.000,0.000,0.000
1605209903419655168,10.0.1.137,521,move_down,-0.180,-0.180,-0.180,0.000,0.000,0.000
1605209905353754880,10.0.1.137,858,move_down,-0.200,-0.200,-0.200,0.000,0.000,0.000
1605209907012090880,10.0.1.137,568,move_down,-0.220,-0.220,-0.220,0.000,0.000,0.000
1605209908731112960,10.0.1.137,633,move_down,-0.240,-0.240,-0.240,0.000,0.000,0.000
1605209910417939968,10.0.1.137,597,move_down,-0.260,-0.260,-0.260,0.000,0.000,0.000
1605209912104721920,10.0.1.137,622,move_down,-0.280,-0.280,-0.280,0.000,0.000,0.000
1605209914127991808,10.0.1.137,737,move_down,-0.300,-0.300,-0.300,0.000,0.000,0.000
1605209915627106816,10.0.1.137,497,move_down,-0.320,-0.320,-0.320,0.000,0.000,0.000
1605209917205990144,10.0.1.137,532,move_down,-0.340,-0.340,-0.340,0.000,0.000,0.000
1605209918863544064,10.0.1.137,552,move_down,-0.360,-0.360,-0.360,0.000,0.000,0.000
1605209920553718016,10.0.1.137,557,move_down,-0.380,-0.380,-0.380,0.000,0.000,0.000
1605209922311737088,10.0.1.137,651,move_down,-0.400,-0.400,-0.400,0.000,0.000,0.000
1605209923907355136,10.0.1.137,561,move_down,-0.420,-0.420,-0.420,0.000,0.000,0.000
1605209925557323008,10.0.1.137,528,move_down,-0.440,-0.440,-0.440,0.000,0.000,0.000
1605209927407543040,10.0.1.137,676,move_down,-0.460,-0.460,-0.460,0.000,0.000,0.000
1605209928985806848,10.0.1.137,503,move_down,-0.480,-0.480,-0.480,0.000,0.000,0.000
1605209930708336128,10.0.1.137,640,move_down,-0.500,-0.500,-0.500,0.000,0.000,0.000
1605209932428018944,10.0.1.137,632,move_down,-0.520,-0.520,-0.520,0.000,0.000,0.000
1605209934095010048,10.0.1.137,560,move_down,-0.540,-0.540,-0.540,0.000,0.000,0.000
1605209935664609024,10.0.1.137,514,move_down,-0.560,-0.560,-0.560,0.000,0.000,0.000
1605209937245625856,10.0.1.137,529,move_down,-0.580,-0.580,-0.580,0.000,0.000,0.000
1605209938340538880,10.0.1.137,58,pick,-0.590,-0.590,-0.590,0.000,0.000,0.000
1605209939339566080,10.0.1.137,55,pick,-0.600,-0.600,-0.600,0.000,0.000,0.000
1605209940333755904,10.0.1.137,46,pick,-0.610,-0.610,-0.610,0.000,0.000,0.000
1605209942295542016,10.0.1.137,NaN,pick,-0.630,-0.630,-0.630,0.000,0.000,0.000
1605209942335403008,10.0.1.137,39,pick,-0.630,-0.630,-0.630,0.000,0.000,0.000
1605209943340559872,10.0.1.137,42,pick,-0.640,-0.640,-0.640,0.000,0.000,0.000
1605209944346734080,10.0.1.137,47,pick,-0.650,-0.650,-0.650,0.000,0.000,0.000
1605209945364459008,10.0.1.137,63,pick,-0.660,-0.660,-0.660,0.000,0.000,0.000
1605209946374361088,10.0.1.137,65,pick,-0.670,-0.670,-0.670,0.000,0.000,0.000
1605209947358679040,10.0.1.137,48,pick,-0.680,-0.680,-0.680,0.000,0.000,0.000
1605209949317153024,10.0.1.137,NaN,pick,-0.700,-0.700,-0.700,0.000,0.000,0.000
1605209949380728064,10.0.1.137,63,pick,-0.700,-0.700,-0.700,0.000,0.000,0.000
1605209950358892032,10.0.1.137,34,pick,-0.710,-0.710,-0.710,0.000,0.000,0.000
1605209951383380992,10.0.1.137,54,pick,-0.720,-0.720,-0.720,0.000,0.000,0.000
1605209952379885824,10.0.1.137,48,pick,-0.730,-0.730,-0.730,0.000,0.000,0.000
1605209953378467072,10.0.1.137,41,pick,-0.740,-0.740,-0.740,0.000,0.000,0.000
1605209954433708032,10.0.1.137,94,pick,-0.750,-0.750,-0.750,0.000,0.000,0.000
1605209955415173888,10.0.1.137,74,pick,-0.760,-0.760,-0.760,0.000,0.000,0.000
1605209956410329088,10.0.1.137,67,pick,-0.770,-0.770,-0.770,0.000,0.000,0.000
1605209957897623040,10.0.1.137,540,move_up,-0.750,-0.750,-0.750,0.000,0.000,0.000
1605209959615547904,10.0.1.137,619,move_up,-0.730,-0.730,-0.730,0.000,0.000,0.000
1605209961324551936,10.0.1.137,590,move_up,-0.710,-0.710,-0.710,0.000,0.000,0.000
1605209962980633088,10.0.1.137,566,move_up,-0.690,-0.690,-0.690,0.000,0.000,0.000
1605209964628617984,10.0.1.137,485,move_up,-0.670,-0.670,-0.670,0.000,0.000,0.000
1605209966166996992,10.0.1.137,507,move_up,-0.650,-0.650,-0.650,0.000,0.000,0.000
1605209967928404992,10.0.1.137,647,move_up,-0.630,-0.630,-0.630,0.000,0.000,0.000
1605209969759176960,10.0.1.137,677,move_up,-0.610,-0.610,-0.610,0.000,0.000,0.000
1605209971470618112,10.0.1.137,505,move_up,-0.590,-0.590,-0.590,0.000,0.000,0.000
1605209973228707072,10.0.1.137,553,move_up,-0.570,-0.570,-0.570,0.000,0.000,0.000
1605209974855223040,10.0.1.137,520,move_up,-0.550,-0.550,-0.550,0.000,0.000,0.000
1605209976707747840,10.0.1.137,783,move_up,-0.530,-0.530,-0.530,0.000,0.000,0.000
1605209978346370048,10.0.1.137,608,move_up,-0.510,-0.510,-0.510,0.000,0.000,0.000
1605209980018142976,10.0.1.137,582,move_up,-0.490,-0.490,-0.490,0.000,0.000,0.000
1605209981876055040,10.0.1.137,639,move_up,-0.470,-0.470,-0.470,0.000,0.000,0.000
1605209983477341952,10.0.1.137,562,move_up,-0.450,-0.450,-0.450,0.000,0.000,0.000
1605209985228029952,10.0.1.137,621,move_up,-0.430,-0.430,-0.430,0.000,0.000,0.000
1605209986957048064,10.0.1.137,627,move_up,-0.410,-0.410,-0.410,0.000,0.000,0.000
1605209988616656128,10.0.1.137,546,move_up,-0.390,-0.390,-0.390,0.000,0.000,0.000
1605209990260751872,10.0.1.137,614,move_up,-0.370,-0.370,-0.370,0.000,0.000,0.000
1605209991834093056,10.0.1.137,492,move_up,-0.350,-0.350,-0.350,0.000,0.000,0.000
1605209993594572032,10.0.1.137,653,move_up,-0.330,-0.330,-0.330,0.000,0.000,0.000
1605209995171793920,10.0.1.137,520,move_up,-0.310,-0.310,-0.310,0.000,0.000,0.000
1605209996727941888,10.0.1.137,530,move_up,-0.290,-0.290,-0.290,0.000,0.000,0.000
1605209998370307840,10.0.1.137,573,move_up,-0.270,-0.270,-0.270,0.000,0.000,0.000
1605210000008999936,10.0.1.137,605,move_up,-0.250,-0.250,-0.250,0.000,0.000,0.000
1605210001644325888,10.0.1.137,554,move_up,-0.230,-0.230,-0.230,0.000,0.000,0.000
1605210003226377984,10.0.1.137,532,move_up,-0.210,-0.210,-0.210,0.000,0.000,0.000
1605210004991446016,10.0.1.137,656,move_up,-0.190,-0.190,-0.190,0.000,0.000,0.000
1605210006095872000,10.0.1.137,52,place,-0.180,-0.180,-0.180,0.000,0.000,0.000
1605210007078754048,10.0.1.137,32,place,-0.170,-0.170,-0.170,0.000,0.000,0.000
1605210008094160128,10.0.1.137,43,place,-0.160,-0.160,-0.160,0.000,0.000,0.000
1605210009101964032,10.0.1.137,50,place,-0.150,-0.150,-0.150,0.000,0.000,0.000
1605210010122953984,10.0.1.137,68,place,-0.140,-0.140,-0.140,0.000,0.000,0.000
1605210011118153216,10.0.1.137,62,place,-0.130,-0.130,-0.130,0.000,0.000,0.000
1605210013057709056,10.0.1.137,NaN,place,-0.110,-0.110,-0.110,0.000,0.000,0.000
1605210013103751936,10.0.1.137,45,place,-0.110,-0.110,-0.110,0.000,0.000,0.000
1605210014096976128,10.0.1.137,38,place,-0.100,-0.100,-0.100,0.000,0.000,0.000
1605210016060667904,10.0.1.137,NaN,place,-0.080,-0.080,-0.080,0.000,0.000,0.000
1605210016114116864,10.0.1.137,53,place,-0.080,-0.080,-0.080,0.000,0.000,0.000
1605210018066369024,10.0.1.137,NaN,place,-0.060,-0.060,-0.060,0.000,0.000,0.000
1605210019067543040,10.0.1.137,NaN,place,-0.050,-0.050,-0.050,0.000,0.000,0.000
1605210020067843072,10.0.1.137,NaN,place,-0.040,-0.040,-0.040,0.000,0.000,0.000
1605210020138829824,10.0.1.137,70,place,-0.040,-0.040,-0.040,0.000,0.000,0.000
1605210021125530112,10.0.1.137,55,place,-0.030,-0.030,-0.030,0.000,0.000,0.000
1605210022111809024,10.0.1.137,40,place,-0.020,-0.020,-0.020,0.000,0.000,0.000
1605210023127737088,10.0.1.137,55,place,-0.010,-0.010,-0.010,0.000,0.000,0.000
1605210024178066944,10.0.1.137,96,place,0.000,0.000,0.000,0.000,0.000,0.000
1605210025831016960,10.0.1.137,742,move_down,-0.020,-0.020,-0.020,0.000,0.000,0.000
1605210027395261952,10.0.1.137,535,move_down,-0.040,-0.040,-0.040,0.000,0.000,0.000
1605210029016187904,10.0.1.137,509,move_down,-0.060,-0.060,-0.060,0.000,0.000,0.000
1605210030834321920,10.0.1.137,701,move_down,-0.080,-0.080,-0.080,0.000,0.000,0.000
1605210032489826048,10.0.1.137,516,move_down,-0.100,-0.100,-0.100,0.000,0.000,0.000
1605210034059561984,10.0.1.137,509,move_down,-0.120,-0.120,-0.120,0.000,0.000,0.000
1605210035713522944,10.0.1.137,596,move_down,-0.140,-0.140,-0.140,0.000,0.000,0.000
1605210037346862080,10.0.1.137,591,move_down,-0.160,-0.160,-0.160,0.000,0.000,0.000
1605210039017111040,10.0.1.137,561,move_down,-0.180,-0.180,-0.180,0.000,0.000,0.000
1605210040607737088,10.0.1.137,512,move_down,-0.200,-0.200,-0.200,0.000,0.000,0.000
1605210042147677952,10.0.1.137,479,move_down,-0.220,-0.220,-0.220,0.000,0.000,0.000
1605210043686168064,10.0.1.137,467,move_down,-0.240,-0.240,-0.240,0.000,0.000,0.000
1605210045461783808,10.0.1.137,726,move_down,-0.260,-0.260,-0.260,0.000,0.000,0.000
1605210047337349888,10.0.1.137,722,move_down,-0.280,-0.280,-0.280,0.000,0.000,0.000
1605210048880568064,10.0.1.137,529,move_down,-0.300,-0.300,-0.300,0.000,0.000,0.000
1605210050723949824,10.0.1.137,636,move_down,-0.320,-0.320,-0.320,0.000,0.000,0.000
1605210052386564864,10.0.1.137,600,move_down,-0.340,-0.340,-0.340,0.000,0.000,0.000
1605210054056526848,10.0.1.137,597,move_down,-0.360,-0.360,-0.360,0.000,0.000,0.000
1605210055731417856,10.0.1.137,642,move_down,-0.380,-0.380,-0.380,0.000,0.000,0.000
1605210057418975232,10.0.1.137,578,move_down,-0.400,-0.400,-0.400,0.000,0.000,0.000
1605210059101963008,10.0.1.137,672,move_down,-0.420,-0.420,-0.420,0.000,0.000,0.000
1605210060903453184,10.0.1.137,661,move_down,-0.440,-0.440,-0.440,0.000,0.000,0.000
1605210062536195072,10.0.1.137,505,move_down,-0.460,-0.460,-0.460,0.000,0.000,0.000
1605210064113629184,10.0.1.137,496,move_down,-0.480,-0.480,-0.480,0.000,0.000,0.000
1605210065712023040,10.0.1.137,546,move_down,-0.500,-0.500,-0.500,0.000,0.000,0.000
1605210067330727936,10.0.1.137,529,move_down,-0.520,-0.520,-0.520,0.000,0.000,0.000
1605210069110307840,10.0.1.137,741,move_down,-0.540,-0.540,-0.540,0.000,0.000,0.000
1605210070711705856,10.0.1.137,542,move_down,-0.560,-0.560,-0.560,0.000,0.000,0.000
1605210072429303040,10.0.1.137,667,move_down,-0.580,-0.580,-0.580,0.000,0.000,0.000
1605210073533981952,10.0.1.137,54,pick,-0.590,-0.590,-0.590,0.000,0.000,0.000
1605210074528486912,10.0.1.137,47,pick,-0.600,-0.600,-0.600,0.000,0.000,0.000
1605210075533910016,10.0.1.137,48,pick,-0.610,-0.610,-0.610,0.000,0.000,0.000
1605210076533438976,10.0.1.137,47,pick,-0.620,-0.620,-0.620,0.000,0.000,0.000
1605210077543126016,10.0.1.137,54,pick,-0.630,-0.630,-0.630,0.000,0.000,0.000
1605210078552491008,10.0.1.137,44,pick,-0.640,-0.640,-0.640,0.000,0.000,0.000
1605210079557974016,10.0.1.137,46,pick,-0.650,-0.650,-0.650,0.000,0.000,0.000
1605210080560996096,10.0.1.137,49,pick,-0.660,-0.660,-0.660,0.000,0.000,0.000
1605210081567599104,10.0.1.137,53,pick,-0.670,-0.670,-0.670,0.000,0.000,0.000
1605210083531287808,10.0.1.137,NaN,pick,-0.690,-0.690,-0.690,0.000,0.000,0.000
1605210083608720896,10.0.1.137,77,pick,-0.690,-0.690,-0.690,0.000,0.000,0.000
1605210084576188928,10.0.1.137,43,pick,-0.700,-0.700,-0.700,0.000,0.000,0.000
1605210086536448000,10.0.1.137,NaN,pick,-0.720,-0.720,-0.720,0.000,0.000,0.000
1605210086582795008,10.0.1.137,46,pick,-0.720,-0.720,-0.720,0.000,0.000,0.000
1605210088543886848,10.0.1.137,NaN,pick,-0.740,-0.740,-0.740,0.000,0.000,0.000
1605210089545164032,10.0.1.137,NaN,pick,-0.750,-0.750,-0.750,0.000,0.000,0.000
1605210089606307072,10.0.1.137,61,pick,-0.750,-0.750,-0.750,0.000,0.000,0.000
1605210090594258944,10.0.1.137,47,pick,-0.760,-0.760,-0.760,0.000,0.000,0.000
1605210091603243008,10.0.1.137,55,pick,-0.770,-0.770,-0.770,0.000,0.000,0.000
1605210093188416000,10.0.1.137,638,move_up,-0.750,-0.750,-0.750,0.000,0.000,0.000
1605210094975321088,10.0.1.137,751,move_up,-0.730,-0.730,-0.730,0.000,0.000,0.000
1605210096612275968,10.0.1.137,509,move_up,-0.710,-0.710,-0.710,0.000,0.000,0.000
1605210098327229952,10.0.1.137,614,move_up,-0.690,-0.690,-0.690,0.000,0.000,0.000
1605210100108092928,10.0.1.137,701,move_up,-0.670,-0.670,-0.670,0.000,0.000,0.000
1605210101775311104,10.0.1.137,486,move_up,-0.650,-0.650,-0.650,0.000,0.000,0.000
1605210103400041216,10.0.1.137,552,move_up,-0.630,-0.630,-0.630,0.000,0.000,0.000
1605210105234429952,10.0.1.137,792,move_up,-0.610,-0.610,-0.610,0.000,0.000,0.000
1605210107042729984,10.0.1.137,662,move_up,-0.590,-0.590,-0.590,0.000,0.000,0.000
1605210108829012992,10.0.1.137,747,move_up,-0.570,-0.570,-0.570,0.000,0.000,0.000
1605210110606178048,10.0.1.137,695,move_up,-0.550,-0.550,-0.550,0.000,0.000,0.000
1605210112103971840,10.0.1.137,500,move_up,-0.530,-0.530,-0.530,0.000,0.000,0.000
1605210113868946944,10.0.1.137,710,move_up,-0.510,-0.510,-0.510,0.000,0.000,0.000
1605210115805985024,10.0.1.137,837,move_up,-0.490,-0.490,-0.490,0.000,0.000,0.000
1605210117450833152,10.0.1.137,526,move_up,-0.470,-0.470,-0.470,0.000,0.000,0.000
1605210119021756928,10.0.1.137,535,move_up,-0.450,-0.450,-0.450,0.000,0.000,0.000
1605210120670209024,10.0.1.137,593,move_up,-0.430,-0.430,-0.430,0.000,0.000,0.000
1605210122200284928,10.0.1.137,486,move_up,-0.410,-0.410,-0.410,0.000,0.000,0.000
1605210123993881088,10.0.1.137,679,move_up,-0.390,-0.390,-0.390,0.000,0.000,0.000
1605210125598184192,10.0.1.137,543,move_up,-0.370,-0.370,-0.370,0.000,0.000,0.000
1605210127193790976,10.0.1.137,506,move_up,-0.350,-0.350,-0.350,0.000,0.000,0.000
1605210128920536064,10.0.1.137,656,move_up,-0.330,-0.330,-0.330,0.000,0.000,0.000
1605210130525743104,10.0.1.137,548,move_up,-0.310,-0.310,-0.310,0.000,0.000,0.000
1605210132060903168,10.0.1.137,447,move_up,-0.290,-0.290,-0.290,0.000,0.000,0.000
1605210133726876928,10.0.1.137,599,move_up,-0.270,-0.270,-0.270,0.000,0.000,0.000
1605210135381548032,10.0.1.137,575,move_up,-0.250,-0.250,-0.250,0.000,0.000,0.000
1605210137126412032,10.0.1.137,661,move_up,-0.230,-0.230,-0.230,0.000,0.000,0.000
1605210138662717952,10.0.1.137,511,move_up,-0.210,-0.210,-0.210,0.000,0.000,0.000
1605210140519877888,10.0.1.137,680,move_up,-0.190,-0.190,-0.190,0.000,0.000,0.000
1605210141709753088,10.0.1.137,69,place,-0.180,-0.180,-0.180,0.000,0.000,0.000
1605210142714156032,10.0.1.137,72,place,-0.170,-0.170,-0.170,0.000,0.000,0.000
1605210143681283840,10.0.1.137,35,place,-0.160,-0.160,-0.160,0.000,0.000,0.000
1605210144691571968,10.0.1.137,44,place,-0.150,-0.150,-0.150,0.000,0.000,0.000
1605210145682941952,10.0.1.137,34,place,-0.140,-0.140,-0.140,0.000,0.000,0.000
1605210146713833216,10.0.1.137,60,place,-0.130,-0.130,-0.130,0.000,0.000,0.000
1605210148663712000,10.0.1.137,NaN,place,-0.110,-0.110,-0.110,0.000,0.000,0.000
1605210148699950080,10.0.1.137,36,place,-0.110,-0.110,-0.110,0.000,0.000,0.000
1605210150671024128,10.0.1.137,NaN,place,-0.090,-0.090,-0.090,0.000,0.000,0.000
1605210150720655872,10.0.1.137,49,place,-0.090,-0.090,-0.090,0.000,0.000,0.000
1605210152675339008,10.0.1.137,NaN,place,-0.070,-0.070,-0.070,0.000,0.000,0.000
1605210152726480128,10.0.1.137,51,place,-0.070,-0.070,-0.070,0.000,0.000,0.000
1605210153733537024,10.0.1.137,56,place,-0.060,-0.060,-0.060,0.000,0.000,0.000
1605210154728866048,10.0.1.137,50,place,-0.050,-0.050,-0.050,0.000,0.000,0.000
1605210155743678976,10.0.1.137,61,place,-0.040,-0.040,-0.040,0.000,0.000,0.000
1605210156728876032,10.0.1.137,37,place,-0.030,-0.030,-0.030,0.000,0.000,0.000
1605210157761254912,10.0.1.137,37,place,-0.020,-0.020,-0.020,0.000,0.000,0.000
1605210158793903104,10.0.1.137,59,place,-0.010,-0.010,-0.010,0.000,0.000,0.000
1605210159782330112,10.0.1.137,42,place,0.000,0.000,0.000,0.000,0.000,0.000
1605210161419254016,10.0.1.137,677,move_down,-0.020,-0.020,-0.020,0.000,0.000,0.000
1605210163097484032,10.0.1.137,621,move_down,-0.040,-0.040,-0.040,0.000,0.000,0.000
1605210164721349120,10.0.1.137,583,move_down,-0.060,-0.060,-0.060,0.000,0.000,0.000
1605210166526428928,10.0.1.137,709,move_down,-0.080,-0.080,-0.080,0.000,0.000,0.000
1605210168207691008,10.0.1.137,561,move_down,-0.100,-0.100,-0.100,0.000,0.000,0.000
1605210169874608896,10.0.1.137,534,move_down,-0.120,-0.120,-0.120,0.000,0.000,0.000
1605210171653500928,10.0.1.137,523,move_down,-0.140,-0.140,-0.140,0.000,0.000,0.000
1605210173560476160,10.0.1.137,722,move_down,-0.160,-0.160,-0.160,0.000,0.000,0.000
1605210175293012992,10.0.1.137,625,move_down,-0.180,-0.180,-0.180,0.000,0.000,0.000
1605210177036491008,10.0.1.137,622,move_down,-0.200,-0.200,-0.200,0.000,0.000,0.000
1605210178799724032,10.0.1.137,685,move_down,-0.220,-0.220,-0.220,0.000,0.000,0.000
1605210180790927872,10.0.1.137,965,move_down,-0.240,-0.240,-0.240,0.000,0.000,0.000
1605210182605849856,10.0.1.137,537,move_down,-0.260,-0.260,-0.260,0.000,0.000,0.000
1605210184375170048,10.0.1.137,720,move_down,-0.280,-0.280,-0.280,0.000,0.000,0.000
1605210186043862016,10.0.1.137,611,move_down,-0.300,-0.300,-0.300,0.000,0.000,0.000
1605210187997181952,10.0.1.137,888,move_down,-0.320,-0.320,-0.320,0.000,0.000,0.000
1605210189632944128,10.0.1.137,482,move_down,-0.340,-0.340,-0.340,0.000,0.000,0.000
1605210191370300160,10.0.1.137,586,move_down,-0.360,-0.360,-0.360,0.000,0.000,0.000
1605210193105051904,10.0.1.137,627,move_down,-0.380,-0.380,-0.380,0.000,0.000,0.000
1605210194729912064,10.0.1.137,546,move_down,-0.400,-0.400,-0.400,0.000,0.000,0.000
1605210196429209088,10.0.1.137,617,move_down,-0.420,-0.420,-0.420,0.000,0.000,0.000
1605210198107691008,10.0.1.137,642,move_down,-0.440,-0.440,-0.440,0.000,0.000,0.000
1605210199915426048,10.0.1.137,719,move_down,-0.460,-0.460,-0.460,0.000,0.000,0.000
1605210201479662848,10.0.1.137,510,move_down,-0.480,-0.480,-0.480,0.000,0.000,0.000
1605210203268385792,10.0.1.137,640,move_down,-0.500,-0.500,-0.500,0.000,0.000,0.000
1605210204787444992,10.0.1.137,488,move_down,-0.520,-0.520,-0.520,0.000,0.000,0.000
1605210206386281984,10.0.1.137,515,move_down,-0.540,-0.540,-0.540,0.000,0.000,0.000
1605210207963636992,10.0.1.137,484,move_down,-0.560,-0.560,-0.560,0.000,0.000,0.000
1605210209613203968,10.0.1.137,563,move_down,-0.580,-0.580,-0.580,0.000,0.000,0.000
1605210211680610048,10.0.1.137,NaN,pick,-0.600,-0.600,-0.600,0.000,0.000,0.000
1605210211738089984,10.0.1.137,57,pick,-0.600,-0.600,-0.600,0.000,0.000,0.000
1605210212755173888,10.0.1.137,71,pick,-0.610,-0.610,-0.610,0.000,0.000,0.000
1605210214684901120,10.0.1.137,NaN,pick,-0.630,-0.630,-0.630,0.000,0.000,0.000
1605210214723575040,10.0.1.137,38,pick,-0.630,-0.630,-0.630,0.000,0.000,0.000
1605210216691956992,10.0.1.137,NaN,pick,-0.650,-0.650,-0.650,0.000,0.000,0.000
1605210216750381824,10.0.1.137,58,pick,-0.650,-0.650,-0.650,0.000,0.000,0.000
1605210218695568128,10.0.1.137,NaN,pick,-0.670,-0.670,-0.670,0.000,0.000,0.000
1605210218755412992,10.0.1.137,59,pick,-0.670,-0.670,-0.670,0.000,0.000,0.000
1605210219738315008,10.0.1.137,38,pick,-0.680,-0.680,-0.680,0.000,0.000,0.000
1605210220760389120,10.0.1.137,56,pick,-0.690,-0.690,-0.690,0.000,0.000,0.000
1605210221774814976,10.0.1.137,69,pick,-0.700,-0.700,-0.700,0.000,0.000,0.000
1605210222804823040,10.0.1.137,93,pick,-0.710,-0.710,-0.710,0.000,0.000,0.000
1605210223779009024,10.0.1.137,67,pick,-0.720,-0.720,-0.720,0.000,0.000,0.000
1605210224777988864,10.0.1.137,65,pick,-0.730,-0.730,-0.730,0.000,0.000,0.000
1605210225765132800,10.0.1.137,51,pick,-0.740,-0.740,-0.740,0.000,0.000,0.000
1605210226773391872,10.0.1.137,55,pick,-0.750,-0.750,-0.750,0.000,0.000,0.000
1605210227786937856,10.0.1.137,67,pick,-0.760,-0.760,-0.760,0.000,0.000,0.000
1605210228782323968,10.0.1.137,60,pick,-0.770,-0.770,-0.770,0.000,0.000,0.000
1605210230407721984,10.0.1.137,684,move_up,-0.750,-0.750,-0.750,0.000,0.000,0.000
1605210232380961792,10.0.1.137,798,move_up,-0.730,-0.730,-0.730,0.000,0.000,0.000
1605210233991240960,10.0.1.137,538,move_up,-0.710,-0.710,-0.710,0.000,0.000,0.000
1605210235804323072,10.0.1.137,784,move_up,-0.690,-0.690,-0.690,0.000,0.000,0.000
1605210237545961984,10.0.1.137,640,move_up,-0.670,-0.670,-0.670,0.000,0.000,0.000
1605210239340061952,10.0.1.137,674,move_up,-0.650,-0.650,-0.650,0.000,0.000,0.000
1605210241039652096,10.0.1.137,592,move_up,-0.630,-0.630,-0.630,0.000,0.000,0.000
1605210242667624960,10.0.1.137,516,move_up,-0.610,-0.610,-0.610,0.000,0.000,0.000
1605210244278379008,10.0.1.137,570,move_up,-0.590,-0.590,-0.590,0.000,0.000,0.000
1605210245913654016,10.0.1.137,527,move_up,-0.570,-0.570,-0.570,0.000,0.000,0.000
1605210247693577984,10.0.1.137,668,move_up,-0.550,-0.550,-0.550,0.000,0.000,0.000
1605210249299764992,10.0.1.137,566,move_up,-0.530,-0.530,-0.530,0.000,0.000,0.000
1605210251123393024,10.0.1.137,629,move_up,-0.510,-0.510,-0.510,0.000,0.000,0.000
1605210252812975872,10.0.1.137,555,move_up,-0.490,-0.490,-0.490,0.000,0.000,0.000
1605210254579977984,10.0.1.137,706,move_up,-0.470,-0.470,-0.470,0.000,0.000,0.000
1605210256140964864,10.0.1.137,490,move_up,-0.450,-0.450,-0.450,0.000,0.000,0.000
1605210257748783104,10.0.1.137,604,move_up,-0.430,-0.430,-0.430,0.000,0.000,0.000
1605210259574265088,10.0.1.137,711,move_up,-0.410,-0.410,-0.410,0.000,0.000,0.000
1605210261369014016,10.0.1.137,534,move_up,-0.390,-0.390,-0.390,0.000,0.000,0.000
1605210263265826048,10.0.1.137,658,move_up,-0.370,-0.370,-0.370,0.000,0.000,0.000
1605210264983275776,10.0.1.137,596,move_up,-0.350,-0.350,-0.350,0.000,0.000,0.000
1605210266542608128,10.0.1.137,480,move_up,-0.330,-0.330,-0.330,0.000,0.000,0.000
1605210268309381888,10.0.1.137,620,move_up,-0.310,-0.310,-0.310,0.000,0.000,0.000
1605210269916263936,10.0.1.137,511,move_up,-0.290,-0.290,-0.290,0.000,0.000,0.000
1605210271587539968,10.0.1.137,569,move_up,-0.270,-0.270,-0.270,0.000,0.000,0.000
1605210273341528832,10.0.1.137,711,move_up,-0.250,-0.250,-0.250,0.000,0.000,0.000
1605210275077573888,10.0.1.137,638,move_up,-0.230,-0.230,-0.230,0.000,0.000,0.000
1605210276828025088,10.0.1.137,695,move_up,-0.210,-0.210,-0.210,0.000,0.000,0.000
1605210278411771136,10.0.1.137,528,move_up,-0.190,-0.190,-0.190,0.000,0.000,0.000
1605210279690561024,10.0.1.137,62,place,-0.180,-0.180,-0.180,0.000,0.000,0.000
1605210280687817984,10.0.1.137,58,place,-0.170,-0.170,-0.170,0.000,0.000,0.000
1605210281697945088,10.0.1.137,53,place,-0.160,-0.160,-0.160,0.000,0.000,0.000
1605210282700416000,10.0.1.137,54,place,-0.150,-0.150,-0.150,0.000,0.000,0.000
1605210284669248000,10.0.1.137,NaN,place,-0.130,-0.130,-0.130,0.000,0.000,0.000
1605210284709304064,10.0.1.137,39,place,-0.130,-0.130,-0.130,0.000,0.000,0.000
1605210285714102016,10.0.1.137,43,place,-0.120,-0.120,-0.120,0.000,0.000,0.000
1605210286718736896,10.0.1.137,45,place,-0.110,-0.110,-0.110,0.000,0.000,0.000
1605210288679713024,10.0.1.137,NaN,place,-0.090,-0.090,-0.090,0.000,0.000,0.000
1605210288733377024,10.0.1.137,53,place,-0.090,-0.090,-0.090,0.000,0.000,0.000
1605210289725435904,10.0.1.137,44,place,-0.080,-0.080,-0.080,0.000,0.000,0.000
1605210290729246976,10.0.1.137,47,place,-0.070,-0.070,-0.070,0.000,0.000,0.000
1605210292684315904,10.0.1.137,NaN,place,-0.050,-0.050,-0.050,0.000,0.000,0.000
1605210292747826176,10.0.1.137,63,place,-0.050,-0.050,-0.050,0.000,0.000,0.000
1605210293732899072,10.0.1.137,47,place,-0.040,-0.040,-0.040,0.000,0.000,0.000
1605210294728504832,10.0.1.137,41,place,-0.030,-0.030,-0.030,0.000,0.000,0.000
1605210295731354112,10.0.1.137,43,place,-0.020,-0.020,-0.020,0.000,0.000,0.000
1605210296735907072,10.0.1.137,46,place,-0.010,-0.010,-0.010,0.000,0.000,0.000
1605210297733010944,10.0.1.137,42,place,0.000,0.000,0.000,0.000,0.000,0.000
1605210299217335040,10.0.1.137,517,move_down,-0.020,-0.020,-0.020,0.000,0.000,0.000
1605210300912233216,10.0.1.137,598,move_down,-0.040,-0.040,-0.040,0.000,0.000,0.000
1605210302384705024,10.0.1.137,465,move_down,-0.060,-0.060,-0.060,0.000,0.000,0.000
1605210303962595072,10.0.1.137,530,move_down,-0.080,-0.080,-0.080,0.000,0.000,0.000
1605210305843909888,10.0.1.137,707,move_down,-0.100,-0.100,-0.100,0.000,0.000,0.000
1605210307547077888,10.0.1.137,678,move_down,-0.120,-0.120,-0.120,0.000,0.000,0.000
1605210309320310016,10.0.1.137,637,move_down,-0.140,-0.140,-0.140,0.000,0.000,0.000
1605210311053196800,10.0.1.137,608,move_down,-0.160,-0.160,-0.160,0.000,0.000,0.000
1605210312607243008,10.0.1.137,518,move_down,-0.180,-0.180,-0.180,0.000,0.000,0.000
1605210314210398976,10.0.1.137,482,move_down,-0.200,-0.200,-0.200,0.000,0.000,0.000
1605210315837061888,10.0.1.137,560,move_down,-0.220,-0.220,-0.220,0.000,0.000,0.000
1605210317385549056,10.0.1.137,521,move_down,-0.240,-0.240,-0.240,0.000,0.000,0.000
1605210318900026112,10.0.1.137,491,move_down,-0.260,-0.260,-0.260,0.000,0.000,0.000
1605210320648584960,10.0.1.137,677,move_down,-0.280,-0.280,-0.280,0.000,0.000,0.000
1605210322257040128,10.0.1.137,514,move_down,-0.300,-0.300,-0.300,0.000,0.000,0.000
1605210323804091904,10.0.1.137,523,move_down,-0.320,-0.320,-0.320,0.000,0.000,0.000
1605210325617170944,10.0.1.137,630,move_down,-0.340,-0.340,-0.340,0.000,0.000,0.000
1605210327197056000,10.0.1.137,503,move_down,-0.360,-0.360,-0.360,0.000,0.000,0.000
1605210328859266048,10.0.1.137,612,move_down,-0.380,-0.380,-0.380,0.000,0.000,0.000
1605210330556371968,10.0.1.137,552,move_down,-0.400,-0.400,-0.400,0.000,0.000,0.000
1605210332270885888,10.0.1.137,543,move_down,-0.420,-0.420,-0.420,0.000,0.000,0.000
1605210333856910848,10.0.1.137,479,move_down,-0.440,-0.440,-0.440,0.000,0.000,0.000
1605210335521931008,10.0.1.137,569,move_down,-0.460,-0.460,-0.460,0.000,0.000,0.000
1605210337219841024,10.0.1.137,641,move_down,-0.480,-0.480,-0.480,0.000,0.000,0.000
1605210339127845888,10.0.1.137,593,move_down,-0.500,-0.500,-0.500,0.000,0.000,0.000
1605210340885505024,10.0.1.137,696,move_down,-0.520,-0.520,-0.520,0.000,0.000,0.000
1605210342462897152,10.0.1.137,494,move_down,-0.540,-0.540,-0.540,0.000,0.000,0.000
1605210344113969152,10.0.1.137,567,move_down,-0.560,-0.560,-0.560,0.000,0.000,0.000
1605210345730486016,10.0.1.137,552,move_down,-0.580,-0.580,-0.580,0.000,0.000,0.000
1605210346822031104,10.0.1.137,50,pick,-0.590,-0.590,-0.590,0.000,0.000,0.000
1605210347844806912,10.0.1.137,71,pick,-0.600,-0.600,-0.600,0.000,0.000,0.000
1605210349790651136,10.0.1.137,NaN,pick,-0.620,-0.620,-0.620,0.000,0.000,0.000
1605210349840800000,10.0.1.137,50,pick,-0.620,-0.620,-0.620,0.000,0.000,0.000
1605210350876257024,10.0.1.137,84,pick,-0.630,-0.630,-0.630,0.000,0.000,0.000
1605210352794078208,10.0.1.137,NaN,pick,-0.650,-0.650,-0.650,0.000,0.000,0.000
1605210352844212992,10.0.1.137,50,pick,-0.650,-0.650,-0.650,0.000,0.000,0.000
1605210354805881856,10.0.1.137,NaN,pick,-0.670,-0.670,-0.670,0.000,0.000,0.000
1605210355806761984,10.0.1.137,NaN,pick,-0.680,-0.680,-0.680,0.000,0.000,0.000
1605210355867793920,10.0.1.137,60,pick,-0.680,-0.680,-0.680,0.000,0.000,0.000
1605210356855734016,10.0.1.137,47,pick,-0.690,-0.690,-0.690,0.000,0.000,0.000
1605210357911081984,10.0.1.137,102,pick,-0.700,-0.700,-0.700,0.000,0.000,0.000
1605210358858020096,10.0.1.137,43,pick,-0.710,-0.710,-0.710,0.000,0.000,0.000
1605210359867705088,10.0.1.137,50,pick,-0.720,-0.720,-0.720,0.000,0.000,0.000
1605210360887828224,10.0.1.137,65,pick,-0.730,-0.730,-0.730,0.000,0.000,0.000
1605210361874373888,10.0.1.137,43,pick,-0.740,-0.740,-0.740,0.000,0.000,0.000
1605210362903036160,10.0.1.137,67,pick,-0.750,-0.750,-0.750,0.000,0.000,0.000
1605210363893063936,10.0.1.137,56,pick,-0.760,-0.760,-0.760,0.000,0.000,0.000
1605210364909692160,10.0.1.137,70,pick,-0.770,-0.770,-0.770,0.000,0.000,0.000
1605210366487217920,10.0.1.137,646,move_up,-0.750,-0.750,-0.750,0.000,0.000,0.000
1605210368048739072,10.0.1.137,528,move_up,-0.730,-0.730,-0.730,0.000,0.000,0.000
1605210369709590016,10.0.1.137,615,move_up,-0.710,-0.710,-0.710,0.000,0.000,0.000
1605210371468774144,10.0.1.137,719,move_up,-0.690,-0.690,-0.690,0.000,0.000,0.000
1605210373011969024,10.0.1.137,535,move_up,-0.670,-0.670,-0.670,0.000,0.000,0.000
1605210374713978880,10.0.1.137,436,move_up,-0.650,-0.650,-0.650,0.000,0.000,0.000
1605210376406939136,10.0.1.137,549,move_up,-0.630,-0.630,-0.630,0.000,0.000,0.000
1605210378049798912,10.0.1.137,556,move_up,-0.610,-0.610,-0.610,0.000,0.000,0.000
1605210379656753152,10.0.1.137,555,move_up,-0.590,-0.590,-0.590,0.000,0.000,0.000
1605210381185617920,10.0.1.137,495,move_up,-0.570,-0.570,-0.570,0.000,0.000,0.000
1605210382855764992,10.0.1.137,564,move_up,-0.550,-0.550,-0.550,0.000,0.000,0.000
1605210384477693952,10.0.1.137,618,move_up,-0.530,-0.530,-0.530,0.000,0.000,0.000
1605210386094418944,10.0.1.137,534,move_up,-0.510,-0.510,-0.510,0.000,0.000,0.000
1605210387875392000,10.0.1.137,716,move_up,-0.490,-0.490,-0.490,0.000,0.000,0.000
1605210389561577984,10.0.1.137,610,move_up,-0.470,-0.470,-0.470,0.000,0.000,0.000
1605210391139396864,10.0.1.137,525,move_up,-0.450,-0.450,-0.450,0.000,0.000,0.000
1605210392783917824,10.0.1.137,521,move_up,-0.430,-0.430,-0.430,0.000,0.000,0.000
1605210394377607168,10.0.1.137,520,move_up,-0.410,-0.410,-0.410,0.000,0.000,0.000
1605210396015664128,10.0.1.137,561,move_up,-0.390,-0.390,-0.390,0.000,0.000,0.000
1605210397760598784,10.0.1.137,601,move_up,-0.370,-0.370,-0.370,0.000,0.000,0.000
1605210399407348992,10.0.1.137,548,move_up,-0.350,-0.350,-0.350,0.000,0.000,0.000
1605210401048355072,10.0.1.137,590,move_up,-0.330,-0.330,-0.330,0.000,0.000,0.000
1605210402657174016,10.0.1.137,519,move_up,-0.310,-0.310,-0.310,0.000,0.000,0.000
1605210404298185216,10.0.1.137,551,move_up,-0.290,-0.290,-0.290,0.000,0.000,0.000
1605210406017652992,10.0.1.137,705,move_up,-0.270,-0.270,-0.270,0.000,0.000,0.000
1605210407698808064,10.0.1.137,547,move_up,-0.250,-0.250,-0.250,0.000,0.000,0.000
1605210409506267904,10.0.1.137,744,move_up,-0.230,-0.230,-0.230,0.000,0.000,0.000
1605210411365929984,10.0.1.137,579,move_up,-0.210,-0.210,-0.210,0.000,0.000,0.000
1605210412967198976,10.0.1.137,509,move_up,-0.190,-0.190,-0.190,0.000,0.000,0.000
1605210414106206976,10.0.1.137,38,place,-0.180,-0.180,-0.180,0.000,0.000,0.000
1605210415132353024,10.0.1.137,63,place,-0.170,-0.170,-0.170,0.000,0.000,0.000
1605210416123389952,10.0.1.137,52,place,-0.160,-0.160,-0.160,0.000,0.000,0.000
1605210417152672000,10.0.1.137,80,place,-0.150,-0.150,-0.150,0.000,0.000,0.000
1605210418128185088,10.0.1.137,46,place,-0.140,-0.140,-0.140,0.000,0.000,0.000
1605210419126807808,10.0.1.137,43,place,-0.130,-0.130,-0.130,0.000,0.000,0.000
1605210420168175104,10.0.1.137,80,place,-0.120,-0.120,-0.120,0.000,0.000,0.000
1605210421129084160,10.0.1.137,37,place,-0.110,-0.110,-0.110,0.000,0.000,0.000
1605210422174839040,10.0.1.137,82,place,-0.100,-0.100,-0.100,0.000,0.000,0.000
1605210423145492992,10.0.1.137,51,place,-0.090,-0.090,-0.090,0.000,0.000,0.000
1605210425097014784,10.0.1.137,NaN,place,-0.070,-0.070,-0.070,0.000,0.000,0.000
1605210425156420864,10.0.1.137,59,place,-0.070,-0.070,-0.070,0.000,0.000,0.000
1605210426178033152,10.0.1.137,78,place,-0.060,-0.060,-0.060,0.000,0.000,0.000
1605210427178369024,10.0.1.137,75,place,-0.050,-0.050,-0.050,0.000,0.000,0.000
1605210428166155008,10.0.1.137,61,place,-0.040,-0.040,-0.040,0.000,0.000,0.000
1605210430107543040,10.0.1.137,NaN,place,-0.020,-0.020,-0.020,0.000,0.000,0.000
1605210430147460096,10.0.1.137,39,place,-0.020,-0.020,-0.020,0.000,0.000,0.000
1605210431153007104,10.0.1.137,44,place,-0.010,-0.010,-0.010,0.000,0.000,0.000
1605210432170109952,10.0.1.137,59,place,0.000,0.000,0.000,0.000,0.000,0.000
1605210434078224896,10.0.1.137,961,move_down,-0.020,-0.020,-0.020,0.000,0.000,0.000
1605210435885734912,10.0.1.137,685,move_down,-0.040,-0.040,-0.040,0.000,0.000,0.000
1605210437514993920,10.0.1.137,525,move_down,-0.060,-0.060,-0.060,0.000,0.000,0.000
1605210439245744896,10.0.1.137,602,move_down,-0.080,-0.080,-0.080,0.000,0.000,0.000
1605210440983095040,10.0.1.137,567,move_down,-0.100,-0.100,-0.100,0.000,0.000,0.000
1605210442832889088,10.0.1.137,668,move_down,-0.120,-0.120,-0.120,0.000,0.000,0.000
1605210444619488000,10.0.1.137,752,move_down,-0.140,-0.140,-0.140,0.000,0.000,0.000
1605210446445209088,10.0.1.137,683,move_down,-0.160,-0.160,-0.160,0.000,0.000,0.000
1605210448205169920,10.0.1.137,627,move_down,-0.180,-0.180,-0.180,0.000,0.000,0.000
1605210449893142016,10.0.1.137,569,move_down,-0.200,-0.200,-0.200,0.000,0.000,0.000
1605210451544008960,10.0.1.137,577,move_down,-0.220,-0.220,-0.220,0.000,0.000,0.000
1605210453135217920,10.0.1.137,477,move_down,-0.240,-0.240,-0.240,0.000,0.000,0.000
1605210454889004032,10.0.1.137,707,move_down,-0.260,-0.260,-0.260,0.000,0.000,0.000
1605210456619941888,10.0.1.137,620,move_down,-0.280,-0.280,-0.280,0.000,0.000,0.000
1605210458342305792,10.0.1.137,693,move_down,-0.300,-0.300,-0.300,0.000,0.000,0.000
1605210459962760960,10.0.1.137,563,move_down,-0.320,-0.320,-0.320,0.000,0.000,0.000
1605210461686789120,10.0.1.137,537,move_down,-0.340,-0.340,-0.340,0.000,0.000,0.000
1605210463253933056,10.0.1.137,478,move_down,-0.360,-0.360,-0.360,0.000,0.000,0.000
1605210465022281984,10.0.1.137,633,move_down,-0.380,-0.380,-0.380,0.000,0.000,0.000
1605210466727792896,10.0.1.137,658,move_down,-0.400,-0.400,-0.400,0.000,0.000,0.000
1605210468376728064,10.0.1.137,603,move_down,-0.420,-0.420,-0.420,0.000,0.000,0.000
1605210469912400896,10.0.1.137,537,move_down,-0.440,-0.440,-0.440,0.000,0.000,0.000
1605210471649501184,10.0.1.137,701,move_down,-0.460,-0.460,-0.460,0.000,0.000,0.000
1605210473310585856,10.0.1.137,571,move_down,-0.480,-0.480,-0.480,0.000,0.000,0.000
1605210474981451008,10.0.1.137,573,move_down,-0.500,-0.500,-0.500,0.000,0.000,0.000
1605210476520254976,10.0.1.137,525,move_down,-0.520,-0.520,-0.520,0.000,0.000,0.000
1605210478244689920,10.0.1.137,661,move_down,-0.540,-0.540,-0.540,0.000,0.000,0.000
1605210480180557056,10.0.1.137,808,move_down,-0.560,-0.560,-0.560,0.000,0.000,0.000
1605210481905350912,10.0.1.137,547,move_down,-0.580,-0.580,-0.580,0.000,0.000,0.000
1605210483003635968,10.0.1.137,53,pick,-0.590,-0.590,-0.590,0.000,0.000,0.000
1605210484024838912,10.0.1.137,73,pick,-0.600,-0.600,-0.600,0.000,0.000,0.000
1605210485963956992,10.0.1.137,NaN,pick,-0.620,-0.620,-0.620,0.000,0.000,0.000
1605210486021702144,10.0.1.137,57,pick,-0.620,-0.620,-0.620,0.000,0.000,0.000
1605210487005780992,10.0.1.137,40,pick,-0.630,-0.630,-0.630,0.000,0.000,0.000
1605210488014206976,10.0.1.137,47,pick,-0.640,-0.640,-0.640,0.000,0.000,0.000
1605210489973287936,10.0.1.137,NaN,pick,-0.660,-0.660,-0.660,0.000,0.000,0.000
1605210490033569024,10.0.1.137,60,pick,-0.660,-0.660,-0.660,0.000,0.000,0.000
1605210491975550976,10.0.1.137,NaN,pick,-0.680,-0.680,-0.680,0.000,0.000,0.000
1605210492024486144,10.0.1.137,48,pick,-0.680,-0.680,-0.680,0.000,0.000,0.000
1605210493033467136,10.0.1.137,57,pick,-0.690,-0.690,-0.690,0.000,0.000,0.000
1605210494019709952,10.0.1.137,38,pick,-0.700,-0.700,-0.700,0.000,0.000,0.000
1605210495040834048,10.0.1.137,57,pick,-0.710,-0.710,-0.710,0.000,0.000,0.000
1605210496049134848,10.0.1.137,59,pick,-0.720,-0.720,-0.720,0.000,0.000,0.000
1605210497053276928,10.0.1.137,53,pick,-0.730,-0.730,-0.730,0.000,0.000,0.000
1605210498077435904,10.0.1.137,74,pick,-0.740,-0.740,-0.740,0.000,0.000,0.000
1605210499054244096,10.0.1.137,43,pick,-0.750,-0.750,-0.750,0.000,0.000,0.000
1605210500085853952,10.0.1.137,74,pick,-0.760,-0.760,-0.760,0.000,0.000,0.000
1605210501044975104,10.0.1.137,31,pick,-0.770,-0.770,-0.770,0.000,0.000,0.000
1605210502681579008,10.0.1.137,666,move_up,-0.750,-0.750,-0.750,0.000,0.000,0.000
1605210504325353984,10.0.1.137,527,move_up,-0.730,-0.730,-0.730,0.000,0.000,0.000
1605210506131158016,10.0.1.137,721,move_up,-0.710,-0.710,-0.710,0.000,0.000,0.000
1605210507719609088,10.0.1.137,494,move_up,-0.690,-0.690,-0.690,0.000,0.000,0.000
1605210509411945984,10.0.1.137,581,move_up,-0.670,-0.670,-0.670,0.000,0.000,0.000
1605210511222188032,10.0.1.137,616,move_up,-0.650,-0.650,-0.650,0.000,0.000,0.000
1605210512952701952,10.0.1.137,636,move_up,-0.630,-0.630,-0.630,0.000,0.000,0.000
1605210514552771072,10.0.1.137,522,move_up,-0.610,-0.610,-0.610,0.000,0.000,0.000
1605210516100868864,10.0.1.137,497,move_up,-0.590,-0.590,-0.590,0.000,0.000,0.000
1605210517804802048,10.0.1.137,603,move_up,-0.570,-0.570,-0.570,0.000,0.000,0.000
1605210519544321024,10.0.1.137,697,move_up,-0.550,-0.550,-0.550,0.000,0.000,0.000
1605210521396606976,10.0.1.137,735,move_up,-0.530,-0.530,-0.530,0.000,0.000,0.000
1605210523006003968,10.0.1.137,499,move_up,-0.510,-0.510,-0.510,0.000,0.000,0.000
1605210524624231168,10.0.1.137,467,move_up,-0.490,-0.490,-0.490,0.000,0.000,0.000
1605210526342940928,10.0.1.137,560,move_up,-0.470,-0.470,-0.470,0.000,0.000,0.000
1605210527993688064,10.0.1.137,552,move_up,-0.450,-0.450,-0.450,0.000,0.000,0.000
1605210529601480960,10.0.1.137,518,move_up,-0.430,-0.430,-0.430,0.000,0.000,0.000
1605210531362107904,10.0.1.137,629,move_up,-0.410,-0.410,-0.410,0.000,0.000,0.000
1605210533022573824,10.0.1.137,489,move_up,-0.390,-0.390,-0.390,0.000,0.000,0.000
1605210534727601152,10.0.1.137,631,move_up,-0.370,-0.370,-0.370,0.000,0.000,0.000
1605210536238359040,10.0.1.137,477,move_up,-0.350,-0.350,-0.350,0.000,0.000,0.000
1605210537795443968,10.0.1.137,460,move_up,-0.330,-0.330,-0.330,0.000,0.000,0.000
1605210539450227968,10.0.1.137,520,move_up,-0.310,-0.310,-0.310,0.000,0.000,0.000
1605210541104334080,10.0.1.137,538,move_up,-0.290,-0.290,-0.290,0.000,0.000,0.000
1605210542723015936,10.0.1.137,547,move_up,-0.270,-0.270,-0.270,0.000,0.000,0.000
1605210544461582848,10.0.1.137,582,move_up,-0.250,-0.250,-0.250,0.000,0.000,0.000
1605210546172365056,10.0.1.137,559,move_up,-0.230,-0.230,-0.230,0.000,0.000,0.000
1605210547819984896,10.0.1.137,544,move_up,-0.210,-0.210,-0.210,0.000,0.000,0.000
1605210549411133952,10.0.1.137,502,move_up,-0.190,-0.190,-0.190,0.000,0.000,0.000
1605210550487958784,10.0.1.137,41,place,-0.180,-0.180,-0.180,0.000,0.000,0.000
1605210551514924032,10.0.1.137,67,place,-0.170,-0.170,-0.170,0.000,0.000,0.000
1605210553451112960,10.0.1.137,NaN,place,-0.150,-0.150,-0.150,0.000,0.000,0.000
1605210553496068096,10.0.1.137,44,place,-0.150,-0.150,-0.150,0.000,0.000,0.000
1605210554488195840,10.0.1.137,34,place,-0.140,-0.140,-0.140,0.000,0.000,0.000
1605210555505455104,10.0.1.137,50,place,-0.130,-0.130,-0.130,0.000,0.000,0.000
1605210556496915968,10.0.1.137,37,place,-0.120,-0.120,-0.120,0.000,0.000,0.000
1605210557514467840,10.0.1.137,48,place,-0.110,-0.110,-0.110,0.000,0.000,0.000
1605210558524976896,10.0.1.137,48,place,-0.100,-0.100,-0.100,0.000,0.000,0.000
1605210559536228864,10.0.1.137,44,place,-0.090,-0.090,-0.090,0.000,0.000,0.000
1605210560538178048,10.0.1.137,45,place,-0.080,-0.080,-0.080,0.000,0.000,0.000
1605210561620179968,10.0.1.137,91,place,-0.070,-0.070,-0.070,0.000,0.000,0.000
1605210562567766784,10.0.1.137,36,place,-0.060,-0.060,-0.060,0.000,0.000,0.000
1605210563586252032,10.0.1.137,54,place,-0.050,-0.050,-0.050,0.000,0.000,0.000
1605210564580656896,10.0.1.137,47,place,-0.040,-0.040,-0.040,0.000,0.000,0.000
1605210566535578112,10.0.1.137,NaN,place,-0.020,-0.020,-0.020,0.000,0.000,0.000
1605210566583489024,10.0.1.137,47,place,-0.020,-0.020,-0.020,0.000,0.000,0.000
1605210567614095872,10.0.1.137,74,place,-0.010,-0.010,-0.010,0.000,0.000,0.000
1605210568595817984,10.0.1.137,56,place,0.000,0.000,0.000,0.000,0.000,0.000
1605210570151825920,10.0.1.137,611,move_down,-0.020,-0.020,-0.020,0.000,0.000,0.000
1605210571847721216,10.0.1.137,582,move_down,-0.040,-0.040,-0.040,0.000,0.000,0.000
1605210573540364032,10.0.1.137,544,move_down,-0.060,-0.060,-0.060,0.000,0.000,0.000
1605210575180996864,10.0.1.137,602,move_down,-0.080,-0.080,-0.080,0.000,0.000,0.000
1605210576822925056,10.0.1.137,601,move_down,-0.100,-0.100,-0.100,0.000,0.000,0.000
1605210578392720896,10.0.1.137,495,move_down,-0.120,-0.120,-0.120,0.000,0.000,0.000
1605210580049999872,10.0.1.137,572,move_down,-0.140,-0.140,-0.140,0.000,0.000,0.000
1605210581913841920,10.0.1.137,581,move_down,-0.160,-0.160,-0.160,0.000,0.000,0.000
1605210583625158144,10.0.1.137,587,move_down,-0.180,-0.180,-0.180,0.000,0.000,0.000
1605210585168001024,10.0.1.137,505,move_down,-0.200,-0.200,-0.200,0.000,0.000,0.000
1605210586699856128,10.0.1.137,466,move_down,-0.220,-0.220,-0.220,0.000,0.000,0.000
1605210588423124992,10.0.1.137,597,move_down,-0.240,-0.240,-0.240,0.000,0.000,0.000
1605210590049580032,10.0.1.137,569,move_down,-0.260,-0.260,-0.260,0.000,0.000,0.000
1605210591900295936,10.0.1.137,726,move_down,-0.280,-0.280,-0.280,0.000,0.000,0.000
1605210593642676224,10.0.1.137,629,move_down,-0.300,-0.300,-0.300,0.000,0.000,0.000
1605210595416369920,10.0.1.137,554,move_down,-0.320,-0.320,-0.320,0.000,0.000,0.000
1605210597113953024,10.0.1.137,647,move_down,-0.340,-0.340,-0.340,0.000,0.000,0.000
1605210598819324928,10.0.1.137,611,move_down,-0.360,-0.360,-0.360,0.000,0.000,0.000
1605210600471781120,10.0.1.137,615,move_down,-0.380,-0.380,-0.380,0.000,0.000,0.000
1605210602083371008,10.0.1.137,492,move_down,-0.400,-0.400,-0.400,0.000,0.000,0.000
1605210603736100864,10.0.1.137,607,move_down,-0.420,-0.420,-0.420,0.000,0.000,0.000
1605210605612466944,10.0.1.137,768,move_down,-0.440,-0.440,-0.440,0.000,0.000,0.000
1605210607324325120,10.0.1.137,580,move_down,-0.460,-0.460,-0.460,0.000,0.000,0.000
1605210609138784768,10.0.1.137,739,move_down,-0.480,-0.480,-0.480,0.000,0.000,0.000
1605210610818188032,10.0.1.137,596,move_down,-0.500,-0.500,-0.500,0.000,0.000,0.000
1605210612460020992,10.0.1.137,556,move_down,-0.520,-0.520,-0.520,0.000,0.000,0.000
1605210614211680000,10.0.1.137,537,move_down,-0.540,-0.540,-0.540,0.000,0.000,0.000
1605210615832679936,10.0.1.137,522,move_down,-0.560,-0.560,-0.560,0.000,0.000,0.000
1605210617505876992,10.0.1.137,567,move_down,-0.580,-0.580,-0.580,0.000,0.000,0.000
1605210618707707904,10.0.1.137,52,pick,-0.590,-0.590,-0.590,0.000,0.000,0.000
1605210620671226880,10.0.1.137,NaN,pick,-0.610,-0.610,-0.610,0.000,0.000,0.000
1605210621673415936,10.0.1.137,NaN,pick,-0.620,-0.620,-0.620,0.000,0.000,0.000
1605210621731528960,10.0.1.137,57,pick,-0.620,-0.620,-0.620,0.000,0.000,0.000
1605210623692038912,10.0.1.137,NaN,pick,-0.640,-0.640,-0.640,0.000,0.000,0.000
1605210623751378944,10.0.1.137,59,pick,-0.640,-0.640,-0.640,0.000,0.000,0.000
1605210624769694208,10.0.1.137,70,pick,-0.650,-0.650,-0.650,0.000,0.000,0.000
1605210625743319040,10.0.1.137,41,pick,-0.660,-0.660,-0.660,0.000,0.000,0.000
1605210626747404032,10.0.1.137,44,pick,-0.670,-0.670,-0.670,0.000,0.000,0.000
1605210627748417024,10.0.1.137,44,pick,-0.680,-0.680,-0.680,0.000,0.000,0.000
1605210628766653952,10.0.1.137,59,pick,-0.690,-0.690,-0.690,0.000,0.000,0.000
1605210630721388032,10.0.1.137,NaN,pick,-0.710,-0.710,-0.710,0.000,0.000,0.000
1605210631731578112,10.0.1.137,NaN,pick,-0.720,-0.720,-0.720,0.000,0.000,0.000
1605210631792797952,10.0.1.137,61,pick,-0.720,-0.720,-0.720,0.000,0.000,0.000
1605210633749326848,10.0.1.137,NaN,pick,-0.740,-0.740,-0.740,0.000,0.000,0.000
1605210633783326976,10.0.1.137,33,pick,-0.740,-0.740,-0.740,0.000,0.000,0.000
1605210634800434176,10.0.1.137,49,pick,-0.750,-0.750,-0.750,0.000,0.000,0.000
1605210635819703040,10.0.1.137,68,pick,-0.760,-0.760,-0.760,0.000,0.000,0.000
1605210636804239104,10.0.1.137,46,pick,-0.770,-0.770,-0.770,0.000,0.000,0.000
1605210638408432128,10.0.1.137,646,move_up,-0.750,-0.750,-0.750,0.000,0.000,0.000
1605210639987878912,10.0.1.137,531,move_up,-0.730,-0.730,-0.730,0.000,0.000,0.000
1605210641578638080,10.0.1.137,499,move_up,-0.710,-0.710,-0.710,0.000,0.000,0.000
1605210643360184832,10.0.1.137,673,move_up,-0.690,-0.690,-0.690,0.000,0.000,0.000
1605210644971028992,10.0.1.137,551,move_up,-0.670,-0.670,-0.670,0.000,0.000,0.000
1605210646659110144,10.0.1.137,610,move_up,-0.650,-0.650,-0.650,0.000,0.000,0.000
1605210648198071040,10.0.1.137,460,move_up,-0.630,-0.630,-0.630,0.000,0.000,0.000
1605210649968400128,10.0.1.137,698,move_up,-0.610,-0.610,-0.610,0.000,0.000,0.000
1605210651719450880,10.0.1.137,658,move_up,-0.590,-0.590,-0.590,0.000,0.000,0.000
1605210653235773184,10.0.1.137,486,move_up,-0.570,-0.570,-0.570,0.000,0.000,0.000
1605210654966504192,10.0.1.137,533,move_up,-0.550,-0.550,-0.550,0.000,0.000,0.000
1605210656689086976,10.0.1.137,641,move_up,-0.530,-0.530,-0.530,0.000,0.000,0.000
1605210658630438144,10.0.1.137,714,move_up,-0.510,-0.510,-0.510,0.000,0.000,0.000
1605210660287888128,10.0.1.137,576,move_up,-0.490,-0.490,-0.490,0.000,0.000,0.000
1605210661978334976,10.0.1.137,658,move_up,-0.470,-0.470,-0.470,0.000,0.000,0.000
1605210663709264128,10.0.1.137,655,move_up,-0.450,-0.450,-0.450,0.000,0.000,0.000
1605210665395744000,10.0.1.137,546,move_up,-0.430,-0.430,-0.430,0.000,0.000,0.000
1605210666936051968,10.0.1.137,497,move_up,-0.410,-0.410,-0.410,0.000,0.000,0.000
1605210668855417856,10.0.1.137,774,move_up,-0.390,-0.390,-0.390,0.000,0.000,0.000
1605210670537209088,10.0.1.137,609,move_up,-0.370,-0.370,-0.370,0.000,0.000,0.000
1605210672299910144,10.0.1.137,632,move_up,-0.350,-0.350,-0.350,0.000,0.000,0.000
1605210674110089984,10.0.1.137,716,move_up,-0.330,-0.330,-0.330,0.000,0.000,0.000
1605210675793387776,10.0.1.137,621,move_up,-0.310,-0.310,-0.310,0.000,0.000,0.000
1605210677509777152,10.0.1.137,594,move_up,-0.290,-0.290,-0.290,0.000,0.000,0.000
1605210679299209216,10.0.1.137,652,move_up,-0.270,-0.270,-0.270,0.000,0.000,0.000
1605210681009886976,10.0.1.137,590,move_up,-0.250,-0.250,-0.250,0.000,0.000,0.000
1605210682734002944,10.0.1.137,673,move_up,-0.230,-0.230,-0.230,0.000,0.000,0.000
1605210684325251072,10.0.1.137,497,move_up,-0.210,-0.210,-0.210,0.000,0.000,0.000
1605210686121042944,10.0.1.137,657,move_up,-0.190,-0.190,-0.190,0.000,0.000,0.000
1605210687319842048,10.0.1.137,65,place,-0.180,-0.180,-0.180,0.000,0.000,0.000
1605210688305320960,10.0.1.137,50,place,-0.170,-0.170,-0.170,0.000,0.000,0.000
1605210689312841984,10.0.1.137,50,place,-0.160,-0.160,-0.160,0.000,0.000,0.000
1605210690308036096,10.0.1.137,44,place,-0.150,-0.150,-0.150,0.000,0.000,0.000
1605210691300856064,10.0.1.137,35,place,-0.140,-0.140,-0.140,0.000,0.000,0.000
1605210692306051072,10.0.1.137,39,place,-0.130,-0.130,-0.130,0.000,0.000,0.000
1605210693319309824,10.0.1.137,51,place,-0.120,-0.120,-0.120,0.000,0.000,0.000
1605210694317007104,10.0.1.137,44,place,-0.110,-0.110,-0.110,0.000,0.000,0.000
1605210695334161920,10.0.1.137,50,place,-0.100,-0.100,-0.100,0.000,0.000,0.000
1605210696330700032,10.0.1.137,45,place,-0.090,-0.090,-0.090,0.000,0.000,0.000
1605210697324928000,10.0.1.137,33,place,-0.080,-0.080,-0.080,0.000,0.000,0.000
1605210698357206016,10.0.1.137,63,place,-0.070,-0.070,-0.070,0.000,0.000,0.000
1605210699354587136,10.0.1.137,59,place,-0.060,-0.060,-0.060,0.000,0.000,0.000
1605210700357858816,10.0.1.137,55,place,-0.050,-0.050,-0.050,0.000,0.000,0.000
1605210701353810176,10.0.1.137,50,place,-0.040,-0.040,-0.040,0.000,0.000,0.000
1605210702356951040,10.0.1.137,52,place,-0.030,-0.030,-0.030,0.000,0.000,0.000
1605210703414083072,10.0.1.137,101,place,-0.020,-0.020,-0.020,0.000,0.000,0.000
1605210704371648000,10.0.1.137,57,place,-0.010,-0.010,-0.010,0.000,0.000,0.000
1605210706315552000,10.0.1.137,NaN,move_down,-0.020,-0.020,-0.020,0.000,0.000,0.000
1605210706757543936,10.0.1.137,441,move_down,-0.020,-0.020,-0.020,0.000,0.000,0.000
1605210708632966912,10.0.1.137,744,move_down,-0.040,-0.040,-0.040,0.000,0.000,0.000
1605210710316456960,10.0.1.137,562,move_down,-0.060,-0.060,-0.060,0.000,0.000,0.000
1605210711906563072,10.0.1.137,518,move_down,-0.080,-0.080,-0.080,0.000,0.000,0.000
1605210713604897024,10.0.1.137,646,move_down,-0.100,-0.100,-0.100,0.000,0.000,0.000
1605210715226605824,10.0.1.137,550,move_down,-0.120,-0.120,-0.120,0.000,0.000,0.000
1605210717019552000,10.0.1.137,675,move_down,-0.140,-0.140,-0.140,0.000,0.000,0.000
1605210718772207872,10.0.1.137,699,move_down,-0.160,-0.160,-0.160,0.000,0.000,0.000
1605210720514691072,10.0.1.137,724,move_down,-0.180,-0.180,-0.180,0.000,0.000,0.000
1605210722416409088,10.0.1.137,638,move_down,-0.200,-0.200,-0.200,0.000,0.000,0.000
1605210724222637056,10.0.1.137,586,move_down,-0.220,-0.220,-0.220,0.000,0.000,0.000
1605210726030738176,10.0.1.137,663,move_down,-0.240,-0.240,-0.240,0.000,0.000,0.000
1605210728135644928,10.0.1.137,861,move_down,-0.260,-0.260,-0.260,0.000,0.000,0.000
1605210729813615104,10.0.1.137,648,move_down,-0.280,-0.280,-0.280,0.000,0.000,0.000
1605210731523251968,10.0.1.137,532,move_down,-0.300,-0.300,-0.300,0.000,0.000,0.000
1605210733343379968,10.0.1.137,646,move_down,-0.320,-0.320,-0.320,0.000,0.000,0.000
1605210734978276096,10.0.1.137,592,move_down,-0.340,-0.340,-0.340,0.000,0.000,0.000
1605210736595334912,10.0.1.137,587,move_down,-0.360,-0.360,-0.360,0.000,0.000,0.000
1605210738512651008,10.0.1.137,602,move_down,-0.380,-0.380,-0.380,0.000,0.000,0.000
1605210740332848128,10.0.1.137,744,move_down,-0.400,-0.400,-0.400,0.000,0.000,0.000
1605210742093364992,10.0.1.137,648,move_down,-0.420,-0.420,-0.420,0.000,0.000,0.000
1605210743689740032,10.0.1.137,518,move_down,-0.440,-0.440,-0.440,0.000,0.000,0.000
1605210745770466048,10.0.1.137,1014,move_down,-0.460,-0.460,-0.460,0.000,0.000,0.000
1605210747421325056,10.0.1.137,517,move_down,-0.480,-0.480,-0.480,0.000,0.000,0.000
1605210749106065152,10.0.1.137,630,move_down,-0.500,-0.500,-0.500,0.000,0.000,0.000
1605210750825607936,10.0.1.137,648,move_down,-0.520,-0.520,-0.520,0.000,0.000,0.000
1605210752537283840,10.0.1.137,667,move_down,-0.540,-0.540,-0.540,0.000,0.000,0.000
1605210754165347072,10.0.1.137,505,move_down,-0.560,-0.560,-0.560,0.000,0.000,0.000
1605210755911271936,10.0.1.137,604,move_down,-0.580,-0.580,-0.580,0.000,0.000,0.000
1605210757028545024,10.0.1.137,38,pick,-0.590,-0.590,-0.590,0.000,0.000,0.000
1605210758042230016,10.0.1.137,45,pick,-0.600,-0.600,-0.600,0.000,0.000,0.000
1605210759070617856,10.0.1.137,72,pick,-0.610,-0.610,-0.610,0.000,0.000,0.000
1605210760036933888,10.0.1.137,32,pick,-0.620,-0.620,-0.620,0.000,0.000,0.000
1605210761053884928,10.0.1.137,48,pick,-0.630,-0.630,-0.630,0.000,0.000,0.000
1605210762054313984,10.0.1.137,45,pick,-0.640,-0.640,-0.640,0.000,0.000,0.000
1605210763059760128,10.0.1.137,41,pick,-0.650,-0.650,-0.650,0.000,0.000,0.000
1605210764069876992,10.0.1.137,50,pick,-0.660,-0.660,-0.660,0.000,0.000,0.000
1605210765080374016,10.0.1.137,41,pick,-0.670,-0.670,-0.670,0.000,0.000,0.000
1605210766078080000,10.0.1.137,38,pick,-0.680,-0.680,-0.680,0.000,0.000,0.000
1605210768043834880,10.0.1.137,NaN,pick,-0.700,-0.700,-0.700,0.000,0.000,0.000
1605210768099035136,10.0.1.137,55,pick,-0.700,-0.700,-0.700,0.000,0.000,0.000
1605210769097714944,10.0.1.137,52,pick,-0.710,-0.710,-0.710,0.000,0.000,0.000
1605210770109822976,10.0.1.137,60,pick,-0.720,-0.720,-0.720,0.000,0.000,0.000
1605210771103204096,10.0.1.137,52,pick,-0.730,-0.730,-0.730,0.000,0.000,0.000
1605210772125435136,10.0.1.137,73,pick,-0.740,-0.740,-0.740,0.000,0.000,0.000
1605210773095251200,10.0.1.137,42,pick,-0.750,-0.750,-0.750,0.000,0.000,0.000
1605210774122322944,10.0.1.137,66,pick,-0.760,-0.760,-0.760,0.000,0.000,0.000
1605210775110169856,10.0.1.137,53,pick,-0.770,-0.770,-0.770,0.000,0.000,0.000
1605210776608887808,10.0.1.137,550,move_up,-0.750,-0.750,-0.750,0.000,0.000,0.000
1605210778276901888,10.0.1.137,489,move_up,-0.730,-0.730,-0.730,0.000,0.000,0.000
1605210779922353152,10.0.1.137,586,move_up,-0.710,-0.710,-0.710,0.000,0.000,0.000
1605210781764192000,10.0.1.137,610,move_up,-0.690,-0.690,-0.690,0.000,0.000,0.000
1605210783817956096,10.0.1.137,833,move_up,-0.670,-0.670,-0.670,0.000,0.000,0.000
1605210785462827008,10.0.1.137,545,move_up,-0.650,-0.650,-0.650,0.000,0.000,0.000
1605210787319714048,10.0.1.137,752,move_up,-0.630,-0.630,-0.630,0.000,0.000,0.000
1605210788951678976,10.0.1.137,533,move_up,-0.610,-0.610,-0.610,0.000,0.000,0.000
1605210790677319936,10.0.1.137,551,move_up,-0.590,-0.590,-0.590,0.000,0.000,0.000
1605210792422539008,10.0.1.137,593,move_up,-0.570,-0.570,-0.570,0.000,0.000,0.000
1605210794021011200,10.0.1.137,512,move_up,-0.550,-0.550,-0.550,0.000,0.000,0.000
1605210795721257984,10.0.1.137,604,move_up,-0.530,-0.530,-0.530,0.000,0.000,0.000
1605210797547194880,10.0.1.137,741,move_up,-0.510,-0.510,-0.510,0.000,0.000,0.000
1605210799203677952,10.0.1.137,539,move_up,-0.490,-0.490,-0.490,0.000,0.000,0.000
1605210800861895168,10.0.1.137,569,move_up,-0.470,-0.470,-0.470,0.000,0.000,0.000
1605210802559719168,10.0.1.137,601,move_up,-0.450,-0.450,-0.450,0.000,0.000,0.000
1605210804116844800,10.0.1.137,479,move_up,-0.430,-0.430,-0.430,0.000,0.000,0.000
1605210805765276928,10.0.1.137,566,move_up,-0.410,-0.410,-0.410,0.000,0.000,0.000
1605210807538338816,10.0.1.137,676,move_up,-0.390,-0.390,-0.390,0.000,0.000,0.000
1605210809156963072,10.0.1.137,500,move_up,-0.370,-0.370,-0.370,0.000,0.000,0.000
1605210810953285888,10.0.1.137,586,move_up,-0.350,-0.350,-0.350,0.000,0.000,0.000
1605210812554373888,10.0.1.137,554,move_up,-0.330,-0.330,-0.330,0.000,0.000,0.000
1605210814229073920,10.0.1.137,554,move_up,-0.310,-0.310,-0.310,0.000,0.000,0.000
1605210815939385856,10.0.1.137,590,move_up,-0.290,-0.290,-0.290,0.000,0.000,0.000
1605210817577882112,10.0.1.137,556,move_up,-0.270,-0.270,-0.270,0.000,0.000,0.000
1605210819238019840,10.0.1.137,578,move_up,-0.250,-0.250,-0.250,0.000,0.000,0.000
1605210820978926848,10.0.1.137,635,move_up,-0.230,-0.230,-0.230,0.000,0.000,0.000
1605210822999346944,10.0.1.137,801,move_up,-0.210,-0.210,-0.210,0.000,0.000,0.000
1605210824812334080,10.0.1.137,756,move_up,-0.190,-0.190,-0.190,0.000,0.000,0.000
1605210825968674816,10.0.1.137,38,place,-0.180,-0.180,-0.180,0.000,0.000,0.000
1605210827937149952,10.0.1.137,NaN,place,-0.160,-0.160,-0.160,0.000,0.000,0.000
1605210827988111872,10.0.1.137,50,place,-0.160,-0.160,-0.160,0.000,0.000,0.000
1605210828990351872,10.0.1.137,49,place,-0.150,-0.150,-0.150,0.000,0.000,0.000
1605210829995585792,10.0.1.137,53,place,-0.140,-0.140,-0.140,0.000,0.000,0.000
1605210830988498944,10.0.1.137,38,place,-0.130,-0.130,-0.130,0.000,0.000,0.000
1605210832961672192,10.0.1.137,NaN,place,-0.110,-0.110,-0.110,0.000,0.000,0.000
1605210833012289024,10.0.1.137,50,place,-0.110,-0.110,-0.110,0.000,0.000,0.000
1605210834963687936,10.0.1.137,NaN,place,-0.090,-0.090,-0.090,0.000,0.000,0.000
1605210835022697984,10.0.1.137,58,place,-0.090,-0.090,-0.090,0.000,0.000,0.000
1605210836022487040,10.0.1.137,57,place,-0.080,-0.080,-0.080,0.000,0.000,0.000
1605210837013219072,10.0.1.137,46,place,-0.070,-0.070,-0.070,0.000,0.000,0.000
1605210838975348992,10.0.1.137,NaN,place,-0.050,-0.050,-0.050,0.000,0.000,0.000
1605210839017512192,10.0.1.137,42,place,-0.050,-0.050,-0.050,0.000,0.000,0.000
1605210840042170112,10.0.1.137,65,place,-0.040,-0.040,-0.040,0.000,0.000,0.000
1605210841045767936,10.0.1.137,60,place,-0.030,-0.030,-0.030,0.000,0.000,0.000
1605210842035805952,10.0.1.137,48,place,-0.020,-0.020,-0.020,0.000,0.000,0.000
1605210843037293824,10.0.1.137,49,place,-0.010,-0.010,-0.010,0.000,0.000,0.000
1605210844059809024,10.0.1.137,65,place,0.000,0.000,0.000,0.000,0.000,0.000
1605210845525337088,10.0.1.137,529,move_down,-0.020,-0.020,-0.020,0.000,0.000,0.000
1605210847095696896,10.0.1.137,472,move_down,-0.040,-0.040,-0.040,0.000,0.000,0.000
1605210848654787072,10.0.1.137,493,move_down,-0.060,-0.060,-0.060,0.000,0.000,0.000
1605210850404896000,10.0.1.137,661,move_down,-0.080,-0.080,-0.080,0.000,0.000,0.000
1605210852060952064,10.0.1.137,521,move_down,-0.100,-0.100,-0.100,0.000,0.000,0.000
1605210853734924032,10.0.1.137,584,move_down,-0.120,-0.120,-0.120,0.000,0.000,0.000
1605210855454732800,10.0.1.137,652,move_down,-0.140,-0.140,-0.140,0.000,0.000,0.000
1605210857083836928,10.0.1.137,541,move_down,-0.160,-0.160,-0.160,0.000,0.000,0.000
1605210858716059904,10.0.1.137,489,move_down,-0.180,-0.180,-0.180,0.000,0.000,0.000
1605210860583641088,10.0.1.137,727,move_down,-0.200,-0.200,-0.200,0.000,0.000,0.000
1605210862212302848,10.0.1.137,563,move_down,-0.220,-0.220,-0.220,0.000,0.000,0.000
1605210863795324928,10.0.1.137,494,move_down,-0.240,-0.240,-0.240,0.000,0.000,0.000
1605210865467755008,10.0.1.137,611,move_down,-0.260,-0.260,-0.260,0.000,0.000,0.000
1605210867062036992,10.0.1.137,471,move_down,-0.280,-0.280,-0.280,0.000,0.000,0.000
1605210868762068992,10.0.1.137,586,move_down,-0.300,-0.300,-0.300,0.000,0.000,0.000
1605210870394539008,10.0.1.137,544,move_down,-0.320,-0.320,-0.320,0.000,0.000,0.000
1605210872142577920,10.0.1.137,647,move_down,-0.340,-0.340,-0.340,0.000,0.000,0.000
1605210873935241984,10.0.1.137,705,move_down,-0.360,-0.360,-0.360,0.000,0.000,0.000
1605210875650839040,10.0.1.137,679,move_down,-0.380,-0.380,-0.380,0.000,0.000,0.000
1605210877423302912,10.0.1.137,666,move_down,-0.400,-0.400,-0.400,0.000,0.000,0.000
1605210879164365056,10.0.1.137,638,move_down,-0.420,-0.420,-0.420,0.000,0.000,0.000
1605210880865485056,10.0.1.137,572,move_down,-0.440,-0.440,-0.440,0.000,0.000,0.000
1605210882839996928,10.0.1.137,859,move_down,-0.460,-0.460,-0.460,0.000,0.000,0.000
1605210884646496000,10.0.1.137,694,move_down,-0.480,-0.480,-0.480,0.000,0.000,0.000
1605210886519716096,10.0.1.137,720,move_down,-0.500,-0.500,-0.500,0.000,0.000,0.000
1605210888329920000,10.0.1.137,728,move_down,-0.520,-0.520,-0.520,0.000,0.000,0.000
1605210889869814016,10.0.1.137,514,move_down,-0.540,-0.540,-0.540,0.000,0.000,0.000
1605210891620567040,10.0.1.137,605,move_down,-0.560,-0.560,-0.560,0.000,0.000,0.000
1605210893403190016,10.0.1.137,631,move_down,-0.580,-0.580,-0.580,0.000,0.000,0.000
1605210894639141120,10.0.1.137,42,pick,-0.590,-0.590,-0.590,0.000,0.000,0.000
1605210895661804800,10.0.1.137,54,pick,-0.600,-0.600,-0.600,0.000,0.000,0.000
1605210896694840064,10.0.1.137,80,pick,-0.610,-0.610,-0.610,0.000,0.000,0.000
1605210897665928960,10.0.1.137,50,pick,-0.620,-0.620,-0.620,0.000,0.000,0.000
1605210898664943872,10.0.1.137,49,pick,-0.630,-0.630,-0.630,0.000,0.000,0.000
1605210899673906176,10.0.1.137,56,pick,-0.640,-0.640,-0.640,0.000,0.000,0.000
1605210900669910784,10.0.1.137,48,pick,-0.650,-0.650,-0.650,0.000,0.000,0.000
1605210901723217920,10.0.1.137,99,pick,-0.660,-0.660,-0.660,0.000,0.000,0.000
1605210902692013056,10.0.1.137,61,pick,-0.670,-0.670,-0.670,0.000,0.000,0.000
1605210903680768000,10.0.1.137,39,pick,-0.680,-0.680,-0.680,0.000,0.000,0.000
1605210904698091008,10.0.1.137,49,pick,-0.690,-0.690,-0.690,0.000,0.000,0.000
1605210906654629888,10.0.1.137,NaN,pick,-0.710,-0.710,-0.710,0.000,0.000,0.000
1605210906721138944,10.0.1.137,66,pick,-0.710,-0.710,-0.710,0.000,0.000,0.000
1605210907756908800,10.0.1.137,100,pick,-0.720,-0.720,-0.720,0.000,0.000,0.000
1605210908713128192,10.0.1.137,54,pick,-0.730,-0.730,-0.730,0.000,0.000,0.000
1605210909708333056,10.0.1.137,48,pick,-0.740,-0.740,-0.740,0.000,0.000,0.000
1605210910724867072,10.0.1.137,61,pick,-0.750,-0.750,-0.750,0.000,0.000,0.000
1605210911708941056,10.0.1.137,43,pick,-0.760,-0.760,-0.760,0.000,0.000,0.000
1605210912719196928,10.0.1.137,52,pick,-0.770,-0.770,-0.770,0.000,0.000,0.000
1605210914315009024,10.0.1.137,647,move_up,-0.750,-0.750,-0.750,0.000,0.000,0.000
1605210915976822016,10.0.1.137,535,move_up,-0.730,-0.730,-0.730,0.000,0.000,0.000
1605210917710479104,10.0.1.137,553,move_up,-0.710,-0.710,-0.710,0.000,0.000,0.000
1605210919367603968,10.0.1.137,468,move_up,-0.690,-0.690,-0.690,0.000,0.000,0.000
1605210921218272000,10.0.1.137,633,move_up,-0.670,-0.670,-0.670,0.000,0.000,0.000
1605210922916657920,10.0.1.137,665,move_up,-0.650,-0.650,-0.650,0.000,0.000,0.000
1605210924613580032,10.0.1.137,551,move_up,-0.630,-0.630,-0.630,0.000,0.000,0.000
1605210926128377856,10.0.1.137,467,move_up,-0.610,-0.610,-0.610,0.000,0.000,0.000
1605210927907847936,10.0.1.137,637,move_up,-0.590,-0.590,-0.590,0.000,0.000,0.000
1605210929541069056,10.0.1.137,543,move_up,-0.570,-0.570,-0.570,0.000,0.000,0.000
1605210931382466048,10.0.1.137,666,move_up,-0.550,-0.550,-0.550,0.000,0.000,0.000
1605210933062364928,10.0.1.137,578,move_up,-0.530,-0.530,-0.530,0.000,0.000,0.000
1605210934742352896,10.0.1.137,562,move_up,-0.510,-0.510,-0.510,0.000,0.000,0.000
1605210936311342080,10.0.1.137,502,move_up,-0.490,-0.490,-0.490,0.000,0.000,0.000
1605210937973544960,10.0.1.137,589,move_up,-0.470,-0.470,-0.470,0.000,0.000,0.000
1605210939546006016,10.0.1.137,493,move_up,-0.450,-0.450,-0.450,0.000,0.000,0.000
1605210941103444224,10.0.1.137,495,move_up,-0.430,-0.430,-0.430,0.000,0.000,0.000
1605210942802846976,10.0.1.137,598,move_up,-0.410,-0.410,-0.410,0.000,0.000,0.000
1605210944661037824,10.0.1.137,734,move_up,-0.390,-0.390,-0.390,0.000,0.000,0.000
1605210946465468928,10.0.1.137,721,move_up,-0.370,-0.370,-0.370,0.000,0.000,0.000
1605210948129287936,10.0.1.137,525,move_up,-0.350,-0.350,-0.350,0.000,0.000,0.000
1605210949840993792,10.0.1.137,664,move_up,-0.330,-0.330,-0.330,0.000,0.000,0.000
1605210951446821888,10.0.1.137,560,move_up,-0.310,-0.310,-0.310,0.000,0.000,0.000
1605210953313783808,10.0.1.137,744,move_up,-0.290,-0.290,-0.290,0.000,0.000,0.000
1605210955433692928,10.0.1.137,938,move_up,-0.270,-0.270,-0.270,0.000,0.000,0.000
1605210957055183872,10.0.1.137,571,move_up,-0.250,-0.250,-0.250,0.000,0.000,0.000
1605210958678972928,10.0.1.137,545,move_up,-0.230,-0.230,-0.230,0.000,0.000,0.000
1605210960402814976,10.0.1.137,454,move_up,-0.210,-0.210,-0.210,0.000,0.000,0.000
1605210962199839232,10.0.1.137,538,move_up,-0.190,-0.190,-0.190,0.000,0.000,0.000
1605210963304214016,10.0.1.137,49,place,-0.180,-0.180,-0.180,0.000,0.000,0.000
1605210964311980032,10.0.1.137,54,place,-0.170,-0.170,-0.170,0.000,0.000,0.000
1605210965306883072,10.0.1.137,48,place,-0.160,-0.160,-0.160,0.000,0.000,0.000
1605210966307714816,10.0.1.137,48,place,-0.150,-0.150,-0.150,0.000,0.000,0.000
1605210967327780096,10.0.1.137,66,place,-0.140,-0.140,-0.140,0.000,0.000,0.000
1605210968298202880,10.0.1.137,35,place,-0.130,-0.130,-0.130,0.000,0.000,0.000
1605210969335010048,10.0.1.137,69,place,-0.120,-0.120,-0.120,0.000,0.000,0.000
1605210970324224000,10.0.1.137,57,place,-0.110,-0.110,-0.110,0.000,0.000,0.000
1605210971325912832,10.0.1.137,57,place,-0.100,-0.100,-0.100,0.000,0.000,0.000
1605210972341206016,10.0.1.137,70,place,-0.090,-0.090,-0.090,0.000,0.000,0.000
1605210973320144896,10.0.1.137,48,place,-0.080,-0.080,-0.080,0.000,0.000,0.000
1605210974328313088,10.0.1.137,55,place,-0.070,-0.070,-0.070,0.000,0.000,0.000
1605210975342850048,10.0.1.137,49,place,-0.060,-0.060,-0.060,0.000,0.000,0.000
1605210976333923072,10.0.1.137,38,place,-0.050,-0.050,-0.050,0.000,0.000,0.000
1605210977367319040,10.0.1.137,64,place,-0.040,-0.040,-0.040,0.000,0.000,0.000
1605210978388926976,10.0.1.137,74,place,-0.030,-0.030,-0.030,0.000,0.000,0.000
1605210980334983168,10.0.1.137,NaN,place,-0.010,-0.010,-0.010,0.000,0.000,0.000
1605210980381266944,10.0.1.137,46,place,-0.010,-0.010,-0.010,0.000,0.000,0.000
1605210981383452928,10.0.1.137,47,place,0.000,0.000,0.000,0.000,0.000,0.000
1605210982897104128,10.0.1.137,554,move_down,-0.020,-0.020,-0.020,0.000,0.000,0.000
1605210984546331904,10.0.1.137,456,move_down,-0.040,-0.040,-0.040,0.000,0.000,0.000
1605210986390112000,10.0.1.137,620,move_down,-0.060,-0.060,-0.060,0.000,0.000,0.000
1605210988167118080,10.0.1.137,617,move_down,-0.080,-0.080,-0.080,0.000,0.000,0.000
1605210989875297024,10.0.1.137,552,move_down,-0.100,-0.100,-0.100,0.000,0.000,0.000
1605210991513771008,10.0.1.137,543,move_down,-0.120,-0.120,-0.120,0.000,0.000,0.000
1605210993407237120,10.0.1.137,585,move_down,-0.140,-0.140,-0.140,0.000,0.000,0.000
1605210995098530048,10.0.1.137,539,move_down,-0.160,-0.160,-0.160,0.000,0.000,0.000
1605210996761686016,10.0.1.137,609,move_down,-0.180,-0.180,-0.180,0.000,0.000,0.000
1605210998392785920,10.0.1.137,610,move_down,-0.200,-0.200,-0.200,0.000,0.000,0.000
1605210999995801088,10.0.1.137,509,move_down,-0.220,-0.220,-0.220,0.000,0.000,0.000
1605211001621761024,10.0.1.137,535,move_down,-0.240,-0.240,-0.240,0.000,0.000,0.000
1605211003453149184,10.0.1.137,641,move_down,-0.260,-0.260,-0.260,0.000,0.000,0.000
1605211005184058880,10.0.1.137,572,move_down,-0.280,-0.280,-0.280,0.000,0.000,0.000
1605211006870322944,10.0.1.137,610,move_down,-0.300,-0.300,-0.300,0.000,0.000,0.000
1605211008445150976,10.0.1.137,489,move_down,-0.320,-0.320,-0.320,0.000,0.000,0.000
1605211010067322112,10.0.1.137,521,move_down,-0.340,-0.340,-0.340,0.000,0.000,0.000
1605211011698786048,10.0.1.137,523,move_down,-0.360,-0.360,-0.360,0.000,0.000,0.000
1605211013380392192,10.0.1.137,552,move_down,-0.380,-0.380,-0.380,0.000,0.000,0.000
1605211015100209920,10.0.1.137,580,move_down,-0.400,-0.400,-0.400,0.000,0.000,0.000
1605211016922450944,10.0.1.137,707,move_down,-0.420,-0.420,-0.420,0.000,0.000,0.000
1605211018531809024,10.0.1.137,577,move_down,-0.440,-0.440,-0.440,0.000,0.000,0.000
1605211020240508928,10.0.1.137,576,move_down,-0.460,-0.460,-0.460,0.000,0.000,0.000
1605211022004990208,10.0.1.137,653,move_down,-0.480,-0.480,-0.480,0.000,0.000,0.000
1605211023646595072,10.0.1.137,544,move_down,-0.500,-0.500,-0.500,0.000,0.000,0.000
1605211025280930048,10.0.1.137,572,move_down,-0.520,-0.520,-0.520,0.000,0.000,0.000
1605211026843222016,10.0.1.137,440,move_down,-0.540,-0.540,-0.540,0.000,0.000,0.000
1605211028530383104,10.0.1.137,590,move_down,-0.560,-0.560,-0.560,0.000,0.000,0.000
1605211030304950016,10.0.1.137,683,move_down,-0.580,-0.580,-0.580,0.000,0.000,0.000
1605211031459783936,10.0.1.137,58,pick,-0.590,-0.590,-0.590,0.000,0.000,0.000
1605211032531783168,10.0.1.137,129,pick,-0.600,-0.600,-0.600,0.000,0.000,0.000
1605211033455255040,10.0.1.137,45,pick,-0.610,-0.610,-0.610,0.000,0.000,0.000
1605211034459783936,10.0.1.137,48,pick,-0.620,-0.620,-0.620,0.000,0.000,0.000
1605211035463685120,10.0.1.137,47,pick,-0.630,-0.630,-0.630,0.000,0.000,0.000
1605211036473156096,10.0.1.137,48,pick,-0.640,-0.640,-0.640,0.000,0.000,0.000
1605211037476540160,10.0.1.137,48,pick,-0.650,-0.650,-0.650,0.000,0.000,0.000
1605211038474340864,10.0.1.137,44,pick,-0.660,-0.660,-0.660,0.000,0.000,0.000
1605211039504867072,10.0.1.137,72,pick,-0.670,-0.670,-0.670,0.000,0.000,0.000
1605211040504570112,10.0.1.137,63,pick,-0.680,-0.680,-0.680,0.000,0.000,0.000
1605211041546658048,10.0.1.137,104,pick,-0.690,-0.690,-0.690,0.000,0.000,0.000
1605211042516020992,10.0.1.137,72,pick,-0.700,-0.700,-0.700,0.000,0.000,0.000
1605211043503706880,10.0.1.137,60,pick,-0.710,-0.710,-0.710,0.000,0.000,0.000
1605211044501102848,10.0.1.137,55,pick,-0.720,-0.720,-0.720,0.000,0.000,0.000
1605211045538616832,10.0.1.137,89,pick,-0.730,-0.730,-0.730,0.000,0.000,0.000
1605211046499762944,10.0.1.137,46,pick,-0.740,-0.740,-0.740,0.000,0.000,0.000
1605211047496049920,10.0.1.137,41,pick,-0.750,-0.750,-0.750,0.000,0.000,0.000
1605211049466810880,10.0.1.137,NaN,pick,-0.770,-0.770,-0.770,0.000,0.000,0.000
1605211049506590976,10.0.1.137,39,pick,-0.770,-0.770,-0.770,0.000,0.000,0.000
1605211051007991040,10.0.1.137,539,move_up,-0.750,-0.750,-0.750,0.000,0.000,0.000
1605211053010222848,10.0.1.137,849,move_up,-0.730,-0.730,-0.730,0.000,0.000,0.000
1605211054707798016,10.0.1.137,593,move_up,-0.710,-0.710,-0.710,0.000,0.000,0.000
1605211056370036992,10.0.1.137,600,move_up,-0.690,-0.690,-0.690,0.000,0.000,0.000
1605211058013413888,10.0.1.137,463,move_up,-0.670,-0.670,-0.670,0.000,0.000,0.000
1605211059883863040,10.0.1.137,757,move_up,-0.650,-0.650,-0.650,0.000,0.000,0.000
1605211061518292992,10.0.1.137,516,move_up,-0.630,-0.630,-0.630,0.000,0.000,0.000
1605211063336987136,10.0.1.137,624,move_up,-0.610,-0.610,-0.610,0.000,0.000,0.000
1605211064904557824,10.0.1.137,515,move_up,-0.590,-0.590,-0.590,0.000,0.000,0.000
1605211066942487040,10.0.1.137,815,move_up,-0.570,-0.570,-0.570,0.000,0.000,0.000
1605211068837230080,10.0.1.137,606,move_up,-0.550,-0.550,-0.550,0.000,0.000,0.000
1605211070488495104,10.0.1.137,553,move_up,-0.530,-0.530,-0.530,0.000,0.000,0.000
1605211072184274944,10.0.1.137,600,move_up,-0.510,-0.510,-0.510,0.000,0.000,0.000
1605211073933843968,10.0.1.137,629,move_up,-0.490,-0.490,-0.490,0.000,0.000,0.000
1605211075559926016,10.0.1.137,545,move_up,-0.470,-0.470,-0.470,0.000,0.000,0.000
1605211077458401024,10.0.1.137,647,move_up,-0.450,-0.450,-0.450,0.000,0.000,0.000
1605211078973676032,10.0.1.137,434,move_up,-0.430,-0.430,-0.430,0.000,0.000,0.000
1605211080829943040,10.0.1.137,539,move_up,-0.410,-0.410,-0.410,0.000,0.000,0.000
1605211082526012928,10.0.1.137,557,move_up,-0.390,-0.390,-0.390,0.000,0.000,0.000
1605211084332283904,10.0.1.137,585,move_up,-0.370,-0.370,-0.370,0.000,0.000,0.000
1605211086087461888,10.0.1.137,494,move_up,-0.350,-0.350,-0.350,0.000,0.000,0.000
1605211087912184832,10.0.1.137,709,move_up,-0.330,-0.330,-0.330,0.000,0.000,0.000
1605211089784288768,10.0.1.137,717,move_up,-0.310,-0.310,-0.310,0.000,0.000,0.000
1605211091532516864,10.0.1.137,690,move_up,-0.290,-0.290,-0.290,0.000,0.000,0.000
1605211093431571968,10.0.1.137,773,move_up,-0.270,-0.270,-0.270,0.000,0.000,0.000
1605211095185388032,10.0.1.137,582,move_up,-0.250,-0.250,-0.250,0.000,0.000,0.000
1605211096912857088,10.0.1.137,643,move_up,-0.230,-0.230,-0.230,0.000,0.000,0.000
1605211098519831808,10.0.1.137,543,move_up,-0.210,-0.210,-0.210,0.000,0.000,0.000
1605211100413608960,10.0.1.137,NaN,move_down,-0.210,-0.210,-0.210,0.000,0.000,0.000
1605211100905462016,10.0.1.137,491,move_down,-0.210,-0.210,-0.210,0.000,0.000,0.000
1605211102586391808,10.0.1.137,556,move_down,-0.230,-0.230,-0.230,0.000,0.000,0.000
1605211104271630080,10.0.1.137,512,move_down,-0.250,-0.250,-0.250,0.000,0.000,0.000
1605211105953319936,10.0.1.137,532,move_down,-0.270,-0.270,-0.270,0.000,0.000,0.000
1605211107557720064,10.0.1.137,543,move_down,-0.290,-0.290,-0.290,0.000,0.000,0.000
1605211109186289152,10.0.1.137,558,move_down,-0.310,-0.310,-0.310,0.000,0.000,0.000
1605211110901449984,10.0.1.137,611,move_down,-0.330,-0.330,-0.330,0.000,0.000,0.000
1605211112582345984,10.0.1.137,552,move_down,-0.350,-0.350,-0.350,0.000,0.000,0.000
1605211114208466176,10.0.1.137,537,move_down,-0.370,-0.370,-0.370,0.000,0.000,0.000
1605211115868177920,10.0.1.137,505,move_down,-0.390,-0.390,-0.390,0.000,0.000,0.000
1605211117658787072,10.0.1.137,719,move_down,-0.410,-0.410,-0.410,0.000,0.000,0.000
1605211119263480832,10.0.1.137,497,move_down,-0.430,-0.430,-0.430,0.000,0.000,0.000
1605211120858586112,10.0.1.137,498,move_down,-0.450,-0.450,-0.450,0.000,0.000,0.000
1605211122475117824,10.0.1.137,518,move_down,-0.470,-0.470,-0.470,0.000,0.000,0.000
1605211124120558080,10.0.1.137,550,move_down,-0.490,-0.490,-0.490,0.000,0.000,0.000
1605211125859708928,10.0.1.137,605,move_down,-0.510,-0.510,-0.510,0.000,0.000,0.000
1605211127517011968,10.0.1.137,521,move_down,-0.530,-0.530,-0.530,0.000,0.000,0.000
1605211129223787008,10.0.1.137,571,move_down,-0.550,-0.550,-0.550,0.000,0.000,0.000
1605211131072679168,10.0.1.137,813,move_down,-0.570,-0.570,-0.570,0.000,0.000,0.000
1605211132659888128,10.0.1.137,512,move_down,-0.590,-0.590,-0.590,0.000,0.000,0.000
1605211134460675072,10.0.1.137,599,move_down,-0.610,-0.610,-0.610,0.000,0.000,0.000
1605211136056896000,10.0.1.137,513,move_down,-0.630,-0.630,-0.630,0.000,0.000,0.000
1605211137859767808,10.0.1.137,649,move_down,-0.650,-0.650,-0.650,0.000,0.000,0.000
1605211139477072128,10.0.1.137,496,move_down,-0.670,-0.670,-0.670,0.000,0.000,0.000
1605211141124544000,10.0.1.137,521,move_down,-0.690,-0.690,-0.690,0.000,0.000,0.000
1605211142705886976,10.0.1.137,521,move_down,-0.710,-0.710,-0.710,0.000,0.000,0.000
1605211144528584960,10.0.1.137,720,move_down,-0.730,-0.730,-0.730,0.000,0.000,0.000
1605211146148857088,10.0.1.137,554,move_down,-0.750,-0.750,-0.750,0.000,0.000,0.000
1605211147774204928,10.0.1.137,547,move_down,-0.770,-0.770,-0.770,0.000,0.000,0.000
1605211149059020032,10.0.1.137,52,pick,-0.780,-0.780,-0.780,0.000,0.000,0.000
1605211151011603200,10.0.1.137,NaN,pick,-0.800,-0.800,-0.800,0.000,0.000,0.000
1605211152013673984,10.0.1.137,NaN,pick,-0.810,-0.810,-0.810,0.000,0.000,0.000
1605211152074220800,10.0.1.137,60,pick,-0.810,-0.810,-0.810,0.000,0.000,0.000
1605211153067850240,10.0.1.137,53,pick,-0.820,-0.820,-0.820,0.000,0.000,0.000
1605211154064270080,10.0.1.137,48,pick,-0.830,-0.830,-0.830,0.000,0.000,0.000
1605211155078246144,10.0.1.137,61,pick,-0.840,-0.840,-0.840,0.000,0.000,0.000
1605211156071302912,10.0.1.137,53,pick,-0.850,-0.850,-0.850,0.000,0.000,0.000
1605211157059854080,10.0.1.137,38,pick,-0.860,-0.860,-0.860,0.000,0.000,0.000
1605211158098208000,10.0.1.137,74,pick,-0.870,-0.870,-0.870,0.000,0.000,0.000
1605211159102087936,10.0.1.137,76,pick,-0.880,-0.880,-0.880,0.000,0.000,0.000
1605211160100656896,10.0.1.137,67,pick,-0.890,-0.890,-0.890,0.000,0.000,0.000
1605211161079938816,10.0.1.137,46,pick,-0.900,-0.900,-0.900,0.000,0.000,0.000
1605211162074337024,10.0.1.137,36,pick,-0.910,-0.910,-0.910,0.000,0.000,0.000
1605211164048808192,10.0.1.137,NaN,pick,-0.930,-0.930,-0.930,0.000,0.000,0.000
1605211164109081856,10.0.1.137,60,pick,-0.930,-0.930,-0.930,0.000,0.000,0.000
1605211165108251136,10.0.1.137,50,pick,-0.940,-0.940,-0.940,0.000,0.000,0.000
1605211166106419200,10.0.1.137,44,pick,-0.950,-0.950,-0.950,0.000,0.000,0.000
1605211167106158080,10.0.1.137,37,pick,-0.960,-0.960,-0.960,0.000,0.000,0.000
1605211168432023040,10.0.1.137,NaN,move_down,-0.960,-0.960,-0.960,0.000,0.000,0.000
1605211168435034112,10.0.1.137,2,move_down,-0.960,-0.960,-0.960,0.000,0.000,0.000
1605211169531971072,10.0.1.137,NaN,move_down,-1.000,-1.000,-1.000,0.000,0.000,0.000
1605211169834891008,10.0.1.137,NaN,move_down,-1.020,-1.020,-1.020,0.000,0.000,0.000
1605211170109488896,10.0.1.137,NaN,move_down,-1.040,-1.040,-1.040,0.000,0.000,0.000
1605211170479315968,10.0.1.137,NaN,move_down,-1.060,-1.060,-1.060,0.000,0.000,0.000
1605211170730081024,10.0.1.137,NaN,move_down,-1.080,-1.080,-1.080,0.000,0.000,0.000
1605211170995974144,10.0.1.137,NaN,move_down,-1.100,-1.100,-1.100,0.000,0.000,0.000
1605211171384073984,10.0.1.137,NaN,move_down,-1.120,-1.120,-1.120,0.000,0.000,0.000
1605211171686397184,10.0.1.137,NaN,move_down,-1.140,-1.140,-1.140,0.000,0.000,0.000
1605211171944430080,10.0.1.137,NaN,move_down,-1.160,-1.160,-1.160,0.000,0.000,0.000
1605211172343939072,10.0.1.137,NaN,move_down,-1.180,-1.180,-1.180,0.000,0.000,0.000
1605211172893021184,10.0.1.137,NaN,move_down,-1.200,-1.200,-1.200,0.000,0.000,0.000
1605211173305860096,10.0.1.137,NaN,move_down,-1.220,-1.220,-1.220,0.000,0.000,0.000
1605211173639538176,10.0.1.137,NaN,move_down,-1.240,-1.240,-1.240,0.000,0.000,0.000
1605211174075841792,10.0.1.137,NaN,move_down,-1.260,-1.260,-1.260,0.000,0.000,0.000
1605211174459247104,10.0.1.137,NaN,move_down,-1.280,-1.280,-1.280,0.000,0.000,0.000
1605211174725826048,10.0.1.137,NaN,move_down,-1.300,-1.300,-1.300,0.000,0.000,0.000
1605211175006848000,10.0.1.137,NaN,move_down,-1.320,-1.320,-1.320,0.000,0.000,0.000
1605211175292164096,10.0.1.137,NaN,move_down,-1.340,-1.340,-1.340,0.000,0.000,0.000
1605211175720843008,10.0.1.137,NaN,move_down,-1.360,-1.360,-1.360,0.000,0.000,0.000
1605211176030424064,10.0.1.137,NaN,move_down,-1.380,-1.380,-1.380,0.000,0.000,0.000
1605211176254569984,10.0.1.137,NaN,move_down,-1.400,-1.400,-1.400,0.000,0.000,0.000
1605211176442064896,10.0.1.137,NaN,move_down,-1.420,-1.420,-1.420,0.000,0.000,0.000
1605211176656545024,10.0.1.137,NaN,move_down,-1.440,-1.440,-1.440,0.000,0.000,0.000
1605211176831774976,10.0.1.137,NaN,move_down,-1.460,-1.460,-1.460,0.000,0.000,0.000
1605211176950262016,10.0.1.137,NaN,move_down,-1.480,-1.480,-1.480,0.000,0.000,0.000
1605211177171485952,10.0.1.137,NaN,move_down,-1.500,-1.500,-1.500,0.000,0.000,0.000
1605211177253106944,10.0.1.137,NaN,move_down,-1.520,-1.520,-1.520,0.000,0.000,0.000
1605211177422807040,10.0.1.137,NaN,move_down,-1.540,-1.540,-1.540,0.000,0.000,0.000
1605211177489219840,10.0.1.137,NaN,move_down,-1.560,-1.560,-1.560,0.000,0.000,0.000
1605211177705499904,10.0.1.137,NaN,move_down,-1.580,-1.580,-1.580,0.000,0.000,0.000
1605211178022438144,10.0.1.137,NaN,move_down,-1.600,-1.600,-1.600,0.000,0.000,0.000
1605211178179750912,10.0.1.137,NaN,move_down,-1.620,-1.620,-1.620,0.000,0.000,0.000
1605211178298342912,10.0.1.137,NaN,move_down,-1.640,-1.640,-1.640,0.000,0.000,0.000
1605211178531655168,10.0.1.137,NaN,move_down,-1.660,-1.660,-1.660,0.000,0.000,0.000
1605211178851677952,10.0.1.137,NaN,move_down,-1.680,-1.680,-1.680,0.000,0.000,0.000
1605211179187446016,10.0.1.137,NaN,move_down,-1.700,-1.700,-1.700,0.000,0.000,0.000
1605211179395567872,10.0.1.137,NaN,move_down,-1.720,-1.720,-1.720,0.000,0.000,0.000
1605211179593571840,10.0.1.137,NaN,move_down,-1.740,-1.740,-1.740,0.000,0.000,0.000
1605211179844339968,10.0.1.137,NaN,move_down,-1.760,-1.760,-1.760,0.000,0.000,0.000
1605211180116438016,10.0.1.137,NaN,move_down,-1.780,-1.780,-1.780,0.000,0.000,0.000
1605211180369648896,10.0.1.137,NaN,move_down,-1.800,-1.800,-1.800,0.000,0.000,0.000
1605211180589006848,10.0.1.137,NaN,move_down,-1.820,-1.820,-1.820,0.000,0.000,0.000
1605211180793216000,10.0.1.137,NaN,move_down,-1.840,-1.840,-1.840,0.000,0.000,0.000
1605211181043517952,10.0.1.137,NaN,move_down,-1.860,-1.860,-1.860,0.000,0.000,0.000
1605211181234134016,10.0.1.137,NaN,move_down,-1.880,-1.880,-1.880,0.000,0.000,0.000
1605211181376694016,10.0.1.137,NaN,move_down,-1.900,-1.900,-1.900,0.000,0.000,0.000
1605211181657376000,10.0.1.137,NaN,move_down,-1.920,-1.920,-1.920,0.000,0.000,0.000
1605211181892962048,10.0.1.137,NaN,move_down,-1.940,-1.940,-1.940,0.000,0.000,0.000
1605211182101870080,10.0.1.137,NaN,move_down,-1.960,-1.960,-1.960,0.000,0.000,0.000
1605211182196441856,10.0.1.137,NaN,move_down,-1.980,-1.980,-1.980,0.000,0.000,0.000
1605211182669063936,10.0.1.137,NaN,move_down,-2.000,-2.000,-2.000,0.000,0.000,0.000
1605211182786267904,10.0.1.137,NaN,move_down,-2.020,-2.020,-2.020,0.000,0.000,0.000
1605211182985570048,10.0.1.137,NaN,move_down,-2.040,-2.040,-2.040,0.000,0.000,0.000
1605211183147702016,10.0.1.137,NaN,move_down,-2.060,-2.060,-2.060,0.000,0.000,0.000
1605211183230230016,10.0.1.137,NaN,move_down,-2.080,-2.080,-2.080,0.000,0.000,0.000
1605211183446394880,10.0.1.137,NaN,move_down,-2.100,-2.100,-2.100,0.000,0.000,0.000
1605211183567580928,10.0.1.137,NaN,move_down,-2.120,-2.120,-2.120,0.000,0.000,0.000
1605211183660204800,10.0.1.137,NaN,move_down,-2.140,-2.140,-2.140,0.000,0.000,0.000
1605211183831728896,10.0.1.137,NaN,move_down,-2.160,-2.160,-2.160,0.000,0.000,0.000
1605211184098263040,10.0.1.137,NaN,move_down,-2.180,-2.180,-2.180,0.000,0.000,0.000
1605211184145252864,10.0.1.137,NaN,move_down,-2.200,-2.200,-2.200,0.000,0.000,0.000
1605211184236164096,10.0.1.137,NaN,move_down,-2.220,-2.220,-2.220,0.000,0.000,0.000
1605211184533917952,10.0.1.137,NaN,move_down,-2.240,-2.240,-2.240,0.000,0.000,0.000
1605211184679696128,10.0.1.137,NaN,move_down,-2.260,-2.260,-2.260,0.000,0.000,0.000
1605211184881297152,10.0.1.137,NaN,move_down,-2.280,-2.280,-2.280,0.000,0.000,0.000
1605211184982088192,10.0.1.137,NaN,move_down,-2.300,-2.300,-2.300,0.000,0.000,0.000
1605211185127793152,10.0.1.137,NaN,move_down,-2.320,-2.320,-2.320,0.000,0.000,0.000
1605211185257762816,10.0.1.137,NaN,move_down,-2.340,-2.340,-2.340,0.000,0.000,0.000
1605211185426745856,10.0.1.137,NaN,move_down,-2.360,-2.360,-2.360,0.000,0.000,0.000
1605211185606641152,10.0.1.137,NaN,move_down,-2.380,-2.380,-2.380,0.000,0.000,0.000
1605211185761217024,10.0.1.137,NaN,move_down,-2.400,-2.400,-2.400,0.000,0.000,0.000
1605211185933923840,10.0.1.137,NaN,move_down,-2.420,-2.420,-2.420,0.000,0.000,0.000
1605211186093264128,10.0.1.137,NaN,move_down,-2.440,-2.440,-2.440,0.000,0.000,0.000
1605211186394253056,10.0.1.137,NaN,move_down,-2.460,-2.460,-2.460,0.000,0.000,0.000
1605211186494245120,10.0.1.137,NaN,move_down,-2.480,-2.480,-2.480,0.000,0.000,0.000
1605211186645402880,10.0.1.137,NaN,move_down,-2.500,-2.500,-2.500,0.000,0.000,0.000
1605211186969346048,10.0.1.137,NaN,move_down,-2.520,-2.520,-2.520,0.000,0.000,0.000
1605211187188133888,10.0.1.137,NaN,move_down,-2.540,-2.540,-2.540,0.000,0.000,0.000
1605211187547126016,10.0.1.137,NaN,move_down,-2.560,-2.560,-2.560,0.000,0.000,0.000
1605211187657645824,10.0.1.137,NaN,move_down,-2.580,-2.580,-2.580,0.000,0.000,0.000
1605211187858104064,10.0.1.137,NaN,move_down,-2.600,-2.600,-2.600,0.000,0.000,0.000
1605211187963058944,10.0.1.137,NaN,move_down,-2.620,-2.620,-2.620,0.000,0.000,0.000
1605211188085715968,10.0.1.137,NaN,move_down,-2.640,-2.640,-2.640,0.000,0.000,0.000
1605211188321981952,10.0.1.137,NaN,move_down,-2.660,-2.660,-2.660,0.000,0.000,0.000
1605211188521795072,10.0.1.137,NaN,move_down,-2.680,-2.680,-2.680,0.000,0.000,0.000
1605211188717570048,10.0.1.137,NaN,move_down,-2.700,-2.700,-2.700,0.000,0.000,0.000
1605211188934552832,10.0.1.137,NaN,move_down,-2.720,-2.720,-2.720,0.000,0.000,0.000
1605211189086340864,10.0.1.137,NaN,move_down,-2.740,-2.740,-2.740,0.000,0.000,0.000
1605211189220166912,10.0.1.137,NaN,move_down,-2.760,-2.760,-2.760,0.000,0.000,0.000
1605211189389363968,10.0.1.137,NaN,move_down,-2.780,-2.780,-2.780,0.000,0.000,0.000
1605211189569381120,10.0.1.137,NaN,move_down,-2.800,-2.800,-2.800,0.000,0.000,0.000
1605211189784158976,10.0.1.137,NaN,move_down,-2.820,-2.820,-2.820,0.000,0.000,0.000
1605211189991161088,10.0.1.137,NaN,move_down,-2.840,-2.840,-2.840,0.000,0.000,0.000
1605211190292530944,10.0.1.137,NaN,move_down,-2.860,-2.860,-2.860,0.000,0.000,0.000
1605211190421089024,10.0.1.137,NaN,move_down,-2.880,-2.880,-2.880,0.000,0.000,0.000
1605211190521574144,10.0.1.137,NaN,move_down,-2.900,-2.900,-2.900,0.000,0.000,0.000
1605211190656300032,10.0.1.137,NaN,move_down,-2.920,-2.920,-2.920,0.000,0.000,0.000
1605211190806643968,10.0.1.137,NaN,move_down,-2.940,-2.940,-2.940,0.000,0.000,0.000
1605211190924060160,10.0.1.137,NaN,move_down,-2.960,-2.960,-2.960,0.000,0.000,0.000
1605211191327600896,10.0.1.137,NaN,move_down,-2.980,-2.980,-2.980,0.000,0.000,0.000
1605211191548343808,10.0.1.137,NaN,move_down,-3.000,-3.000,-3.000,0.000,0.000,0.000
1605211191690129920,10.0.1.137,NaN,move_down,-3.020,-3.020,-3.020,0.000,0.000,0.000
1605211191991054080,10.0.1.137,NaN,move_down,-3.040,-3.040,-3.040,0.000,0.000,0.000
1605211192251857152,10.0.1.137,NaN,move_down,-3.060,-3.060,-3.060,0.000,0.000,0.000
1605211192405984000,10.0.1.137,NaN,move_down,-3.080,-3.080,-3.080,0.000,0.000,0.000
1605211192693504000,10.0.1.137,NaN,move_down,-3.100,-3.100,-3.100,0.000,0.000,0.000
1605211193100343040,10.0.1.137,NaN,move_down,-3.120,-3.120,-3.120,0.000,0.000,0.000
1605211193314336000,10.0.1.137,NaN,move_down,-3.140,-3.140,-3.140,0.000,0.000,0.000
1605211193671727872,10.0.1.137,NaN,move_down,-3.160,-3.160,-3.160,0.000,0.000,0.000
1605211193885350912,10.0.1.137,NaN,move_down,-3.180,-3.180,-3.180,0.000,0.000,0.000
1605211194014233088,10.0.1.137,NaN,move_down,-3.200,-3.200,-3.200,0.000,0.000,0.000
1605211194383416064,10.0.1.137,NaN,move_down,-3.220,-3.220,-3.220,0.000,0.000,0.000
1605211194564574976,10.0.1.137,NaN,move_down,-3.240,-3.240,-3.240,0.000,0.000,0.000
1605211194744648960,10.0.1.137,NaN,move_down,-3.260,-3.260,-3.260,0.000,0.000,0.000
1605211194880448000,10.0.1.137,NaN,move_down,-3.280,-3.280,-3.280,0.000,0.000,0.000
1605211195011680000,10.0.1.137,NaN,move_down,-3.300,-3.300,-3.300,0.000,0.000,0.000
1605211195167806976,10.0.1.137,NaN,move_down,-3.320,-3.320,-3.320,0.000,0.000,0.000
1605211195364347904,10.0.1.137,NaN,move_down,-3.340,-3.340,-3.340,0.000,0.000,0.000
1605211195470337024,10.0.1.137,NaN,move_down,-3.360,-3.360,-3.360,0.000,0.000,0.000
1605211195678797056,10.0.1.137,NaN,move_down,-3.380,-3.380,-3.380,0.000,0.000,0.000
1605211195878846976,10.0.1.137,NaN,move_down,-3.400,-3.400,-3.400,0.000,0.000,0.000
1605211196063545088,10.0.1.137,NaN,move_down,-3.420,-3.420,-3.420,0.000,0.000,0.000
1605211196285191936,10.0.1.137,NaN,move_down,-3.440,-3.440,-3.440,0.000,0.000,0.000
1605211196499870976,10.0.1.137,NaN,move_down,-3.460,-3.460,-3.460,0.000,0.000,0.000
1605211196632711936,10.0.1.137,NaN,move_down,-3.480,-3.480,-3.480,0.000,0.000,0.000
1605211196812450048,10.0.1.137,NaN,move_down,-3.500,-3.500,-3.500,0.000,0.000,0.000
1605211196969327872,10.0.1.137,NaN,move_down,-3.520,-3.520,-3.520,0.000,0.000,0.000
1605211197112055040,10.0.1.137,NaN,move_down,-3.540,-3.540,-3.540,0.000,0.000,0.000
1605211197366544128,10.0.1.137,NaN,move_down,-3.560,-3.560,-3.560,0.000,0.000,0.000
1605211197465157120,10.0.1.137,NaN,move_down,-3.580,-3.580,-3.580,0.000,0.000,0.000
1605211197632288000,10.0.1.137,NaN,move_down,-3.600,-3.600,-3.600,0.000,0.000,0.000
1605211197926484224,10.0.1.137,NaN,move_down,-3.620,-3.620,-3.620,0.000,0.000,0.000
1605211198091787008,10.0.1.137,NaN,move_down,-3.640,-3.640,-3.640,0.000,0.000,0.000
1605211198159159040,10.0.1.137,NaN,move_down,-3.660,-3.660,-3.660,0.000,0.000,0.000
1605211198330859776,10.0.1.137,NaN,move_down,-3.680,-3.680,-3.680,0.000,0.000,0.000
1605211198646573056,10.0.1.137,NaN,move_down,-3.700,-3.700,-3.700,0.000,0.000,0.000
1605211198845320960,10.0.1.137,NaN,move_down,-3.720,-3.720,-3.720,0.000,0.000,0.000
1605211198980012800,10.0.1.137,NaN,move_down,-3.740,-3.740,-3.740,0.000,0.000,0.000
1605211199072509952,10.0.1.137,NaN,move_down,-3.760,-3.760,-3.760,0.000,0.000,0.000
1605211199222078976,10.0.1.137,NaN,move_down,-3.780,-3.780,-3.780,0.000,0.000,0.000
1605211199375382016,10.0.1.137,NaN,move_down,-3.800,-3.800,-3.800,0.000,0.000,0.000
1605211199549252096,10.0.1.137,NaN,move_down,-3.820,-3.820,-3.820,0.000,0.000,0.000
1605211199804243968,10.0.1.137,NaN,move_down,-3.840,-3.840,-3.840,0.000,0.000,0.000
1605211200039351040,10.0.1.137,NaN,move_down,-3.860,-3.860,-3.860,0.000,0.000,0.000
1605211200261341952,10.0.1.137,NaN,move_down,-3.880,-3.880,-3.880,0.000,0.000,0.000
1605211200465282048,10.0.1.137,NaN,move_down,-3.900,-3.900,-3.900,0.000,0.000,0.000
1605211200583638016,10.0.1.137,NaN,move_down,-3.920,-3.920,-3.920,0.000,0.000,0.000
1605211200742564864,10.0.1.137,NaN,move_down,-3.940,-3.940,-3.940,0.000,0.000,0.000
1605211200949793024,10.0.1.137,NaN,move_down,-3.960,-3.960,-3.960,0.000,0.000,0.000
1605211201278654976,10.0.1.137,NaN,move_down,-3.980,-3.980,-3.980,0.000,0.000,0.000
1605211201386924032,10.0.1.137,NaN,move_down,-4.000,-4.000,-4.000,0.000,0.000,0.000
1605211201507924992,10.0.1.137,NaN,move_down,-4.020,-4.020,-4.020,0.000,0.000,0.000
1605211201696676864,10.0.1.137,NaN,move_down,-4.040,-4.040,-4.040,0.000,0.000,0.000
1605211201838416128,10.0.1.137,NaN,move_down,-4.060,-4.060,-4.060,0.000,0.000,0.000
1605211202063333120,10.0.1.137,NaN,move_down,-4.080,-4.080,-4.080,0.000,0.000,0.000
1605211202191751936,10.0.1.137,NaN,move_down,-4.100,-4.100,-4.100,0.000,0.000,0.000
1605211202308121856,10.0.1.137,NaN,move_down,-4.120,-4.120,-4.120,0.000,0.000,0.000
1605211202458556928,10.0.1.137,NaN,move_down,-4.140,-4.140,-4.140,0.000,0.000,0.000
1605211202644926976,10.0.1.137,NaN,move_down,-4.160,-4.160,-4.160,0.000,0.000,0.000
1605211202822850816,10.0.1.137,NaN,move_down,-4.180,-4.180,-4.180,0.000,0.000,0.000
1605211203111540992,10.0.1.137,NaN,move_down,-4.200,-4.200,-4.200,0.000,0.000,0.000
1605211203254520832,10.0.1.137,NaN,move_down,-4.220,-4.220,-4.220,0.000,0.000,0.000
1605211203501388032,10.0.1.137,NaN,move_down,-4.240,-4.240,-4.240,0.000,0.000,0.000
1605211203733150976,10.0.1.137,NaN,move_down,-4.260,-4.260,-4.260,0.000,0.000,0.000
1605211203980345088,10.0.1.137,NaN,move_down,-4.280,-4.280,-4.280,0.000,0.000,0.000
1605211204158509056,10.0.1.137,NaN,move_down,-4.300,-4.300,-4.300,0.000,0.000,0.000
1605211204361826048,10.0.1.137,NaN,move_down,-4.320,-4.320,-4.320,0.000,0.000,0.000
1605211204588151808,10.0.1.137,NaN,move_down,-4.340,-4.340,-4.340,0.000,0.000,0.000
1605211204668477184,10.0.1.137,NaN,move_down,-4.360,-4.360,-4.360,0.000,0.000,0.000
1605211204859798784,10.0.1.137,NaN,move_down,-4.380,-4.380,-4.380,0.000,0.000,0.000
1605211204993293056,10.0.1.137,NaN,move_down,-4.400,-4.400,-4.400,0.000,0.000,0.000
1605211205096879104,10.0.1.137,NaN,move_down,-4.420,-4.420,-4.420,0.000,0.000,0.000
1605211205226836992,10.0.1.137,NaN,move_down,-4.440,-4.440,-4.440,0.000,0.000,0.000
1605211205422082048,10.0.1.137,NaN,move_down,-4.460,-4.460,-4.460,0.000,0.000,0.000
1605211205556833024,10.0.1.137,NaN,move_down,-4.480,-4.480,-4.480,0.000,0.000,0.000
1605211205664304128,10.0.1.137,NaN,move_down,-4.500,-4.500,-4.500,0.000,0.000,0.000
1605211205840403200,10.0.1.137,NaN,move_down,-4.520,-4.520,-4.520,0.000,0.000,0.000
1605211206003688960,10.0.1.137,NaN,move_down,-4.540,-4.540,-4.540,0.000,0.000,0.000
1605211206194459904,10.0.1.137,NaN,move_down,-4.560,-4.560,-4.560,0.000,0.000,0.000
1605211206405644032,10.0.1.137,NaN,move_down,-4.580,-4.580,-4.580,0.000,0.000,0.000
1605211206481544960,10.0.1.137,NaN,move_down,-4.600,-4.600,-4.600,0.000,0.000,0.000
1605211206664707840,10.0.1.137,NaN,move_down,-4.620,-4.620,-4.620,0.000,0.000,0.000
1605211206908381952,10.0.1.137,NaN,move_down,-4.640,-4.640,-4.640,0.000,0.000,0.000
1605211207106385920,10.0.1.137,NaN,move_down,-4.660,-4.660,-4.660,0.000,0.000,0.000
1605211207266324992,10.0.1.137,NaN,move_down,-4.680,-4.680,-4.680,0.000,0.000,0.000
1605211207556420096,10.0.1.137,NaN,move_down,-4.700,-4.700,-4.700,0.000,0.000,0.000
1605211207659416064,10.0.1.137,NaN,move_down,-4.720,-4.720,-4.720,0.000,0.000,0.000
1605211207726373888,10.0.1.137,NaN,move_down,-4.740,-4.740,-4.740,0.000,0.000,0.000
1605211207829777920,10.0.1.137,NaN,move_down,-4.760,-4.760,-4.760,0.000,0.000,0.000
1605211207948376832,10.0.1.137,NaN,move_down,-4.780,-4.780,-4.780,0.000,0.000,0.000
1605211208277220096,10.0.1.137,NaN,move_down,-4.800,-4.800,-4.800,0.000,0.000,0.000
1605211208355727872,10.0.1.137,NaN,move_down,-4.820,-4.820,-4.820,0.000,0.000,0.000
1605211208480613888,10.0.1.137,NaN,move_down,-4.840,-4.840,-4.840,0.000,0.000,0.000
1605211208655240960,10.0.1.137,NaN,move_down,-4.860,-4.860,-4.860,0.000,0.000,0.000
1605211208827739904,10.0.1.137,NaN,move_down,-4.880,-4.880,-4.880,0.000,0.000,0.000
1605211208983798016,10.0.1.137,NaN,move_down,-4.900,-4.900,-4.900,0.000,0.000,0.000
1605211209050736896,10.0.1.137,NaN,move_down,-4.920,-4.920,-4.920,0.000,0.000,0.000
1605211209276570112,10.0.1.137,NaN,move_down,-4.940,-4.940,-4.940,0.000,0.000,0.000
1605211209600281856,10.0.1.137,NaN,move_down,-4.960,-4.960,-4.960,0.000,0.000,0.000
1605211209895828992,10.0.1.137,NaN,move_down,-4.980,-4.980,-4.980,0.000,0.000,0.000
1605211209973504000,10.0.1.137,NaN,move_down,-5.000,-5.000,-5.000,0.000,0.000,0.000
1605211210137229056,10.0.1.137,NaN,move_down,-5.020,-5.020,-5.020,0.000,0.000,0.000
1605211210357803008,10.0.1.137,NaN,move_down,-5.040,-5.040,-5.040,0.000,0.000,0.000
1605211210492086784,10.0.1.137,NaN,move_down,-5.060,-5.060,-5.060,0.000,0.000,0.000
1605211210744374016,10.0.1.137,NaN,move_down,-5.080,-5.080,-5.080,0.000,0.000,0.000
1605211211231038208,10.0.1.137,NaN,move_down,-5.100,-5.100,-5.100,0.000,0.000,0.000
1605211211339621120,10.0.1.137,NaN,move_down,-5.120,-5.120,-5.120,0.000,0.000,0.000
1605211211442910976,10.0.1.137,NaN,move_down,-5.140,-5.140,-5.140,0.000,0.000,0.000
1605211211611033856,10.0.1.137,NaN,move_down,-5.160,-5.160,-5.160,0.000,0.000,0.000
1605211211791068928,10.0.1.137,NaN,move_down,-5.180,-5.180,-5.180,0.000,0.000,0.000
1605211212068290048,10.0.1.137,NaN,move_down,-5.200,-5.200,-5.200,0.000,0.000,0.000
1605211212421294080,10.0.1.137,NaN,move_down,-5.220,-5.220,-5.220,0.000,0.000,0.000
1605211212544315136,10.0.1.137,NaN,move_down,-5.240,-5.240,-5.240,0.000,0.000,0.000
1605211212734856960,10.0.1.137,NaN,move_down,-5.260,-5.260,-5.260,0.000,0.000,0.000
1605211212943097088,10.0.1.137,NaN,move_down,-5.280,-5.280,-5.280,0.000,0.000,0.000
1605211213213412096,10.0.1.137,NaN,move_down,-5.300,-5.300,-5.300,0.000,0.000,0.000
1605211213360673024,10.0.1.137,NaN,move_down,-5.320,-5.320,-5.320,0.000,0.000,0.000
1605211213548964096,10.0.1.137,NaN,move_down,-5.340,-5.340,-5.340,0.000,0.000,0.000
1605211213732253952,10.0.1.137,NaN,move_down,-5.360,-5.360,-5.360,0.000,0.000,0.000
1605211213885595136,10.0.1.137,NaN,move_down,-5.380,-5.380,-5.380,0.000,0.000,0.000
1605211214105529088,10.0.1.137,NaN,move_down,-5.400,-5.400,-5.400,0.000,0.000,0.000
1605211214246534144,10.0.1.137,NaN,move_down,-5.420,-5.420,-5.420,0.000,0.000,0.000
1605211214412228096,10.0.1.137,NaN,move_down,-5.440,-5.440,-5.440,0.000,0.000,0.000
1605211214468367104,10.0.1.137,NaN,move_down,-5.460,-5.460,-5.460,0.000,0.000,0.000
1605211214643330048,10.0.1.137,NaN,move_down,-5.480,-5.480,-5.480,0.000,0.000,0.000
1605211214862423040,10.0.1.137,NaN,move_down,-5.500,-5.500,-5.500,0.000,0.000,0.000
1605211214989469952,10.0.1.137,NaN,move_down,-5.520,-5.520,-5.520,0.000,0.000,0.000
1605211215394653184,10.0.1.137,NaN,move_down,-5.540,-5.540,-5.540,0.000,0.000,0.000
1605211215454428928,10.0.1.137,NaN,move_down,-5.560,-5.560,-5.560,0.000,0.000,0.000
1605211215607898112,10.0.1.137,NaN,move_down,-5.580,-5.580,-5.580,0.000,0.000,0.000
1605211215731601920,10.0.1.137,NaN,move_down,-5.600,-5.600,-5.600,0.000,0.000,0.000
1605211215872591872,10.0.1.137,NaN,move_down,-5.620,-5.620,-5.620,0.000,0.000,0.000
1605211216043521792,10.0.1.137,NaN,move_down,-5.640,-5.640,-5.640,0.000,0.000,0.000
1605211216378196992,10.0.1.137,NaN,move_down,-5.660,-5.660,-5.660,0.000,0.000,0.000
1605211216670504960,10.0.1.137,NaN,move_down,-5.680,-5.680,-5.680,0.000,0.000,0.000
1605211216970819840,10.0.1.137,NaN,move_down,-5.700,-5.700,-5.700,0.000,0.000,0.000
1605211217147220992,10.0.1.137,NaN,move_down,-5.720,-5.720,-5.720,0.000,0.000,0.000
1605211217320043008,10.0.1.137,NaN,move_down,-5.740,-5.740,-5.740,0.000,0.000,0.000
1605211217452003840,10.0.1.137,NaN,move_down,-5.760,-5.760,-5.760,0.000,0.000,0.000
1605211217662010880,10.0.1.137,NaN,move_down,-5.780,-5.780,-5.780,0.000,0.000,0.000
1605211217901815808,10.0.1.137,NaN,move_down,-5.800,-5.800,-5.800,0.000,0.000,0.000
1605211218074710016,10.0.1.137,NaN,move_down,-5.820,-5.820,-5.820,0.000,0.000,0.000
1605211218170353920,10.0.1.137,NaN,move_down,-5.840,-5.840,-5.840,0.000,0.000,0.000
1605211218339857152,10.0.1.137,NaN,move_down,-5.860,-5.860,-5.860,0.000,0.000,0.000
1605211218495094016,10.0.1.137,NaN,move_down,-5.880,-5.880,-5.880,0.000,0.000,0.000
1605211218768395008,10.0.1.137,NaN,move_down,-5.900,-5.900,-5.900,0.000,0.000,0.000
1605211218890713856,10.0.1.137,NaN,move_down,-5.920,-5.920,-5.920,0.000,0.000,0.000
1605211219049741056,10.0.1.137,NaN,move_down,-5.940,-5.940,-5.940,0.000,0.000,0.000
1605211219213339136,10.0.1.137,NaN,move_down,-5.960,-5.960,-5.960,0.000,0.000,0.000
1605211219607004928,10.0.1.137,NaN,move_down,-5.980,-5.980,-5.980,0.000,0.000,0.000
1605211219899805184,10.0.1.137,NaN,move_down,-6.000,-6.000,-6.000,0.000,0.000,0.000
1605211220177511936,10.0.1.137,NaN,move_down,-6.020,-6.020,-6.020,0.000,0.000,0.000
1605211220306093056,10.0.1.137,NaN,move_down,-6.040,-6.040,-6.040,0.000,0.000,0.000
1605211220428539136,10.0.1.137,NaN,move_down,-6.060,-6.060,-6.060,0.000,0.000,0.000
1605211220648657152,10.0.1.137,NaN,move_down,-6.080,-6.080,-6.080,0.000,0.000,0.000
1605211220887723008,10.0.1.137,NaN,move_down,-6.100,-6.100,-6.100,0.000,0.000,0.000
1605211220999963904,10.0.1.137,NaN,move_down,-6.120,-6.120,-6.120,0.000,0.000,0.000
1605211221132137984,10.0.1.137,NaN,move_down,-6.140,-6.140,-6.140,0.000,0.000,0.000
1605211221263272960,10.0.1.137,NaN,move_down,-6.160,-6.160,-6.160,0.000,0.000,0.000
1605211221607430912,10.0.1.137,NaN,move_down,-6.180,-6.180,-6.180,0.000,0.000,0.000
1605211221809263872,10.0.1.137,NaN,move_down,-6.200,-6.200,-6.200,0.000,0.000,0.000
1605211222011900928,10.0.1.137,NaN,move_down,-6.220,-6.220,-6.220,0.000,0.000,0.000
1605211222117360128,10.0.1.137,NaN,move_down,-6.240,-6.240,-6.240,0.000,0.000,0.000
1605211222227580160,10.0.1.137,NaN,move_down,-6.260,-6.260,-6.260,0.000,0.000,0.000
1605211222383867136,10.0.1.137,NaN,move_down,-6.280,-6.280,-6.280,0.000,0.000,0.000
1605211222570786048,10.0.1.137,NaN,move_down,-6.300,-6.300,-6.300,0.000,0.000,0.000
1605211222721880832,10.0.1.137,NaN,move_down,-6.320,-6.320,-6.320,0.000,0.000,0.000
1605211222933042176,10.0.1.137,NaN,move_down,-6.340,-6.340,-6.340,0.000,0.000,0.000
1605211223044488960,10.0.1.137,NaN,move_down,-6.360,-6.360,-6.360,0.000,0.000,0.000
1605211223178780928,10.0.1.137,NaN,move_down,-6.380,-6.380,-6.380,0.000,0.000,0.000
1605211223333300992,10.0.1.137,NaN,move_down,-6.400,-6.400,-6.400,0.000,0.000,0.000
1605211223546772992,10.0.1.137,NaN,move_down,-6.420,-6.420,-6.420,0.000,0.000,0.000
1605211223964001024,10.0.1.137,NaN,move_down,-6.440,-6.440,-6.440,0.000,0.000,0.000
1605211224091939840,10.0.1.137,NaN,move_down,-6.460,-6.460,-6.460,0.000,0.000,0.000
1605211224423054848,10.0.1.137,NaN,move_down,-6.480,-6.480,-6.480,0.000,0.000,0.000
1605211224637051136,10.0.1.137,NaN,move_down,-6.500,-6.500,-6.500,0.000,0.000,0.000
1605211224857714944,10.0.1.137,NaN,move_down,-6.520,-6.520,-6.520,0.000,0.000,0.000
1605211224982467840,10.0.1.137,NaN,move_down,-6.540,-6.540,-6.540,0.000,0.000,0.000
1605211225238036992,10.0.1.137,NaN,move_down,-6.560,-6.560,-6.560,0.000,0.000,0.000
1605211225461916928,10.0.1.137,NaN,move_down,-6.580,-6.580,-6.580,0.000,0.000,0.000
1605211225707115776,10.0.1.137,NaN,move_down,-6.600,-6.600,-6.600,0.000,0.000,0.000
1605211225931334912,10.0.1.137,NaN,move_down,-6.620,-6.620,-6.620,0.000,0.000,0.000
1605211226119757824,10.0.1.137,NaN,move_down,-6.640,-6.640,-6.640,0.000,0.000,0.000
1605211226218046976,10.0.1.137,NaN,move_down,-6.660,-6.660,-6.660,0.000,0.000,0.000
1605211226396630016,10.0.1.137,NaN,move_down,-6.680,-6.680,-6.680,0.000,0.000,0.000
1605211226806981120,10.0.1.137,NaN,move_down,-6.700,-6.700,-6.700,0.000,0.000,0.000
1605211227019200000,10.0.1.137,NaN,move_down,-6.720,-6.720,-6.720,0.000,0.000,0.000
1605211227220845056,10.0.1.137,NaN,move_down,-6.740,-6.740,-6.740,0.000,0.000,0.000
1605211227501161984,10.0.1.137,NaN,move_down,-6.760,-6.760,-6.760,0.000,0.000,0.000
1605211227682082816,10.0.1.137,NaN,move_down,-6.780,-6.780,-6.780,0.000,0.000,0.000
1605211227961451008,10.0.1.137,NaN,move_down,-6.800,-6.800,-6.800,0.000,0.000,0.000
1605211228242690048,10.0.1.137,NaN,move_down,-6.820,-6.820,-6.820,0.000,0.000,0.000
1605211228373912064,10.0.1.137,NaN,move_down,-6.840,-6.840,-6.840,0.000,0.000,0.000
1605211228665532160,10.0.1.137,NaN,move_down,-6.860,-6.860,-6.860,0.000,0.000,0.000
1605211228757438976,10.0.1.137,NaN,move_down,-6.880,-6.880,-6.880,0.000,0.000,0.000
1605211228860088064,10.0.1.137,NaN,move_down,-6.900,-6.900,-6.900,0.000,0.000,0.000
1605211229025095936,10.0.1.137,NaN,move_down,-6.920,-6.920,-6.920,0.000,0.000,0.000
1605211229159421952,10.0.1.137,NaN,move_down,-6.940,-6.940,-6.940,0.000,0.000,0.000
1605211229368590080,10.0.1.137,NaN,move_down,-6.960,-6.960,-6.960,0.000,0.000,0.000
1605211229512157952,10.0.1.137,NaN,move_down,-6.980,-6.980,-6.980,0.000,0.000,0.000
1605211229668393984,10.0.1.137,NaN,move_down,-7.000,-7.000,-7.000,0.000,0.000,0.000
1605211229791348992,10.0.1.137,NaN,move_down,-7.020,-7.020,-7.020,0.000,0.000,0.000
1605211229981308928,10.0.1.137,NaN,move_down,-7.040,-7.040,-7.040,0.000,0.000,0.000
1605211230136720896,10.0.1.137,NaN,move_down,-7.060,-7.060,-7.060,0.000,0.000,0.000
1605211230272520960,10.0.1.137,NaN,move_down,-7.080,-7.080,-7.080,0.000,0.000,0.000
1605211230620487936,10.0.1.137,NaN,move_down,-7.100,-7.100,-7.100,0.000,0.000,0.000
