milangroshev/digital-twin-scalability/logs/run5-3600s-nan/10.0.1.149.csv
timestamp,node,latency,action,joint_1,joint_2,joint_3,joint_4,joint_5,joint_6
1605224607731578112,10.0.1.149,NaN,,0.000,0.000,0.000,0.000,0.000,0.000
1605224611735560960,10.0.1.149,NaN,move_down,-0.020,-0.020,-0.020,0.000,0.000,0.000
1605224614070355968,10.0.1.149,NaN,move_down,-0.040,-0.040,-0.040,0.000,0.000,0.000
1605224616152875008,10.0.1.149,NaN,move_down,-0.060,-0.060,-0.060,0.000,0.000,0.000
1605224618211213056,10.0.1.149,NaN,move_down,-0.080,-0.080,-0.080,0.000,0.000,0.000
1605224620321687040,10.0.1.149,NaN,move_down,-0.100,-0.100,-0.100,0.000,0.000,0.000
1605224622399548160,10.0.1.149,NaN,move_down,-0.120,-0.120,-0.120,0.000,0.000,0.000
1605224624568120064,10.0.1.149,NaN,move_down,-0.140,-0.140,-0.140,0.000,0.000,0.000
1605224626768438016,10.0.1.149,NaN,move_down,-0.160,-0.160,-0.160,0.000,0.000,0.000
1605224628865988864,10.0.1.149,NaN,move_down,-0.180,-0.180,-0.180,0.000,0.000,0.000
1605224630992666112,10.0.1.149,NaN,move_down,-0.200,-0.200,-0.200,0.000,0.000,0.000
1605224633087723008,10.0.1.149,NaN,move_down,-0.220,-0.220,-0.220,0.000,0.000,0.000
1605224635258768128,10.0.1.149,NaN,move_down,-0.240,-0.240,-0.240,0.000,0.000,0.000
1605224637369939968,10.0.1.149,NaN,move_down,-0.260,-0.260,-0.260,0.000,0.000,0.000
1605224639457428992,10.0.1.149,NaN,move_down,-0.280,-0.280,-0.280,0.000,0.000,0.000
1605224641560039168,10.0.1.149,NaN,move_down,-0.300,-0.300,-0.300,0.000,0.000,0.000
1605224643637483008,10.0.1.149,NaN,move_down,-0.320,-0.320,-0.320,0.000,0.000,0.000
1605224645818347008,10.0.1.149,NaN,move_down,-0.340,-0.340,-0.340,0.000,0.000,0.000
1605224647954135808,10.0.1.149,NaN,move_down,-0.360,-0.360,-0.360,0.000,0.000,0.000
1605224650047808000,10.0.1.149,NaN,move_down,-0.380,-0.380,-0.380,0.000,0.000,0.000
1605224652143269888,10.0.1.149,NaN,move_down,-0.400,-0.400,-0.400,0.000,0.000,0.000
1605224654349458944,10.0.1.149,NaN,move_down,-0.420,-0.420,-0.420,0.000,0.000,0.000
1605224656380558848,10.0.1.149,NaN,move_down,-0.440,-0.440,-0.440,0.000,0.000,0.000
1605224658473318144,10.0.1.149,NaN,move_down,-0.460,-0.460,-0.460,0.000,0.000,0.000
1605224661713516032,10.0.1.149,3240,move_down,-0.460,-0.460,-0.460,0.000,0.000,0.000
1605224663554130944,10.0.1.149,606,move_down,-0.480,-0.480,-0.480,0.000,0.000,0.000
1605224665688723968,10.0.1.149,820,move_down,-0.500,-0.500,-0.500,0.000,0.000,0.000
1605224667547488000,10.0.1.149,803,move_down,-0.520,-0.520,-0.520,0.000,0.000,0.000
1605224669997061120,10.0.1.149,1333,move_down,-0.540,-0.540,-0.540,0.000,0.000,0.000
1605224671833319936,10.0.1.149,745,move_down,-0.560,-0.560,-0.560,0.000,0.000,0.000
1605224673756819968,10.0.1.149,879,move_down,-0.580,-0.580,-0.580,0.000,0.000,0.000
1605224675946220032,10.0.1.149,1137,move_down,-0.600,-0.600,-0.600,0.000,0.000,0.000
1605224677946789120,10.0.1.149,961,move_down,-0.620,-0.620,-0.620,0.000,0.000,0.000
1605224683665982976,10.0.1.149,1156,move_down,-0.640,-0.640,-0.640,0.000,0.000,0.000
1605224686155953920,10.0.1.149,1400,move_down,-0.660,-0.660,-0.660,0.000,0.000,0.000
1605224687986241024,10.0.1.149,672,move_down,-0.680,-0.680,-0.680,0.000,0.000,0.000
1605224689617609984,10.0.1.149,625,move_down,-0.700,-0.700,-0.700,0.000,0.000,0.000
1605224692297740032,10.0.1.149,1615,move_down,-0.720,-0.720,-0.720,0.000,0.000,0.000
1605224694425251072,10.0.1.149,1030,move_down,-0.740,-0.740,-0.740,0.000,0.000,0.000
1605224697309607936,10.0.1.149,1669,move_down,-0.760,-0.760,-0.760,0.000,0.000,0.000
1605224699135514112,10.0.1.149,745,move_down,-0.780,-0.780,-0.780,0.000,0.000,0.000
1605224702254400000,10.0.1.149,2090,move_down,-0.800,-0.800,-0.800,0.000,0.000,0.000
1605224705031763200,10.0.1.149,1003,move_down,-0.820,-0.820,-0.820,0.000,0.000,0.000
1605224706822945024,10.0.1.149,770,move_down,-0.840,-0.840,-0.840,0.000,0.000,0.000
1605224710137893888,10.0.1.149,2282,move_down,-0.860,-0.860,-0.860,0.000,0.000,0.000
1605224712022035968,10.0.1.149,771,move_down,-0.880,-0.880,-0.880,0.000,0.000,0.000
1605224714139740928,10.0.1.149,800,move_down,-0.900,-0.900,-0.900,0.000,0.000,0.000
1605224716801955072,10.0.1.149,812,move_down,-0.920,-0.920,-0.920,0.000,0.000,0.000
1605224718202425856,10.0.1.149,NaN,move_down,-0.960,-0.960,-0.960,0.000,0.000,0.000
1605224718658780928,10.0.1.149,NaN,move_down,-0.980,-0.980,-0.980,0.000,0.000,0.000
1605224719419313920,10.0.1.149,NaN,move_down,-1.000,-1.000,-1.000,0.000,0.000,0.000
1605224720308950784,10.0.1.149,NaN,move_down,-1.020,-1.020,-1.020,0.000,0.000,0.000
1605224720774734080,10.0.1.149,NaN,move_down,-1.040,-1.040,-1.040,0.000,0.000,0.000
1605224721606862080,10.0.1.149,NaN,move_down,-1.060,-1.060,-1.060,0.000,0.000,0.000
1605224722999291904,10.0.1.149,NaN,move_down,-1.080,-1.080,-1.080,0.000,0.000,0.000
1605224724389029888,10.0.1.149,NaN,move_down,-1.100,-1.100,-1.100,0.000,0.000,0.000
1605224725198770944,10.0.1.149,NaN,move_down,-1.120,-1.120,-1.120,0.000,0.000,0.000
1605224725671153920,10.0.1.149,NaN,move_down,-1.140,-1.140,-1.140,0.000,0.000,0.000
1605224726068634112,10.0.1.149,NaN,move_down,-1.160,-1.160,-1.160,0.000,0.000,0.000
1605224726957746944,10.0.1.149,NaN,move_down,-1.180,-1.180,-1.180,0.000,0.000,0.000
1605224727369435904,10.0.1.149,NaN,move_down,-1.200,-1.200,-1.200,0.000,0.000,0.000
1605224727855740160,10.0.1.149,NaN,move_down,-1.220,-1.220,-1.220,0.000,0.000,0.000
1605224728741797888,10.0.1.149,NaN,move_down,-1.240,-1.240,-1.240,0.000,0.000,0.000
1605224729335706880,10.0.1.149,NaN,move_down,-1.260,-1.260,-1.260,0.000,0.000,0.000
1605224730132608768,10.0.1.149,NaN,move_down,-1.280,-1.280,-1.280,0.000,0.000,0.000
1605224730918972928,10.0.1.149,NaN,move_down,-1.300,-1.300,-1.300,0.000,0.000,0.000
1605224731318100992,10.0.1.149,NaN,move_down,-1.320,-1.320,-1.320,0.000,0.000,0.000
1605224731768487936,10.0.1.149,NaN,move_down,-1.340,-1.340,-1.340,0.000,0.000,0.000
1605224732283348992,10.0.1.149,NaN,move_down,-1.360,-1.360,-1.360,0.000,0.000,0.000
1605224733365634048,10.0.1.149,NaN,move_down,-1.380,-1.380,-1.380,0.000,0.000,0.000
1605224733995627008,10.0.1.149,NaN,move_down,-1.400,-1.400,-1.400,0.000,0.000,0.000
1605224734298543872,10.0.1.149,NaN,move_down,-1.420,-1.420,-1.420,0.000,0.000,0.000
1605224734400942080,10.0.1.149,NaN,move_down,-1.440,-1.440,-1.440,0.000,0.000,0.000
1605224734836700928,10.0.1.149,NaN,move_down,-1.460,-1.460,-1.460,0.000,0.000,0.000
1605224735206916096,10.0.1.149,NaN,move_down,-1.480,-1.480,-1.480,0.000,0.000,0.000
1605224735369810944,10.0.1.149,NaN,move_down,-1.500,-1.500,-1.500,0.000,0.000,0.000
1605224735508718080,10.0.1.149,NaN,move_down,-1.520,-1.520,-1.520,0.000,0.000,0.000
1605224735649699072,10.0.1.149,NaN,move_down,-1.540,-1.540,-1.540,0.000,0.000,0.000
1605224735782636032,10.0.1.149,NaN,move_down,-1.560,-1.560,-1.560,0.000,0.000,0.000
1605224735973117184,10.0.1.149,NaN,move_down,-1.580,-1.580,-1.580,0.000,0.000,0.000
1605224736154181888,10.0.1.149,NaN,move_down,-1.600,-1.600,-1.600,0.000,0.000,0.000
1605224736367360000,10.0.1.149,NaN,move_down,-1.620,-1.620,-1.620,0.000,0.000,0.000
1605224736460558848,10.0.1.149,NaN,move_down,-1.640,-1.640,-1.640,0.000,0.000,0.000
1605224736751442944,10.0.1.149,NaN,move_down,-1.660,-1.660,-1.660,0.000,0.000,0.000
1605224736888600064,10.0.1.149,NaN,move_down,-1.680,-1.680,-1.680,0.000,0.000,0.000
1605224737141575168,10.0.1.149,NaN,move_down,-1.700,-1.700,-1.700,0.000,0.000,0.000
1605224737652498944,10.0.1.149,NaN,move_down,-1.720,-1.720,-1.720,0.000,0.000,0.000
1605224737781629184,10.0.1.149,NaN,move_down,-1.740,-1.740,-1.740,0.000,0.000,0.000
1605224737915568128,10.0.1.149,NaN,move_down,-1.760,-1.760,-1.760,0.000,0.000,0.000
1605224738367052032,10.0.1.149,NaN,move_down,-1.780,-1.780,-1.780,0.000,0.000,0.000
1605224738809745152,10.0.1.149,NaN,move_down,-1.800,-1.800,-1.800,0.000,0.000,0.000
1605224738934853120,10.0.1.149,NaN,move_down,-1.820,-1.820,-1.820,0.000,0.000,0.000
1605224739148099840,10.0.1.149,NaN,move_down,-1.840,-1.840,-1.840,0.000,0.000,0.000
1605224739661446144,10.0.1.149,NaN,move_down,-1.860,-1.860,-1.860,0.000,0.000,0.000
1605224740059585024,10.0.1.149,NaN,move_down,-1.880,-1.880,-1.880,0.000,0.000,0.000
1605224740958134784,10.0.1.149,NaN,move_down,-1.900,-1.900,-1.900,0.000,0.000,0.000
1605224741159589888,10.0.1.149,NaN,move_down,-1.920,-1.920,-1.920,0.000,0.000,0.000
1605224741602575104,10.0.1.149,NaN,move_down,-1.940,-1.940,-1.940,0.000,0.000,0.000
1605224742093131008,10.0.1.149,NaN,move_down,-1.960,-1.960,-1.960,0.000,0.000,0.000
1605224742251350016,10.0.1.149,NaN,move_down,-1.980,-1.980,-1.980,0.000,0.000,0.000
1605224742471069952,10.0.1.149,NaN,move_down,-2.000,-2.000,-2.000,0.000,0.000,0.000
1605224742880050944,10.0.1.149,NaN,move_down,-2.020,-2.020,-2.020,0.000,0.000,0.000
1605224743082257152,10.0.1.149,NaN,move_down,-2.040,-2.040,-2.040,0.000,0.000,0.000
1605224743506125824,10.0.1.149,NaN,move_down,-2.060,-2.060,-2.060,0.000,0.000,0.000
1605224743998467840,10.0.1.149,NaN,move_down,-2.080,-2.080,-2.080,0.000,0.000,0.000
1605224744132094976,10.0.1.149,NaN,move_down,-2.100,-2.100,-2.100,0.000,0.000,0.000
1605224744289467136,10.0.1.149,NaN,move_down,-2.120,-2.120,-2.120,0.000,0.000,0.000
1605224744520733184,10.0.1.149,NaN,move_down,-2.140,-2.140,-2.140,0.000,0.000,0.000
1605224744784498944,10.0.1.149,NaN,move_down,-2.160,-2.160,-2.160,0.000,0.000,0.000
1605224745017491968,10.0.1.149,NaN,move_down,-2.180,-2.180,-2.180,0.000,0.000,0.000
1605224745317745920,10.0.1.149,NaN,move_down,-2.200,-2.200,-2.200,0.000,0.000,0.000
1605224745493509120,10.0.1.149,NaN,move_down,-2.220,-2.220,-2.220,0.000,0.000,0.000
1605224745887078912,10.0.1.149,NaN,move_down,-2.240,-2.240,-2.240,0.000,0.000,0.000
1605224746648102912,10.0.1.149,NaN,move_down,-2.260,-2.260,-2.260,0.000,0.000,0.000
1605224747037553920,10.0.1.149,NaN,move_down,-2.280,-2.280,-2.280,0.000,0.000,0.000
1605224747243827968,10.0.1.149,NaN,move_down,-2.300,-2.300,-2.300,0.000,0.000,0.000
1605224747663800064,10.0.1.149,NaN,move_down,-2.320,-2.320,-2.320,0.000,0.000,0.000
1605224747928101120,10.0.1.149,NaN,move_down,-2.340,-2.340,-2.340,0.000,0.000,0.000
1605224748340003072,10.0.1.149,NaN,move_down,-2.360,-2.360,-2.360,0.000,0.000,0.000
1605224748576350976,10.0.1.149,NaN,move_down,-2.380,-2.380,-2.380,0.000,0.000,0.000
1605224748701779968,10.0.1.149,NaN,move_down,-2.400,-2.400,-2.400,0.000,0.000,0.000
1605224748998800128,10.0.1.149,NaN,move_down,-2.420,-2.420,-2.420,0.000,0.000,0.000
1605224750475548928,10.0.1.149,NaN,move_down,-2.440,-2.440,-2.440,0.000,0.000,0.000
1605224750723748864,10.0.1.149,NaN,move_down,-2.460,-2.460,-2.460,0.000,0.000,0.000
1605224750977580032,10.0.1.149,NaN,move_down,-2.480,-2.480,-2.480,0.000,0.000,0.000
1605224751124649984,10.0.1.149,NaN,move_down,-2.500,-2.500,-2.500,0.000,0.000,0.000
1605224751325050112,10.0.1.149,NaN,move_down,-2.520,-2.520,-2.520,0.000,0.000,0.000
1605224751463807232,10.0.1.149,NaN,move_down,-2.540,-2.540,-2.540,0.000,0.000,0.000
1605224752241935104,10.0.1.149,NaN,move_down,-2.560,-2.560,-2.560,0.000,0.000,0.000
1605224752371831040,10.0.1.149,NaN,move_down,-2.580,-2.580,-2.580,0.000,0.000,0.000
1605224752568929024,10.0.1.149,NaN,move_down,-2.600,-2.600,-2.600,0.000,0.000,0.000
1605224752694413056,10.0.1.149,NaN,move_down,-2.620,-2.620,-2.620,0.000,0.000,0.000
1605224752788652032,10.0.1.149,NaN,move_down,-2.640,-2.640,-2.640,0.000,0.000,0.000
1605224752898690816,10.0.1.149,NaN,move_down,-2.660,-2.660,-2.660,0.000,0.000,0.000
1605224753044369920,10.0.1.149,NaN,move_down,-2.680,-2.680,-2.680,0.000,0.000,0.000
1605224753291225856,10.0.1.149,NaN,move_down,-2.700,-2.700,-2.700,0.000,0.000,0.000
1605224753382895104,10.0.1.149,NaN,move_down,-2.720,-2.720,-2.720,0.000,0.000,0.000
1605224753660578048,10.0.1.149,NaN,move_down,-2.740,-2.740,-2.740,0.000,0.000,0.000
1605224754844048128,10.0.1.149,NaN,move_down,-2.760,-2.760,-2.760,0.000,0.000,0.000
1605224754988696064,10.0.1.149,NaN,move_down,-2.780,-2.780,-2.780,0.000,0.000,0.000
1605224755351891968,10.0.1.149,NaN,move_down,-2.800,-2.800,-2.800,0.000,0.000,0.000
1605224755479855104,10.0.1.149,NaN,move_down,-2.820,-2.820,-2.820,0.000,0.000,0.000
1605224755678618880,10.0.1.149,NaN,move_down,-2.840,-2.840,-2.840,0.000,0.000,0.000
1605224755986999040,10.0.1.149,NaN,move_down,-2.860,-2.860,-2.860,0.000,0.000,0.000
1605224756595887872,10.0.1.149,NaN,move_down,-2.880,-2.880,-2.880,0.000,0.000,0.000
1605224756779445760,10.0.1.149,NaN,move_down,-2.900,-2.900,-2.900,0.000,0.000,0.000
1605224756951952896,10.0.1.149,NaN,move_down,-2.920,-2.920,-2.920,0.000,0.000,0.000
1605224757110562048,10.0.1.149,NaN,move_down,-2.940,-2.940,-2.940,0.000,0.000,0.000
1605224757304909824,10.0.1.149,NaN,move_down,-2.960,-2.960,-2.960,0.000,0.000,0.000
1605224757445880832,10.0.1.149,NaN,move_down,-2.980,-2.980,-2.980,0.000,0.000,0.000
1605224757716238848,10.0.1.149,NaN,move_down,-3.000,-3.000,-3.000,0.000,0.000,0.000
1605224758170989056,10.0.1.149,NaN,move_down,-3.020,-3.020,-3.020,0.000,0.000,0.000
1605224758369752832,10.0.1.149,NaN,move_down,-3.040,-3.040,-3.040,0.000,0.000,0.000
1605224758536740096,10.0.1.149,NaN,move_down,-3.060,-3.060,-3.060,0.000,0.000,0.000
1605224759502811904,10.0.1.149,NaN,move_down,-3.080,-3.080,-3.080,0.000,0.000,0.000
1605224760451465984,10.0.1.149,NaN,move_down,-3.100,-3.100,-3.100,0.000,0.000,0.000
1605224760914684928,10.0.1.149,NaN,move_down,-3.120,-3.120,-3.120,0.000,0.000,0.000
1605224761244028160,10.0.1.149,NaN,move_down,-3.140,-3.140,-3.140,0.000,0.000,0.000
1605224761486934016,10.0.1.149,NaN,move_down,-3.160,-3.160,-3.160,0.000,0.000,0.000
1605224761626625024,10.0.1.149,NaN,move_down,-3.180,-3.180,-3.180,0.000,0.000,0.000
1605224761732534016,10.0.1.149,NaN,move_down,-3.200,-3.200,-3.200,0.000,0.000,0.000
1605224761923857920,10.0.1.149,NaN,move_down,-3.220,-3.220,-3.220,0.000,0.000,0.000
1605224762314009856,10.0.1.149,NaN,move_down,-3.240,-3.240,-3.240,0.000,0.000,0.000
1605224762453713920,10.0.1.149,NaN,move_down,-3.260,-3.260,-3.260,0.000,0.000,0.000
1605224762619756032,10.0.1.149,NaN,move_down,-3.280,-3.280,-3.280,0.000,0.000,0.000
1605224763258400000,10.0.1.149,NaN,move_down,-3.300,-3.300,-3.300,0.000,0.000,0.000
1605224763968653824,10.0.1.149,NaN,move_down,-3.320,-3.320,-3.320,0.000,0.000,0.000
1605224764472573952,10.0.1.149,NaN,move_down,-3.340,-3.340,-3.340,0.000,0.000,0.000
1605224765073713152,10.0.1.149,NaN,move_down,-3.360,-3.360,-3.360,0.000,0.000,0.000
1605224765307923200,10.0.1.149,NaN,move_down,-3.380,-3.380,-3.380,0.000,0.000,0.000
1605224765549537792,10.0.1.149,NaN,move_down,-3.400,-3.400,-3.400,0.000,0.000,0.000
1605224765762828032,10.0.1.149,NaN,move_down,-3.420,-3.420,-3.420,0.000,0.000,0.000
1605224765924779008,10.0.1.149,NaN,move_down,-3.440,-3.440,-3.440,0.000,0.000,0.000
1605224766125988864,10.0.1.149,NaN,move_down,-3.460,-3.460,-3.460,0.000,0.000,0.000
1605224766942086912,10.0.1.149,NaN,move_down,-3.480,-3.480,-3.480,0.000,0.000,0.000
1605224767196989184,10.0.1.149,NaN,move_down,-3.500,-3.500,-3.500,0.000,0.000,0.000
1605224767336509952,10.0.1.149,NaN,move_down,-3.520,-3.520,-3.520,0.000,0.000,0.000
1605224767509906176,10.0.1.149,NaN,move_down,-3.540,-3.540,-3.540,0.000,0.000,0.000
1605224767666276096,10.0.1.149,NaN,move_down,-3.560,-3.560,-3.560,0.000,0.000,0.000
1605224767993367040,10.0.1.149,NaN,move_down,-3.580,-3.580,-3.580,0.000,0.000,0.000
1605224768225473024,10.0.1.149,NaN,move_down,-3.600,-3.600,-3.600,0.000,0.000,0.000
1605224768952817920,10.0.1.149,NaN,move_down,-3.620,-3.620,-3.620,0.000,0.000,0.000
1605224769400475904,10.0.1.149,NaN,move_down,-3.640,-3.640,-3.640,0.000,0.000,0.000
1605224769559910912,10.0.1.149,NaN,move_down,-3.660,-3.660,-3.660,0.000,0.000,0.000
1605224769771842048,10.0.1.149,NaN,move_down,-3.680,-3.680,-3.680,0.000,0.000,0.000
1605224770027533056,10.0.1.149,NaN,move_down,-3.700,-3.700,-3.700,0.000,0.000,0.000
1605224770164504064,10.0.1.149,NaN,move_down,-3.720,-3.720,-3.720,0.000,0.000,0.000
1605224770352709888,10.0.1.149,NaN,move_down,-3.740,-3.740,-3.740,0.000,0.000,0.000
1605224770452413184,10.0.1.149,NaN,move_down,-3.760,-3.760,-3.760,0.000,0.000,0.000
1605224770693424896,10.0.1.149,NaN,move_down,-3.780,-3.780,-3.780,0.000,0.000,0.000
1605224771025062144,10.0.1.149,NaN,move_down,-3.800,-3.800,-3.800,0.000,0.000,0.000
1605224771127801856,10.0.1.149,NaN,move_down,-3.820,-3.820,-3.820,0.000,0.000,0.000
1605224771233462016,10.0.1.149,NaN,move_down,-3.840,-3.840,-3.840,0.000,0.000,0.000
1605224771817769984,10.0.1.149,NaN,move_down,-3.860,-3.860,-3.860,0.000,0.000,0.000
1605224771979439872,10.0.1.149,NaN,move_down,-3.880,-3.880,-3.880,0.000,0.000,0.000
1605224772126704896,10.0.1.149,NaN,move_down,-3.900,-3.900,-3.900,0.000,0.000,0.000
1605224772476672000,10.0.1.149,NaN,move_down,-3.920,-3.920,-3.920,0.000,0.000,0.000
1605224772668354048,10.0.1.149,NaN,move_down,-3.940,-3.940,-3.940,0.000,0.000,0.000
1605224773317229056,10.0.1.149,NaN,move_down,-3.960,-3.960,-3.960,0.000,0.000,0.000
1605224773805265920,10.0.1.149,NaN,move_down,-3.980,-3.980,-3.980,0.000,0.000,0.000
1605224774012315904,10.0.1.149,NaN,move_down,-4.000,-4.000,-4.000,0.000,0.000,0.000
1605224774162203904,10.0.1.149,NaN,move_down,-4.020,-4.020,-4.020,0.000,0.000,0.000
1605224774986121984,10.0.1.149,NaN,move_down,-4.040,-4.040,-4.040,0.000,0.000,0.000
1605224775283276032,10.0.1.149,NaN,move_down,-4.060,-4.060,-4.060,0.000,0.000,0.000
1605224775456739840,10.0.1.149,NaN,move_down,-4.080,-4.080,-4.080,0.000,0.000,0.000
1605224775866190848,10.0.1.149,NaN,move_down,-4.100,-4.100,-4.100,0.000,0.000,0.000
1605224775993895168,10.0.1.149,NaN,move_down,-4.120,-4.120,-4.120,0.000,0.000,0.000
1605224776176468992,10.0.1.149,NaN,move_down,-4.140,-4.140,-4.140,0.000,0.000,0.000
1605224776501737984,10.0.1.149,NaN,move_down,-4.160,-4.160,-4.160,0.000,0.000,0.000
1605224777143284992,10.0.1.149,NaN,move_down,-4.180,-4.180,-4.180,0.000,0.000,0.000
1605224777324832000,10.0.1.149,NaN,move_down,-4.200,-4.200,-4.200,0.000,0.000,0.000
1605224777453332992,10.0.1.149,NaN,move_down,-4.220,-4.220,-4.220,0.000,0.000,0.000
1605224777666497024,10.0.1.149,NaN,move_down,-4.240,-4.240,-4.240,0.000,0.000,0.000
1605224778237670912,10.0.1.149,NaN,move_down,-4.260,-4.260,-4.260,0.000,0.000,0.000
1605224778575834880,10.0.1.149,NaN,move_down,-4.280,-4.280,-4.280,0.000,0.000,0.000
1605224779600180992,10.0.1.149,NaN,move_down,-4.300,-4.300,-4.300,0.000,0.000,0.000
1605224779980692992,10.0.1.149,NaN,move_down,-4.320,-4.320,-4.320,0.000,0.000,0.000
1605224780422266112,10.0.1.149,NaN,move_down,-4.340,-4.340,-4.340,0.000,0.000,0.000
1605224780811592192,10.0.1.149,NaN,move_down,-4.360,-4.360,-4.360,0.000,0.000,0.000
1605224781010621184,10.0.1.149,NaN,move_down,-4.380,-4.380,-4.380,0.000,0.000,0.000
1605224781582840832,10.0.1.149,NaN,move_down,-4.400,-4.400,-4.400,0.000,0.000,0.000
1605224781651522048,10.0.1.149,NaN,move_down,-4.420,-4.420,-4.420,0.000,0.000,0.000
1605224781716936960,10.0.1.149,NaN,move_down,-4.440,-4.440,-4.440,0.000,0.000,0.000
1605224781858875904,10.0.1.149,NaN,move_down,-4.460,-4.460,-4.460,0.000,0.000,0.000
1605224782065221120,10.0.1.149,NaN,move_down,-4.480,-4.480,-4.480,0.000,0.000,0.000
1605224782131128064,10.0.1.149,NaN,move_down,-4.500,-4.500,-4.500,0.000,0.000,0.000
1605224782233628160,10.0.1.149,NaN,move_down,-4.520,-4.520,-4.520,0.000,0.000,0.000
1605224782432377088,10.0.1.149,NaN,move_down,-4.540,-4.540,-4.540,0.000,0.000,0.000
1605224782607588096,10.0.1.149,NaN,move_down,-4.560,-4.560,-4.560,0.000,0.000,0.000
1605224782708165888,10.0.1.149,NaN,move_down,-4.580,-4.580,-4.580,0.000,0.000,0.000
1605224782848635904,10.0.1.149,NaN,move_down,-4.600,-4.600,-4.600,0.000,0.000,0.000
1605224783010649856,10.0.1.149,NaN,move_down,-4.620,-4.620,-4.620,0.000,0.000,0.000
1605224783260791040,10.0.1.149,NaN,move_down,-4.640,-4.640,-4.640,0.000,0.000,0.000
1605224783392188928,10.0.1.149,NaN,move_down,-4.660,-4.660,-4.660,0.000,0.000,0.000
1605224784044951808,10.0.1.149,NaN,move_down,-4.680,-4.680,-4.680,0.000,0.000,0.000
1605224784313611008,10.0.1.149,NaN,move_down,-4.700,-4.700,-4.700,0.000,0.000,0.000
1605224784637541888,10.0.1.149,NaN,move_down,-4.720,-4.720,-4.720,0.000,0.000,0.000
1605224784806086144,10.0.1.149,NaN,move_down,-4.740,-4.740,-4.740,0.000,0.000,0.000
1605224784930722048,10.0.1.149,NaN,move_down,-4.760,-4.760,-4.760,0.000,0.000,0.000
1605224785130189056,10.0.1.149,NaN,move_down,-4.780,-4.780,-4.780,0.000,0.000,0.000
1605224785308780032,10.0.1.149,NaN,move_down,-4.800,-4.800,-4.800,0.000,0.000,0.000
1605224785609648896,10.0.1.149,NaN,move_down,-4.820,-4.820,-4.820,0.000,0.000,0.000
1605224785873094912,10.0.1.149,NaN,move_down,-4.840,-4.840,-4.840,0.000,0.000,0.000
1605224786052153088,10.0.1.149,NaN,move_down,-4.860,-4.860,-4.860,0.000,0.000,0.000
1605224786352168192,10.0.1.149,NaN,move_down,-4.880,-4.880,-4.880,0.000,0.000,0.000
1605224786492711168,10.0.1.149,NaN,move_down,-4.900,-4.900,-4.900,0.000,0.000,0.000
1605224787256112128,10.0.1.149,NaN,move_down,-4.920,-4.920,-4.920,0.000,0.000,0.000
1605224787366735104,10.0.1.149,NaN,move_down,-4.940,-4.940,-4.940,0.000,0.000,0.000
1605224787551922176,10.0.1.149,NaN,move_down,-4.960,-4.960,-4.960,0.000,0.000,0.000
1605224788184376832,10.0.1.149,NaN,move_down,-4.980,-4.980,-4.980,0.000,0.000,0.000
1605224788300275200,10.0.1.149,NaN,move_down,-5.000,-5.000,-5.000,0.000,0.000,0.000
1605224788496400128,10.0.1.149,NaN,move_down,-5.020,-5.020,-5.020,0.000,0.000,0.000
1605224788692184064,10.0.1.149,NaN,move_down,-5.040,-5.040,-5.040,0.000,0.000,0.000
1605224788906067968,10.0.1.149,NaN,move_down,-5.060,-5.060,-5.060,0.000,0.000,0.000
1605224789080195072,10.0.1.149,NaN,move_down,-5.080,-5.080,-5.080,0.000,0.000,0.000
1605224789240111104,10.0.1.149,NaN,move_down,-5.100,-5.100,-5.100,0.000,0.000,0.000
1605224789561144064,10.0.1.149,NaN,move_down,-5.120,-5.120,-5.120,0.000,0.000,0.000
1605224789723432192,10.0.1.149,NaN,move_down,-5.140,-5.140,-5.140,0.000,0.000,0.000
1605224789936290048,10.0.1.149,NaN,move_down,-5.160,-5.160,-5.160,0.000,0.000,0.000
1605224790148189952,10.0.1.149,NaN,move_down,-5.180,-5.180,-5.180,0.000,0.000,0.000
1605224790418044160,10.0.1.149,NaN,move_down,-5.200,-5.200,-5.200,0.000,0.000,0.000
1605224790639739136,10.0.1.149,NaN,move_down,-5.220,-5.220,-5.220,0.000,0.000,0.000
1605224791016071168,10.0.1.149,NaN,move_down,-5.240,-5.240,-5.240,0.000,0.000,0.000
1605224791172146944,10.0.1.149,NaN,move_down,-5.260,-5.260,-5.260,0.000,0.000,0.000
1605224792219706112,10.0.1.149,NaN,move_down,-5.280,-5.280,-5.280,0.000,0.000,0.000
1605224792575727872,10.0.1.149,NaN,move_down,-5.300,-5.300,-5.300,0.000,0.000,0.000
1605224792911329024,10.0.1.149,NaN,move_down,-5.320,-5.320,-5.320,0.000,0.000,0.000
1605224793164704000,10.0.1.149,NaN,move_down,-5.340,-5.340,-5.340,0.000,0.000,0.000
1605224793368896000,10.0.1.149,NaN,move_down,-5.360,-5.360,-5.360,0.000,0.000,0.000
1605224794010034944,10.0.1.149,NaN,move_down,-5.380,-5.380,-5.380,0.000,0.000,0.000
1605224794151973120,10.0.1.149,NaN,move_down,-5.400,-5.400,-5.400,0.000,0.000,0.000
1605224794336107008,10.0.1.149,NaN,move_down,-5.420,-5.420,-5.420,0.000,0.000,0.000
1605224794913094144,10.0.1.149,NaN,move_down,-5.440,-5.440,-5.440,0.000,0.000,0.000
1605224795977839104,10.0.1.149,NaN,move_down,-5.460,-5.460,-5.460,0.000,0.000,0.000
1605224797077114112,10.0.1.149,NaN,move_down,-5.480,-5.480,-5.480,0.000,0.000,0.000
1605224797210170880,10.0.1.149,NaN,move_down,-5.500,-5.500,-5.500,0.000,0.000,0.000
1605224797512101888,10.0.1.149,NaN,move_down,-5.520,-5.520,-5.520,0.000,0.000,0.000
1605224797672029952,10.0.1.149,NaN,move_down,-5.540,-5.540,-5.540,0.000,0.000,0.000
1605224798095452160,10.0.1.149,NaN,move_down,-5.560,-5.560,-5.560,0.000,0.000,0.000
1605224798379482880,10.0.1.149,NaN,move_down,-5.580,-5.580,-5.580,0.000,0.000,0.000
1605224798739940864,10.0.1.149,NaN,move_down,-5.600,-5.600,-5.600,0.000,0.000,0.000
1605224798877044992,10.0.1.149,NaN,move_down,-5.620,-5.620,-5.620,0.000,0.000,0.000
1605224799075846912,10.0.1.149,NaN,move_down,-5.640,-5.640,-5.640,0.000,0.000,0.000
1605224799239532032,10.0.1.149,NaN,move_down,-5.660,-5.660,-5.660,0.000,0.000,0.000
1605224799512235008,10.0.1.149,NaN,move_down,-5.680,-5.680,-5.680,0.000,0.000,0.000
1605224799710230016,10.0.1.149,NaN,move_down,-5.700,-5.700,-5.700,0.000,0.000,0.000
1605224799875677952,10.0.1.149,NaN,move_down,-5.720,-5.720,-5.720,0.000,0.000,0.000
1605224800344480000,10.0.1.149,NaN,move_down,-5.740,-5.740,-5.740,0.000,0.000,0.000
1605224801231312896,10.0.1.149,NaN,move_down,-5.760,-5.760,-5.760,0.000,0.000,0.000
1605224801979177984,10.0.1.149,NaN,move_down,-5.780,-5.780,-5.780,0.000,0.000,0.000
1605224802302063872,10.0.1.149,NaN,move_down,-5.800,-5.800,-5.800,0.000,0.000,0.000
1605224802754672128,10.0.1.149,NaN,move_down,-5.820,-5.820,-5.820,0.000,0.000,0.000
1605224802907982080,10.0.1.149,NaN,move_down,-5.840,-5.840,-5.840,0.000,0.000,0.000
1605224803392379136,10.0.1.149,NaN,move_down,-5.860,-5.860,-5.860,0.000,0.000,0.000
1605224804138874880,10.0.1.149,NaN,move_down,-5.880,-5.880,-5.880,0.000,0.000,0.000
1605224804764722944,10.0.1.149,NaN,move_down,-5.900,-5.900,-5.900,0.000,0.000,0.000
1605224805439747072,10.0.1.149,NaN,move_down,-5.920,-5.920,-5.920,0.000,0.000,0.000
1605224805622978816,10.0.1.149,NaN,move_down,-5.940,-5.940,-5.940,0.000,0.000,0.000
1605224806481363968,10.0.1.149,NaN,move_down,-5.960,-5.960,-5.960,0.000,0.000,0.000
1605224807050294016,10.0.1.149,NaN,move_down,-5.980,-5.980,-5.980,0.000,0.000,0.000
1605224807230483968,10.0.1.149,NaN,move_down,-6.000,-6.000,-6.000,0.000,0.000,0.000
1605224807347242240,10.0.1.149,NaN,move_down,-6.020,-6.020,-6.020,0.000,0.000,0.000
1605224807592182016,10.0.1.149,NaN,move_down,-6.040,-6.040,-6.040,0.000,0.000,0.000
1605224807904963072,10.0.1.149,NaN,move_down,-6.060,-6.060,-6.060,0.000,0.000,0.000
1605224808169265152,10.0.1.149,NaN,move_down,-6.080,-6.080,-6.080,0.000,0.000,0.000
1605224808407529216,10.0.1.149,NaN,move_down,-6.100,-6.100,-6.100,0.000,0.000,0.000
1605224808580081920,10.0.1.149,NaN,move_down,-6.120,-6.120,-6.120,0.000,0.000,0.000
1605224808942701056,10.0.1.149,NaN,move_down,-6.140,-6.140,-6.140,0.000,0.000,0.000
1605224809431230976,10.0.1.149,NaN,move_down,-6.160,-6.160,-6.160,0.000,0.000,0.000
1605224810026010112,10.0.1.149,NaN,move_down,-6.180,-6.180,-6.180,0.000,0.000,0.000
1605224810175920896,10.0.1.149,NaN,move_down,-6.200,-6.200,-6.200,0.000,0.000,0.000
1605224810543986176,10.0.1.149,NaN,move_down,-6.220,-6.220,-6.220,0.000,0.000,0.000
1605224810700969984,10.0.1.149,NaN,move_down,-6.240,-6.240,-6.240,0.000,0.000,0.000
1605224810822496768,10.0.1.149,NaN,move_down,-6.260,-6.260,-6.260,0.000,0.000,0.000
1605224810986292992,10.0.1.149,NaN,move_down,-6.280,-6.280,-6.280,0.000,0.000,0.000
1605224811119049984,10.0.1.149,NaN,move_down,-6.300,-6.300,-6.300,0.000,0.000,0.000
1605224811274537984,10.0.1.149,NaN,move_down,-6.320,-6.320,-6.320,0.000,0.000,0.000
1605224811523721984,10.0.1.149,NaN,move_down,-6.340,-6.340,-6.340,0.000,0.000,0.000
1605224813016154880,10.0.1.149,NaN,move_down,-6.360,-6.360,-6.360,0.000,0.000,0.000
1605224813128678912,10.0.1.149,NaN,move_down,-6.380,-6.380,-6.380,0.000,0.000,0.000
1605224813409648896,10.0.1.149,NaN,move_down,-6.400,-6.400,-6.400,0.000,0.000,0.000
1605224813556875008,10.0.1.149,NaN,move_down,-6.420,-6.420,-6.420,0.000,0.000,0.000
1605224813690512896,10.0.1.149,NaN,move_down,-6.440,-6.440,-6.440,0.000,0.000,0.000
1605224814115983104,10.0.1.149,NaN,move_down,-6.460,-6.460,-6.460,0.000,0.000,0.000
1605224814573947904,10.0.1.149,NaN,move_down,-6.480,-6.480,-6.480,0.000,0.000,0.000
1605224815086072832,10.0.1.149,NaN,move_down,-6.500,-6.500,-6.500,0.000,0.000,0.000
1605224815898694912,10.0.1.149,NaN,move_down,-6.520,-6.520,-6.520,0.000,0.000,0.000
1605224816123521024,10.0.1.149,NaN,move_down,-6.540,-6.540,-6.540,0.000,0.000,0.000
1605224816231764992,10.0.1.149,NaN,move_down,-6.560,-6.560,-6.560,0.000,0.000,0.000
1605224816476921088,10.0.1.149,NaN,move_down,-6.580,-6.580,-6.580,0.000,0.000,0.000
1605224816744102912,10.0.1.149,NaN,move_down,-6.600,-6.600,-6.600,0.000,0.000,0.000
1605224817023289088,10.0.1.149,NaN,move_down,-6.620,-6.620,-6.620,0.000,0.000,0.000
1605224817342968064,10.0.1.149,NaN,move_down,-6.640,-6.640,-6.640,0.000,0.000,0.000
1605224817967066112,10.0.1.149,NaN,move_down,-6.660,-6.660,-6.660,0.000,0.000,0.000
1605224818399614208,10.0.1.149,NaN,move_down,-6.680,-6.680,-6.680,0.000,0.000,0.000
1605224818542629120,10.0.1.149,NaN,move_down,-6.700,-6.700,-6.700,0.000,0.000,0.000
1605224818898710016,10.0.1.149,NaN,move_down,-6.720,-6.720,-6.720,0.000,0.000,0.000
1605224819277116928,10.0.1.149,NaN,move_down,-6.740,-6.740,-6.740,0.000,0.000,0.000
1605224819381661952,10.0.1.149,NaN,move_down,-6.760,-6.760,-6.760,0.000,0.000,0.000
1605224819711206912,10.0.1.149,NaN,move_down,-6.780,-6.780,-6.780,0.000,0.000,0.000
1605224820196069120,10.0.1.149,NaN,move_down,-6.800,-6.800,-6.800,0.000,0.000,0.000
1605224821155379968,10.0.1.149,NaN,move_down,-6.820,-6.820,-6.820,0.000,0.000,0.000
1605224821495884800,10.0.1.149,NaN,move_down,-6.840,-6.840,-6.840,0.000,0.000,0.000
1605224821631774976,10.0.1.149,NaN,move_down,-6.860,-6.860,-6.860,0.000,0.000,0.000
1605224821897236224,10.0.1.149,NaN,move_down,-6.880,-6.880,-6.880,0.000,0.000,0.000
1605224822320890880,10.0.1.149,NaN,move_down,-6.900,-6.900,-6.900,0.000,0.000,0.000
1605224822494863104,10.0.1.149,NaN,move_down,-6.920,-6.920,-6.920,0.000,0.000,0.000
1605224822723779072,10.0.1.149,NaN,move_down,-6.940,-6.940,-6.940,0.000,0.000,0.000
1605224823052620032,10.0.1.149,NaN,move_down,-6.960,-6.960,-6.960,0.000,0.000,0.000
1605224823469827840,10.0.1.149,NaN,move_down,-6.980,-6.980,-6.980,0.000,0.000,0.000
1605224823785214976,10.0.1.149,NaN,move_down,-7.000,-7.000,-7.000,0.000,0.000,0.000
1605224824247396864,10.0.1.149,NaN,move_down,-7.020,-7.020,-7.020,0.000,0.000,0.000
1605224824749861888,10.0.1.149,NaN,move_down,-7.040,-7.040,-7.040,0.000,0.000,0.000
1605224825539437056,10.0.1.149,NaN,move_down,-7.060,-7.060,-7.060,0.000,0.000,0.000
1605224825940363776,10.0.1.149,NaN,move_down,-7.080,-7.080,-7.080,0.000,0.000,0.000
1605224826086497024,10.0.1.149,NaN,move_down,-7.100,-7.100,-7.100,0.000,0.000,0.000
1605224826498554880,10.0.1.149,NaN,move_down,-7.120,-7.120,-7.120,0.000,0.000,0.000
1605224826792332800,10.0.1.149,NaN,move_down,-7.140,-7.140,-7.140,0.000,0.000,0.000
1605224827581448192,10.0.1.149,NaN,move_down,-7.160,-7.160,-7.160,0.000,0.000,0.000
1605224827734288896,10.0.1.149,NaN,move_down,-7.180,-7.180,-7.180,0.000,0.000,0.000
1605224827961769216,10.0.1.149,NaN,move_down,-7.200,-7.200,-7.200,0.000,0.000,0.000
1605224828514893056,10.0.1.149,NaN,move_down,-7.220,-7.220,-7.220,0.000,0.000,0.000
1605224829714885120,10.0.1.149,NaN,move_down,-7.240,-7.240,-7.240,0.000,0.000,0.000
1605224830214379008,10.0.1.149,NaN,move_down,-7.260,-7.260,-7.260,0.000,0.000,0.000
1605224830881602048,10.0.1.149,NaN,move_down,-7.280,-7.280,-7.280,0.000,0.000,0.000
1605224831081641984,10.0.1.149,NaN,move_down,-7.300,-7.300,-7.300,0.000,0.000,0.000
1605224831524962048,10.0.1.149,NaN,move_down,-7.320,-7.320,-7.320,0.000,0.000,0.000
1605224831636131072,10.0.1.149,NaN,move_down,-7.340,-7.340,-7.340,0.000,0.000,0.000
1605224832165751040,10.0.1.149,NaN,move_down,-7.360,-7.360,-7.360,0.000,0.000,0.000
1605224833132262912,10.0.1.149,NaN,move_down,-7.380,-7.380,-7.380,0.000,0.000,0.000
1605224833494311168,10.0.1.149,NaN,move_down,-7.400,-7.400,-7.400,0.000,0.000,0.000
1605224834393783040,10.0.1.149,NaN,move_down,-7.420,-7.420,-7.420,0.000,0.000,0.000
1605224834671181824,10.0.1.149,NaN,move_down,-7.440,-7.440,-7.440,0.000,0.000,0.000
1605224835124497920,10.0.1.149,NaN,move_down,-7.460,-7.460,-7.460,0.000,0.000,0.000
1605224835481532928,10.0.1.149,NaN,move_down,-7.480,-7.480,-7.480,0.000,0.000,0.000
1605224835573764096,10.0.1.149,NaN,move_down,-7.500,-7.500,-7.500,0.000,0.000,0.000
1605224835679356928,10.0.1.149,NaN,move_down,-7.520,-7.520,-7.520,0.000,0.000,0.000
1605224836077039104,10.0.1.149,NaN,move_down,-7.540,-7.540,-7.540,0.000,0.000,0.000
1605224836191919104,10.0.1.149,NaN,move_down,-7.560,-7.560,-7.560,0.000,0.000,0.000
1605224836344192000,10.0.1.149,NaN,move_down,-7.580,-7.580,-7.580,0.000,0.000,0.000
1605224836413984000,10.0.1.149,NaN,move_down,-7.600,-7.600,-7.600,0.000,0.000,0.000
1605224837243241984,10.0.1.149,NaN,move_down,-7.620,-7.620,-7.620,0.000,0.000,0.000
1605224837415948032,10.0.1.149,NaN,move_down,-7.640,-7.640,-7.640,0.000,0.000,0.000
1605224837674042112,10.0.1.149,NaN,move_down,-7.660,-7.660,-7.660,0.000,0.000,0.000
1605224837979891968,10.0.1.149,NaN,move_down,-7.680,-7.680,-7.680,0.000,0.000,0.000
1605224838207917056,10.0.1.149,NaN,move_down,-7.700,-7.700,-7.700,0.000,0.000,0.000
1605224838592056064,10.0.1.149,NaN,move_down,-7.720,-7.720,-7.720,0.000,0.000,0.000
1605224838845180928,10.0.1.149,NaN,move_down,-7.740,-7.740,-7.740,0.000,0.000,0.000
1605224839380090880,10.0.1.149,NaN,move_down,-7.760,-7.760,-7.760,0.000,0.000,0.000
1605224839789648896,10.0.1.149,NaN,move_down,-7.780,-7.780,-7.780,0.000,0.000,0.000
1605224839938281984,10.0.1.149,NaN,move_down,-7.800,-7.800,-7.800,0.000,0.000,0.000
1605224840191052800,10.0.1.149,NaN,move_down,-7.820,-7.820,-7.820,0.000,0.000,0.000
1605224840544796928,10.0.1.149,NaN,move_down,-7.840,-7.840,-7.840,0.000,0.000,0.000
1605224840670750976,10.0.1.149,NaN,move_down,-7.860,-7.860,-7.860,0.000,0.000,0.000
1605224840769867776,10.0.1.149,NaN,move_down,-7.880,-7.880,-7.880,0.000,0.000,0.000
1605224841069220096,10.0.1.149,NaN,move_down,-7.900,-7.900,-7.900,0.000,0.000,0.000
1605224841857752064,10.0.1.149,NaN,move_down,-7.920,-7.920,-7.920,0.000,0.000,0.000
1605224842181915904,10.0.1.149,NaN,move_down,-7.940,-7.940,-7.940,0.000,0.000,0.000
1605224843183915008,10.0.1.149,NaN,move_down,-7.960,-7.960,-7.960,0.000,0.000,0.000
1605224843570095104,10.0.1.149,NaN,move_down,-7.980,-7.980,-7.980,0.000,0.000,0.000
1605224843789829120,10.0.1.149,NaN,move_down,-8.000,-8.000,-8.000,0.000,0.000,0.000
1605224844487848960,10.0.1.149,NaN,move_down,-8.020,-8.020,-8.020,0.000,0.000,0.000
1605224844950288896,10.0.1.149,NaN,move_down,-8.040,-8.040,-8.040,0.000,0.000,0.000
1605224845539020032,10.0.1.149,NaN,move_down,-8.060,-8.060,-8.060,0.000,0.000,0.000
1605224845953048832,10.0.1.149,NaN,move_down,-8.080,-8.080,-8.080,0.000,0.000,0.000
1605224846090233088,10.0.1.149,NaN,move_down,-8.100,-8.100,-8.100,0.000,0.000,0.000
1605224846609349120,10.0.1.149,NaN,move_down,-8.120,-8.120,-8.120,0.000,0.000,0.000
1605224846763008000,10.0.1.149,NaN,move_down,-8.140,-8.140,-8.140,0.000,0.000,0.000
1605224846908816128,10.0.1.149,NaN,move_down,-8.160,-8.160,-8.160,0.000,0.000,0.000
1605224847169612032,10.0.1.149,NaN,move_down,-8.180,-8.180,-8.180,0.000,0.000,0.000
1605224847324006912,10.0.1.149,NaN,move_down,-8.200,-8.200,-8.200,0.000,0.000,0.000
1605224847462620928,10.0.1.149,NaN,move_down,-8.220,-8.220,-8.220,0.000,0.000,0.000
1605224847584422144,10.0.1.149,NaN,move_down,-8.240,-8.240,-8.240,0.000,0.000,0.000
1605224847773189120,10.0.1.149,NaN,move_down,-8.260,-8.260,-8.260,0.000,0.000,0.000
1605224849252060928,10.0.1.149,NaN,move_down,-8.280,-8.280,-8.280,0.000,0.000,0.000
1605224849567336192,10.0.1.149,NaN,move_down,-8.300,-8.300,-8.300,0.000,0.000,0.000
1605224849899669760,10.0.1.149,NaN,move_down,-8.320,-8.320,-8.320,0.000,0.000,0.000
1605224850291190016,10.0.1.149,NaN,move_down,-8.340,-8.340,-8.340,0.000,0.000,0.000
1605224850485199872,10.0.1.149,NaN,move_down,-8.360,-8.360,-8.360,0.000,0.000,0.000
1605224850636955136,10.0.1.149,NaN,move_down,-8.380,-8.380,-8.380,0.000,0.000,0.000
1605224852063791872,10.0.1.149,NaN,move_down,-8.400,-8.400,-8.400,0.000,0.000,0.000
1605224852322489856,10.0.1.149,NaN,move_down,-8.420,-8.420,-8.420,0.000,0.000,0.000
1605224852570280192,10.0.1.149,NaN,move_down,-8.440,-8.440,-8.440,0.000,0.000,0.000
1605224852688780032,10.0.1.149,NaN,move_down,-8.460,-8.460,-8.460,0.000,0.000,0.000
1605224853480371968,10.0.1.149,NaN,move_down,-8.480,-8.480,-8.480,0.000,0.000,0.000
1605224853910387968,10.0.1.149,NaN,move_down,-8.500,-8.500,-8.500,0.000,0.000,0.000
1605224854068563968,10.0.1.149,NaN,move_down,-8.520,-8.520,-8.520,0.000,0.000,0.000
1605224854251540992,10.0.1.149,NaN,move_down,-8.540,-8.540,-8.540,0.000,0.000,0.000
1605224854346599936,10.0.1.149,NaN,move_down,-8.560,-8.560,-8.560,0.000,0.000,0.000
1605224854774978048,10.0.1.149,NaN,move_down,-8.580,-8.580,-8.580,0.000,0.000,0.000
1605224855422217984,10.0.1.149,NaN,move_down,-8.600,-8.600,-8.600,0.000,0.000,0.000
1605224855861003008,10.0.1.149,NaN,move_down,-8.620,-8.620,-8.620,0.000,0.000,0.000
1605224855997870080,10.0.1.149,NaN,move_down,-8.640,-8.640,-8.640,0.000,0.000,0.000
1605224856315778048,10.0.1.149,NaN,move_down,-8.660,-8.660,-8.660,0.000,0.000,0.000
1605224856728688896,10.0.1.149,NaN,move_down,-8.680,-8.680,-8.680,0.000,0.000,0.000
1605224857033736960,10.0.1.149,NaN,move_down,-8.700,-8.700,-8.700,0.000,0.000,0.000
1605224857251827968,10.0.1.149,NaN,move_down,-8.720,-8.720,-8.720,0.000,0.000,0.000
1605224857962996992,10.0.1.149,NaN,move_down,-8.740,-8.740,-8.740,0.000,0.000,0.000
1605224858814994176,10.0.1.149,NaN,move_down,-8.760,-8.760,-8.760,0.000,0.000,0.000
1605224859161990912,10.0.1.149,NaN,move_down,-8.780,-8.780,-8.780,0.000,0.000,0.000
1605224859275547136,10.0.1.149,NaN,move_down,-8.800,-8.800,-8.800,0.000,0.000,0.000
1605224859698785024,10.0.1.149,NaN,move_down,-8.820,-8.820,-8.820,0.000,0.000,0.000
1605224859890055936,10.0.1.149,NaN,move_down,-8.840,-8.840,-8.840,0.000,0.000,0.000
1605224860158110976,10.0.1.149,NaN,move_down,-8.860,-8.860,-8.860,0.000,0.000,0.000
1605224860388514048,10.0.1.149,NaN,move_down,-8.880,-8.880,-8.880,0.000,0.000,0.000
1605224860519591936,10.0.1.149,NaN,move_down,-8.900,-8.900,-8.900,0.000,0.000,0.000
1605224860789876992,10.0.1.149,NaN,move_down,-8.920,-8.920,-8.920,0.000,0.000,0.000
1605224861702909952,10.0.1.149,NaN,move_down,-8.940,-8.940,-8.940,0.000,0.000,0.000
1605224862160685056,10.0.1.149,NaN,move_down,-8.960,-8.960,-8.960,0.000,0.000,0.000
1605224862347529984,10.0.1.149,NaN,move_down,-8.980,-8.980,-8.980,0.000,0.000,0.000
1605224862673104896,10.0.1.149,NaN,move_down,-9.000,-9.000,-9.000,0.000,0.000,0.000
1605224863030964992,10.0.1.149,NaN,move_down,-9.020,-9.020,-9.020,0.000,0.000,0.000
1605224863342489856,10.0.1.149,NaN,move_down,-9.040,-9.040,-9.040,0.000,0.000,0.000
1605224863775772928,10.0.1.149,NaN,move_down,-9.060,-9.060,-9.060,0.000,0.000,0.000
1605224864638358016,10.0.1.149,NaN,move_down,-9.080,-9.080,-9.080,0.000,0.000,0.000
1605224864988164864,10.0.1.149,NaN,move_down,-9.100,-9.100,-9.100,0.000,0.000,0.000
1605224865167793920,10.0.1.149,NaN,move_down,-9.120,-9.120,-9.120,0.000,0.000,0.000
1605224865540628992,10.0.1.149,NaN,move_down,-9.140,-9.140,-9.140,0.000,0.000,0.000
1605224866058969088,10.0.1.149,NaN,move_down,-9.160,-9.160,-9.160,0.000,0.000,0.000
1605224866644544000,10.0.1.149,NaN,move_down,-9.180,-9.180,-9.180,0.000,0.000,0.000
1605224867192815104,10.0.1.149,NaN,move_down,-9.200,-9.200,-9.200,0.000,0.000,0.000
1605224867422918912,10.0.1.149,NaN,move_down,-9.220,-9.220,-9.220,0.000,0.000,0.000
1605224867783931136,10.0.1.149,NaN,move_down,-9.240,-9.240,-9.240,0.000,0.000,0.000
1605224868306850048,10.0.1.149,NaN,move_down,-9.260,-9.260,-9.260,0.000,0.000,0.000
1605224868497772032,10.0.1.149,NaN,move_down,-9.280,-9.280,-9.280,0.000,0.000,0.000
1605224868648967936,10.0.1.149,NaN,move_down,-9.300,-9.300,-9.300,0.000,0.000,0.000
1605224869271537920,10.0.1.149,NaN,move_down,-9.320,-9.320,-9.320,0.000,0.000,0.000
1605224870578100992,10.0.1.149,NaN,move_down,-9.340,-9.340,-9.340,0.000,0.000,0.000
1605224871184711936,10.0.1.149,NaN,move_down,-9.360,-9.360,-9.360,0.000,0.000,0.000
1605224871722816000,10.0.1.149,NaN,move_down,-9.380,-9.380,-9.380,0.000,0.000,0.000
1605224871968230912,10.0.1.149,NaN,move_down,-9.400,-9.400,-9.400,0.000,0.000,0.000
1605224872271528960,10.0.1.149,NaN,move_down,-9.420,-9.420,-9.420,0.000,0.000,0.000
1605224872609595904,10.0.1.149,NaN,move_down,-9.440,-9.440,-9.440,0.000,0.000,0.000
1605224873042768896,10.0.1.149,NaN,move_down,-9.460,-9.460,-9.460,0.000,0.000,0.000
1605224873296497152,10.0.1.149,NaN,move_down,-9.480,-9.480,-9.480,0.000,0.000,0.000
1605224873435642112,10.0.1.149,NaN,move_down,-9.500,-9.500,-9.500,0.000,0.000,0.000
1605224873916840960,10.0.1.149,NaN,move_down,-9.520,-9.520,-9.520,0.000,0.000,0.000
1605224874176709888,10.0.1.149,NaN,move_down,-9.540,-9.540,-9.540,0.000,0.000,0.000
1605224874375080960,10.0.1.149,NaN,move_down,-9.560,-9.560,-9.560,0.000,0.000,0.000
1605224874658801152,10.0.1.149,NaN,move_down,-9.580,-9.580,-9.580,0.000,0.000,0.000
1605224874965892096,10.0.1.149,NaN,move_down,-9.600,-9.600,-9.600,0.000,0.000,0.000
1605224875110196224,10.0.1.149,NaN,move_down,-9.620,-9.620,-9.620,0.000,0.000,0.000
1605224875329879040,10.0.1.149,NaN,move_down,-9.640,-9.640,-9.640,0.000,0.000,0.000
1605224875516112128,10.0.1.149,NaN,move_down,-9.660,-9.660,-9.660,0.000,0.000,0.000
1605224875673008896,10.0.1.149,NaN,move_down,-9.680,-9.680,-9.680,0.000,0.000,0.000
1605224875885985024,10.0.1.149,NaN,move_down,-9.700,-9.700,-9.700,0.000,0.000,0.000
1605224876098153984,10.0.1.149,NaN,move_down,-9.720,-9.720,-9.720,0.000,0.000,0.000
1605224876507555072,10.0.1.149,NaN,move_down,-9.740,-9.740,-9.740,0.000,0.000,0.000
1605224877650401024,10.0.1.149,NaN,move_down,-9.760,-9.760,-9.760,0.000,0.000,0.000
1605224877980340992,10.0.1.149,NaN,move_down,-9.780,-9.780,-9.780,0.000,0.000,0.000
1605224878295644160,10.0.1.149,NaN,move_down,-9.800,-9.800,-9.800,0.000,0.000,0.000
1605224878771204096,10.0.1.149,NaN,move_down,-9.820,-9.820,-9.820,0.000,0.000,0.000
1605224879151089920,10.0.1.149,NaN,move_down,-9.840,-9.840,-9.840,0.000,0.000,0.000
1605224879469773056,10.0.1.149,NaN,move_down,-9.860,-9.860,-9.860,0.000,0.000,0.000
1605224879969073152,10.0.1.149,NaN,move_down,-9.880,-9.880,-9.880,0.000,0.000,0.000
1605224880062657024,10.0.1.149,NaN,move_down,-9.900,-9.900,-9.900,0.000,0.000,0.000
1605224880680819968,10.0.1.149,NaN,move_down,-9.920,-9.920,-9.920,0.000,0.000,0.000
1605224881208240128,10.0.1.149,NaN,move_down,-9.940,-9.940,-9.940,0.000,0.000,0.000
1605224881930077952,10.0.1.149,NaN,move_down,-9.960,-9.960,-9.960,0.000,0.000,0.000
1605224882061904896,10.0.1.149,NaN,move_down,-9.980,-9.980,-9.980,0.000,0.000,0.000
1605224882307257856,10.0.1.149,NaN,move_down,-10.000,-10.000,-10.000,0.000,0.000,0.000
1605224882551582208,10.0.1.149,NaN,move_down,-10.020,-10.020,-10.020,0.000,0.000,0.000
1605224883344711936,10.0.1.149,NaN,move_down,-10.040,-10.040,-10.040,0.000,0.000,0.000
1605224884110615040,10.0.1.149,NaN,move_down,-10.060,-10.060,-10.060,0.000,0.000,0.000
1605224884267427840,10.0.1.149,NaN,move_down,-10.080,-10.080,-10.080,0.000,0.000,0.000
1605224884412389120,10.0.1.149,NaN,move_down,-10.100,-10.100,-10.100,0.000,0.000,0.000
1605224884573380096,10.0.1.149,NaN,move_down,-10.120,-10.120,-10.120,0.000,0.000,0.000
1605224884798985984,10.0.1.149,NaN,move_down,-10.140,-10.140,-10.140,0.000,0.000,0.000
1605224885245726208,10.0.1.149,NaN,move_down,-10.160,-10.160,-10.160,0.000,0.000,0.000
1605224885423124992,10.0.1.149,NaN,move_down,-10.180,-10.180,-10.180,0.000,0.000,0.000
1605224885645648896,10.0.1.149,NaN,move_down,-10.200,-10.200,-10.200,0.000,0.000,0.000
1605224886085003008,10.0.1.149,NaN,move_down,-10.220,-10.220,-10.220,0.000,0.000,0.000
1605224886983890944,10.0.1.149,NaN,move_down,-10.240,-10.240,-10.240,0.000,0.000,0.000
1605224887276308992,10.0.1.149,NaN,move_down,-10.260,-10.260,-10.260,0.000,0.000,0.000
1605224887699358976,10.0.1.149,NaN,move_down,-10.280,-10.280,-10.280,0.000,0.000,0.000
1605224888184452096,10.0.1.149,NaN,move_down,-10.300,-10.300,-10.300,0.000,0.000,0.000
1605224888499751936,10.0.1.149,NaN,move_down,-10.320,-10.320,-10.320,0.000,0.000,0.000
1605224889536928768,10.0.1.149,NaN,move_down,-10.340,-10.340,-10.340,0.000,0.000,0.000
1605224889650816000,10.0.1.149,NaN,move_down,-10.360,-10.360,-10.360,0.000,0.000,0.000
1605224890015099904,10.0.1.149,NaN,move_down,-10.380,-10.380,-10.380,0.000,0.000,0.000
1605224890341604864,10.0.1.149,NaN,move_down,-10.400,-10.400,-10.400,0.000,0.000,0.000
1605224890841521920,10.0.1.149,NaN,move_down,-10.420,-10.420,-10.420,0.000,0.000,0.000
1605224890961760000,10.0.1.149,NaN,move_down,-10.440,-10.440,-10.440,0.000,0.000,0.000
1605224891246496000,10.0.1.149,NaN,move_down,-10.460,-10.460,-10.460,0.000,0.000,0.000
1605224891570265088,10.0.1.149,NaN,move_down,-10.480,-10.480,-10.480,0.000,0.000,0.000
1605224891758563072,10.0.1.149,NaN,move_down,-10.500,-10.500,-10.500,0.000,0.000,0.000
1605224891909576960,10.0.1.149,NaN,move_down,-10.520,-10.520,-10.520,0.000,0.000,0.000
1605224892006923008,10.0.1.149,NaN,move_down,-10.540,-10.540,-10.540,0.000,0.000,0.000
1605224892195333120,10.0.1.149,NaN,move_down,-10.560,-10.560,-10.560,0.000,0.000,0.000
1605224892544802048,10.0.1.149,NaN,move_down,-10.580,-10.580,-10.580,0.000,0.000,0.000
1605224892782053888,10.0.1.149,NaN,move_down,-10.600,-10.600,-10.600,0.000,0.000,0.000
1605224892877753856,10.0.1.149,NaN,move_down,-10.620,-10.620,-10.620,0.000,0.000,0.000
1605224894063545856,10.0.1.149,NaN,move_down,-10.640,-10.640,-10.640,0.000,0.000,0.000
1605224894240020992,10.0.1.149,NaN,move_down,-10.660,-10.660,-10.660,0.000,0.000,0.000
1605224894369255936,10.0.1.149,NaN,move_down,-10.680,-10.680,-10.680,0.000,0.000,0.000
1605224895554771968,10.0.1.149,NaN,move_down,-10.700,-10.700,-10.700,0.000,0.000,0.000
1605224896163553024,10.0.1.149,NaN,move_down,-10.720,-10.720,-10.720,0.000,0.000,0.000
1605224896539810048,10.0.1.149,NaN,move_down,-10.740,-10.740,-10.740,0.000,0.000,0.000
1605224896958359040,10.0.1.149,NaN,move_down,-10.760,-10.760,-10.760,0.000,0.000,0.000
1605224897405186048,10.0.1.149,NaN,move_down,-10.780,-10.780,-10.780,0.000,0.000,0.000
1605224897568698880,10.0.1.149,NaN,move_down,-10.800,-10.800,-10.800,0.000,0.000,0.000
1605224897855906048,10.0.1.149,NaN,move_down,-10.820,-10.820,-10.820,0.000,0.000,0.000
1605224898288093184,10.0.1.149,NaN,move_down,-10.840,-10.840,-10.840,0.000,0.000,0.000
1605224898873800960,10.0.1.149,NaN,move_down,-10.860,-10.860,-10.860,0.000,0.000,0.000
1605224898983844096,10.0.1.149,NaN,move_down,-10.880,-10.880,-10.880,0.000,0.000,0.000
1605224899568603136,10.0.1.149,NaN,move_down,-10.900,-10.900,-10.900,0.000,0.000,0.000
1605224899911674112,10.0.1.149,NaN,move_down,-10.920,-10.920,-10.920,0.000,0.000,0.000
1605224900184669952,10.0.1.149,NaN,move_down,-10.940,-10.940,-10.940,0.000,0.000,0.000
1605224900738573056,10.0.1.149,NaN,move_down,-10.960,-10.960,-10.960,0.000,0.000,0.000
1605224900874691072,10.0.1.149,NaN,move_down,-10.980,-10.980,-10.980,0.000,0.000,0.000
1605224901236352000,10.0.1.149,NaN,move_down,-11.000,-11.000,-11.000,0.000,0.000,0.000
1605224901776068096,10.0.1.149,NaN,move_down,-11.020,-11.020,-11.020,0.000,0.000,0.000
1605224901909959936,10.0.1.149,NaN,move_down,-11.040,-11.040,-11.040,0.000,0.000,0.000
1605224902110914048,10.0.1.149,NaN,move_down,-11.060,-11.060,-11.060,0.000,0.000,0.000
1605224902344050944,10.0.1.149,NaN,move_down,-11.080,-11.080,-11.080,0.000,0.000,0.000
1605224902492657920,10.0.1.149,NaN,move_down,-11.100,-11.100,-11.100,0.000,0.000,0.000
1605224902849432832,10.0.1.149,NaN,move_down,-11.120,-11.120,-11.120,0.000,0.000,0.000
1605224903029545984,10.0.1.149,NaN,move_down,-11.140,-11.140,-11.140,0.000,0.000,0.000
1605224903661940992,10.0.1.149,NaN,move_down,-11.160,-11.160,-11.160,0.000,0.000,0.000
1605224904076215040,10.0.1.149,NaN,move_down,-11.180,-11.180,-11.180,0.000,0.000,0.000
1605224904275606016,10.0.1.149,NaN,move_down,-11.200,-11.200,-11.200,0.000,0.000,0.000
1605224904450706944,10.0.1.149,NaN,move_down,-11.220,-11.220,-11.220,0.000,0.000,0.000
1605224904680262144,10.0.1.149,NaN,move_down,-11.240,-11.240,-11.240,0.000,0.000,0.000
1605224904986635008,10.0.1.149,NaN,move_down,-11.260,-11.260,-11.260,0.000,0.000,0.000
1605224905171566848,10.0.1.149,NaN,move_down,-11.280,-11.280,-11.280,0.000,0.000,0.000
1605224905612797952,10.0.1.149,NaN,move_down,-11.300,-11.300,-11.300,0.000,0.000,0.000
1605224905812385024,10.0.1.149,NaN,move_down,-11.320,-11.320,-11.320,0.000,0.000,0.000
1605224905959328768,10.0.1.149,NaN,move_down,-11.340,-11.340,-11.340,0.000,0.000,0.000
1605224906073772800,10.0.1.149,NaN,move_down,-11.360,-11.360,-11.360,0.000,0.000,0.000
1605224906288744960,10.0.1.149,NaN,move_down,-11.380,-11.380,-11.380,0.000,0.000,0.000
1605224906967313920,10.0.1.149,NaN,move_down,-11.400,-11.400,-11.400,0.000,0.000,0.000
1605224907200492032,10.0.1.149,NaN,move_down,-11.420,-11.420,-11.420,0.000,0.000,0.000
1605224907391963904,10.0.1.149,NaN,move_down,-11.440,-11.440,-11.440,0.000,0.000,0.000
1605224907958264064,10.0.1.149,NaN,move_down,-11.460,-11.460,-11.460,0.000,0.000,0.000
1605224908303625984,10.0.1.149,NaN,move_down,-11.480,-11.480,-11.480,0.000,0.000,0.000
1605224908760136960,10.0.1.149,NaN,move_down,-11.500,-11.500,-11.500,0.000,0.000,0.000
1605224908906796032,10.0.1.149,NaN,move_down,-11.520,-11.520,-11.520,0.000,0.000,0.000
1605224909016325120,10.0.1.149,NaN,move_down,-11.540,-11.540,-11.540,0.000,0.000,0.000
1605224909294392064,10.0.1.149,NaN,move_down,-11.560,-11.560,-11.560,0.000,0.000,0.000
1605224909478769152,10.0.1.149,NaN,move_down,-11.580,-11.580,-11.580,0.000,0.000,0.000
1605224910052391936,10.0.1.149,NaN,move_down,-11.600,-11.600,-11.600,0.000,0.000,0.000
1605224910405118976,10.0.1.149,NaN,move_down,-11.620,-11.620,-11.620,0.000,0.000,0.000
1605224910818480128,10.0.1.149,NaN,move_down,-11.640,-11.640,-11.640,0.000,0.000,0.000
1605224911187796992,10.0.1.149,NaN,move_down,-11.660,-11.660,-11.660,0.000,0.000,0.000
1605224911828932096,10.0.1.149,NaN,move_down,-11.680,-11.680,-11.680,0.000,0.000,0.000
1605224912316018944,10.0.1.149,NaN,move_down,-11.700,-11.700,-11.700,0.000,0.000,0.000
1605224912603449088,10.0.1.149,NaN,move_down,-11.720,-11.720,-11.720,0.000,0.000,0.000
1605224912742100992,10.0.1.149,NaN,move_down,-11.740,-11.740,-11.740,0.000,0.000,0.000
1605224913910108928,10.0.1.149,NaN,move_down,-11.760,-11.760,-11.760,0.000,0.000,0.000
1605224914303455232,10.0.1.149,NaN,move_down,-11.780,-11.780,-11.780,0.000,0.000,0.000
1605224914927952128,10.0.1.149,NaN,move_down,-11.800,-11.800,-11.800,0.000,0.000,0.000
1605224915241700864,10.0.1.149,NaN,move_down,-11.820,-11.820,-11.820,0.000,0.000,0.000
1605224915731744000,10.0.1.149,NaN,move_down,-11.840,-11.840,-11.840,0.000,0.000,0.000
1605224915980605952,10.0.1.149,NaN,move_down,-11.860,-11.860,-11.860,0.000,0.000,0.000
1605224916277803008,10.0.1.149,NaN,move_down,-11.880,-11.880,-11.880,0.000,0.000,0.000
1605224916436258048,10.0.1.149,NaN,move_down,-11.900,-11.900,-11.900,0.000,0.000,0.000
1605224916816484096,10.0.1.149,NaN,move_down,-11.920,-11.920,-11.920,0.000,0.000,0.000
1605224917074657024,10.0.1.149,NaN,move_down,-11.940,-11.940,-11.940,0.000,0.000,0.000
1605224917388475904,10.0.1.149,NaN,move_down,-11.960,-11.960,-11.960,0.000,0.000,0.000
1605224918077182976,10.0.1.149,NaN,move_down,-11.980,-11.980,-11.980,0.000,0.000,0.000
1605224918246838016,10.0.1.149,NaN,move_down,-12.000,-12.000,-12.000,0.000,0.000,0.000
1605224918524174848,10.0.1.149,NaN,move_down,-12.020,-12.020,-12.020,0.000,0.000,0.000
1605224918803767808,10.0.1.149,NaN,move_down,-12.040,-12.040,-12.040,0.000,0.000,0.000
1605224919870210816,10.0.1.149,NaN,move_down,-12.060,-12.060,-12.060,0.000,0.000,0.000
1605224920418985984,10.0.1.149,NaN,move_down,-12.080,-12.080,-12.080,0.000,0.000,0.000
1605224920749699072,10.0.1.149,NaN,move_down,-12.100,-12.100,-12.100,0.000,0.000,0.000
1605224921544966912,10.0.1.149,NaN,move_down,-12.120,-12.120,-12.120,0.000,0.000,0.000
1605224921823559936,10.0.1.149,NaN,move_down,-12.140,-12.140,-12.140,0.000,0.000,0.000
1605224922524231936,10.0.1.149,NaN,move_down,-12.160,-12.160,-12.160,0.000,0.000,0.000
1605224922921847040,10.0.1.149,NaN,move_down,-12.180,-12.180,-12.180,0.000,0.000,0.000
1605224923385957120,10.0.1.149,NaN,move_down,-12.200,-12.200,-12.200,0.000,0.000,0.000
1605224925245399040,10.0.1.149,NaN,move_down,-12.220,-12.220,-12.220,0.000,0.000,0.000
1605224925445847040,10.0.1.149,NaN,move_down,-12.240,-12.240,-12.240,0.000,0.000,0.000
1605224925775410944,10.0.1.149,NaN,move_down,-12.260,-12.260,-12.260,0.000,0.000,0.000
1605224926052485888,10.0.1.149,NaN,move_down,-12.280,-12.280,-12.280,0.000,0.000,0.000
1605224926571677952,10.0.1.149,NaN,move_down,-12.300,-12.300,-12.300,0.000,0.000,0.000
1605224926788680192,10.0.1.149,NaN,move_down,-12.320,-12.320,-12.320,0.000,0.000,0.000
1605224927083153920,10.0.1.149,NaN,move_down,-12.340,-12.340,-12.340,0.000,0.000,0.000
1605224927199980032,10.0.1.149,NaN,move_down,-12.360,-12.360,-12.360,0.000,0.000,0.000
1605224928100193024,10.0.1.149,NaN,move_down,-12.380,-12.380,-12.380,0.000,0.000,0.000
1605224928522330112,10.0.1.149,NaN,move_down,-12.400,-12.400,-12.400,0.000,0.000,0.000
1605224928954152960,10.0.1.149,NaN,move_down,-12.420,-12.420,-12.420,0.000,0.000,0.000
1605224929445355776,10.0.1.149,NaN,move_down,-12.440,-12.440,-12.440,0.000,0.000,0.000
1605224929716088064,10.0.1.149,NaN,move_down,-12.460,-12.460,-12.460,0.000,0.000,0.000
1605224929861495040,10.0.1.149,NaN,move_down,-12.480,-12.480,-12.480,0.000,0.000,0.000
1605224930694259968,10.0.1.149,NaN,move_down,-12.500,-12.500,-12.500,0.000,0.000,0.000
1605224931043493120,10.0.1.149,NaN,move_down,-12.520,-12.520,-12.520,0.000,0.000,0.000
1605224931530280192,10.0.1.149,NaN,move_down,-12.540,-12.540,-12.540,0.000,0.000,0.000
1605224932091970048,10.0.1.149,NaN,move_down,-12.560,-12.560,-12.560,0.000,0.000,0.000
1605224932366635008,10.0.1.149,NaN,move_down,-12.580,-12.580,-12.580,0.000,0.000,0.000
1605224932790034944,10.0.1.149,NaN,move_down,-12.600,-12.600,-12.600,0.000,0.000,0.000
1605224932941350912,10.0.1.149,NaN,move_down,-12.620,-12.620,-12.620,0.000,0.000,0.000
1605224933122951936,10.0.1.149,NaN,move_down,-12.640,-12.640,-12.640,0.000,0.000,0.000
1605224933698393088,10.0.1.149,NaN,move_down,-12.660,-12.660,-12.660,0.000,0.000,0.000
1605224933921276928,10.0.1.149,NaN,move_down,-12.680,-12.680,-12.680,0.000,0.000,0.000
1605224934043868928,10.0.1.149,NaN,move_down,-12.700,-12.700,-12.700,0.000,0.000,0.000
1605224934401527040,10.0.1.149,NaN,move_down,-12.720,-12.720,-12.720,0.000,0.000,0.000
1605224934680141056,10.0.1.149,NaN,move_down,-12.740,-12.740,-12.740,0.000,0.000,0.000
1605224934811862016,10.0.1.149,NaN,move_down,-12.760,-12.760,-12.760,0.000,0.000,0.000
1605224935073854976,10.0.1.149,NaN,move_down,-12.780,-12.780,-12.780,0.000,0.000,0.000
1605224935695128064,10.0.1.149,NaN,move_down,-12.800,-12.800,-12.800,0.000,0.000,0.000
1605224936160732928,10.0.1.149,NaN,move_down,-12.820,-12.820,-12.820,0.000,0.000,0.000
1605224936418059008,10.0.1.149,NaN,move_down,-12.840,-12.840,-12.840,0.000,0.000,0.000
1605224937732302848,10.0.1.149,NaN,move_down,-12.860,-12.860,-12.860,0.000,0.000,0.000
1605224938109999872,10.0.1.149,NaN,move_down,-12.880,-12.880,-12.880,0.000,0.000,0.000
1605224938650219008,10.0.1.149,NaN,move_down,-12.900,-12.900,-12.900,0.000,0.000,0.000
1605224938767124992,10.0.1.149,NaN,move_down,-12.920,-12.920,-12.920,0.000,0.000,0.000
1605224939062379008,10.0.1.149,NaN,move_down,-12.940,-12.940,-12.940,0.000,0.000,0.000
1605224939626033152,10.0.1.149,NaN,move_down,-12.960,-12.960,-12.960,0.000,0.000,0.000
1605224939928178944,10.0.1.149,NaN,move_down,-12.980,-12.980,-12.980,0.000,0.000,0.000
1605224940257296128,10.0.1.149,NaN,move_down,-13.000,-13.000,-13.000,0.000,0.000,0.000
1605224940505758976,10.0.1.149,NaN,move_down,-13.020,-13.020,-13.020,0.000,0.000,0.000
1605224940850287872,10.0.1.149,NaN,move_down,-13.040,-13.040,-13.040,0.000,0.000,0.000
1605224941219778048,10.0.1.149,NaN,move_down,-13.060,-13.060,-13.060,0.000,0.000,0.000
1605224941546489856,10.0.1.149,NaN,move_down,-13.080,-13.080,-13.080,0.000,0.000,0.000
1605224941879793920,10.0.1.149,NaN,move_down,-13.100,-13.100,-13.100,0.000,0.000,0.000
1605224942330512128,10.0.1.149,NaN,move_down,-13.120,-13.120,-13.120,0.000,0.000,0.000
1605224942647803904,10.0.1.149,NaN,move_down,-13.140,-13.140,-13.140,0.000,0.000,0.000
1605224942823404032,10.0.1.149,NaN,move_down,-13.160,-13.160,-13.160,0.000,0.000,0.000
1605224943050136064,10.0.1.149,NaN,move_down,-13.180,-13.180,-13.180,0.000,0.000,0.000
1605224943777939968,10.0.1.149,NaN,move_down,-13.200,-13.200,-13.200,0.000,0.000,0.000
1605224944198934016,10.0.1.149,NaN,move_down,-13.220,-13.220,-13.220,0.000,0.000,0.000
1605224944505049856,10.0.1.149,NaN,move_down,-13.240,-13.240,-13.240,0.000,0.000,0.000
1605224944796371968,10.0.1.149,NaN,move_down,-13.260,-13.260,-13.260,0.000,0.000,0.000
1605224944921939968,10.0.1.149,NaN,move_down,-13.280,-13.280,-13.280,0.000,0.000,0.000
1605224945139609088,10.0.1.149,NaN,move_down,-13.300,-13.300,-13.300,0.000,0.000,0.000
1605224945308204800,10.0.1.149,NaN,move_down,-13.320,-13.320,-13.320,0.000,0.000,0.000
1605224945699682048,10.0.1.149,NaN,move_down,-13.340,-13.340,-13.340,0.000,0.000,0.000
1605224946027712000,10.0.1.149,NaN,move_down,-13.360,-13.360,-13.360,0.000,0.000,0.000
1605224946192411904,10.0.1.149,NaN,move_down,-13.380,-13.380,-13.380,0.000,0.000,0.000
1605224946338682880,10.0.1.149,NaN,move_down,-13.400,-13.400,-13.400,0.000,0.000,0.000
1605224946481081088,10.0.1.149,NaN,move_down,-13.420,-13.420,-13.420,0.000,0.000,0.000
1605224946657464064,10.0.1.149,NaN,move_down,-13.440,-13.440,-13.440,0.000,0.000,0.000
1605224946910053888,10.0.1.149,NaN,move_down,-13.460,-13.460,-13.460,0.000,0.000,0.000
1605224947374520064,10.0.1.149,NaN,move_down,-13.480,-13.480,-13.480,0.000,0.000,0.000
1605224947724265984,10.0.1.149,NaN,move_down,-13.500,-13.500,-13.500,0.000,0.000,0.000
1605224948004954112,10.0.1.149,NaN,move_down,-13.520,-13.520,-13.520,0.000,0.000,0.000
1605224948166305024,10.0.1.149,NaN,move_down,-13.540,-13.540,-13.540,0.000,0.000,0.000
1605224948326436096,10.0.1.149,NaN,move_down,-13.560,-13.560,-13.560,0.000,0.000,0.000
1605224948537817856,10.0.1.149,NaN,move_down,-13.580,-13.580,-13.580,0.000,0.000,0.000
1605224949203026176,10.0.1.149,NaN,move_down,-13.600,-13.600,-13.600,0.000,0.000,0.000
1605224949548130048,10.0.1.149,NaN,move_down,-13.620,-13.620,-13.620,0.000,0.000,0.000
1605224950107592192,10.0.1.149,NaN,move_down,-13.640,-13.640,-13.640,0.000,0.000,0.000
1605224950430678016,10.0.1.149,NaN,move_down,-13.660,-13.660,-13.660,0.000,0.000,0.000
1605224950670640896,10.0.1.149,NaN,move_down,-13.680,-13.680,-13.680,0.000,0.000,0.000
1605224951051973120,10.0.1.149,NaN,move_down,-13.700,-13.700,-13.700,0.000,0.000,0.000
1605224951802885120,10.0.1.149,NaN,move_down,-13.720,-13.720,-13.720,0.000,0.000,0.000
1605224952657255936,10.0.1.149,NaN,move_down,-13.740,-13.740,-13.740,0.000,0.000,0.000
1605224953133011200,10.0.1.149,NaN,move_down,-13.760,-13.760,-13.760,0.000,0.000,0.000
1605224953955235840,10.0.1.149,NaN,move_down,-13.780,-13.780,-13.780,0.000,0.000,0.000
1605224954295164160,10.0.1.149,NaN,move_down,-13.800,-13.800,-13.800,0.000,0.000,0.000
1605224954530450176,10.0.1.149,NaN,move_down,-13.820,-13.820,-13.820,0.000,0.000,0.000
1605224954674102016,10.0.1.149,NaN,move_down,-13.840,-13.840,-13.840,0.000,0.000,0.000
1605224955051748096,10.0.1.149,NaN,move_down,-13.860,-13.860,-13.860,0.000,0.000,0.000
1605224955238418176,10.0.1.149,NaN,move_down,-13.880,-13.880,-13.880,0.000,0.000,0.000
1605224955408119040,10.0.1.149,NaN,move_down,-13.900,-13.900,-13.900,0.000,0.000,0.000
1605224955758019072,10.0.1.149,NaN,move_down,-13.920,-13.920,-13.920,0.000,0.000,0.000
1605224955892407040,10.0.1.149,NaN,move_down,-13.940,-13.940,-13.940,0.000,0.000,0.000
1605224956078896128,10.0.1.149,NaN,move_down,-13.960,-13.960,-13.960,0.000,0.000,0.000
1605224956626771968,10.0.1.149,NaN,move_down,-13.980,-13.980,-13.980,0.000,0.000,0.000
1605224957297810944,10.0.1.149,NaN,move_down,-14.000,-14.000,-14.000,0.000,0.000,0.000
1605224957952038912,10.0.1.149,NaN,move_down,-14.020,-14.020,-14.020,0.000,0.000,0.000
1605224958376457984,10.0.1.149,NaN,move_down,-14.040,-14.040,-14.040,0.000,0.000,0.000
1605224958608300032,10.0.1.149,NaN,move_down,-14.060,-14.060,-14.060,0.000,0.000,0.000
1605224958785371904,10.0.1.149,NaN,move_down,-14.080,-14.080,-14.080,0.000,0.000,0.000
1605224959363787776,10.0.1.149,NaN,move_down,-14.100,-14.100,-14.100,0.000,0.000,0.000
1605224959549124096,10.0.1.149,NaN,move_down,-14.120,-14.120,-14.120,0.000,0.000,0.000
1605224960134236928,10.0.1.149,NaN,move_down,-14.140,-14.140,-14.140,0.000,0.000,0.000
1605224960923141888,10.0.1.149,NaN,move_down,-14.160,-14.160,-14.160,0.000,0.000,0.000
1605224961151395072,10.0.1.149,NaN,move_down,-14.180,-14.180,-14.180,0.000,0.000,0.000
1605224961903770880,10.0.1.149,NaN,move_down,-14.200,-14.200,-14.200,0.000,0.000,0.000
1605224962339899904,10.0.1.149,NaN,move_down,-14.220,-14.220,-14.220,0.000,0.000,0.000
1605224962972367104,10.0.1.149,NaN,move_down,-14.240,-14.240,-14.240,0.000,0.000,0.000
1605224963715406848,10.0.1.149,NaN,move_down,-14.260,-14.260,-14.260,0.000,0.000,0.000
1605224964344867840,10.0.1.149,NaN,move_down,-14.280,-14.280,-14.280,0.000,0.000,0.000
1605224964538674176,10.0.1.149,NaN,move_down,-14.300,-14.300,-14.300,0.000,0.000,0.000
1605224964975367936,10.0.1.149,NaN,move_down,-14.320,-14.320,-14.320,0.000,0.000,0.000
1605224965163735040,10.0.1.149,NaN,move_down,-14.340,-14.340,-14.340,0.000,0.000,0.000
1605224965573409024,10.0.1.149,NaN,move_down,-14.360,-14.360,-14.360,0.000,0.000,0.000
1605224966289571072,10.0.1.149,NaN,move_down,-14.380,-14.380,-14.380,0.000,0.000,0.000
1605224967046824960,10.0.1.149,NaN,move_down,-14.400,-14.400,-14.400,0.000,0.000,0.000
1605224968089321984,10.0.1.149,NaN,move_down,-14.420,-14.420,-14.420,0.000,0.000,0.000
1605224969034070016,10.0.1.149,NaN,move_down,-14.440,-14.440,-14.440,0.000,0.000,0.000
1605224969256873984,10.0.1.149,NaN,move_down,-14.460,-14.460,-14.460,0.000,0.000,0.000
1605224969562352896,10.0.1.149,NaN,move_down,-14.480,-14.480,-14.480,0.000,0.000,0.000
1605224969887759872,10.0.1.149,NaN,move_down,-14.500,-14.500,-14.500,0.000,0.000,0.000
1605224970271779072,10.0.1.149,NaN,move_down,-14.520,-14.520,-14.520,0.000,0.000,0.000
1605224970476186112,10.0.1.149,NaN,move_down,-14.540,-14.540,-14.540,0.000,0.000,0.000
1605224970977044224,10.0.1.149,NaN,move_down,-14.560,-14.560,-14.560,0.000,0.000,0.000
1605224971278755840,10.0.1.149,NaN,move_down,-14.580,-14.580,-14.580,0.000,0.000,0.000
1605224971535768064,10.0.1.149,NaN,move_down,-14.600,-14.600,-14.600,0.000,0.000,0.000
1605224971681137920,10.0.1.149,NaN,move_down,-14.620,-14.620,-14.620,0.000,0.000,0.000
1605224971945035008,10.0.1.149,NaN,move_down,-14.640,-14.640,-14.640,0.000,0.000,0.000
1605224972084704000,10.0.1.149,NaN,move_down,-14.660,-14.660,-14.660,0.000,0.000,0.000
1605224972935214080,10.0.1.149,NaN,move_down,-14.680,-14.680,-14.680,0.000,0.000,0.000
1605224973147301888,10.0.1.149,NaN,move_down,-14.700,-14.700,-14.700,0.000,0.000,0.000
1605224973834175232,10.0.1.149,NaN,move_down,-14.720,-14.720,-14.720,0.000,0.000,0.000
1605224974304200960,10.0.1.149,NaN,move_down,-14.740,-14.740,-14.740,0.000,0.000,0.000
1605224974539931904,10.0.1.149,NaN,move_down,-14.760,-14.760,-14.760,0.000,0.000,0.000
1605224975047879936,10.0.1.149,NaN,move_down,-14.780,-14.780,-14.780,0.000,0.000,0.000
1605224975293634048,10.0.1.149,NaN,move_down,-14.800,-14.800,-14.800,0.000,0.000,0.000
1605224976179771904,10.0.1.149,NaN,move_down,-14.820,-14.820,-14.820,0.000,0.000,0.000
1605224976446825984,10.0.1.149,NaN,move_down,-14.840,-14.840,-14.840,0.000,0.000,0.000
1605224976884901120,10.0.1.149,NaN,move_down,-14.860,-14.860,-14.860,0.000,0.000,0.000
1605224977284195072,10.0.1.149,NaN,move_down,-14.880,-14.880,-14.880,0.000,0.000,0.000
1605224977533630976,10.0.1.149,NaN,move_down,-14.900,-14.900,-14.900,0.000,0.000,0.000
1605224977640492032,10.0.1.149,NaN,move_down,-14.920,-14.920,-14.920,0.000,0.000,0.000
1605224977995851008,10.0.1.149,NaN,move_down,-14.940,-14.940,-14.940,0.000,0.000,0.000
1605224978411070208,10.0.1.149,NaN,move_down,-14.960,-14.960,-14.960,0.000,0.000,0.000
1605224979092609024,10.0.1.149,NaN,move_down,-14.980,-14.980,-14.980,0.000,0.000,0.000
1605224979398380032,10.0.1.149,NaN,move_down,-15.000,-15.000,-15.000,0.000,0.000,0.000
1605224981044712960,10.0.1.149,NaN,move_down,-15.020,-15.020,-15.020,0.000,0.000,0.000
1605224982196667904,10.0.1.149,NaN,move_down,-15.040,-15.040,-15.040,0.000,0.000,0.000
1605224982560216832,10.0.1.149,NaN,move_down,-15.060,-15.060,-15.060,0.000,0.000,0.000
1605224983066464000,10.0.1.149,NaN,move_down,-15.080,-15.080,-15.080,0.000,0.000,0.000
1605224983792401152,10.0.1.149,NaN,move_down,-15.100,-15.100,-15.100,0.000,0.000,0.000
1605224984587366144,10.0.1.149,NaN,move_down,-15.120,-15.120,-15.120,0.000,0.000,0.000
1605224984861134080,10.0.1.149,NaN,move_down,-15.140,-15.140,-15.140,0.000,0.000,0.000
1605224985485167104,10.0.1.149,NaN,move_down,-15.160,-15.160,-15.160,0.000,0.000,0.000
1605224985660326912,10.0.1.149,NaN,move_down,-15.180,-15.180,-15.180,0.000,0.000,0.000
1605224985833286912,10.0.1.149,NaN,move_down,-15.200,-15.200,-15.200,0.000,0.000,0.000
1605224985960349184,10.0.1.149,NaN,move_down,-15.220,-15.220,-15.220,0.000,0.000,0.000
1605224986223275776,10.0.1.149,NaN,move_down,-15.240,-15.240,-15.240,0.000,0.000,0.000
1605224986731200000,10.0.1.149,NaN,move_down,-15.260,-15.260,-15.260,0.000,0.000,0.000
1605224986945054976,10.0.1.149,NaN,move_down,-15.280,-15.280,-15.280,0.000,0.000,0.000
1605224987178113024,10.0.1.149,NaN,move_down,-15.300,-15.300,-15.300,0.000,0.000,0.000
1605224987471376896,10.0.1.149,NaN,move_down,-15.320,-15.320,-15.320,0.000,0.000,0.000
1605224988551748864,10.0.1.149,NaN,move_down,-15.340,-15.340,-15.340,0.000,0.000,0.000
1605224988642173952,10.0.1.149,NaN,move_down,-15.360,-15.360,-15.360,0.000,0.000,0.000
1605224988850024960,10.0.1.149,NaN,move_down,-15.380,-15.380,-15.380,0.000,0.000,0.000
1605224989480854016,10.0.1.149,NaN,move_down,-15.400,-15.400,-15.400,0.000,0.000,0.000
1605224990154802944,10.0.1.149,NaN,move_down,-15.420,-15.420,-15.420,0.000,0.000,0.000
1605224990409289984,10.0.1.149,NaN,move_down,-15.440,-15.440,-15.440,0.000,0.000,0.000
1605224990845175040,10.0.1.149,NaN,move_down,-15.460,-15.460,-15.460,0.000,0.000,0.000
1605224991054294016,10.0.1.149,NaN,move_down,-15.480,-15.480,-15.480,0.000,0.000,0.000
1605224992237700096,10.0.1.149,NaN,move_down,-15.500,-15.500,-15.500,0.000,0.000,0.000
1605224993323678976,10.0.1.149,NaN,move_down,-15.520,-15.520,-15.520,0.000,0.000,0.000
1605224993763051008,10.0.1.149,NaN,move_down,-15.540,-15.540,-15.540,0.000,0.000,0.000
1605224994201654016,10.0.1.149,NaN,move_down,-15.560,-15.560,-15.560,0.000,0.000,0.000
1605224994585978880,10.0.1.149,NaN,move_down,-15.580,-15.580,-15.580,0.000,0.000,0.000
1605224995091383808,10.0.1.149,NaN,move_down,-15.600,-15.600,-15.600,0.000,0.000,0.000
1605224995549124096,10.0.1.149,NaN,move_down,-15.620,-15.620,-15.620,0.000,0.000,0.000
1605224995718795008,10.0.1.149,NaN,move_down,-15.640,-15.640,-15.640,0.000,0.000,0.000
1605224995927620864,10.0.1.149,NaN,move_down,-15.660,-15.660,-15.660,0.000,0.000,0.000
1605224996219474944,10.0.1.149,NaN,move_down,-15.680,-15.680,-15.680,0.000,0.000,0.000
1605224996840344064,10.0.1.149,NaN,move_down,-15.700,-15.700,-15.700,0.000,0.000,0.000
1605224997045291776,10.0.1.149,NaN,move_down,-15.720,-15.720,-15.720,0.000,0.000,0.000
1605224997412192000,10.0.1.149,NaN,move_down,-15.740,-15.740,-15.740,0.000,0.000,0.000
1605224998185808896,10.0.1.149,NaN,move_down,-15.760,-15.760,-15.760,0.000,0.000,0.000
1605224998323931904,10.0.1.149,NaN,move_down,-15.780,-15.780,-15.780,0.000,0.000,0.000
1605224998480079872,10.0.1.149,NaN,move_down,-15.800,-15.800,-15.800,0.000,0.000,0.000
1605224999211222016,10.0.1.149,NaN,move_down,-15.820,-15.820,-15.820,0.000,0.000,0.000
1605224999428879872,10.0.1.149,NaN,move_down,-15.840,-15.840,-15.840,0.000,0.000,0.000
1605224999629474048,10.0.1.149,NaN,move_down,-15.860,-15.860,-15.860,0.000,0.000,0.000
1605224999763910144,10.0.1.149,NaN,move_down,-15.880,-15.880,-15.880,0.000,0.000,0.000
1605225000015884032,10.0.1.149,NaN,move_down,-15.900,-15.900,-15.900,0.000,0.000,0.000
1605225000248267776,10.0.1.149,NaN,move_down,-15.920,-15.920,-15.920,0.000,0.000,0.000
1605225000796088832,10.0.1.149,NaN,move_down,-15.940,-15.940,-15.940,0.000,0.000,0.000
1605225001111699200,10.0.1.149,NaN,move_down,-15.960,-15.960,-15.960,0.000,0.000,0.000
1605225001381817088,10.0.1.149,NaN,move_down,-15.980,-15.980,-15.980,0.000,0.000,0.000
1605225001568440064,10.0.1.149,NaN,move_down,-16.000,-16.000,-16.000,0.000,0.000,0.000
1605225001775873792,10.0.1.149,NaN,move_down,-16.020,-16.020,-16.020,0.000,0.000,0.000
1605225001871965952,10.0.1.149,NaN,move_down,-16.040,-16.040,-16.040,0.000,0.000,0.000
1605225002585360128,10.0.1.149,NaN,move_down,-16.060,-16.060,-16.060,0.000,0.000,0.000
1605225003192984064,10.0.1.149,NaN,move_down,-16.080,-16.080,-16.080,0.000,0.000,0.000
1605225003552884224,10.0.1.149,NaN,move_down,-16.100,-16.100,-16.100,0.000,0.000,0.000
1605225003818428160,10.0.1.149,NaN,move_down,-16.120,-16.120,-16.120,0.000,0.000,0.000
1605225004276793856,10.0.1.149,NaN,move_down,-16.140,-16.140,-16.140,0.000,0.000,0.000
1605225004765325056,10.0.1.149,NaN,move_down,-16.160,-16.160,-16.160,0.000,0.000,0.000
1605225005217348096,10.0.1.149,NaN,move_down,-16.180,-16.180,-16.180,0.000,0.000,0.000
1605225005452497920,10.0.1.149,NaN,move_down,-16.200,-16.200,-16.200,0.000,0.000,0.000
1605225006036024064,10.0.1.149,NaN,move_down,-16.220,-16.220,-16.220,0.000,0.000,0.000
1605225006442982912,10.0.1.149,NaN,move_down,-16.240,-16.240,-16.240,0.000,0.000,0.000
1605225006717894912,10.0.1.149,NaN,move_down,-16.260,-16.260,-16.260,0.000,0.000,0.000
1605225007098862848,10.0.1.149,NaN,move_down,-16.280,-16.280,-16.280,0.000,0.000,0.000
1605225007347070976,10.0.1.149,NaN,move_down,-16.300,-16.300,-16.300,0.000,0.000,0.000
1605225007724332032,10.0.1.149,NaN,move_down,-16.320,-16.320,-16.320,0.000,0.000,0.000
1605225007894108160,10.0.1.149,NaN,move_down,-16.340,-16.340,-16.340,0.000,0.000,0.000
1605225008239311104,10.0.1.149,NaN,move_down,-16.360,-16.360,-16.360,0.000,0.000,0.000
1605225008787191040,10.0.1.149,NaN,move_down,-16.380,-16.380,-16.380,0.000,0.000,0.000
1605225009253248000,10.0.1.149,NaN,move_down,-16.400,-16.400,-16.400,0.000,0.000,0.000
1605225009573947904,10.0.1.149,NaN,move_down,-16.420,-16.420,-16.420,0.000,0.000,0.000
1605225009781405952,10.0.1.149,NaN,move_down,-16.440,-16.440,-16.440,0.000,0.000,0.000
1605225010271353088,10.0.1.149,NaN,move_down,-16.460,-16.460,-16.460,0.000,0.000,0.000
1605225010689960960,10.0.1.149,NaN,move_down,-16.480,-16.480,-16.480,0.000,0.000,0.000
1605225010921926912,10.0.1.149,NaN,move_down,-16.500,-16.500,-16.500,0.000,0.000,0.000
1605225012047211008,10.0.1.149,NaN,move_down,-16.520,-16.520,-16.520,0.000,0.000,0.000
1605225012347342848,10.0.1.149,NaN,move_down,-16.540,-16.540,-16.540,0.000,0.000,0.000
1605225012814565888,10.0.1.149,NaN,move_down,-16.560,-16.560,-16.560,0.000,0.000,0.000
1605225013042375168,10.0.1.149,NaN,move_down,-16.580,-16.580,-16.580,0.000,0.000,0.000
1605225013660680960,10.0.1.149,NaN,move_down,-16.600,-16.600,-16.600,0.000,0.000,0.000
1605225014055002880,10.0.1.149,NaN,move_down,-16.620,-16.620,-16.620,0.000,0.000,0.000
1605225014338712064,10.0.1.149,NaN,move_down,-16.640,-16.640,-16.640,0.000,0.000,0.000
1605225014603108864,10.0.1.149,NaN,move_down,-16.660,-16.660,-16.660,0.000,0.000,0.000
1605225014896433152,10.0.1.149,NaN,move_down,-16.680,-16.680,-16.680,0.000,0.000,0.000
1605225015766753792,10.0.1.149,NaN,move_down,-16.700,-16.700,-16.700,0.000,0.000,0.000
1605225015996567040,10.0.1.149,NaN,move_down,-16.720,-16.720,-16.720,0.000,0.000,0.000
1605225016575446016,10.0.1.149,NaN,move_down,-16.740,-16.740,-16.740,0.000,0.000,0.000
1605225016878045952,10.0.1.149,NaN,move_down,-16.760,-16.760,-16.760,0.000,0.000,0.000
1605225017234460160,10.0.1.149,NaN,move_down,-16.780,-16.780,-16.780,0.000,0.000,0.000
1605225017631321856,10.0.1.149,NaN,move_down,-16.800,-16.800,-16.800,0.000,0.000,0.000
1605225017771380992,10.0.1.149,NaN,move_down,-16.820,-16.820,-16.820,0.000,0.000,0.000
1605225018172594176,10.0.1.149,NaN,move_down,-16.840,-16.840,-16.840,0.000,0.000,0.000
1605225018818691072,10.0.1.149,NaN,move_down,-16.860,-16.860,-16.860,0.000,0.000,0.000
1605225018985754880,10.0.1.149,NaN,move_down,-16.880,-16.880,-16.880,0.000,0.000,0.000
1605225019662349824,10.0.1.149,NaN,move_down,-16.900,-16.900,-16.900,0.000,0.000,0.000
1605225020753633024,10.0.1.149,NaN,move_down,-16.920,-16.920,-16.920,0.000,0.000,0.000
1605225021008820992,10.0.1.149,NaN,move_down,-16.940,-16.940,-16.940,0.000,0.000,0.000
1605225021348432128,10.0.1.149,NaN,move_down,-16.960,-16.960,-16.960,0.000,0.000,0.000
1605225021616125952,10.0.1.149,NaN,move_down,-16.980,-16.980,-16.980,0.000,0.000,0.000
1605225021926600960,10.0.1.149,NaN,move_down,-17.000,-17.000,-17.000,0.000,0.000,0.000
1605225022230930176,10.0.1.149,NaN,move_down,-17.020,-17.020,-17.020,0.000,0.000,0.000
1605225022537708032,10.0.1.149,NaN,move_down,-17.040,-17.040,-17.040,0.000,0.000,0.000
1605225023054132992,10.0.1.149,NaN,move_down,-17.060,-17.060,-17.060,0.000,0.000,0.000
1605225023976815104,10.0.1.149,NaN,move_down,-17.080,-17.080,-17.080,0.000,0.000,0.000
1605225024177341952,10.0.1.149,NaN,move_down,-17.100,-17.100,-17.100,0.000,0.000,0.000
1605225024612183040,10.0.1.149,NaN,move_down,-17.120,-17.120,-17.120,0.000,0.000,0.000
1605225024723704064,10.0.1.149,NaN,move_down,-17.140,-17.140,-17.140,0.000,0.000,0.000
1605225024907376896,10.0.1.149,NaN,move_down,-17.160,-17.160,-17.160,0.000,0.000,0.000
1605225025363240960,10.0.1.149,NaN,move_down,-17.180,-17.180,-17.180,0.000,0.000,0.000
1605225025793504000,10.0.1.149,NaN,move_down,-17.200,-17.200,-17.200,0.000,0.000,0.000
1605225025979915008,10.0.1.149,NaN,move_down,-17.220,-17.220,-17.220,0.000,0.000,0.000
1605225026292045056,10.0.1.149,NaN,move_down,-17.240,-17.240,-17.240,0.000,0.000,0.000
1605225026999890176,10.0.1.149,NaN,move_down,-17.260,-17.260,-17.260,0.000,0.000,0.000
1605225027954075136,10.0.1.149,NaN,move_down,-17.280,-17.280,-17.280,0.000,0.000,0.000
1605225028450275072,10.0.1.149,NaN,move_down,-17.300,-17.300,-17.300,0.000,0.000,0.000
1605225028747781120,10.0.1.149,NaN,move_down,-17.320,-17.320,-17.320,0.000,0.000,0.000
1605225029808546048,10.0.1.149,NaN,move_down,-17.340,-17.340,-17.340,0.000,0.000,0.000
1605225030323332096,10.0.1.149,NaN,move_down,-17.360,-17.360,-17.360,0.000,0.000,0.000
1605225030621284864,10.0.1.149,NaN,move_down,-17.380,-17.380,-17.380,0.000,0.000,0.000
1605225030913563136,10.0.1.149,NaN,move_down,-17.400,-17.400,-17.400,0.000,0.000,0.000
1605225031040199168,10.0.1.149,NaN,move_down,-17.420,-17.420,-17.420,0.000,0.000,0.000
1605225031232320000,10.0.1.149,NaN,move_down,-17.440,-17.440,-17.440,0.000,0.000,0.000
1605225031580368896,10.0.1.149,NaN,move_down,-17.460,-17.460,-17.460,0.000,0.000,0.000
1605225031771734016,10.0.1.149,NaN,move_down,-17.480,-17.480,-17.480,0.000,0.000,0.000
1605225031974574080,10.0.1.149,NaN,move_down,-17.500,-17.500,-17.500,0.000,0.000,0.000
1605225033153214976,10.0.1.149,NaN,move_down,-17.520,-17.520,-17.520,0.000,0.000,0.000
1605225033483730944,10.0.1.149,NaN,move_down,-17.540,-17.540,-17.540,0.000,0.000,0.000
1605225034529447936,10.0.1.149,NaN,move_down,-17.560,-17.560,-17.560,0.000,0.000,0.000
1605225034643716096,10.0.1.149,NaN,move_down,-17.580,-17.580,-17.580,0.000,0.000,0.000
1605225034735853056,10.0.1.149,NaN,move_down,-17.600,-17.600,-17.600,0.000,0.000,0.000
1605225035151275008,10.0.1.149,NaN,move_down,-17.620,-17.620,-17.620,0.000,0.000,0.000
1605225035368755200,10.0.1.149,NaN,move_down,-17.640,-17.640,-17.640,0.000,0.000,0.000
1605225035755431936,10.0.1.149,NaN,move_down,-17.660,-17.660,-17.660,0.000,0.000,0.000
1605225036115264000,10.0.1.149,NaN,move_down,-17.680,-17.680,-17.680,0.000,0.000,0.000
1605225036837212928,10.0.1.149,NaN,move_down,-17.700,-17.700,-17.700,0.000,0.000,0.000
1605225037615762944,10.0.1.149,NaN,move_down,-17.720,-17.720,-17.720,0.000,0.000,0.000
1605225038036045056,10.0.1.149,NaN,move_down,-17.740,-17.740,-17.740,0.000,0.000,0.000
1605225038278089984,10.0.1.149,NaN,move_down,-17.760,-17.760,-17.760,0.000,0.000,0.000
1605225038577244928,10.0.1.149,NaN,move_down,-17.780,-17.780,-17.780,0.000,0.000,0.000
1605225038768189952,10.0.1.149,NaN,move_down,-17.800,-17.800,-17.800,0.000,0.000,0.000
1605225039156653824,10.0.1.149,NaN,move_down,-17.820,-17.820,-17.820,0.000,0.000,0.000
1605225039701314048,10.0.1.149,NaN,move_down,-17.840,-17.840,-17.840,0.000,0.000,0.000
1605225040346033152,10.0.1.149,NaN,move_down,-17.860,-17.860,-17.860,0.000,0.000,0.000
1605225040961163008,10.0.1.149,NaN,move_down,-17.880,-17.880,-17.880,0.000,0.000,0.000
1605225042133152000,10.0.1.149,NaN,move_down,-17.900,-17.900,-17.900,0.000,0.000,0.000
1605225042552556032,10.0.1.149,NaN,move_down,-17.920,-17.920,-17.920,0.000,0.000,0.000
1605225043135144960,10.0.1.149,NaN,move_down,-17.940,-17.940,-17.940,0.000,0.000,0.000
1605225043483705088,10.0.1.149,NaN,move_down,-17.960,-17.960,-17.960,0.000,0.000,0.000
1605225043857286912,10.0.1.149,NaN,move_down,-17.980,-17.980,-17.980,0.000,0.000,0.000
1605225044049267968,10.0.1.149,NaN,move_down,-18.000,-18.000,-18.000,0.000,0.000,0.000
1605225044689852928,10.0.1.149,NaN,move_down,-18.020,-18.020,-18.020,0.000,0.000,0.000
1605225045032429824,10.0.1.149,NaN,move_down,-18.040,-18.040,-18.040,0.000,0.000,0.000
1605225045410919936,10.0.1.149,NaN,move_down,-18.060,-18.060,-18.060,0.000,0.000,0.000
1605225045729916928,10.0.1.149,NaN,move_down,-18.080,-18.080,-18.080,0.000,0.000,0.000
1605225046375705088,10.0.1.149,NaN,move_down,-18.100,-18.100,-18.100,0.000,0.000,0.000
1605225046673670912,10.0.1.149,NaN,move_down,-18.120,-18.120,-18.120,0.000,0.000,0.000
1605225047349457920,10.0.1.149,NaN,move_down,-18.140,-18.140,-18.140,0.000,0.000,0.000
1605225047877121024,10.0.1.149,NaN,move_down,-18.160,-18.160,-18.160,0.000,0.000,0.000
1605225048128886016,10.0.1.149,NaN,move_down,-18.180,-18.180,-18.180,0.000,0.000,0.000
1605225048410876928,10.0.1.149,NaN,move_down,-18.200,-18.200,-18.200,0.000,0.000,0.000
1605225048860020992,10.0.1.149,NaN,move_down,-18.220,-18.220,-18.220,0.000,0.000,0.000
1605225049438781952,10.0.1.149,NaN,move_down,-18.240,-18.240,-18.240,0.000,0.000,0.000
1605225049816061952,10.0.1.149,NaN,move_down,-18.260,-18.260,-18.260,0.000,0.000,0.000
1605225050612126976,10.0.1.149,NaN,move_down,-18.280,-18.280,-18.280,0.000,0.000,0.000
1605225050990650880,10.0.1.149,NaN,move_down,-18.300,-18.300,-18.300,0.000,0.000,0.000
1605225051282164224,10.0.1.149,NaN,move_down,-18.320,-18.320,-18.320,0.000,0.000,0.000
1605225051486510080,10.0.1.149,NaN,move_down,-18.340,-18.340,-18.340,0.000,0.000,0.000
1605225051699961856,10.0.1.149,NaN,move_down,-18.360,-18.360,-18.360,0.000,0.000,0.000
1605225052017859840,10.0.1.149,NaN,move_down,-18.380,-18.380,-18.380,0.000,0.000,0.000
1605225052236588032,10.0.1.149,NaN,move_down,-18.400,-18.400,-18.400,0.000,0.000,0.000
1605225052745961984,10.0.1.149,NaN,move_down,-18.420,-18.420,-18.420,0.000,0.000,0.000
1605225053081743104,10.0.1.149,NaN,move_down,-18.440,-18.440,-18.440,0.000,0.000,0.000
1605225054643205888,10.0.1.149,NaN,move_down,-18.460,-18.460,-18.460,0.000,0.000,0.000
1605225055297689088,10.0.1.149,NaN,move_down,-18.480,-18.480,-18.480,0.000,0.000,0.000
1605225055820182016,10.0.1.149,NaN,move_down,-18.500,-18.500,-18.500,0.000,0.000,0.000
1605225056075211008,10.0.1.149,NaN,move_down,-18.520,-18.520,-18.520,0.000,0.000,0.000
1605225056239668992,10.0.1.149,NaN,move_down,-18.540,-18.540,-18.540,0.000,0.000,0.000
1605225056560132864,10.0.1.149,NaN,move_down,-18.560,-18.560,-18.560,0.000,0.000,0.000
1605225057062887936,10.0.1.149,NaN,move_down,-18.580,-18.580,-18.580,0.000,0.000,0.000
1605225057238297856,10.0.1.149,NaN,move_down,-18.600,-18.600,-18.600,0.000,0.000,0.000
1605225057516144128,10.0.1.149,NaN,move_down,-18.620,-18.620,-18.620,0.000,0.000,0.000
1605225058448067072,10.0.1.149,NaN,move_down,-18.640,-18.640,-18.640,0.000,0.000,0.000
1605225058669362176,10.0.1.149,NaN,move_down,-18.660,-18.660,-18.660,0.000,0.000,0.000
1605225058912539904,10.0.1.149,NaN,move_down,-18.680,-18.680,-18.680,0.000,0.000,0.000
1605225059695105024,10.0.1.149,NaN,move_down,-18.700,-18.700,-18.700,0.000,0.000,0.000
1605225060001176064,10.0.1.149,NaN,move_down,-18.720,-18.720,-18.720,0.000,0.000,0.000
1605225060603915008,10.0.1.149,NaN,move_down,-18.740,-18.740,-18.740,0.000,0.000,0.000
1605225061508690176,10.0.1.149,NaN,move_down,-18.760,-18.760,-18.760,0.000,0.000,0.000
1605225061754479872,10.0.1.149,NaN,move_down,-18.780,-18.780,-18.780,0.000,0.000,0.000
1605225062303021824,10.0.1.149,NaN,move_down,-18.800,-18.800,-18.800,0.000,0.000,0.000
1605225062698708992,10.0.1.149,NaN,move_down,-18.820,-18.820,-18.820,0.000,0.000,0.000
1605225062990297088,10.0.1.149,NaN,move_down,-18.840,-18.840,-18.840,0.000,0.000,0.000
1605225063529179136,10.0.1.149,NaN,move_down,-18.860,-18.860,-18.860,0.000,0.000,0.000
1605225064164241152,10.0.1.149,NaN,move_down,-18.880,-18.880,-18.880,0.000,0.000,0.000
1605225064544035072,10.0.1.149,NaN,move_down,-18.900,-18.900,-18.900,0.000,0.000,0.000
1605225064972982784,10.0.1.149,NaN,move_down,-18.920,-18.920,-18.920,0.000,0.000,0.000
1605225065152028160,10.0.1.149,NaN,move_down,-18.940,-18.940,-18.940,0.000,0.000,0.000
1605225065515073024,10.0.1.149,NaN,move_down,-18.960,-18.960,-18.960,0.000,0.000,0.000
1605225065754322944,10.0.1.149,NaN,move_down,-18.980,-18.980,-18.980,0.000,0.000,0.000
1605225066335188992,10.0.1.149,NaN,move_down,-19.000,-19.000,-19.000,0.000,0.000,0.000
1605225066643290880,10.0.1.149,NaN,move_down,-19.020,-19.020,-19.020,0.000,0.000,0.000
1605225067055491840,10.0.1.149,NaN,move_down,-19.040,-19.040,-19.040,0.000,0.000,0.000
1605225067588222976,10.0.1.149,NaN,move_down,-19.060,-19.060,-19.060,0.000,0.000,0.000
1605225067912643072,10.0.1.149,NaN,move_down,-19.080,-19.080,-19.080,0.000,0.000,0.000
1605225068240012032,10.0.1.149,NaN,move_down,-19.100,-19.100,-19.100,0.000,0.000,0.000
1605225068639756800,10.0.1.149,NaN,move_down,-19.120,-19.120,-19.120,0.000,0.000,0.000
1605225069280940032,10.0.1.149,NaN,move_down,-19.140,-19.140,-19.140,0.000,0.000,0.000
1605225069443767040,10.0.1.149,NaN,move_down,-19.160,-19.160,-19.160,0.000,0.000,0.000
1605225069876011008,10.0.1.149,NaN,move_down,-19.180,-19.180,-19.180,0.000,0.000,0.000
1605225070819977984,10.0.1.149,NaN,move_down,-19.200,-19.200,-19.200,0.000,0.000,0.000
1605225071037168896,10.0.1.149,NaN,move_down,-19.220,-19.220,-19.220,0.000,0.000,0.000
1605225071670375936,10.0.1.149,NaN,move_down,-19.240,-19.240,-19.240,0.000,0.000,0.000
1605225072128000000,10.0.1.149,NaN,move_down,-19.260,-19.260,-19.260,0.000,0.000,0.000
1605225072527288064,10.0.1.149,NaN,move_down,-19.280,-19.280,-19.280,0.000,0.000,0.000
1605225072808683008,10.0.1.149,NaN,move_down,-19.300,-19.300,-19.300,0.000,0.000,0.000
1605225073186831104,10.0.1.149,NaN,move_down,-19.320,-19.320,-19.320,0.000,0.000,0.000
1605225073318552064,10.0.1.149,NaN,move_down,-19.340,-19.340,-19.340,0.000,0.000,0.000
1605225073584830976,10.0.1.149,NaN,move_down,-19.360,-19.360,-19.360,0.000,0.000,0.000
1605225073794727936,10.0.1.149,NaN,move_down,-19.380,-19.380,-19.380,0.000,0.000,0.000
1605225074357613056,10.0.1.149,NaN,move_down,-19.400,-19.400,-19.400,0.000,0.000,0.000
1605225074527942912,10.0.1.149,NaN,move_down,-19.420,-19.420,-19.420,0.000,0.000,0.000
1605225074707853056,10.0.1.149,NaN,move_down,-19.440,-19.440,-19.440,0.000,0.000,0.000
1605225074897651968,10.0.1.149,NaN,move_down,-19.460,-19.460,-19.460,0.000,0.000,0.000
1605225075207915008,10.0.1.149,NaN,move_down,-19.480,-19.480,-19.480,0.000,0.000,0.000
1605225075726934784,10.0.1.149,NaN,move_down,-19.500,-19.500,-19.500,0.000,0.000,0.000
1605225076098285056,10.0.1.149,NaN,move_down,-19.520,-19.520,-19.520,0.000,0.000,0.000
1605225076871014144,10.0.1.149,NaN,move_down,-19.540,-19.540,-19.540,0.000,0.000,0.000
1605225077094203904,10.0.1.149,NaN,move_down,-19.560,-19.560,-19.560,0.000,0.000,0.000
1605225077315147008,10.0.1.149,NaN,move_down,-19.580,-19.580,-19.580,0.000,0.000,0.000
1605225077491648000,10.0.1.149,NaN,move_down,-19.600,-19.600,-19.600,0.000,0.000,0.000
1605225077760670976,10.0.1.149,NaN,move_down,-19.620,-19.620,-19.620,0.000,0.000,0.000
1605225078195789056,10.0.1.149,NaN,move_down,-19.640,-19.640,-19.640,0.000,0.000,0.000
1605225078713063936,10.0.1.149,NaN,move_down,-19.660,-19.660,-19.660,0.000,0.000,0.000
1605225079331988224,10.0.1.149,NaN,move_down,-19.680,-19.680,-19.680,0.000,0.000,0.000
1605225079624381952,10.0.1.149,NaN,move_down,-19.700,-19.700,-19.700,0.000,0.000,0.000
1605225080363998976,10.0.1.149,NaN,move_down,-19.720,-19.720,-19.720,0.000,0.000,0.000
1605225080599736064,10.0.1.149,NaN,move_down,-19.740,-19.740,-19.740,0.000,0.000,0.000
1605225081019784960,10.0.1.149,NaN,move_down,-19.760,-19.760,-19.760,0.000,0.000,0.000
1605225081558692864,10.0.1.149,NaN,move_down,-19.780,-19.780,-19.780,0.000,0.000,0.000
1605225082019102208,10.0.1.149,NaN,move_down,-19.800,-19.800,-19.800,0.000,0.000,0.000
1605225082436097024,10.0.1.149,NaN,move_down,-19.820,-19.820,-19.820,0.000,0.000,0.000
1605225082686279936,10.0.1.149,NaN,move_down,-19.840,-19.840,-19.840,0.000,0.000,0.000
1605225083032141824,10.0.1.149,NaN,move_down,-19.860,-19.860,-19.860,0.000,0.000,0.000
1605225083385114880,10.0.1.149,NaN,move_down,-19.880,-19.880,-19.880,0.000,0.000,0.000
1605225083825954048,10.0.1.149,NaN,move_down,-19.900,-19.900,-19.900,0.000,0.000,0.000
1605225084060051968,10.0.1.149,NaN,move_down,-19.920,-19.920,-19.920,0.000,0.000,0.000
1605225084212249088,10.0.1.149,NaN,move_down,-19.940,-19.940,-19.940,0.000,0.000,0.000
1605225085436301824,10.0.1.149,NaN,move_down,-19.960,-19.960,-19.960,0.000,0.000,0.000
1605225085810734080,10.0.1.149,NaN,move_down,-19.980,-19.980,-19.980,0.000,0.000,0.000
1605225085979727872,10.0.1.149,NaN,move_down,-20.000,-20.000,-20.000,0.000,0.000,0.000
1605225086311783168,10.0.1.149,NaN,move_down,-20.020,-20.020,-20.020,0.000,0.000,0.000
1605225086907467008,10.0.1.149,NaN,move_down,-20.040,-20.040,-20.040,0.000,0.000,0.000
1605225087254458880,10.0.1.149,NaN,move_down,-20.060,-20.060,-20.060,0.000,0.000,0.000
1605225087494771968,10.0.1.149,NaN,move_down,-20.080,-20.080,-20.080,0.000,0.000,0.000
1605225087851043840,10.0.1.149,NaN,move_down,-20.100,-20.100,-20.100,0.000,0.000,0.000
1605225088131305984,10.0.1.149,NaN,move_down,-20.120,-20.120,-20.120,0.000,0.000,0.000
1605225088572224000,10.0.1.149,NaN,move_down,-20.140,-20.140,-20.140,0.000,0.000,0.000
1605225088750658048,10.0.1.149,NaN,move_down,-20.160,-20.160,-20.160,0.000,0.000,0.000
1605225089184644864,10.0.1.149,NaN,move_down,-20.180,-20.180,-20.180,0.000,0.000,0.000
1605225089447252992,10.0.1.149,NaN,move_down,-20.200,-20.200,-20.200,0.000,0.000,0.000
1605225090046664960,10.0.1.149,NaN,move_down,-20.220,-20.220,-20.220,0.000,0.000,0.000
1605225090543656960,10.0.1.149,NaN,move_down,-20.240,-20.240,-20.240,0.000,0.000,0.000
1605225091292155904,10.0.1.149,NaN,move_down,-20.260,-20.260,-20.260,0.000,0.000,0.000
1605225091659749120,10.0.1.149,NaN,move_down,-20.280,-20.280,-20.280,0.000,0.000,0.000
1605225092356886016,10.0.1.149,NaN,move_down,-20.300,-20.300,-20.300,0.000,0.000,0.000
1605225092964435968,10.0.1.149,NaN,move_down,-20.320,-20.320,-20.320,0.000,0.000,0.000
1605225093389939968,10.0.1.149,NaN,move_down,-20.340,-20.340,-20.340,0.000,0.000,0.000
1605225093610081024,10.0.1.149,NaN,move_down,-20.360,-20.360,-20.360,0.000,0.000,0.000
1605225094056690944,10.0.1.149,NaN,move_down,-20.380,-20.380,-20.380,0.000,0.000,0.000
1605225094739369984,10.0.1.149,NaN,move_down,-20.400,-20.400,-20.400,0.000,0.000,0.000
1605225094818167040,10.0.1.149,NaN,move_down,-20.420,-20.420,-20.420,0.000,0.000,0.000
1605225095024296960,10.0.1.149,NaN,move_down,-20.440,-20.440,-20.440,0.000,0.000,0.000
1605225095438836224,10.0.1.149,NaN,move_down,-20.460,-20.460,-20.460,0.000,0.000,0.000
1605225095713312000,10.0.1.149,NaN,move_down,-20.480,-20.480,-20.480,0.000,0.000,0.000
1605225096055284992,10.0.1.149,NaN,move_down,-20.500,-20.500,-20.500,0.000,0.000,0.000
1605225096392357120,10.0.1.149,NaN,move_down,-20.520,-20.520,-20.520,0.000,0.000,0.000
1605225096582652928,10.0.1.149,NaN,move_down,-20.540,-20.540,-20.540,0.000,0.000,0.000
1605225097339875072,10.0.1.149,NaN,move_down,-20.560,-20.560,-20.560,0.000,0.000,0.000
1605225097781661952,10.0.1.149,NaN,move_down,-20.580,-20.580,-20.580,0.000,0.000,0.000
1605225098081171968,10.0.1.149,NaN,move_down,-20.600,-20.600,-20.600,0.000,0.000,0.000
1605225098632972032,10.0.1.149,NaN,move_down,-20.620,-20.620,-20.620,0.000,0.000,0.000
1605225098911845888,10.0.1.149,NaN,move_down,-20.640,-20.640,-20.640,0.000,0.000,0.000
1605225099335385088,10.0.1.149,NaN,move_down,-20.660,-20.660,-20.660,0.000,0.000,0.000
1605225099619237888,10.0.1.149,NaN,move_down,-20.680,-20.680,-20.680,0.000,0.000,0.000
1605225100424593920,10.0.1.149,NaN,move_down,-20.700,-20.700,-20.700,0.000,0.000,0.000
1605225100671475968,10.0.1.149,NaN,move_down,-20.720,-20.720,-20.720,0.000,0.000,0.000
1605225100894023936,10.0.1.149,NaN,move_down,-20.740,-20.740,-20.740,0.000,0.000,0.000
1605225101295924992,10.0.1.149,NaN,move_down,-20.760,-20.760,-20.760,0.000,0.000,0.000
1605225101911003136,10.0.1.149,NaN,move_down,-20.780,-20.780,-20.780,0.000,0.000,0.000
1605225102165308928,10.0.1.149,NaN,move_down,-20.800,-20.800,-20.800,0.000,0.000,0.000
1605225102442281984,10.0.1.149,NaN,move_down,-20.820,-20.820,-20.820,0.000,0.000,0.000
1605225102902174976,10.0.1.149,NaN,move_down,-20.840,-20.840,-20.840,0.000,0.000,0.000
1605225103038098944,10.0.1.149,NaN,move_down,-20.860,-20.860,-20.860,0.000,0.000,0.000
1605225104687758080,10.0.1.149,NaN,move_down,-20.880,-20.880,-20.880,0.000,0.000,0.000
1605225105326124032,10.0.1.149,NaN,move_down,-20.900,-20.900,-20.900,0.000,0.000,0.000
1605225105573107968,10.0.1.149,NaN,move_down,-20.920,-20.920,-20.920,0.000,0.000,0.000
1605225106033474048,10.0.1.149,NaN,move_down,-20.940,-20.940,-20.940,0.000,0.000,0.000
1605225106292994048,10.0.1.149,NaN,move_down,-20.960,-20.960,-20.960,0.000,0.000,0.000
1605225106610625024,10.0.1.149,NaN,move_down,-20.980,-20.980,-20.980,0.000,0.000,0.000
1605225106922445056,10.0.1.149,NaN,move_down,-21.000,-21.000,-21.000,0.000,0.000,0.000
1605225107986290944,10.0.1.149,NaN,move_down,-21.020,-21.020,-21.020,0.000,0.000,0.000
1605225108597296896,10.0.1.149,NaN,move_down,-21.040,-21.040,-21.040,0.000,0.000,0.000
1605225109430004992,10.0.1.149,NaN,move_down,-21.060,-21.060,-21.060,0.000,0.000,0.000
1605225109983166976,10.0.1.149,NaN,move_down,-21.080,-21.080,-21.080,0.000,0.000,0.000
1605225110271475968,10.0.1.149,NaN,move_down,-21.100,-21.100,-21.100,0.000,0.000,0.000
1605225110443144192,10.0.1.149,NaN,move_down,-21.120,-21.120,-21.120,0.000,0.000,0.000
1605225110632093952,10.0.1.149,NaN,move_down,-21.140,-21.140,-21.140,0.000,0.000,0.000
1605225110972357120,10.0.1.149,NaN,move_down,-21.160,-21.160,-21.160,0.000,0.000,0.000
1605225111791374848,10.0.1.149,NaN,move_down,-21.180,-21.180,-21.180,0.000,0.000,0.000
1605225112072165120,10.0.1.149,NaN,move_down,-21.200,-21.200,-21.200,0.000,0.000,0.000
1605225112449783040,10.0.1.149,NaN,move_down,-21.220,-21.220,-21.220,0.000,0.000,0.000
1605225112853938944,10.0.1.149,NaN,move_down,-21.240,-21.240,-21.240,0.000,0.000,0.000
1605225113114638080,10.0.1.149,NaN,move_down,-21.260,-21.260,-21.260,0.000,0.000,0.000
1605225113549288960,10.0.1.149,NaN,move_down,-21.280,-21.280,-21.280,0.000,0.000,0.000
1605225114093833984,10.0.1.149,NaN,move_down,-21.300,-21.300,-21.300,0.000,0.000,0.000
1605225114553307136,10.0.1.149,NaN,move_down,-21.320,-21.320,-21.320,0.000,0.000,0.000
1605225115366969088,10.0.1.149,NaN,move_down,-21.340,-21.340,-21.340,0.000,0.000,0.000
1605225115726569984,10.0.1.149,NaN,move_down,-21.360,-21.360,-21.360,0.000,0.000,0.000
1605225116031481088,10.0.1.149,NaN,move_down,-21.380,-21.380,-21.380,0.000,0.000,0.000
1605225116311904000,10.0.1.149,NaN,move_down,-21.400,-21.400,-21.400,0.000,0.000,0.000
1605225116465838848,10.0.1.149,NaN,move_down,-21.420,-21.420,-21.420,0.000,0.000,0.000
1605225117780653056,10.0.1.149,NaN,move_down,-21.440,-21.440,-21.440,0.000,0.000,0.000
1605225118238189824,10.0.1.149,NaN,move_down,-21.460,-21.460,-21.460,0.000,0.000,0.000
1605225119647875072,10.0.1.149,NaN,move_down,-21.480,-21.480,-21.480,0.000,0.000,0.000
1605225120031693056,10.0.1.149,NaN,move_down,-21.500,-21.500,-21.500,0.000,0.000,0.000
1605225120370744064,10.0.1.149,NaN,move_down,-21.520,-21.520,-21.520,0.000,0.000,0.000
1605225120896135936,10.0.1.149,NaN,move_down,-21.540,-21.540,-21.540,0.000,0.000,0.000
1605225121227848960,10.0.1.149,NaN,move_down,-21.560,-21.560,-21.560,0.000,0.000,0.000
1605225121588269056,10.0.1.149,NaN,move_down,-21.580,-21.580,-21.580,0.000,0.000,0.000
1605225121855310080,10.0.1.149,NaN,move_down,-21.600,-21.600,-21.600,0.000,0.000,0.000
1605225122449987840,10.0.1.149,NaN,move_down,-21.620,-21.620,-21.620,0.000,0.000,0.000
1605225122940115968,10.0.1.149,NaN,move_down,-21.640,-21.640,-21.640,0.000,0.000,0.000
1605225123395864064,10.0.1.149,NaN,move_down,-21.660,-21.660,-21.660,0.000,0.000,0.000
1605225123591718912,10.0.1.149,NaN,move_down,-21.680,-21.680,-21.680,0.000,0.000,0.000
1605225123815542016,10.0.1.149,NaN,move_down,-21.700,-21.700,-21.700,0.000,0.000,0.000
1605225124342902784,10.0.1.149,NaN,move_down,-21.720,-21.720,-21.720,0.000,0.000,0.000
1605225124680208896,10.0.1.149,NaN,move_down,-21.740,-21.740,-21.740,0.000,0.000,0.000
1605225125454796032,10.0.1.149,NaN,move_down,-21.760,-21.760,-21.760,0.000,0.000,0.000
1605225125700851968,10.0.1.149,NaN,move_down,-21.780,-21.780,-21.780,0.000,0.000,0.000
1605225125965035008,10.0.1.149,NaN,move_down,-21.800,-21.800,-21.800,0.000,0.000,0.000
1605225126163985920,10.0.1.149,NaN,move_down,-21.820,-21.820,-21.820,0.000,0.000,0.000
1605225126565659136,10.0.1.149,NaN,move_down,-21.840,-21.840,-21.840,0.000,0.000,0.000
1605225127019755008,10.0.1.149,NaN,move_down,-21.860,-21.860,-21.860,0.000,0.000,0.000
1605225127347821056,10.0.1.149,NaN,move_down,-21.880,-21.880,-21.880,0.000,0.000,0.000
1605225128120381952,10.0.1.149,NaN,move_down,-21.900,-21.900,-21.900,0.000,0.000,0.000
1605225128767710976,10.0.1.149,NaN,move_down,-21.920,-21.920,-21.920,0.000,0.000,0.000
1605225129619802112,10.0.1.149,NaN,move_down,-21.940,-21.940,-21.940,0.000,0.000,0.000
1605225129902738176,10.0.1.149,NaN,move_down,-21.960,-21.960,-21.960,0.000,0.000,0.000
1605225130168931840,10.0.1.149,NaN,move_down,-21.980,-21.980,-21.980,0.000,0.000,0.000
1605225130505440000,10.0.1.149,NaN,move_down,-22.000,-22.000,-22.000,0.000,0.000,0.000
1605225130978970880,10.0.1.149,NaN,move_down,-22.020,-22.020,-22.020,0.000,0.000,0.000
1605225131366537216,10.0.1.149,NaN,move_down,-22.040,-22.040,-22.040,0.000,0.000,0.000
1605225132862665984,10.0.1.149,NaN,move_down,-22.060,-22.060,-22.060,0.000,0.000,0.000
1605225133924283136,10.0.1.149,NaN,move_down,-22.080,-22.080,-22.080,0.000,0.000,0.000
1605225134332481024,10.0.1.149,NaN,move_down,-22.100,-22.100,-22.100,0.000,0.000,0.000
1605225135115921920,10.0.1.149,NaN,move_down,-22.120,-22.120,-22.120,0.000,0.000,0.000
1605225135350882048,10.0.1.149,NaN,move_down,-22.140,-22.140,-22.140,0.000,0.000,0.000
1605225135675031040,10.0.1.149,NaN,move_down,-22.160,-22.160,-22.160,0.000,0.000,0.000
1605225135877657856,10.0.1.149,NaN,move_down,-22.180,-22.180,-22.180,0.000,0.000,0.000
1605225136342607104,10.0.1.149,NaN,move_down,-22.200,-22.200,-22.200,0.000,0.000,0.000
1605225136713897984,10.0.1.149,NaN,move_down,-22.220,-22.220,-22.220,0.000,0.000,0.000
1605225136905901056,10.0.1.149,NaN,move_down,-22.240,-22.240,-22.240,0.000,0.000,0.000
1605225137444217088,10.0.1.149,NaN,move_down,-22.260,-22.260,-22.260,0.000,0.000,0.000
1605225137676950016,10.0.1.149,NaN,move_down,-22.280,-22.280,-22.280,0.000,0.000,0.000
1605225137966962944,10.0.1.149,NaN,move_down,-22.300,-22.300,-22.300,0.000,0.000,0.000
1605225138382821120,10.0.1.149,NaN,move_down,-22.320,-22.320,-22.320,0.000,0.000,0.000
1605225138823875072,10.0.1.149,NaN,move_down,-22.340,-22.340,-22.340,0.000,0.000,0.000
1605225139157958912,10.0.1.149,NaN,move_down,-22.360,-22.360,-22.360,0.000,0.000,0.000
1605225139470848000,10.0.1.149,NaN,move_down,-22.380,-22.380,-22.380,0.000,0.000,0.000
1605225140462948096,10.0.1.149,NaN,move_down,-22.400,-22.400,-22.400,0.000,0.000,0.000
1605225141077875968,10.0.1.149,NaN,move_down,-22.420,-22.420,-22.420,0.000,0.000,0.000
1605225141559014144,10.0.1.149,NaN,move_down,-22.440,-22.440,-22.440,0.000,0.000,0.000
1605225141719801856,10.0.1.149,NaN,move_down,-22.460,-22.460,-22.460,0.000,0.000,0.000
1605225142567136000,10.0.1.149,NaN,move_down,-22.480,-22.480,-22.480,0.000,0.000,0.000
1605225142941904128,10.0.1.149,NaN,move_down,-22.500,-22.500,-22.500,0.000,0.000,0.000
1605225143090296064,10.0.1.149,NaN,move_down,-22.520,-22.520,-22.520,0.000,0.000,0.000
1605225143451493120,10.0.1.149,NaN,move_down,-22.540,-22.540,-22.540,0.000,0.000,0.000
1605225143955171072,10.0.1.149,NaN,move_down,-22.560,-22.560,-22.560,0.000,0.000,0.000
1605225144290774016,10.0.1.149,NaN,move_down,-22.580,-22.580,-22.580,0.000,0.000,0.000
1605225144537838080,10.0.1.149,NaN,move_down,-22.600,-22.600,-22.600,0.000,0.000,0.000
1605225144922166016,10.0.1.149,NaN,move_down,-22.620,-22.620,-22.620,0.000,0.000,0.000
1605225145188332032,10.0.1.149,NaN,move_down,-22.640,-22.640,-22.640,0.000,0.000,0.000
1605225145563714048,10.0.1.149,NaN,move_down,-22.660,-22.660,-22.660,0.000,0.000,0.000
1605225145892115968,10.0.1.149,NaN,move_down,-22.680,-22.680,-22.680,0.000,0.000,0.000
1605225146152339968,10.0.1.149,NaN,move_down,-22.700,-22.700,-22.700,0.000,0.000,0.000
1605225146837102848,10.0.1.149,NaN,move_down,-22.720,-22.720,-22.720,0.000,0.000,0.000
1605225147577585920,10.0.1.149,NaN,move_down,-22.740,-22.740,-22.740,0.000,0.000,0.000
1605225147850554880,10.0.1.149,NaN,move_down,-22.760,-22.760,-22.760,0.000,0.000,0.000
1605225148469000192,10.0.1.149,NaN,move_down,-22.780,-22.780,-22.780,0.000,0.000,0.000
1605225148901082112,10.0.1.149,NaN,move_down,-22.800,-22.800,-22.800,0.000,0.000,0.000
1605225149204386048,10.0.1.149,NaN,move_down,-22.820,-22.820,-22.820,0.000,0.000,0.000
1605225149543108864,10.0.1.149,NaN,move_down,-22.840,-22.840,-22.840,0.000,0.000,0.000
1605225150614914048,10.0.1.149,NaN,move_down,-22.860,-22.860,-22.860,0.000,0.000,0.000
1605225150873337088,10.0.1.149,NaN,move_down,-22.880,-22.880,-22.880,0.000,0.000,0.000
1605225151146047232,10.0.1.149,NaN,move_down,-22.900,-22.900,-22.900,0.000,0.000,0.000
1605225151678244096,10.0.1.149,NaN,move_down,-22.920,-22.920,-22.920,0.000,0.000,0.000
1605225152400548864,10.0.1.149,NaN,move_down,-22.940,-22.940,-22.940,0.000,0.000,0.000
1605225152824240896,10.0.1.149,NaN,move_down,-22.960,-22.960,-22.960,0.000,0.000,0.000
1605225153088134144,10.0.1.149,NaN,move_down,-22.980,-22.980,-22.980,0.000,0.000,0.000
1605225153599898112,10.0.1.149,NaN,move_down,-23.000,-23.000,-23.000,0.000,0.000,0.000
1605225153784425984,10.0.1.149,NaN,move_down,-23.020,-23.020,-23.020,0.000,0.000,0.000
