milangroshev/digital-twin-scalability/logs/run5-3600s-nan/10.0.1.152.csv
timestamp,node,latency,action,joint_1,joint_2,joint_3,joint_4,joint_5,joint_6
1605228295621083904,10.0.1.152,NaN,,0.000,0.000,0.000,0.000,0.000,0.000
1605228297686427136,10.0.1.152,2065,,0.000,0.000,0.000,0.000,0.000,0.000
1605228301990451200,10.0.1.152,NaN,move_down,-0.040,-0.040,-0.040,0.000,0.000,0.000
1605228304091321088,10.0.1.152,NaN,move_down,-0.060,-0.060,-0.060,0.000,0.000,0.000
1605228306174504960,10.0.1.152,NaN,move_down,-0.080,-0.080,-0.080,0.000,0.000,0.000
1605228308232933120,10.0.1.152,NaN,move_down,-0.100,-0.100,-0.100,0.000,0.000,0.000
1605228310319590144,10.0.1.152,NaN,move_down,-0.120,-0.120,-0.120,0.000,0.000,0.000
1605228312438471168,10.0.1.152,NaN,move_down,-0.140,-0.140,-0.140,0.000,0.000,0.000
1605228314458108928,10.0.1.152,NaN,move_down,-0.160,-0.160,-0.160,0.000,0.000,0.000
1605228316578089984,10.0.1.152,NaN,move_down,-0.180,-0.180,-0.180,0.000,0.000,0.000
1605228318639709952,10.0.1.152,NaN,move_down,-0.200,-0.200,-0.200,0.000,0.000,0.000
1605228320741720832,10.0.1.152,NaN,move_down,-0.220,-0.220,-0.220,0.000,0.000,0.000
1605228322844327936,10.0.1.152,NaN,move_down,-0.240,-0.240,-0.240,0.000,0.000,0.000
1605228324917529088,10.0.1.152,NaN,move_down,-0.260,-0.260,-0.260,0.000,0.000,0.000
1605228327051171072,10.0.1.152,NaN,move_down,-0.280,-0.280,-0.280,0.000,0.000,0.000
1605228329144088064,10.0.1.152,NaN,move_down,-0.300,-0.300,-0.300,0.000,0.000,0.000
1605228331170123008,10.0.1.152,NaN,move_down,-0.320,-0.320,-0.320,0.000,0.000,0.000
1605228333257026816,10.0.1.152,NaN,move_down,-0.340,-0.340,-0.340,0.000,0.000,0.000
1605228335412888064,10.0.1.152,NaN,move_down,-0.360,-0.360,-0.360,0.000,0.000,0.000
1605228337595959040,10.0.1.152,NaN,move_down,-0.380,-0.380,-0.380,0.000,0.000,0.000
1605228339709472000,10.0.1.152,NaN,move_down,-0.400,-0.400,-0.400,0.000,0.000,0.000
1605228341769416960,10.0.1.152,NaN,move_down,-0.420,-0.420,-0.420,0.000,0.000,0.000
1605228343854917120,10.0.1.152,NaN,move_down,-0.440,-0.440,-0.440,0.000,0.000,0.000
1605228345916002048,10.0.1.152,NaN,move_down,-0.460,-0.460,-0.460,0.000,0.000,0.000
1605228348039858944,10.0.1.152,NaN,move_down,-0.480,-0.480,-0.480,0.000,0.000,0.000
1605228350125408768,10.0.1.152,NaN,move_down,-0.500,-0.500,-0.500,0.000,0.000,0.000
1605228352213403904,10.0.1.152,NaN,move_down,-0.520,-0.520,-0.520,0.000,0.000,0.000
1605228354345261056,10.0.1.152,NaN,move_down,-0.540,-0.540,-0.540,0.000,0.000,0.000
1605228356401251072,10.0.1.152,NaN,move_down,-0.560,-0.560,-0.560,0.000,0.000,0.000
1605228358518857984,10.0.1.152,NaN,move_down,-0.580,-0.580,-0.580,0.000,0.000,0.000
1605228360603642112,10.0.1.152,NaN,move_down,-0.600,-0.600,-0.600,0.000,0.000,0.000
1605228362671945216,10.0.1.152,NaN,move_down,-0.620,-0.620,-0.620,0.000,0.000,0.000
1605228364720634880,10.0.1.152,NaN,move_down,-0.640,-0.640,-0.640,0.000,0.000,0.000
1605228366835377920,10.0.1.152,NaN,move_down,-0.660,-0.660,-0.660,0.000,0.000,0.000
1605228368872779008,10.0.1.152,NaN,move_down,-0.680,-0.680,-0.680,0.000,0.000,0.000
1605228371051691008,10.0.1.152,NaN,move_down,-0.700,-0.700,-0.700,0.000,0.000,0.000
1605228373147755008,10.0.1.152,NaN,move_down,-0.720,-0.720,-0.720,0.000,0.000,0.000
1605228375310492160,10.0.1.152,NaN,move_down,-0.740,-0.740,-0.740,0.000,0.000,0.000
1605228377533832960,10.0.1.152,NaN,move_down,-0.760,-0.760,-0.760,0.000,0.000,0.000
1605228379721219072,10.0.1.152,NaN,move_down,-0.780,-0.780,-0.780,0.000,0.000,0.000
1605228381766146048,10.0.1.152,NaN,move_down,-0.800,-0.800,-0.800,0.000,0.000,0.000
1605228383978738944,10.0.1.152,NaN,move_down,-0.820,-0.820,-0.820,0.000,0.000,0.000
1605228386075122176,10.0.1.152,NaN,move_down,-0.840,-0.840,-0.840,0.000,0.000,0.000
1605228388211954944,10.0.1.152,NaN,move_down,-0.860,-0.860,-0.860,0.000,0.000,0.000
1605228392143656960,10.0.1.152,3931,move_down,-0.860,-0.860,-0.860,0.000,0.000,0.000
1605228394872358912,10.0.1.152,1593,move_down,-0.880,-0.880,-0.880,0.000,0.000,0.000
1605228397125082112,10.0.1.152,932,move_down,-0.900,-0.900,-0.900,0.000,0.000,0.000
1605228400605837056,10.0.1.152,1945,move_down,-0.920,-0.920,-0.920,0.000,0.000,0.000
1605228402576116992,10.0.1.152,NaN,move_down,-0.960,-0.960,-0.960,0.000,0.000,0.000
1605228402854579968,10.0.1.152,NaN,move_down,-0.980,-0.980,-0.980,0.000,0.000,0.000
1605228403062483200,10.0.1.152,NaN,move_down,-1.000,-1.000,-1.000,0.000,0.000,0.000
1605228403228825088,10.0.1.152,NaN,move_down,-1.020,-1.020,-1.020,0.000,0.000,0.000
1605228404891372800,10.0.1.152,NaN,move_down,-1.040,-1.040,-1.040,0.000,0.000,0.000
1605228406445377024,10.0.1.152,NaN,move_down,-1.060,-1.060,-1.060,0.000,0.000,0.000
1605228407573761024,10.0.1.152,NaN,move_down,-1.080,-1.080,-1.080,0.000,0.000,0.000
1605228408315736064,10.0.1.152,NaN,move_down,-1.100,-1.100,-1.100,0.000,0.000,0.000
1605228409127787008,10.0.1.152,NaN,move_down,-1.120,-1.120,-1.120,0.000,0.000,0.000
1605228410704435968,10.0.1.152,NaN,move_down,-1.140,-1.140,-1.140,0.000,0.000,0.000
1605228411371758080,10.0.1.152,NaN,move_down,-1.160,-1.160,-1.160,0.000,0.000,0.000
1605228412078191872,10.0.1.152,NaN,move_down,-1.180,-1.180,-1.180,0.000,0.000,0.000
1605228412209502976,10.0.1.152,NaN,move_down,-1.200,-1.200,-1.200,0.000,0.000,0.000
1605228413362993920,10.0.1.152,NaN,move_down,-1.220,-1.220,-1.220,0.000,0.000,0.000
1605228414073878016,10.0.1.152,NaN,move_down,-1.240,-1.240,-1.240,0.000,0.000,0.000
1605228414865195008,10.0.1.152,NaN,move_down,-1.260,-1.260,-1.260,0.000,0.000,0.000
1605228415669970944,10.0.1.152,NaN,move_down,-1.280,-1.280,-1.280,0.000,0.000,0.000
1605228416182600960,10.0.1.152,NaN,move_down,-1.300,-1.300,-1.300,0.000,0.000,0.000
1605228416666914816,10.0.1.152,NaN,move_down,-1.320,-1.320,-1.320,0.000,0.000,0.000
1605228416996332800,10.0.1.152,NaN,move_down,-1.340,-1.340,-1.340,0.000,0.000,0.000
1605228418495533056,10.0.1.152,NaN,move_down,-1.360,-1.360,-1.360,0.000,0.000,0.000
1605228419459301888,10.0.1.152,NaN,move_down,-1.380,-1.380,-1.380,0.000,0.000,0.000
1605228419994700032,10.0.1.152,NaN,move_down,-1.400,-1.400,-1.400,0.000,0.000,0.000
1605228420293255168,10.0.1.152,NaN,move_down,-1.420,-1.420,-1.420,0.000,0.000,0.000
1605228420499564800,10.0.1.152,NaN,move_down,-1.440,-1.440,-1.440,0.000,0.000,0.000
1605228420702390784,10.0.1.152,NaN,move_down,-1.460,-1.460,-1.460,0.000,0.000,0.000
1605228420867896064,10.0.1.152,NaN,move_down,-1.480,-1.480,-1.480,0.000,0.000,0.000
1605228421812453888,10.0.1.152,NaN,move_down,-1.500,-1.500,-1.500,0.000,0.000,0.000
1605228422181422848,10.0.1.152,NaN,move_down,-1.520,-1.520,-1.520,0.000,0.000,0.000
1605228422453628928,10.0.1.152,NaN,move_down,-1.540,-1.540,-1.540,0.000,0.000,0.000
1605228423130763008,10.0.1.152,NaN,move_down,-1.560,-1.560,-1.560,0.000,0.000,0.000
1605228423327426816,10.0.1.152,NaN,move_down,-1.580,-1.580,-1.580,0.000,0.000,0.000
1605228423501161216,10.0.1.152,NaN,move_down,-1.600,-1.600,-1.600,0.000,0.000,0.000
1605228424289454848,10.0.1.152,NaN,move_down,-1.620,-1.620,-1.620,0.000,0.000,0.000
1605228424564099072,10.0.1.152,NaN,move_down,-1.640,-1.640,-1.640,0.000,0.000,0.000
1605228424774578176,10.0.1.152,NaN,move_down,-1.660,-1.660,-1.660,0.000,0.000,0.000
1605228425001734912,10.0.1.152,NaN,move_down,-1.680,-1.680,-1.680,0.000,0.000,0.000
1605228425236907008,10.0.1.152,NaN,move_down,-1.700,-1.700,-1.700,0.000,0.000,0.000
1605228425360336896,10.0.1.152,NaN,move_down,-1.720,-1.720,-1.720,0.000,0.000,0.000
1605228425459328000,10.0.1.152,NaN,move_down,-1.740,-1.740,-1.740,0.000,0.000,0.000
1605228425772564992,10.0.1.152,NaN,move_down,-1.760,-1.760,-1.760,0.000,0.000,0.000
1605228425973246976,10.0.1.152,NaN,move_down,-1.780,-1.780,-1.780,0.000,0.000,0.000
1605228426177858048,10.0.1.152,NaN,move_down,-1.800,-1.800,-1.800,0.000,0.000,0.000
1605228426402915840,10.0.1.152,NaN,move_down,-1.820,-1.820,-1.820,0.000,0.000,0.000
1605228426931479808,10.0.1.152,NaN,move_down,-1.840,-1.840,-1.840,0.000,0.000,0.000
1605228427167120896,10.0.1.152,NaN,move_down,-1.860,-1.860,-1.860,0.000,0.000,0.000
1605228427395288832,10.0.1.152,NaN,move_down,-1.880,-1.880,-1.880,0.000,0.000,0.000
1605228427538501888,10.0.1.152,NaN,move_down,-1.900,-1.900,-1.900,0.000,0.000,0.000
1605228428287813888,10.0.1.152,NaN,move_down,-1.920,-1.920,-1.920,0.000,0.000,0.000
1605228428892409088,10.0.1.152,NaN,move_down,-1.940,-1.940,-1.940,0.000,0.000,0.000
1605228429287040000,10.0.1.152,NaN,move_down,-1.960,-1.960,-1.960,0.000,0.000,0.000
1605228431053643008,10.0.1.152,NaN,move_down,-1.980,-1.980,-1.980,0.000,0.000,0.000
1605228431549505024,10.0.1.152,NaN,move_down,-2.000,-2.000,-2.000,0.000,0.000,0.000
1605228432017599232,10.0.1.152,NaN,move_down,-2.020,-2.020,-2.020,0.000,0.000,0.000
1605228433435348992,10.0.1.152,NaN,move_down,-2.040,-2.040,-2.040,0.000,0.000,0.000
1605228433707369216,10.0.1.152,NaN,move_down,-2.060,-2.060,-2.060,0.000,0.000,0.000
1605228434950899968,10.0.1.152,NaN,move_down,-2.080,-2.080,-2.080,0.000,0.000,0.000
1605228435203169024,10.0.1.152,NaN,move_down,-2.100,-2.100,-2.100,0.000,0.000,0.000
1605228435575633920,10.0.1.152,NaN,move_down,-2.120,-2.120,-2.120,0.000,0.000,0.000
1605228435935164928,10.0.1.152,NaN,move_down,-2.140,-2.140,-2.140,0.000,0.000,0.000
1605228436878053888,10.0.1.152,NaN,move_down,-2.160,-2.160,-2.160,0.000,0.000,0.000
1605228437336334080,10.0.1.152,NaN,move_down,-2.180,-2.180,-2.180,0.000,0.000,0.000
1605228437751291136,10.0.1.152,NaN,move_down,-2.200,-2.200,-2.200,0.000,0.000,0.000
1605228438203890176,10.0.1.152,NaN,move_down,-2.220,-2.220,-2.220,0.000,0.000,0.000
1605228438797775104,10.0.1.152,NaN,move_down,-2.240,-2.240,-2.240,0.000,0.000,0.000
1605228439163727104,10.0.1.152,NaN,move_down,-2.260,-2.260,-2.260,0.000,0.000,0.000
1605228439293382912,10.0.1.152,NaN,move_down,-2.280,-2.280,-2.280,0.000,0.000,0.000
1605228440627737088,10.0.1.152,NaN,move_down,-2.300,-2.300,-2.300,0.000,0.000,0.000
1605228440707187968,10.0.1.152,NaN,move_down,-2.320,-2.320,-2.320,0.000,0.000,0.000
1605228441136100096,10.0.1.152,NaN,move_down,-2.340,-2.340,-2.340,0.000,0.000,0.000
1605228441366523904,10.0.1.152,NaN,move_down,-2.360,-2.360,-2.360,0.000,0.000,0.000
1605228441912974080,10.0.1.152,NaN,move_down,-2.380,-2.380,-2.380,0.000,0.000,0.000
1605228442196492800,10.0.1.152,NaN,move_down,-2.400,-2.400,-2.400,0.000,0.000,0.000
1605228442707076096,10.0.1.152,NaN,move_down,-2.420,-2.420,-2.420,0.000,0.000,0.000
1605228442887606016,10.0.1.152,NaN,move_down,-2.440,-2.440,-2.440,0.000,0.000,0.000
1605228443042979840,10.0.1.152,NaN,move_down,-2.460,-2.460,-2.460,0.000,0.000,0.000
1605228444198537216,10.0.1.152,NaN,move_down,-2.480,-2.480,-2.480,0.000,0.000,0.000
1605228444399492864,10.0.1.152,NaN,move_down,-2.500,-2.500,-2.500,0.000,0.000,0.000
1605228444682671104,10.0.1.152,NaN,move_down,-2.520,-2.520,-2.520,0.000,0.000,0.000
1605228444979644160,10.0.1.152,NaN,move_down,-2.540,-2.540,-2.540,0.000,0.000,0.000
1605228445663342080,10.0.1.152,NaN,move_down,-2.560,-2.560,-2.560,0.000,0.000,0.000
1605228446184218880,10.0.1.152,NaN,move_down,-2.580,-2.580,-2.580,0.000,0.000,0.000
1605228446368377856,10.0.1.152,NaN,move_down,-2.600,-2.600,-2.600,0.000,0.000,0.000
1605228447376943104,10.0.1.152,NaN,move_down,-2.620,-2.620,-2.620,0.000,0.000,0.000
1605228447720268032,10.0.1.152,NaN,move_down,-2.640,-2.640,-2.640,0.000,0.000,0.000
1605228448697284864,10.0.1.152,NaN,move_down,-2.660,-2.660,-2.660,0.000,0.000,0.000
1605228449478418176,10.0.1.152,NaN,move_down,-2.680,-2.680,-2.680,0.000,0.000,0.000
1605228449663356928,10.0.1.152,NaN,move_down,-2.700,-2.700,-2.700,0.000,0.000,0.000
1605228449778307072,10.0.1.152,NaN,move_down,-2.720,-2.720,-2.720,0.000,0.000,0.000
1605228450068658176,10.0.1.152,NaN,move_down,-2.740,-2.740,-2.740,0.000,0.000,0.000
1605228450718121984,10.0.1.152,NaN,move_down,-2.760,-2.760,-2.760,0.000,0.000,0.000
1605228450984143104,10.0.1.152,NaN,move_down,-2.780,-2.780,-2.780,0.000,0.000,0.000
1605228451204086016,10.0.1.152,NaN,move_down,-2.800,-2.800,-2.800,0.000,0.000,0.000
1605228451518076928,10.0.1.152,NaN,move_down,-2.820,-2.820,-2.820,0.000,0.000,0.000
1605228452334515200,10.0.1.152,NaN,move_down,-2.840,-2.840,-2.840,0.000,0.000,0.000
1605228452549043968,10.0.1.152,NaN,move_down,-2.860,-2.860,-2.860,0.000,0.000,0.000
1605228452698368000,10.0.1.152,NaN,move_down,-2.880,-2.880,-2.880,0.000,0.000,0.000
1605228452901447936,10.0.1.152,NaN,move_down,-2.900,-2.900,-2.900,0.000,0.000,0.000
1605228453150188032,10.0.1.152,NaN,move_down,-2.920,-2.920,-2.920,0.000,0.000,0.000
1605228453348337920,10.0.1.152,NaN,move_down,-2.940,-2.940,-2.940,0.000,0.000,0.000
1605228453556456960,10.0.1.152,NaN,move_down,-2.960,-2.960,-2.960,0.000,0.000,0.000
1605228453895452928,10.0.1.152,NaN,move_down,-2.980,-2.980,-2.980,0.000,0.000,0.000
1605228454092920064,10.0.1.152,NaN,move_down,-3.000,-3.000,-3.000,0.000,0.000,0.000
1605228455113126912,10.0.1.152,NaN,move_down,-3.020,-3.020,-3.020,0.000,0.000,0.000
1605228455739067904,10.0.1.152,NaN,move_down,-3.040,-3.040,-3.040,0.000,0.000,0.000
1605228456100020992,10.0.1.152,NaN,move_down,-3.060,-3.060,-3.060,0.000,0.000,0.000
1605228456910978048,10.0.1.152,NaN,move_down,-3.080,-3.080,-3.080,0.000,0.000,0.000
1605228457526710016,10.0.1.152,NaN,move_down,-3.100,-3.100,-3.100,0.000,0.000,0.000
1605228457832034048,10.0.1.152,NaN,move_down,-3.120,-3.120,-3.120,0.000,0.000,0.000
1605228459043205888,10.0.1.152,NaN,move_down,-3.140,-3.140,-3.140,0.000,0.000,0.000
1605228459288197888,10.0.1.152,NaN,move_down,-3.160,-3.160,-3.160,0.000,0.000,0.000
1605228459388361984,10.0.1.152,NaN,move_down,-3.180,-3.180,-3.180,0.000,0.000,0.000
1605228459560357120,10.0.1.152,NaN,move_down,-3.200,-3.200,-3.200,0.000,0.000,0.000
1605228460223860992,10.0.1.152,NaN,move_down,-3.220,-3.220,-3.220,0.000,0.000,0.000
1605228461072976128,10.0.1.152,NaN,move_down,-3.240,-3.240,-3.240,0.000,0.000,0.000
1605228461753071104,10.0.1.152,NaN,move_down,-3.260,-3.260,-3.260,0.000,0.000,0.000
1605228462034823936,10.0.1.152,NaN,move_down,-3.280,-3.280,-3.280,0.000,0.000,0.000
1605228462606571008,10.0.1.152,NaN,move_down,-3.300,-3.300,-3.300,0.000,0.000,0.000
1605228463028215808,10.0.1.152,NaN,move_down,-3.320,-3.320,-3.320,0.000,0.000,0.000
1605228463254359040,10.0.1.152,NaN,move_down,-3.340,-3.340,-3.340,0.000,0.000,0.000
1605228463636523008,10.0.1.152,NaN,move_down,-3.360,-3.360,-3.360,0.000,0.000,0.000
1605228463869296128,10.0.1.152,NaN,move_down,-3.380,-3.380,-3.380,0.000,0.000,0.000
1605228464330064896,10.0.1.152,NaN,move_down,-3.400,-3.400,-3.400,0.000,0.000,0.000
1605228465667779072,10.0.1.152,NaN,move_down,-3.420,-3.420,-3.420,0.000,0.000,0.000
1605228465893533952,10.0.1.152,NaN,move_down,-3.440,-3.440,-3.440,0.000,0.000,0.000
1605228466232574976,10.0.1.152,NaN,move_down,-3.460,-3.460,-3.460,0.000,0.000,0.000
1605228466311147008,10.0.1.152,NaN,move_down,-3.480,-3.480,-3.480,0.000,0.000,0.000
1605228467172993792,10.0.1.152,NaN,move_down,-3.500,-3.500,-3.500,0.000,0.000,0.000
1605228468219778048,10.0.1.152,NaN,move_down,-3.520,-3.520,-3.520,0.000,0.000,0.000
1605228468534141952,10.0.1.152,NaN,move_down,-3.540,-3.540,-3.540,0.000,0.000,0.000
1605228469372849920,10.0.1.152,NaN,move_down,-3.560,-3.560,-3.560,0.000,0.000,0.000
1605228470026477056,10.0.1.152,NaN,move_down,-3.580,-3.580,-3.580,0.000,0.000,0.000
1605228470541441792,10.0.1.152,NaN,move_down,-3.600,-3.600,-3.600,0.000,0.000,0.000
1605228471732173824,10.0.1.152,NaN,move_down,-3.620,-3.620,-3.620,0.000,0.000,0.000
1605228472002769920,10.0.1.152,NaN,move_down,-3.640,-3.640,-3.640,0.000,0.000,0.000
1605228472237778944,10.0.1.152,NaN,move_down,-3.660,-3.660,-3.660,0.000,0.000,0.000
1605228472380024064,10.0.1.152,NaN,move_down,-3.680,-3.680,-3.680,0.000,0.000,0.000
1605228472721126912,10.0.1.152,NaN,move_down,-3.700,-3.700,-3.700,0.000,0.000,0.000
1605228472997446144,10.0.1.152,NaN,move_down,-3.720,-3.720,-3.720,0.000,0.000,0.000
1605228473649416960,10.0.1.152,NaN,move_down,-3.740,-3.740,-3.740,0.000,0.000,0.000
1605228473806103040,10.0.1.152,NaN,move_down,-3.760,-3.760,-3.760,0.000,0.000,0.000
1605228474049966080,10.0.1.152,NaN,move_down,-3.780,-3.780,-3.780,0.000,0.000,0.000
1605228475210150912,10.0.1.152,NaN,move_down,-3.800,-3.800,-3.800,0.000,0.000,0.000
1605228475438325760,10.0.1.152,NaN,move_down,-3.820,-3.820,-3.820,0.000,0.000,0.000
1605228476272695040,10.0.1.152,NaN,move_down,-3.840,-3.840,-3.840,0.000,0.000,0.000
1605228476364037888,10.0.1.152,NaN,move_down,-3.860,-3.860,-3.860,0.000,0.000,0.000
1605228476661222912,10.0.1.152,NaN,move_down,-3.880,-3.880,-3.880,0.000,0.000,0.000
1605228477278004992,10.0.1.152,NaN,move_down,-3.900,-3.900,-3.900,0.000,0.000,0.000
1605228477553037056,10.0.1.152,NaN,move_down,-3.920,-3.920,-3.920,0.000,0.000,0.000
1605228477817351936,10.0.1.152,NaN,move_down,-3.940,-3.940,-3.940,0.000,0.000,0.000
1605228478675918080,10.0.1.152,NaN,move_down,-3.960,-3.960,-3.960,0.000,0.000,0.000
1605228479278739968,10.0.1.152,NaN,move_down,-3.980,-3.980,-3.980,0.000,0.000,0.000
1605228479511350016,10.0.1.152,NaN,move_down,-4.000,-4.000,-4.000,0.000,0.000,0.000
1605228479675888128,10.0.1.152,NaN,move_down,-4.020,-4.020,-4.020,0.000,0.000,0.000
1605228479909890048,10.0.1.152,NaN,move_down,-4.040,-4.040,-4.040,0.000,0.000,0.000
1605228480399228928,10.0.1.152,NaN,move_down,-4.060,-4.060,-4.060,0.000,0.000,0.000
1605228481082524160,10.0.1.152,NaN,move_down,-4.080,-4.080,-4.080,0.000,0.000,0.000
1605228481459662080,10.0.1.152,NaN,move_down,-4.100,-4.100,-4.100,0.000,0.000,0.000
1605228481692398080,10.0.1.152,NaN,move_down,-4.120,-4.120,-4.120,0.000,0.000,0.000
1605228481957853952,10.0.1.152,NaN,move_down,-4.140,-4.140,-4.140,0.000,0.000,0.000
1605228482112705024,10.0.1.152,NaN,move_down,-4.160,-4.160,-4.160,0.000,0.000,0.000
1605228482276997120,10.0.1.152,NaN,move_down,-4.180,-4.180,-4.180,0.000,0.000,0.000
1605228482399924992,10.0.1.152,NaN,move_down,-4.200,-4.200,-4.200,0.000,0.000,0.000
1605228483563215104,10.0.1.152,NaN,move_down,-4.220,-4.220,-4.220,0.000,0.000,0.000
1605228484400506880,10.0.1.152,NaN,move_down,-4.240,-4.240,-4.240,0.000,0.000,0.000
1605228484587734016,10.0.1.152,NaN,move_down,-4.260,-4.260,-4.260,0.000,0.000,0.000
1605228485109293056,10.0.1.152,NaN,move_down,-4.280,-4.280,-4.280,0.000,0.000,0.000
1605228485559631104,10.0.1.152,NaN,move_down,-4.300,-4.300,-4.300,0.000,0.000,0.000
1605228485730365952,10.0.1.152,NaN,move_down,-4.320,-4.320,-4.320,0.000,0.000,0.000
1605228485935278848,10.0.1.152,NaN,move_down,-4.340,-4.340,-4.340,0.000,0.000,0.000
1605228486023997952,10.0.1.152,NaN,move_down,-4.360,-4.360,-4.360,0.000,0.000,0.000
1605228486151834112,10.0.1.152,NaN,move_down,-4.380,-4.380,-4.380,0.000,0.000,0.000
1605228486537914880,10.0.1.152,NaN,move_down,-4.400,-4.400,-4.400,0.000,0.000,0.000
1605228487209458944,10.0.1.152,NaN,move_down,-4.420,-4.420,-4.420,0.000,0.000,0.000
1605228487505651968,10.0.1.152,NaN,move_down,-4.440,-4.440,-4.440,0.000,0.000,0.000
1605228487809107968,10.0.1.152,NaN,move_down,-4.460,-4.460,-4.460,0.000,0.000,0.000
1605228487990400000,10.0.1.152,NaN,move_down,-4.480,-4.480,-4.480,0.000,0.000,0.000
1605228488156075008,10.0.1.152,NaN,move_down,-4.500,-4.500,-4.500,0.000,0.000,0.000
1605228488355267072,10.0.1.152,NaN,move_down,-4.520,-4.520,-4.520,0.000,0.000,0.000
1605228488574616064,10.0.1.152,NaN,move_down,-4.540,-4.540,-4.540,0.000,0.000,0.000
1605228488734757888,10.0.1.152,NaN,move_down,-4.560,-4.560,-4.560,0.000,0.000,0.000
1605228489029038080,10.0.1.152,NaN,move_down,-4.580,-4.580,-4.580,0.000,0.000,0.000
1605228489411987968,10.0.1.152,NaN,move_down,-4.600,-4.600,-4.600,0.000,0.000,0.000
1605228490331778048,10.0.1.152,NaN,move_down,-4.620,-4.620,-4.620,0.000,0.000,0.000
1605228490826123008,10.0.1.152,NaN,move_down,-4.640,-4.640,-4.640,0.000,0.000,0.000
1605228491390927104,10.0.1.152,NaN,move_down,-4.660,-4.660,-4.660,0.000,0.000,0.000
1605228491482728960,10.0.1.152,NaN,move_down,-4.680,-4.680,-4.680,0.000,0.000,0.000
1605228492676186112,10.0.1.152,NaN,move_down,-4.700,-4.700,-4.700,0.000,0.000,0.000
1605228492874903808,10.0.1.152,NaN,move_down,-4.720,-4.720,-4.720,0.000,0.000,0.000
1605228493150428928,10.0.1.152,NaN,move_down,-4.740,-4.740,-4.740,0.000,0.000,0.000
1605228493347698944,10.0.1.152,NaN,move_down,-4.760,-4.760,-4.760,0.000,0.000,0.000
1605228493488054016,10.0.1.152,NaN,move_down,-4.780,-4.780,-4.780,0.000,0.000,0.000
1605228493808641792,10.0.1.152,NaN,move_down,-4.800,-4.800,-4.800,0.000,0.000,0.000
1605228494670020096,10.0.1.152,NaN,move_down,-4.820,-4.820,-4.820,0.000,0.000,0.000
1605228495056164096,10.0.1.152,NaN,move_down,-4.840,-4.840,-4.840,0.000,0.000,0.000
1605228495217394176,10.0.1.152,NaN,move_down,-4.860,-4.860,-4.860,0.000,0.000,0.000
1605228495751604992,10.0.1.152,NaN,move_down,-4.880,-4.880,-4.880,0.000,0.000,0.000
1605228496242313984,10.0.1.152,NaN,move_down,-4.900,-4.900,-4.900,0.000,0.000,0.000
1605228496358493952,10.0.1.152,NaN,move_down,-4.920,-4.920,-4.920,0.000,0.000,0.000
1605228496959599104,10.0.1.152,NaN,move_down,-4.940,-4.940,-4.940,0.000,0.000,0.000
1605228497298813184,10.0.1.152,NaN,move_down,-4.960,-4.960,-4.960,0.000,0.000,0.000
1605228499050027008,10.0.1.152,NaN,move_down,-4.980,-4.980,-4.980,0.000,0.000,0.000
1605228499442002944,10.0.1.152,NaN,move_down,-5.000,-5.000,-5.000,0.000,0.000,0.000
1605228499949854976,10.0.1.152,NaN,move_down,-5.020,-5.020,-5.020,0.000,0.000,0.000
1605228500027884032,10.0.1.152,NaN,move_down,-5.040,-5.040,-5.040,0.000,0.000,0.000
1605228500904478976,10.0.1.152,NaN,move_down,-5.060,-5.060,-5.060,0.000,0.000,0.000
1605228501028889856,10.0.1.152,NaN,move_down,-5.080,-5.080,-5.080,0.000,0.000,0.000
1605228501669030912,10.0.1.152,NaN,move_down,-5.100,-5.100,-5.100,0.000,0.000,0.000
1605228501790846976,10.0.1.152,NaN,move_down,-5.120,-5.120,-5.120,0.000,0.000,0.000
1605228501920075008,10.0.1.152,NaN,move_down,-5.140,-5.140,-5.140,0.000,0.000,0.000
1605228502040899072,10.0.1.152,NaN,move_down,-5.160,-5.160,-5.160,0.000,0.000,0.000
1605228503585416960,10.0.1.152,NaN,move_down,-5.180,-5.180,-5.180,0.000,0.000,0.000
1605228503922905088,10.0.1.152,NaN,move_down,-5.200,-5.200,-5.200,0.000,0.000,0.000
1605228504242768128,10.0.1.152,NaN,move_down,-5.220,-5.220,-5.220,0.000,0.000,0.000
1605228505299956992,10.0.1.152,NaN,move_down,-5.240,-5.240,-5.240,0.000,0.000,0.000
1605228505575525120,10.0.1.152,NaN,move_down,-5.260,-5.260,-5.260,0.000,0.000,0.000
1605228506143909888,10.0.1.152,NaN,move_down,-5.280,-5.280,-5.280,0.000,0.000,0.000
1605228506359868160,10.0.1.152,NaN,move_down,-5.300,-5.300,-5.300,0.000,0.000,0.000
1605228506615653888,10.0.1.152,NaN,move_down,-5.320,-5.320,-5.320,0.000,0.000,0.000
1605228506718745856,10.0.1.152,NaN,move_down,-5.340,-5.340,-5.340,0.000,0.000,0.000
1605228506962692096,10.0.1.152,NaN,move_down,-5.360,-5.360,-5.360,0.000,0.000,0.000
1605228507353048064,10.0.1.152,NaN,move_down,-5.380,-5.380,-5.380,0.000,0.000,0.000
1605228507558746112,10.0.1.152,NaN,move_down,-5.400,-5.400,-5.400,0.000,0.000,0.000
1605228508215723008,10.0.1.152,NaN,move_down,-5.420,-5.420,-5.420,0.000,0.000,0.000
1605228508400713984,10.0.1.152,NaN,move_down,-5.440,-5.440,-5.440,0.000,0.000,0.000
1605228508514385920,10.0.1.152,NaN,move_down,-5.460,-5.460,-5.460,0.000,0.000,0.000
1605228509371795968,10.0.1.152,NaN,move_down,-5.480,-5.480,-5.480,0.000,0.000,0.000
1605228509808096768,10.0.1.152,NaN,move_down,-5.500,-5.500,-5.500,0.000,0.000,0.000
1605228510091865088,10.0.1.152,NaN,move_down,-5.520,-5.520,-5.520,0.000,0.000,0.000
1605228510294668032,10.0.1.152,NaN,move_down,-5.540,-5.540,-5.540,0.000,0.000,0.000
1605228511636500992,10.0.1.152,NaN,move_down,-5.560,-5.560,-5.560,0.000,0.000,0.000
1605228512217376000,10.0.1.152,NaN,move_down,-5.580,-5.580,-5.580,0.000,0.000,0.000
1605228512709161984,10.0.1.152,NaN,move_down,-5.600,-5.600,-5.600,0.000,0.000,0.000
1605228512911847168,10.0.1.152,NaN,move_down,-5.620,-5.620,-5.620,0.000,0.000,0.000
1605228513331981824,10.0.1.152,NaN,move_down,-5.640,-5.640,-5.640,0.000,0.000,0.000
1605228513695667968,10.0.1.152,NaN,move_down,-5.660,-5.660,-5.660,0.000,0.000,0.000
1605228513837060864,10.0.1.152,NaN,move_down,-5.680,-5.680,-5.680,0.000,0.000,0.000
1605228514207057920,10.0.1.152,NaN,move_down,-5.700,-5.700,-5.700,0.000,0.000,0.000
1605228514545283072,10.0.1.152,NaN,move_down,-5.720,-5.720,-5.720,0.000,0.000,0.000
1605228515816844032,10.0.1.152,NaN,move_down,-5.740,-5.740,-5.740,0.000,0.000,0.000
1605228516132083968,10.0.1.152,NaN,move_down,-5.760,-5.760,-5.760,0.000,0.000,0.000
1605228516675164928,10.0.1.152,NaN,move_down,-5.780,-5.780,-5.780,0.000,0.000,0.000
1605228517927371008,10.0.1.152,NaN,move_down,-5.800,-5.800,-5.800,0.000,0.000,0.000
1605228518219789056,10.0.1.152,NaN,move_down,-5.820,-5.820,-5.820,0.000,0.000,0.000
1605228518471841024,10.0.1.152,NaN,move_down,-5.840,-5.840,-5.840,0.000,0.000,0.000
1605228518680741120,10.0.1.152,NaN,move_down,-5.860,-5.860,-5.860,0.000,0.000,0.000
1605228519955666944,10.0.1.152,NaN,move_down,-5.880,-5.880,-5.880,0.000,0.000,0.000
1605228520187643904,10.0.1.152,NaN,move_down,-5.900,-5.900,-5.900,0.000,0.000,0.000
1605228520331545088,10.0.1.152,NaN,move_down,-5.920,-5.920,-5.920,0.000,0.000,0.000
1605228520577147904,10.0.1.152,NaN,move_down,-5.940,-5.940,-5.940,0.000,0.000,0.000
1605228520745466112,10.0.1.152,NaN,move_down,-5.960,-5.960,-5.960,0.000,0.000,0.000
1605228521007998976,10.0.1.152,NaN,move_down,-5.980,-5.980,-5.980,0.000,0.000,0.000
1605228521764270080,10.0.1.152,NaN,move_down,-6.000,-6.000,-6.000,0.000,0.000,0.000
1605228522093137152,10.0.1.152,NaN,move_down,-6.020,-6.020,-6.020,0.000,0.000,0.000
1605228522204334848,10.0.1.152,NaN,move_down,-6.040,-6.040,-6.040,0.000,0.000,0.000
1605228522760754944,10.0.1.152,NaN,move_down,-6.060,-6.060,-6.060,0.000,0.000,0.000
1605228523086632960,10.0.1.152,NaN,move_down,-6.080,-6.080,-6.080,0.000,0.000,0.000
1605228523805900032,10.0.1.152,NaN,move_down,-6.100,-6.100,-6.100,0.000,0.000,0.000
1605228524557306112,10.0.1.152,NaN,move_down,-6.120,-6.120,-6.120,0.000,0.000,0.000
1605228524657248000,10.0.1.152,NaN,move_down,-6.140,-6.140,-6.140,0.000,0.000,0.000
1605228524974376960,10.0.1.152,NaN,move_down,-6.160,-6.160,-6.160,0.000,0.000,0.000
1605228525213498112,10.0.1.152,NaN,move_down,-6.180,-6.180,-6.180,0.000,0.000,0.000
1605228525451417856,10.0.1.152,NaN,move_down,-6.200,-6.200,-6.200,0.000,0.000,0.000
1605228525989715968,10.0.1.152,NaN,move_down,-6.220,-6.220,-6.220,0.000,0.000,0.000
1605228526156635904,10.0.1.152,NaN,move_down,-6.240,-6.240,-6.240,0.000,0.000,0.000
1605228527484378112,10.0.1.152,NaN,move_down,-6.260,-6.260,-6.260,0.000,0.000,0.000
1605228528273796096,10.0.1.152,NaN,move_down,-6.280,-6.280,-6.280,0.000,0.000,0.000
1605228528917494016,10.0.1.152,NaN,move_down,-6.300,-6.300,-6.300,0.000,0.000,0.000
1605228529459332096,10.0.1.152,NaN,move_down,-6.320,-6.320,-6.320,0.000,0.000,0.000
1605228529883547904,10.0.1.152,NaN,move_down,-6.340,-6.340,-6.340,0.000,0.000,0.000
1605228530273145088,10.0.1.152,NaN,move_down,-6.360,-6.360,-6.360,0.000,0.000,0.000
1605228530514089984,10.0.1.152,NaN,move_down,-6.380,-6.380,-6.380,0.000,0.000,0.000
1605228530646384896,10.0.1.152,NaN,move_down,-6.400,-6.400,-6.400,0.000,0.000,0.000
1605228530876678912,10.0.1.152,NaN,move_down,-6.420,-6.420,-6.420,0.000,0.000,0.000
1605228531044073984,10.0.1.152,NaN,move_down,-6.440,-6.440,-6.440,0.000,0.000,0.000
1605228531244354048,10.0.1.152,NaN,move_down,-6.460,-6.460,-6.460,0.000,0.000,0.000
1605228531952261888,10.0.1.152,NaN,move_down,-6.480,-6.480,-6.480,0.000,0.000,0.000
1605228532415107072,10.0.1.152,NaN,move_down,-6.500,-6.500,-6.500,0.000,0.000,0.000
1605228532571816960,10.0.1.152,NaN,move_down,-6.520,-6.520,-6.520,0.000,0.000,0.000
1605228534077061888,10.0.1.152,NaN,move_down,-6.540,-6.540,-6.540,0.000,0.000,0.000
1605228534457895936,10.0.1.152,NaN,move_down,-6.560,-6.560,-6.560,0.000,0.000,0.000
1605228534951795200,10.0.1.152,NaN,move_down,-6.580,-6.580,-6.580,0.000,0.000,0.000
1605228535240313088,10.0.1.152,NaN,move_down,-6.600,-6.600,-6.600,0.000,0.000,0.000
1605228535964574208,10.0.1.152,NaN,move_down,-6.620,-6.620,-6.620,0.000,0.000,0.000
1605228536226960896,10.0.1.152,NaN,move_down,-6.640,-6.640,-6.640,0.000,0.000,0.000
1605228536510951936,10.0.1.152,NaN,move_down,-6.660,-6.660,-6.660,0.000,0.000,0.000
1605228536838545152,10.0.1.152,NaN,move_down,-6.680,-6.680,-6.680,0.000,0.000,0.000
1605228537062743808,10.0.1.152,NaN,move_down,-6.700,-6.700,-6.700,0.000,0.000,0.000
1605228537229005056,10.0.1.152,NaN,move_down,-6.720,-6.720,-6.720,0.000,0.000,0.000
1605228537390628096,10.0.1.152,NaN,move_down,-6.740,-6.740,-6.740,0.000,0.000,0.000
1605228537526680064,10.0.1.152,NaN,move_down,-6.760,-6.760,-6.760,0.000,0.000,0.000
1605228538003479040,10.0.1.152,NaN,move_down,-6.780,-6.780,-6.780,0.000,0.000,0.000
1605228538506401024,10.0.1.152,NaN,move_down,-6.800,-6.800,-6.800,0.000,0.000,0.000
1605228538772491008,10.0.1.152,NaN,move_down,-6.820,-6.820,-6.820,0.000,0.000,0.000
1605228539367392000,10.0.1.152,NaN,move_down,-6.840,-6.840,-6.840,0.000,0.000,0.000
1605228539806138880,10.0.1.152,NaN,move_down,-6.860,-6.860,-6.860,0.000,0.000,0.000
1605228540542478080,10.0.1.152,NaN,move_down,-6.880,-6.880,-6.880,0.000,0.000,0.000
1605228540940040960,10.0.1.152,NaN,move_down,-6.900,-6.900,-6.900,0.000,0.000,0.000
1605228541197190912,10.0.1.152,NaN,move_down,-6.920,-6.920,-6.920,0.000,0.000,0.000
1605228541650334976,10.0.1.152,NaN,move_down,-6.940,-6.940,-6.940,0.000,0.000,0.000
1605228542089700096,10.0.1.152,NaN,move_down,-6.960,-6.960,-6.960,0.000,0.000,0.000
1605228542243757056,10.0.1.152,NaN,move_down,-6.980,-6.980,-6.980,0.000,0.000,0.000
1605228543036261120,10.0.1.152,NaN,move_down,-7.000,-7.000,-7.000,0.000,0.000,0.000
1605228544355568896,10.0.1.152,NaN,move_down,-7.020,-7.020,-7.020,0.000,0.000,0.000
1605228544811428096,10.0.1.152,NaN,move_down,-7.040,-7.040,-7.040,0.000,0.000,0.000
1605228545150233856,10.0.1.152,NaN,move_down,-7.060,-7.060,-7.060,0.000,0.000,0.000
1605228545349682176,10.0.1.152,NaN,move_down,-7.080,-7.080,-7.080,0.000,0.000,0.000
1605228545968660224,10.0.1.152,NaN,move_down,-7.100,-7.100,-7.100,0.000,0.000,0.000
1605228546197559040,10.0.1.152,NaN,move_down,-7.120,-7.120,-7.120,0.000,0.000,0.000
1605228546725140992,10.0.1.152,NaN,move_down,-7.140,-7.140,-7.140,0.000,0.000,0.000
1605228547680350976,10.0.1.152,NaN,move_down,-7.160,-7.160,-7.160,0.000,0.000,0.000
1605228548071911168,10.0.1.152,NaN,move_down,-7.180,-7.180,-7.180,0.000,0.000,0.000
1605228548500793856,10.0.1.152,NaN,move_down,-7.200,-7.200,-7.200,0.000,0.000,0.000
1605228548966883072,10.0.1.152,NaN,move_down,-7.220,-7.220,-7.220,0.000,0.000,0.000
1605228549374115840,10.0.1.152,NaN,move_down,-7.240,-7.240,-7.240,0.000,0.000,0.000
1605228549991766016,10.0.1.152,NaN,move_down,-7.260,-7.260,-7.260,0.000,0.000,0.000
1605228550494384128,10.0.1.152,NaN,move_down,-7.280,-7.280,-7.280,0.000,0.000,0.000
1605228551042025216,10.0.1.152,NaN,move_down,-7.300,-7.300,-7.300,0.000,0.000,0.000
1605228551459896064,10.0.1.152,NaN,move_down,-7.320,-7.320,-7.320,0.000,0.000,0.000
1605228551652301056,10.0.1.152,NaN,move_down,-7.340,-7.340,-7.340,0.000,0.000,0.000
1605228551830668800,10.0.1.152,NaN,move_down,-7.360,-7.360,-7.360,0.000,0.000,0.000
1605228551989782016,10.0.1.152,NaN,move_down,-7.380,-7.380,-7.380,0.000,0.000,0.000
1605228552352324864,10.0.1.152,NaN,move_down,-7.400,-7.400,-7.400,0.000,0.000,0.000
1605228552667727104,10.0.1.152,NaN,move_down,-7.420,-7.420,-7.420,0.000,0.000,0.000
1605228552928497920,10.0.1.152,NaN,move_down,-7.440,-7.440,-7.440,0.000,0.000,0.000
1605228553412434176,10.0.1.152,NaN,move_down,-7.460,-7.460,-7.460,0.000,0.000,0.000
1605228554695952896,10.0.1.152,NaN,move_down,-7.480,-7.480,-7.480,0.000,0.000,0.000
1605228554889467904,10.0.1.152,NaN,move_down,-7.500,-7.500,-7.500,0.000,0.000,0.000
1605228555295672064,10.0.1.152,NaN,move_down,-7.520,-7.520,-7.520,0.000,0.000,0.000
1605228555467938816,10.0.1.152,NaN,move_down,-7.540,-7.540,-7.540,0.000,0.000,0.000
1605228555682540800,10.0.1.152,NaN,move_down,-7.560,-7.560,-7.560,0.000,0.000,0.000
1605228555990269952,10.0.1.152,NaN,move_down,-7.580,-7.580,-7.580,0.000,0.000,0.000
1605228556503086080,10.0.1.152,NaN,move_down,-7.600,-7.600,-7.600,0.000,0.000,0.000
1605228556833897984,10.0.1.152,NaN,move_down,-7.620,-7.620,-7.620,0.000,0.000,0.000
1605228557357587200,10.0.1.152,NaN,move_down,-7.640,-7.640,-7.640,0.000,0.000,0.000
1605228557653865984,10.0.1.152,NaN,move_down,-7.660,-7.660,-7.660,0.000,0.000,0.000
1605228558484141056,10.0.1.152,NaN,move_down,-7.680,-7.680,-7.680,0.000,0.000,0.000
1605228558784153088,10.0.1.152,NaN,move_down,-7.700,-7.700,-7.700,0.000,0.000,0.000
1605228559261332992,10.0.1.152,NaN,move_down,-7.720,-7.720,-7.720,0.000,0.000,0.000
1605228559685762048,10.0.1.152,NaN,move_down,-7.740,-7.740,-7.740,0.000,0.000,0.000
1605228560032599808,10.0.1.152,NaN,move_down,-7.760,-7.760,-7.760,0.000,0.000,0.000
1605228560222155008,10.0.1.152,NaN,move_down,-7.780,-7.780,-7.780,0.000,0.000,0.000
1605228560305645056,10.0.1.152,NaN,move_down,-7.800,-7.800,-7.800,0.000,0.000,0.000
1605228561503751936,10.0.1.152,NaN,move_down,-7.820,-7.820,-7.820,0.000,0.000,0.000
1605228561924915200,10.0.1.152,NaN,move_down,-7.840,-7.840,-7.840,0.000,0.000,0.000
1605228562225668864,10.0.1.152,NaN,move_down,-7.860,-7.860,-7.860,0.000,0.000,0.000
1605228562789724160,10.0.1.152,NaN,move_down,-7.880,-7.880,-7.880,0.000,0.000,0.000
1605228562969427200,10.0.1.152,NaN,move_down,-7.900,-7.900,-7.900,0.000,0.000,0.000
1605228563182723072,10.0.1.152,NaN,move_down,-7.920,-7.920,-7.920,0.000,0.000,0.000
1605228563410041088,10.0.1.152,NaN,move_down,-7.940,-7.940,-7.940,0.000,0.000,0.000
1605228563707156992,10.0.1.152,NaN,move_down,-7.960,-7.960,-7.960,0.000,0.000,0.000
1605228564195008000,10.0.1.152,NaN,move_down,-7.980,-7.980,-7.980,0.000,0.000,0.000
1605228564931392000,10.0.1.152,NaN,move_down,-8.000,-8.000,-8.000,0.000,0.000,0.000
1605228565726622208,10.0.1.152,NaN,move_down,-8.020,-8.020,-8.020,0.000,0.000,0.000
1605228566217256960,10.0.1.152,NaN,move_down,-8.040,-8.040,-8.040,0.000,0.000,0.000
1605228566448071936,10.0.1.152,NaN,move_down,-8.060,-8.060,-8.060,0.000,0.000,0.000
1605228566641763840,10.0.1.152,NaN,move_down,-8.080,-8.080,-8.080,0.000,0.000,0.000
1605228566770199040,10.0.1.152,NaN,move_down,-8.100,-8.100,-8.100,0.000,0.000,0.000
1605228567408119808,10.0.1.152,NaN,move_down,-8.120,-8.120,-8.120,0.000,0.000,0.000
1605228567562432000,10.0.1.152,NaN,move_down,-8.140,-8.140,-8.140,0.000,0.000,0.000
1605228567847508992,10.0.1.152,NaN,move_down,-8.160,-8.160,-8.160,0.000,0.000,0.000
1605228568066638080,10.0.1.152,NaN,move_down,-8.180,-8.180,-8.180,0.000,0.000,0.000
1605228568499368960,10.0.1.152,NaN,move_down,-8.200,-8.200,-8.200,0.000,0.000,0.000
1605228569296092160,10.0.1.152,NaN,move_down,-8.220,-8.220,-8.220,0.000,0.000,0.000
1605228569449860096,10.0.1.152,NaN,move_down,-8.240,-8.240,-8.240,0.000,0.000,0.000
1605228569879218944,10.0.1.152,NaN,move_down,-8.260,-8.260,-8.260,0.000,0.000,0.000
1605228570775288064,10.0.1.152,NaN,move_down,-8.280,-8.280,-8.280,0.000,0.000,0.000
1605228571275726080,10.0.1.152,NaN,move_down,-8.300,-8.300,-8.300,0.000,0.000,0.000
1605228571443397888,10.0.1.152,NaN,move_down,-8.320,-8.320,-8.320,0.000,0.000,0.000
1605228572323055872,10.0.1.152,NaN,move_down,-8.340,-8.340,-8.340,0.000,0.000,0.000
1605228573058434048,10.0.1.152,NaN,move_down,-8.360,-8.360,-8.360,0.000,0.000,0.000
1605228573762434048,10.0.1.152,NaN,move_down,-8.380,-8.380,-8.380,0.000,0.000,0.000
1605228574475902208,10.0.1.152,NaN,move_down,-8.400,-8.400,-8.400,0.000,0.000,0.000
1605228574941530880,10.0.1.152,NaN,move_down,-8.420,-8.420,-8.420,0.000,0.000,0.000
1605228575838452992,10.0.1.152,NaN,move_down,-8.440,-8.440,-8.440,0.000,0.000,0.000
1605228576260323072,10.0.1.152,NaN,move_down,-8.460,-8.460,-8.460,0.000,0.000,0.000
1605228576588332800,10.0.1.152,NaN,move_down,-8.480,-8.480,-8.480,0.000,0.000,0.000
1605228576856118016,10.0.1.152,NaN,move_down,-8.500,-8.500,-8.500,0.000,0.000,0.000
1605228577252157952,10.0.1.152,NaN,move_down,-8.520,-8.520,-8.520,0.000,0.000,0.000
1605228577747433984,10.0.1.152,NaN,move_down,-8.540,-8.540,-8.540,0.000,0.000,0.000
1605228578167354112,10.0.1.152,NaN,move_down,-8.560,-8.560,-8.560,0.000,0.000,0.000
1605228578402113024,10.0.1.152,NaN,move_down,-8.580,-8.580,-8.580,0.000,0.000,0.000
1605228579162769152,10.0.1.152,NaN,move_down,-8.600,-8.600,-8.600,0.000,0.000,0.000
1605228579824100096,10.0.1.152,NaN,move_down,-8.620,-8.620,-8.620,0.000,0.000,0.000
1605228580222643968,10.0.1.152,NaN,move_down,-8.640,-8.640,-8.640,0.000,0.000,0.000
1605228580827860992,10.0.1.152,NaN,move_down,-8.660,-8.660,-8.660,0.000,0.000,0.000
1605228580999944960,10.0.1.152,NaN,move_down,-8.680,-8.680,-8.680,0.000,0.000,0.000
1605228581435700992,10.0.1.152,NaN,move_down,-8.700,-8.700,-8.700,0.000,0.000,0.000
1605228581867241984,10.0.1.152,NaN,move_down,-8.720,-8.720,-8.720,0.000,0.000,0.000
1605228582529659904,10.0.1.152,NaN,move_down,-8.740,-8.740,-8.740,0.000,0.000,0.000
1605228582909398016,10.0.1.152,NaN,move_down,-8.760,-8.760,-8.760,0.000,0.000,0.000
1605228583231720960,10.0.1.152,NaN,move_down,-8.780,-8.780,-8.780,0.000,0.000,0.000
1605228583514342144,10.0.1.152,NaN,move_down,-8.800,-8.800,-8.800,0.000,0.000,0.000
1605228583834689024,10.0.1.152,NaN,move_down,-8.820,-8.820,-8.820,0.000,0.000,0.000
1605228584135549952,10.0.1.152,NaN,move_down,-8.840,-8.840,-8.840,0.000,0.000,0.000
1605228584770246912,10.0.1.152,NaN,move_down,-8.860,-8.860,-8.860,0.000,0.000,0.000
1605228585038365952,10.0.1.152,NaN,move_down,-8.880,-8.880,-8.880,0.000,0.000,0.000
1605228585556360960,10.0.1.152,NaN,move_down,-8.900,-8.900,-8.900,0.000,0.000,0.000
1605228586075570944,10.0.1.152,NaN,move_down,-8.920,-8.920,-8.920,0.000,0.000,0.000
1605228586434672128,10.0.1.152,NaN,move_down,-8.940,-8.940,-8.940,0.000,0.000,0.000
1605228587160841984,10.0.1.152,NaN,move_down,-8.960,-8.960,-8.960,0.000,0.000,0.000
1605228588364166144,10.0.1.152,NaN,move_down,-8.980,-8.980,-8.980,0.000,0.000,0.000
1605228589469763072,10.0.1.152,NaN,move_down,-9.000,-9.000,-9.000,0.000,0.000,0.000
1605228590728161024,10.0.1.152,NaN,move_down,-9.020,-9.020,-9.020,0.000,0.000,0.000
1605228591588354048,10.0.1.152,NaN,move_down,-9.040,-9.040,-9.040,0.000,0.000,0.000
1605228593076282112,10.0.1.152,NaN,move_down,-9.060,-9.060,-9.060,0.000,0.000,0.000
1605228593240727808,10.0.1.152,NaN,move_down,-9.080,-9.080,-9.080,0.000,0.000,0.000
1605228593503077120,10.0.1.152,NaN,move_down,-9.100,-9.100,-9.100,0.000,0.000,0.000
1605228593764710912,10.0.1.152,NaN,move_down,-9.120,-9.120,-9.120,0.000,0.000,0.000
1605228594479085824,10.0.1.152,NaN,move_down,-9.140,-9.140,-9.140,0.000,0.000,0.000
1605228594729841920,10.0.1.152,NaN,move_down,-9.160,-9.160,-9.160,0.000,0.000,0.000
1605228595075620864,10.0.1.152,NaN,move_down,-9.180,-9.180,-9.180,0.000,0.000,0.000
1605228595460131840,10.0.1.152,NaN,move_down,-9.200,-9.200,-9.200,0.000,0.000,0.000
1605228596412547072,10.0.1.152,NaN,move_down,-9.220,-9.220,-9.220,0.000,0.000,0.000
1605228596702519808,10.0.1.152,NaN,move_down,-9.240,-9.240,-9.240,0.000,0.000,0.000
1605228596836261888,10.0.1.152,NaN,move_down,-9.260,-9.260,-9.260,0.000,0.000,0.000
1605228597149349888,10.0.1.152,NaN,move_down,-9.280,-9.280,-9.280,0.000,0.000,0.000
1605228598237071104,10.0.1.152,NaN,move_down,-9.300,-9.300,-9.300,0.000,0.000,0.000
1605228598514085888,10.0.1.152,NaN,move_down,-9.320,-9.320,-9.320,0.000,0.000,0.000
1605228598947792128,10.0.1.152,NaN,move_down,-9.340,-9.340,-9.340,0.000,0.000,0.000
1605228599216941056,10.0.1.152,NaN,move_down,-9.360,-9.360,-9.360,0.000,0.000,0.000
1605228599581937920,10.0.1.152,NaN,move_down,-9.380,-9.380,-9.380,0.000,0.000,0.000
1605228600254396928,10.0.1.152,NaN,move_down,-9.400,-9.400,-9.400,0.000,0.000,0.000
1605228600466258176,10.0.1.152,NaN,move_down,-9.420,-9.420,-9.420,0.000,0.000,0.000
1605228601474288896,10.0.1.152,NaN,move_down,-9.440,-9.440,-9.440,0.000,0.000,0.000
1605228601745993984,10.0.1.152,NaN,move_down,-9.460,-9.460,-9.460,0.000,0.000,0.000
1605228602355659008,10.0.1.152,NaN,move_down,-9.480,-9.480,-9.480,0.000,0.000,0.000
1605228602732197888,10.0.1.152,NaN,move_down,-9.500,-9.500,-9.500,0.000,0.000,0.000
1605228602884574976,10.0.1.152,NaN,move_down,-9.520,-9.520,-9.520,0.000,0.000,0.000
1605228603741004032,10.0.1.152,NaN,move_down,-9.540,-9.540,-9.540,0.000,0.000,0.000
1605228603942273024,10.0.1.152,NaN,move_down,-9.560,-9.560,-9.560,0.000,0.000,0.000
1605228604922516992,10.0.1.152,NaN,move_down,-9.580,-9.580,-9.580,0.000,0.000,0.000
1605228605254137088,10.0.1.152,NaN,move_down,-9.600,-9.600,-9.600,0.000,0.000,0.000
1605228605524070144,10.0.1.152,NaN,move_down,-9.620,-9.620,-9.620,0.000,0.000,0.000
1605228606283081984,10.0.1.152,NaN,move_down,-9.640,-9.640,-9.640,0.000,0.000,0.000
1605228606534080000,10.0.1.152,NaN,move_down,-9.660,-9.660,-9.660,0.000,0.000,0.000
1605228606808283136,10.0.1.152,NaN,move_down,-9.680,-9.680,-9.680,0.000,0.000,0.000
1605228607203741952,10.0.1.152,NaN,move_down,-9.700,-9.700,-9.700,0.000,0.000,0.000
1605228607328716032,10.0.1.152,NaN,move_down,-9.720,-9.720,-9.720,0.000,0.000,0.000
1605228608775755008,10.0.1.152,NaN,move_down,-9.740,-9.740,-9.740,0.000,0.000,0.000
1605228609169320960,10.0.1.152,NaN,move_down,-9.760,-9.760,-9.760,0.000,0.000,0.000
1605228609815862016,10.0.1.152,NaN,move_down,-9.780,-9.780,-9.780,0.000,0.000,0.000
1605228611257400064,10.0.1.152,NaN,move_down,-9.800,-9.800,-9.800,0.000,0.000,0.000
1605228612547019008,10.0.1.152,NaN,move_down,-9.820,-9.820,-9.820,0.000,0.000,0.000
1605228612827116032,10.0.1.152,NaN,move_down,-9.840,-9.840,-9.840,0.000,0.000,0.000
1605228612983148032,10.0.1.152,NaN,move_down,-9.860,-9.860,-9.860,0.000,0.000,0.000
1605228613434098944,10.0.1.152,NaN,move_down,-9.880,-9.880,-9.880,0.000,0.000,0.000
1605228613747956992,10.0.1.152,NaN,move_down,-9.900,-9.900,-9.900,0.000,0.000,0.000
1605228614035888896,10.0.1.152,NaN,move_down,-9.920,-9.920,-9.920,0.000,0.000,0.000
1605228614247164928,10.0.1.152,NaN,move_down,-9.940,-9.940,-9.940,0.000,0.000,0.000
1605228614414375936,10.0.1.152,NaN,move_down,-9.960,-9.960,-9.960,0.000,0.000,0.000
1605228614990829056,10.0.1.152,NaN,move_down,-9.980,-9.980,-9.980,0.000,0.000,0.000
1605228615698738944,10.0.1.152,NaN,move_down,-10.000,-10.000,-10.000,0.000,0.000,0.000
1605228615968063232,10.0.1.152,NaN,move_down,-10.020,-10.020,-10.020,0.000,0.000,0.000
1605228616479248896,10.0.1.152,NaN,move_down,-10.040,-10.040,-10.040,0.000,0.000,0.000
1605228617237509888,10.0.1.152,NaN,move_down,-10.060,-10.060,-10.060,0.000,0.000,0.000
1605228617685534976,10.0.1.152,NaN,move_down,-10.080,-10.080,-10.080,0.000,0.000,0.000
1605228618358129152,10.0.1.152,NaN,move_down,-10.100,-10.100,-10.100,0.000,0.000,0.000
1605228618693806848,10.0.1.152,NaN,move_down,-10.120,-10.120,-10.120,0.000,0.000,0.000
1605228618880037120,10.0.1.152,NaN,move_down,-10.140,-10.140,-10.140,0.000,0.000,0.000
1605228619267003136,10.0.1.152,NaN,move_down,-10.160,-10.160,-10.160,0.000,0.000,0.000
1605228619808653056,10.0.1.152,NaN,move_down,-10.180,-10.180,-10.180,0.000,0.000,0.000
1605228620201590016,10.0.1.152,NaN,move_down,-10.200,-10.200,-10.200,0.000,0.000,0.000
1605228620564294144,10.0.1.152,NaN,move_down,-10.220,-10.220,-10.220,0.000,0.000,0.000
1605228620843437056,10.0.1.152,NaN,move_down,-10.240,-10.240,-10.240,0.000,0.000,0.000
1605228621075959040,10.0.1.152,NaN,move_down,-10.260,-10.260,-10.260,0.000,0.000,0.000
1605228621449837056,10.0.1.152,NaN,move_down,-10.280,-10.280,-10.280,0.000,0.000,0.000
1605228622062062080,10.0.1.152,NaN,move_down,-10.300,-10.300,-10.300,0.000,0.000,0.000
1605228622350106112,10.0.1.152,NaN,move_down,-10.320,-10.320,-10.320,0.000,0.000,0.000
1605228622831578112,10.0.1.152,NaN,move_down,-10.340,-10.340,-10.340,0.000,0.000,0.000
1605228622987154944,10.0.1.152,NaN,move_down,-10.360,-10.360,-10.360,0.000,0.000,0.000
1605228623231822848,10.0.1.152,NaN,move_down,-10.380,-10.380,-10.380,0.000,0.000,0.000
1605228624640645120,10.0.1.152,NaN,move_down,-10.400,-10.400,-10.400,0.000,0.000,0.000
1605228625183532032,10.0.1.152,NaN,move_down,-10.420,-10.420,-10.420,0.000,0.000,0.000
1605228625351780864,10.0.1.152,NaN,move_down,-10.440,-10.440,-10.440,0.000,0.000,0.000
1605228625729186048,10.0.1.152,NaN,move_down,-10.460,-10.460,-10.460,0.000,0.000,0.000
1605228625900115968,10.0.1.152,NaN,move_down,-10.480,-10.480,-10.480,0.000,0.000,0.000
1605228626146321920,10.0.1.152,NaN,move_down,-10.500,-10.500,-10.500,0.000,0.000,0.000
1605228626561079040,10.0.1.152,NaN,move_down,-10.520,-10.520,-10.520,0.000,0.000,0.000
1605228627309179904,10.0.1.152,NaN,move_down,-10.540,-10.540,-10.540,0.000,0.000,0.000
1605228627695228160,10.0.1.152,NaN,move_down,-10.560,-10.560,-10.560,0.000,0.000,0.000
1605228628404422912,10.0.1.152,NaN,move_down,-10.580,-10.580,-10.580,0.000,0.000,0.000
1605228628947271936,10.0.1.152,NaN,move_down,-10.600,-10.600,-10.600,0.000,0.000,0.000
1605228629184813056,10.0.1.152,NaN,move_down,-10.620,-10.620,-10.620,0.000,0.000,0.000
1605228629465434112,10.0.1.152,NaN,move_down,-10.640,-10.640,-10.640,0.000,0.000,0.000
1605228629950756096,10.0.1.152,NaN,move_down,-10.660,-10.660,-10.660,0.000,0.000,0.000
1605228631463814912,10.0.1.152,NaN,move_down,-10.680,-10.680,-10.680,0.000,0.000,0.000
1605228632138115840,10.0.1.152,NaN,move_down,-10.700,-10.700,-10.700,0.000,0.000,0.000
1605228632450045952,10.0.1.152,NaN,move_down,-10.720,-10.720,-10.720,0.000,0.000,0.000
1605228632959918848,10.0.1.152,NaN,move_down,-10.740,-10.740,-10.740,0.000,0.000,0.000
1605228633311191040,10.0.1.152,NaN,move_down,-10.760,-10.760,-10.760,0.000,0.000,0.000
1605228633676525056,10.0.1.152,NaN,move_down,-10.780,-10.780,-10.780,0.000,0.000,0.000
1605228633972450048,10.0.1.152,NaN,move_down,-10.800,-10.800,-10.800,0.000,0.000,0.000
1605228635662027008,10.0.1.152,NaN,move_down,-10.820,-10.820,-10.820,0.000,0.000,0.000
1605228636122288896,10.0.1.152,NaN,move_down,-10.840,-10.840,-10.840,0.000,0.000,0.000
1605228636581792000,10.0.1.152,NaN,move_down,-10.860,-10.860,-10.860,0.000,0.000,0.000
1605228636786076160,10.0.1.152,NaN,move_down,-10.880,-10.880,-10.880,0.000,0.000,0.000
1605228637187830016,10.0.1.152,NaN,move_down,-10.900,-10.900,-10.900,0.000,0.000,0.000
1605228637447428096,10.0.1.152,NaN,move_down,-10.920,-10.920,-10.920,0.000,0.000,0.000
1605228637686515968,10.0.1.152,NaN,move_down,-10.940,-10.940,-10.940,0.000,0.000,0.000
1605228637896281856,10.0.1.152,NaN,move_down,-10.960,-10.960,-10.960,0.000,0.000,0.000
1605228638662385920,10.0.1.152,NaN,move_down,-10.980,-10.980,-10.980,0.000,0.000,0.000
1605228638879201024,10.0.1.152,NaN,move_down,-11.000,-11.000,-11.000,0.000,0.000,0.000
1605228639355644928,10.0.1.152,NaN,move_down,-11.020,-11.020,-11.020,0.000,0.000,0.000
1605228639856631040,10.0.1.152,NaN,move_down,-11.040,-11.040,-11.040,0.000,0.000,0.000
1605228640138564096,10.0.1.152,NaN,move_down,-11.060,-11.060,-11.060,0.000,0.000,0.000
1605228640436385024,10.0.1.152,NaN,move_down,-11.080,-11.080,-11.080,0.000,0.000,0.000
1605228640619059968,10.0.1.152,NaN,move_down,-11.100,-11.100,-11.100,0.000,0.000,0.000
1605228641032877824,10.0.1.152,NaN,move_down,-11.120,-11.120,-11.120,0.000,0.000,0.000
1605228641367270912,10.0.1.152,NaN,move_down,-11.140,-11.140,-11.140,0.000,0.000,0.000
1605228641849585152,10.0.1.152,NaN,move_down,-11.160,-11.160,-11.160,0.000,0.000,0.000
1605228643031761920,10.0.1.152,NaN,move_down,-11.180,-11.180,-11.180,0.000,0.000,0.000
1605228643351926016,10.0.1.152,NaN,move_down,-11.200,-11.200,-11.200,0.000,0.000,0.000
1605228643703773952,10.0.1.152,NaN,move_down,-11.220,-11.220,-11.220,0.000,0.000,0.000
1605228643839746048,10.0.1.152,NaN,move_down,-11.240,-11.240,-11.240,0.000,0.000,0.000
1605228644645451008,10.0.1.152,NaN,move_down,-11.260,-11.260,-11.260,0.000,0.000,0.000
1605228644880548096,10.0.1.152,NaN,move_down,-11.280,-11.280,-11.280,0.000,0.000,0.000
1605228645250110976,10.0.1.152,NaN,move_down,-11.300,-11.300,-11.300,0.000,0.000,0.000
1605228645698509824,10.0.1.152,NaN,move_down,-11.320,-11.320,-11.320,0.000,0.000,0.000
1605228646411454976,10.0.1.152,NaN,move_down,-11.340,-11.340,-11.340,0.000,0.000,0.000
1605228647025281792,10.0.1.152,NaN,move_down,-11.360,-11.360,-11.360,0.000,0.000,0.000
1605228647599874048,10.0.1.152,NaN,move_down,-11.380,-11.380,-11.380,0.000,0.000,0.000
1605228647821959936,10.0.1.152,NaN,move_down,-11.400,-11.400,-11.400,0.000,0.000,0.000
1605228648827649024,10.0.1.152,NaN,move_down,-11.420,-11.420,-11.420,0.000,0.000,0.000
1605228650064452864,10.0.1.152,NaN,move_down,-11.440,-11.440,-11.440,0.000,0.000,0.000
1605228650505430016,10.0.1.152,NaN,move_down,-11.460,-11.460,-11.460,0.000,0.000,0.000
1605228650810976000,10.0.1.152,NaN,move_down,-11.480,-11.480,-11.480,0.000,0.000,0.000
1605228652249475840,10.0.1.152,NaN,move_down,-11.500,-11.500,-11.500,0.000,0.000,0.000
1605228652404030976,10.0.1.152,NaN,move_down,-11.520,-11.520,-11.520,0.000,0.000,0.000
1605228652872236032,10.0.1.152,NaN,move_down,-11.540,-11.540,-11.540,0.000,0.000,0.000
1605228653293071872,10.0.1.152,NaN,move_down,-11.560,-11.560,-11.560,0.000,0.000,0.000
1605228653564205056,10.0.1.152,NaN,move_down,-11.580,-11.580,-11.580,0.000,0.000,0.000
1605228653937459968,10.0.1.152,NaN,move_down,-11.600,-11.600,-11.600,0.000,0.000,0.000
1605228654149225984,10.0.1.152,NaN,move_down,-11.620,-11.620,-11.620,0.000,0.000,0.000
1605228654414866944,10.0.1.152,NaN,move_down,-11.640,-11.640,-11.640,0.000,0.000,0.000
1605228654582127104,10.0.1.152,NaN,move_down,-11.660,-11.660,-11.660,0.000,0.000,0.000
1605228655160379904,10.0.1.152,NaN,move_down,-11.680,-11.680,-11.680,0.000,0.000,0.000
1605228656344979968,10.0.1.152,NaN,move_down,-11.700,-11.700,-11.700,0.000,0.000,0.000
1605228656594628096,10.0.1.152,NaN,move_down,-11.720,-11.720,-11.720,0.000,0.000,0.000
1605228657146981120,10.0.1.152,NaN,move_down,-11.740,-11.740,-11.740,0.000,0.000,0.000
1605228657351310080,10.0.1.152,NaN,move_down,-11.760,-11.760,-11.760,0.000,0.000,0.000
1605228657557515008,10.0.1.152,NaN,move_down,-11.780,-11.780,-11.780,0.000,0.000,0.000
1605228657954232064,10.0.1.152,NaN,move_down,-11.800,-11.800,-11.800,0.000,0.000,0.000
1605228658289268992,10.0.1.152,NaN,move_down,-11.820,-11.820,-11.820,0.000,0.000,0.000
1605228658738351104,10.0.1.152,NaN,move_down,-11.840,-11.840,-11.840,0.000,0.000,0.000
1605228659185113856,10.0.1.152,NaN,move_down,-11.860,-11.860,-11.860,0.000,0.000,0.000
1605228659492999168,10.0.1.152,NaN,move_down,-11.880,-11.880,-11.880,0.000,0.000,0.000
1605228660148546816,10.0.1.152,NaN,move_down,-11.900,-11.900,-11.900,0.000,0.000,0.000
1605228660632460032,10.0.1.152,NaN,move_down,-11.920,-11.920,-11.920,0.000,0.000,0.000
1605228660847631104,10.0.1.152,NaN,move_down,-11.940,-11.940,-11.940,0.000,0.000,0.000
1605228661267246848,10.0.1.152,NaN,move_down,-11.960,-11.960,-11.960,0.000,0.000,0.000
1605228661690729984,10.0.1.152,NaN,move_down,-11.980,-11.980,-11.980,0.000,0.000,0.000
1605228662001656064,10.0.1.152,NaN,move_down,-12.000,-12.000,-12.000,0.000,0.000,0.000
1605228662182848000,10.0.1.152,NaN,move_down,-12.020,-12.020,-12.020,0.000,0.000,0.000
1605228662519845888,10.0.1.152,NaN,move_down,-12.040,-12.040,-12.040,0.000,0.000,0.000
1605228662848040960,10.0.1.152,NaN,move_down,-12.060,-12.060,-12.060,0.000,0.000,0.000
1605228663078573824,10.0.1.152,NaN,move_down,-12.080,-12.080,-12.080,0.000,0.000,0.000
1605228664115072000,10.0.1.152,NaN,move_down,-12.100,-12.100,-12.100,0.000,0.000,0.000
1605228664325315840,10.0.1.152,NaN,move_down,-12.120,-12.120,-12.120,0.000,0.000,0.000
1605228665274424064,10.0.1.152,NaN,move_down,-12.140,-12.140,-12.140,0.000,0.000,0.000
1605228666086838016,10.0.1.152,NaN,move_down,-12.160,-12.160,-12.160,0.000,0.000,0.000
1605228666532422912,10.0.1.152,NaN,move_down,-12.180,-12.180,-12.180,0.000,0.000,0.000
1605228666934416128,10.0.1.152,NaN,move_down,-12.200,-12.200,-12.200,0.000,0.000,0.000
1605228667399820032,10.0.1.152,NaN,move_down,-12.220,-12.220,-12.220,0.000,0.000,0.000
1605228668638863104,10.0.1.152,NaN,move_down,-12.240,-12.240,-12.240,0.000,0.000,0.000
1605228669006420992,10.0.1.152,NaN,move_down,-12.260,-12.260,-12.260,0.000,0.000,0.000
1605228669306013184,10.0.1.152,NaN,move_down,-12.280,-12.280,-12.280,0.000,0.000,0.000
1605228669563041024,10.0.1.152,NaN,move_down,-12.300,-12.300,-12.300,0.000,0.000,0.000
1605228669720045056,10.0.1.152,NaN,move_down,-12.320,-12.320,-12.320,0.000,0.000,0.000
1605228670004792064,10.0.1.152,NaN,move_down,-12.340,-12.340,-12.340,0.000,0.000,0.000
1605228670470059008,10.0.1.152,NaN,move_down,-12.360,-12.360,-12.360,0.000,0.000,0.000
1605228670698483968,10.0.1.152,NaN,move_down,-12.380,-12.380,-12.380,0.000,0.000,0.000
1605228670891935232,10.0.1.152,NaN,move_down,-12.400,-12.400,-12.400,0.000,0.000,0.000
1605228671889683968,10.0.1.152,NaN,move_down,-12.420,-12.420,-12.420,0.000,0.000,0.000
1605228672559645952,10.0.1.152,NaN,move_down,-12.440,-12.440,-12.440,0.000,0.000,0.000
1605228672949793024,10.0.1.152,NaN,move_down,-12.460,-12.460,-12.460,0.000,0.000,0.000
1605228673362961920,10.0.1.152,NaN,move_down,-12.480,-12.480,-12.480,0.000,0.000,0.000
1605228673558883072,10.0.1.152,NaN,move_down,-12.500,-12.500,-12.500,0.000,0.000,0.000
1605228673899723008,10.0.1.152,NaN,move_down,-12.520,-12.520,-12.520,0.000,0.000,0.000
1605228674164393984,10.0.1.152,NaN,move_down,-12.540,-12.540,-12.540,0.000,0.000,0.000
1605228674659521024,10.0.1.152,NaN,move_down,-12.560,-12.560,-12.560,0.000,0.000,0.000
1605228674981956864,10.0.1.152,NaN,move_down,-12.580,-12.580,-12.580,0.000,0.000,0.000
1605228675665495040,10.0.1.152,NaN,move_down,-12.600,-12.600,-12.600,0.000,0.000,0.000
1605228676873495040,10.0.1.152,NaN,move_down,-12.620,-12.620,-12.620,0.000,0.000,0.000
1605228678437108992,10.0.1.152,NaN,move_down,-12.640,-12.640,-12.640,0.000,0.000,0.000
1605228678959793920,10.0.1.152,NaN,move_down,-12.660,-12.660,-12.660,0.000,0.000,0.000
1605228679186109184,10.0.1.152,NaN,move_down,-12.680,-12.680,-12.680,0.000,0.000,0.000
1605228679571598080,10.0.1.152,NaN,move_down,-12.700,-12.700,-12.700,0.000,0.000,0.000
1605228680956523776,10.0.1.152,NaN,move_down,-12.720,-12.720,-12.720,0.000,0.000,0.000
1605228681551435008,10.0.1.152,NaN,move_down,-12.740,-12.740,-12.740,0.000,0.000,0.000
1605228682090567168,10.0.1.152,NaN,move_down,-12.760,-12.760,-12.760,0.000,0.000,0.000
1605228682451298048,10.0.1.152,NaN,move_down,-12.780,-12.780,-12.780,0.000,0.000,0.000
1605228683144150016,10.0.1.152,NaN,move_down,-12.800,-12.800,-12.800,0.000,0.000,0.000
1605228684187758848,10.0.1.152,NaN,move_down,-12.820,-12.820,-12.820,0.000,0.000,0.000
1605228684341630976,10.0.1.152,NaN,move_down,-12.840,-12.840,-12.840,0.000,0.000,0.000
1605228684532752128,10.0.1.152,NaN,move_down,-12.860,-12.860,-12.860,0.000,0.000,0.000
1605228685482822912,10.0.1.152,NaN,move_down,-12.880,-12.880,-12.880,0.000,0.000,0.000
1605228686248555776,10.0.1.152,NaN,move_down,-12.900,-12.900,-12.900,0.000,0.000,0.000
1605228687047782912,10.0.1.152,NaN,move_down,-12.920,-12.920,-12.920,0.000,0.000,0.000
1605228687808176128,10.0.1.152,NaN,move_down,-12.940,-12.940,-12.940,0.000,0.000,0.000
1605228688762647040,10.0.1.152,NaN,move_down,-12.960,-12.960,-12.960,0.000,0.000,0.000
1605228688989782016,10.0.1.152,NaN,move_down,-12.980,-12.980,-12.980,0.000,0.000,0.000
1605228689146850048,10.0.1.152,NaN,move_down,-13.000,-13.000,-13.000,0.000,0.000,0.000
1605228689412957952,10.0.1.152,NaN,move_down,-13.020,-13.020,-13.020,0.000,0.000,0.000
1605228690130628096,10.0.1.152,NaN,move_down,-13.040,-13.040,-13.040,0.000,0.000,0.000
1605228690398969856,10.0.1.152,NaN,move_down,-13.060,-13.060,-13.060,0.000,0.000,0.000
1605228690910443008,10.0.1.152,NaN,move_down,-13.080,-13.080,-13.080,0.000,0.000,0.000
1605228691387609088,10.0.1.152,NaN,move_down,-13.100,-13.100,-13.100,0.000,0.000,0.000
1605228691569210112,10.0.1.152,NaN,move_down,-13.120,-13.120,-13.120,0.000,0.000,0.000
1605228692677256960,10.0.1.152,NaN,move_down,-13.140,-13.140,-13.140,0.000,0.000,0.000
1605228694065368064,10.0.1.152,NaN,move_down,-13.160,-13.160,-13.160,0.000,0.000,0.000
1605228695853220096,10.0.1.152,NaN,move_down,-13.180,-13.180,-13.180,0.000,0.000,0.000
1605228696336476928,10.0.1.152,NaN,move_down,-13.200,-13.200,-13.200,0.000,0.000,0.000
1605228697243431168,10.0.1.152,NaN,move_down,-13.220,-13.220,-13.220,0.000,0.000,0.000
1605228697549958912,10.0.1.152,NaN,move_down,-13.240,-13.240,-13.240,0.000,0.000,0.000
1605228697768414976,10.0.1.152,NaN,move_down,-13.260,-13.260,-13.260,0.000,0.000,0.000
1605228698279634944,10.0.1.152,NaN,move_down,-13.280,-13.280,-13.280,0.000,0.000,0.000
1605228698399404032,10.0.1.152,NaN,move_down,-13.300,-13.300,-13.300,0.000,0.000,0.000
1605228698599181824,10.0.1.152,NaN,move_down,-13.320,-13.320,-13.320,0.000,0.000,0.000
1605228698923767040,10.0.1.152,NaN,move_down,-13.340,-13.340,-13.340,0.000,0.000,0.000
1605228699252023040,10.0.1.152,NaN,move_down,-13.360,-13.360,-13.360,0.000,0.000,0.000
1605228699394191872,10.0.1.152,NaN,move_down,-13.380,-13.380,-13.380,0.000,0.000,0.000
1605228700342123008,10.0.1.152,NaN,move_down,-13.400,-13.400,-13.400,0.000,0.000,0.000
1605228701195959040,10.0.1.152,NaN,move_down,-13.420,-13.420,-13.420,0.000,0.000,0.000
1605228701454440192,10.0.1.152,NaN,move_down,-13.440,-13.440,-13.440,0.000,0.000,0.000
1605228701869780992,10.0.1.152,NaN,move_down,-13.460,-13.460,-13.460,0.000,0.000,0.000
1605228702340534016,10.0.1.152,NaN,move_down,-13.480,-13.480,-13.480,0.000,0.000,0.000
1605228703418654976,10.0.1.152,NaN,move_down,-13.500,-13.500,-13.500,0.000,0.000,0.000
1605228704486898944,10.0.1.152,NaN,move_down,-13.520,-13.520,-13.520,0.000,0.000,0.000
1605228704709836032,10.0.1.152,NaN,move_down,-13.540,-13.540,-13.540,0.000,0.000,0.000
1605228705286488064,10.0.1.152,NaN,move_down,-13.560,-13.560,-13.560,0.000,0.000,0.000
1605228707356313088,10.0.1.152,NaN,move_down,-13.580,-13.580,-13.580,0.000,0.000,0.000
1605228708444956928,10.0.1.152,NaN,move_down,-13.600,-13.600,-13.600,0.000,0.000,0.000
1605228709048905984,10.0.1.152,NaN,move_down,-13.620,-13.620,-13.620,0.000,0.000,0.000
1605228709674073856,10.0.1.152,NaN,move_down,-13.640,-13.640,-13.640,0.000,0.000,0.000
1605228709844686080,10.0.1.152,NaN,move_down,-13.660,-13.660,-13.660,0.000,0.000,0.000
1605228710061497088,10.0.1.152,NaN,move_down,-13.680,-13.680,-13.680,0.000,0.000,0.000
1605228710796355840,10.0.1.152,NaN,move_down,-13.700,-13.700,-13.700,0.000,0.000,0.000
1605228711204154880,10.0.1.152,NaN,move_down,-13.720,-13.720,-13.720,0.000,0.000,0.000
1605228711590377984,10.0.1.152,NaN,move_down,-13.740,-13.740,-13.740,0.000,0.000,0.000
1605228711894004224,10.0.1.152,NaN,move_down,-13.760,-13.760,-13.760,0.000,0.000,0.000
1605228712215857152,10.0.1.152,NaN,move_down,-13.780,-13.780,-13.780,0.000,0.000,0.000
1605228713367796992,10.0.1.152,NaN,move_down,-13.800,-13.800,-13.800,0.000,0.000,0.000
1605228713663714048,10.0.1.152,NaN,move_down,-13.820,-13.820,-13.820,0.000,0.000,0.000
1605228713911772928,10.0.1.152,NaN,move_down,-13.840,-13.840,-13.840,0.000,0.000,0.000
1605228714076250112,10.0.1.152,NaN,move_down,-13.860,-13.860,-13.860,0.000,0.000,0.000
1605228714568598016,10.0.1.152,NaN,move_down,-13.880,-13.880,-13.880,0.000,0.000,0.000
1605228715263134976,10.0.1.152,NaN,move_down,-13.900,-13.900,-13.900,0.000,0.000,0.000
1605228715796472064,10.0.1.152,NaN,move_down,-13.920,-13.920,-13.920,0.000,0.000,0.000
1605228716597243904,10.0.1.152,NaN,move_down,-13.940,-13.940,-13.940,0.000,0.000,0.000
1605228716773292032,10.0.1.152,NaN,move_down,-13.960,-13.960,-13.960,0.000,0.000,0.000
1605228717304722176,10.0.1.152,NaN,move_down,-13.980,-13.980,-13.980,0.000,0.000,0.000
1605228717930872064,10.0.1.152,NaN,move_down,-14.000,-14.000,-14.000,0.000,0.000,0.000
1605228718448704000,10.0.1.152,NaN,move_down,-14.020,-14.020,-14.020,0.000,0.000,0.000
1605228718749646848,10.0.1.152,NaN,move_down,-14.040,-14.040,-14.040,0.000,0.000,0.000
1605228719179744000,10.0.1.152,NaN,move_down,-14.060,-14.060,-14.060,0.000,0.000,0.000
1605228719656436992,10.0.1.152,NaN,move_down,-14.080,-14.080,-14.080,0.000,0.000,0.000
1605228719902853120,10.0.1.152,NaN,move_down,-14.100,-14.100,-14.100,0.000,0.000,0.000
1605228720424596992,10.0.1.152,NaN,move_down,-14.120,-14.120,-14.120,0.000,0.000,0.000
1605228720925956864,10.0.1.152,NaN,move_down,-14.140,-14.140,-14.140,0.000,0.000,0.000
1605228721084705024,10.0.1.152,NaN,move_down,-14.160,-14.160,-14.160,0.000,0.000,0.000
1605228721895632128,10.0.1.152,NaN,move_down,-14.180,-14.180,-14.180,0.000,0.000,0.000
1605228722947288064,10.0.1.152,NaN,move_down,-14.200,-14.200,-14.200,0.000,0.000,0.000
1605228723949097984,10.0.1.152,NaN,move_down,-14.220,-14.220,-14.220,0.000,0.000,0.000
1605228724368161024,10.0.1.152,NaN,move_down,-14.240,-14.240,-14.240,0.000,0.000,0.000
1605228725137468160,10.0.1.152,NaN,move_down,-14.260,-14.260,-14.260,0.000,0.000,0.000
1605228725537113856,10.0.1.152,NaN,move_down,-14.280,-14.280,-14.280,0.000,0.000,0.000
1605228726254959104,10.0.1.152,NaN,move_down,-14.300,-14.300,-14.300,0.000,0.000,0.000
1605228726465182976,10.0.1.152,NaN,move_down,-14.320,-14.320,-14.320,0.000,0.000,0.000
1605228726839179008,10.0.1.152,NaN,move_down,-14.340,-14.340,-14.340,0.000,0.000,0.000
1605228727534480128,10.0.1.152,NaN,move_down,-14.360,-14.360,-14.360,0.000,0.000,0.000
1605228727782520064,10.0.1.152,NaN,move_down,-14.380,-14.380,-14.380,0.000,0.000,0.000
1605228728304550912,10.0.1.152,NaN,move_down,-14.400,-14.400,-14.400,0.000,0.000,0.000
1605228728433901056,10.0.1.152,NaN,move_down,-14.420,-14.420,-14.420,0.000,0.000,0.000
1605228728686230016,10.0.1.152,NaN,move_down,-14.440,-14.440,-14.440,0.000,0.000,0.000
1605228728823582976,10.0.1.152,NaN,move_down,-14.460,-14.460,-14.460,0.000,0.000,0.000
1605228729167954944,10.0.1.152,NaN,move_down,-14.480,-14.480,-14.480,0.000,0.000,0.000
1605228729919208960,10.0.1.152,NaN,move_down,-14.500,-14.500,-14.500,0.000,0.000,0.000
1605228730611246080,10.0.1.152,NaN,move_down,-14.520,-14.520,-14.520,0.000,0.000,0.000
1605228731001275904,10.0.1.152,NaN,move_down,-14.540,-14.540,-14.540,0.000,0.000,0.000
1605228731429573888,10.0.1.152,NaN,move_down,-14.560,-14.560,-14.560,0.000,0.000,0.000
1605228732222691072,10.0.1.152,NaN,move_down,-14.580,-14.580,-14.580,0.000,0.000,0.000
1605228733225658880,10.0.1.152,NaN,move_down,-14.600,-14.600,-14.600,0.000,0.000,0.000
1605228733740346880,10.0.1.152,NaN,move_down,-14.620,-14.620,-14.620,0.000,0.000,0.000
1605228734080015872,10.0.1.152,NaN,move_down,-14.640,-14.640,-14.640,0.000,0.000,0.000
1605228734451988992,10.0.1.152,NaN,move_down,-14.660,-14.660,-14.660,0.000,0.000,0.000
1605228734939301888,10.0.1.152,NaN,move_down,-14.680,-14.680,-14.680,0.000,0.000,0.000
1605228735280390144,10.0.1.152,NaN,move_down,-14.700,-14.700,-14.700,0.000,0.000,0.000
1605228735779404032,10.0.1.152,NaN,move_down,-14.720,-14.720,-14.720,0.000,0.000,0.000
1605228736382531840,10.0.1.152,NaN,move_down,-14.740,-14.740,-14.740,0.000,0.000,0.000
1605228736563736832,10.0.1.152,NaN,move_down,-14.760,-14.760,-14.760,0.000,0.000,0.000
1605228736929598208,10.0.1.152,NaN,move_down,-14.780,-14.780,-14.780,0.000,0.000,0.000
1605228737795340032,10.0.1.152,NaN,move_down,-14.800,-14.800,-14.800,0.000,0.000,0.000
1605228738027821056,10.0.1.152,NaN,move_down,-14.820,-14.820,-14.820,0.000,0.000,0.000
1605228738983704064,10.0.1.152,NaN,move_down,-14.840,-14.840,-14.840,0.000,0.000,0.000
1605228739669865984,10.0.1.152,NaN,move_down,-14.860,-14.860,-14.860,0.000,0.000,0.000
1605228740205935872,10.0.1.152,NaN,move_down,-14.880,-14.880,-14.880,0.000,0.000,0.000
1605228741076400896,10.0.1.152,NaN,move_down,-14.900,-14.900,-14.900,0.000,0.000,0.000
1605228742417448960,10.0.1.152,NaN,move_down,-14.920,-14.920,-14.920,0.000,0.000,0.000
1605228742632616960,10.0.1.152,NaN,move_down,-14.940,-14.940,-14.940,0.000,0.000,0.000
1605228742893239040,10.0.1.152,NaN,move_down,-14.960,-14.960,-14.960,0.000,0.000,0.000
1605228745081149184,10.0.1.152,NaN,move_down,-14.980,-14.980,-14.980,0.000,0.000,0.000
1605228746021958144,10.0.1.152,NaN,move_down,-15.000,-15.000,-15.000,0.000,0.000,0.000
1605228746321636864,10.0.1.152,NaN,move_down,-15.020,-15.020,-15.020,0.000,0.000,0.000
1605228747574565888,10.0.1.152,NaN,move_down,-15.040,-15.040,-15.040,0.000,0.000,0.000
1605228748426262016,10.0.1.152,NaN,move_down,-15.060,-15.060,-15.060,0.000,0.000,0.000
1605228748985882880,10.0.1.152,NaN,move_down,-15.080,-15.080,-15.080,0.000,0.000,0.000
1605228749329428992,10.0.1.152,NaN,move_down,-15.100,-15.100,-15.100,0.000,0.000,0.000
1605228749890032896,10.0.1.152,NaN,move_down,-15.120,-15.120,-15.120,0.000,0.000,0.000
1605228750714057984,10.0.1.152,NaN,move_down,-15.140,-15.140,-15.140,0.000,0.000,0.000
1605228750964272896,10.0.1.152,NaN,move_down,-15.160,-15.160,-15.160,0.000,0.000,0.000
1605228751619918080,10.0.1.152,NaN,move_down,-15.180,-15.180,-15.180,0.000,0.000,0.000
1605228752597046016,10.0.1.152,NaN,move_down,-15.200,-15.200,-15.200,0.000,0.000,0.000
1605228753094174976,10.0.1.152,NaN,move_down,-15.220,-15.220,-15.220,0.000,0.000,0.000
1605228753435290112,10.0.1.152,NaN,move_down,-15.240,-15.240,-15.240,0.000,0.000,0.000
1605228754012391168,10.0.1.152,NaN,move_down,-15.260,-15.260,-15.260,0.000,0.000,0.000
1605228754610148864,10.0.1.152,NaN,move_down,-15.280,-15.280,-15.280,0.000,0.000,0.000
1605228754872122880,10.0.1.152,NaN,move_down,-15.300,-15.300,-15.300,0.000,0.000,0.000
1605228755172177920,10.0.1.152,NaN,move_down,-15.320,-15.320,-15.320,0.000,0.000,0.000
1605228755466541056,10.0.1.152,NaN,move_down,-15.340,-15.340,-15.340,0.000,0.000,0.000
1605228756462418944,10.0.1.152,NaN,move_down,-15.360,-15.360,-15.360,0.000,0.000,0.000
1605228756734867200,10.0.1.152,NaN,move_down,-15.380,-15.380,-15.380,0.000,0.000,0.000
1605228758090179072,10.0.1.152,NaN,move_down,-15.400,-15.400,-15.400,0.000,0.000,0.000
1605228758518160128,10.0.1.152,NaN,move_down,-15.420,-15.420,-15.420,0.000,0.000,0.000
1605228759727236096,10.0.1.152,NaN,move_down,-15.440,-15.440,-15.440,0.000,0.000,0.000
1605228760216588032,10.0.1.152,NaN,move_down,-15.460,-15.460,-15.460,0.000,0.000,0.000
1605228760343322112,10.0.1.152,NaN,move_down,-15.480,-15.480,-15.480,0.000,0.000,0.000
1605228760790020864,10.0.1.152,NaN,move_down,-15.500,-15.500,-15.500,0.000,0.000,0.000
1605228761124270848,10.0.1.152,NaN,move_down,-15.520,-15.520,-15.520,0.000,0.000,0.000
1605228761549343232,10.0.1.152,NaN,move_down,-15.540,-15.540,-15.540,0.000,0.000,0.000
1605228761842957056,10.0.1.152,NaN,move_down,-15.560,-15.560,-15.560,0.000,0.000,0.000
1605228762071752960,10.0.1.152,NaN,move_down,-15.580,-15.580,-15.580,0.000,0.000,0.000
1605228762903886080,10.0.1.152,NaN,move_down,-15.600,-15.600,-15.600,0.000,0.000,0.000
1605228763266884096,10.0.1.152,NaN,move_down,-15.620,-15.620,-15.620,0.000,0.000,0.000
1605228763447180032,10.0.1.152,NaN,move_down,-15.640,-15.640,-15.640,0.000,0.000,0.000
1605228763763695872,10.0.1.152,NaN,move_down,-15.660,-15.660,-15.660,0.000,0.000,0.000
1605228763990243840,10.0.1.152,NaN,move_down,-15.680,-15.680,-15.680,0.000,0.000,0.000
1605228764533657088,10.0.1.152,NaN,move_down,-15.700,-15.700,-15.700,0.000,0.000,0.000
1605228765153481984,10.0.1.152,NaN,move_down,-15.720,-15.720,-15.720,0.000,0.000,0.000
1605228765547694080,10.0.1.152,NaN,move_down,-15.740,-15.740,-15.740,0.000,0.000,0.000
1605228765731780096,10.0.1.152,NaN,move_down,-15.760,-15.760,-15.760,0.000,0.000,0.000
1605228766542470912,10.0.1.152,NaN,move_down,-15.780,-15.780,-15.780,0.000,0.000,0.000
1605228768335319040,10.0.1.152,NaN,move_down,-15.800,-15.800,-15.800,0.000,0.000,0.000
1605228768985165056,10.0.1.152,NaN,move_down,-15.820,-15.820,-15.820,0.000,0.000,0.000
1605228769399379968,10.0.1.152,NaN,move_down,-15.840,-15.840,-15.840,0.000,0.000,0.000
1605228769661419008,10.0.1.152,NaN,move_down,-15.860,-15.860,-15.860,0.000,0.000,0.000
1605228770038625024,10.0.1.152,NaN,move_down,-15.880,-15.880,-15.880,0.000,0.000,0.000
1605228770533918976,10.0.1.152,NaN,move_down,-15.900,-15.900,-15.900,0.000,0.000,0.000
1605228770786056960,10.0.1.152,NaN,move_down,-15.920,-15.920,-15.920,0.000,0.000,0.000
1605228770999156992,10.0.1.152,NaN,move_down,-15.940,-15.940,-15.940,0.000,0.000,0.000
1605228771815186944,10.0.1.152,NaN,move_down,-15.960,-15.960,-15.960,0.000,0.000,0.000
1605228772323843840,10.0.1.152,NaN,move_down,-15.980,-15.980,-15.980,0.000,0.000,0.000
1605228773163332864,10.0.1.152,NaN,move_down,-16.000,-16.000,-16.000,0.000,0.000,0.000
1605228773718406912,10.0.1.152,NaN,move_down,-16.020,-16.020,-16.020,0.000,0.000,0.000
1605228773955866112,10.0.1.152,NaN,move_down,-16.040,-16.040,-16.040,0.000,0.000,0.000
1605228774732485120,10.0.1.152,NaN,move_down,-16.060,-16.060,-16.060,0.000,0.000,0.000
1605228775224378112,10.0.1.152,NaN,move_down,-16.080,-16.080,-16.080,0.000,0.000,0.000
1605228775879749120,10.0.1.152,NaN,move_down,-16.100,-16.100,-16.100,0.000,0.000,0.000
1605228776353233152,10.0.1.152,NaN,move_down,-16.120,-16.120,-16.120,0.000,0.000,0.000
1605228776568942080,10.0.1.152,NaN,move_down,-16.140,-16.140,-16.140,0.000,0.000,0.000
1605228776899131136,10.0.1.152,NaN,move_down,-16.160,-16.160,-16.160,0.000,0.000,0.000
1605228777321296896,10.0.1.152,NaN,move_down,-16.180,-16.180,-16.180,0.000,0.000,0.000
1605228778169936896,10.0.1.152,NaN,move_down,-16.200,-16.200,-16.200,0.000,0.000,0.000
1605228778478821888,10.0.1.152,NaN,move_down,-16.220,-16.220,-16.220,0.000,0.000,0.000
1605228778915493120,10.0.1.152,NaN,move_down,-16.240,-16.240,-16.240,0.000,0.000,0.000
1605228779248014848,10.0.1.152,NaN,move_down,-16.260,-16.260,-16.260,0.000,0.000,0.000
1605228779834098176,10.0.1.152,NaN,move_down,-16.280,-16.280,-16.280,0.000,0.000,0.000
1605228780113035008,10.0.1.152,NaN,move_down,-16.300,-16.300,-16.300,0.000,0.000,0.000
1605228780422205952,10.0.1.152,NaN,move_down,-16.320,-16.320,-16.320,0.000,0.000,0.000
1605228780721982976,10.0.1.152,NaN,move_down,-16.340,-16.340,-16.340,0.000,0.000,0.000
1605228781103468032,10.0.1.152,NaN,move_down,-16.360,-16.360,-16.360,0.000,0.000,0.000
1605228781528317952,10.0.1.152,NaN,move_down,-16.380,-16.380,-16.380,0.000,0.000,0.000
1605228781986386176,10.0.1.152,NaN,move_down,-16.400,-16.400,-16.400,0.000,0.000,0.000
1605228782545519104,10.0.1.152,NaN,move_down,-16.420,-16.420,-16.420,0.000,0.000,0.000
1605228783209545984,10.0.1.152,NaN,move_down,-16.440,-16.440,-16.440,0.000,0.000,0.000
1605228783685437952,10.0.1.152,NaN,move_down,-16.460,-16.460,-16.460,0.000,0.000,0.000
1605228784186557952,10.0.1.152,NaN,move_down,-16.480,-16.480,-16.480,0.000,0.000,0.000
1605228784479309056,10.0.1.152,NaN,move_down,-16.500,-16.500,-16.500,0.000,0.000,0.000
1605228784923276032,10.0.1.152,NaN,move_down,-16.520,-16.520,-16.520,0.000,0.000,0.000
1605228785896519936,10.0.1.152,NaN,move_down,-16.540,-16.540,-16.540,0.000,0.000,0.000
1605228786411781120,10.0.1.152,NaN,move_down,-16.560,-16.560,-16.560,0.000,0.000,0.000
1605228786702092800,10.0.1.152,NaN,move_down,-16.580,-16.580,-16.580,0.000,0.000,0.000
1605228786907397120,10.0.1.152,NaN,move_down,-16.600,-16.600,-16.600,0.000,0.000,0.000
1605228787595824896,10.0.1.152,NaN,move_down,-16.620,-16.620,-16.620,0.000,0.000,0.000
1605228788069356800,10.0.1.152,NaN,move_down,-16.640,-16.640,-16.640,0.000,0.000,0.000
1605228788305999872,10.0.1.152,NaN,move_down,-16.660,-16.660,-16.660,0.000,0.000,0.000
1605228789269916928,10.0.1.152,NaN,move_down,-16.680,-16.680,-16.680,0.000,0.000,0.000
1605228789592706048,10.0.1.152,NaN,move_down,-16.700,-16.700,-16.700,0.000,0.000,0.000
1605228790133178880,10.0.1.152,NaN,move_down,-16.720,-16.720,-16.720,0.000,0.000,0.000
1605228790688190976,10.0.1.152,NaN,move_down,-16.740,-16.740,-16.740,0.000,0.000,0.000
1605228791250963968,10.0.1.152,NaN,move_down,-16.760,-16.760,-16.760,0.000,0.000,0.000
1605228791636935936,10.0.1.152,NaN,move_down,-16.780,-16.780,-16.780,0.000,0.000,0.000
1605228792232812032,10.0.1.152,NaN,move_down,-16.800,-16.800,-16.800,0.000,0.000,0.000
1605228792527756032,10.0.1.152,NaN,move_down,-16.820,-16.820,-16.820,0.000,0.000,0.000
1605228794127703040,10.0.1.152,NaN,move_down,-16.840,-16.840,-16.840,0.000,0.000,0.000
1605228794755439872,10.0.1.152,NaN,move_down,-16.860,-16.860,-16.860,0.000,0.000,0.000
1605228794996941056,10.0.1.152,NaN,move_down,-16.880,-16.880,-16.880,0.000,0.000,0.000
1605228795974482944,10.0.1.152,NaN,move_down,-16.900,-16.900,-16.900,0.000,0.000,0.000
1605228796258979072,10.0.1.152,NaN,move_down,-16.920,-16.920,-16.920,0.000,0.000,0.000
1605228796502331904,10.0.1.152,NaN,move_down,-16.940,-16.940,-16.940,0.000,0.000,0.000
1605228796904023040,10.0.1.152,NaN,move_down,-16.960,-16.960,-16.960,0.000,0.000,0.000
1605228797268189952,10.0.1.152,NaN,move_down,-16.980,-16.980,-16.980,0.000,0.000,0.000
1605228797866959104,10.0.1.152,NaN,move_down,-17.000,-17.000,-17.000,0.000,0.000,0.000
1605228798127808000,10.0.1.152,NaN,move_down,-17.020,-17.020,-17.020,0.000,0.000,0.000
1605228798389071104,10.0.1.152,NaN,move_down,-17.040,-17.040,-17.040,0.000,0.000,0.000
1605228798792090880,10.0.1.152,NaN,move_down,-17.060,-17.060,-17.060,0.000,0.000,0.000
1605228798993127168,10.0.1.152,NaN,move_down,-17.080,-17.080,-17.080,0.000,0.000,0.000
1605228799417216000,10.0.1.152,NaN,move_down,-17.100,-17.100,-17.100,0.000,0.000,0.000
1605228800475802880,10.0.1.152,NaN,move_down,-17.120,-17.120,-17.120,0.000,0.000,0.000
1605228800768310016,10.0.1.152,NaN,move_down,-17.140,-17.140,-17.140,0.000,0.000,0.000
1605228801255314176,10.0.1.152,NaN,move_down,-17.160,-17.160,-17.160,0.000,0.000,0.000
1605228801562309120,10.0.1.152,NaN,move_down,-17.180,-17.180,-17.180,0.000,0.000,0.000
1605228801944626944,10.0.1.152,NaN,move_down,-17.200,-17.200,-17.200,0.000,0.000,0.000
1605228802682077952,10.0.1.152,NaN,move_down,-17.220,-17.220,-17.220,0.000,0.000,0.000
1605228803332649984,10.0.1.152,NaN,move_down,-17.240,-17.240,-17.240,0.000,0.000,0.000
1605228803786053888,10.0.1.152,NaN,move_down,-17.260,-17.260,-17.260,0.000,0.000,0.000
1605228804135772928,10.0.1.152,NaN,move_down,-17.280,-17.280,-17.280,0.000,0.000,0.000
1605228804601088000,10.0.1.152,NaN,move_down,-17.300,-17.300,-17.300,0.000,0.000,0.000
1605228805015652864,10.0.1.152,NaN,move_down,-17.320,-17.320,-17.320,0.000,0.000,0.000
1605228805403958016,10.0.1.152,NaN,move_down,-17.340,-17.340,-17.340,0.000,0.000,0.000
1605228805835771136,10.0.1.152,NaN,move_down,-17.360,-17.360,-17.360,0.000,0.000,0.000
1605228806198638848,10.0.1.152,NaN,move_down,-17.380,-17.380,-17.380,0.000,0.000,0.000
1605228806728514048,10.0.1.152,NaN,move_down,-17.400,-17.400,-17.400,0.000,0.000,0.000
1605228806837347072,10.0.1.152,NaN,move_down,-17.420,-17.420,-17.420,0.000,0.000,0.000
1605228807011860992,10.0.1.152,NaN,move_down,-17.440,-17.440,-17.440,0.000,0.000,0.000
1605228807289308928,10.0.1.152,NaN,move_down,-17.460,-17.460,-17.460,0.000,0.000,0.000
1605228807598427904,10.0.1.152,NaN,move_down,-17.480,-17.480,-17.480,0.000,0.000,0.000
1605228808459966976,10.0.1.152,NaN,move_down,-17.500,-17.500,-17.500,0.000,0.000,0.000
1605228809212680960,10.0.1.152,NaN,move_down,-17.520,-17.520,-17.520,0.000,0.000,0.000
1605228809823625984,10.0.1.152,NaN,move_down,-17.540,-17.540,-17.540,0.000,0.000,0.000
1605228810462272000,10.0.1.152,NaN,move_down,-17.560,-17.560,-17.560,0.000,0.000,0.000
1605228811099672064,10.0.1.152,NaN,move_down,-17.580,-17.580,-17.580,0.000,0.000,0.000
1605228811374315008,10.0.1.152,NaN,move_down,-17.600,-17.600,-17.600,0.000,0.000,0.000
1605228811792318208,10.0.1.152,NaN,move_down,-17.620,-17.620,-17.620,0.000,0.000,0.000
1605228812034585856,10.0.1.152,NaN,move_down,-17.640,-17.640,-17.640,0.000,0.000,0.000
1605228812256326912,10.0.1.152,NaN,move_down,-17.660,-17.660,-17.660,0.000,0.000,0.000
1605228812760566016,10.0.1.152,NaN,move_down,-17.680,-17.680,-17.680,0.000,0.000,0.000
1605228813734745088,10.0.1.152,NaN,move_down,-17.700,-17.700,-17.700,0.000,0.000,0.000
1605228814011873024,10.0.1.152,NaN,move_down,-17.720,-17.720,-17.720,0.000,0.000,0.000
1605228814295906048,10.0.1.152,NaN,move_down,-17.740,-17.740,-17.740,0.000,0.000,0.000
1605228814544094976,10.0.1.152,NaN,move_down,-17.760,-17.760,-17.760,0.000,0.000,0.000
1605228815052062976,10.0.1.152,NaN,move_down,-17.780,-17.780,-17.780,0.000,0.000,0.000
1605228815528484096,10.0.1.152,NaN,move_down,-17.800,-17.800,-17.800,0.000,0.000,0.000
1605228815776781056,10.0.1.152,NaN,move_down,-17.820,-17.820,-17.820,0.000,0.000,0.000
1605228816331815936,10.0.1.152,NaN,move_down,-17.840,-17.840,-17.840,0.000,0.000,0.000
1605228816924499968,10.0.1.152,NaN,move_down,-17.860,-17.860,-17.860,0.000,0.000,0.000
1605228817903827968,10.0.1.152,NaN,move_down,-17.880,-17.880,-17.880,0.000,0.000,0.000
1605228818262981888,10.0.1.152,NaN,move_down,-17.900,-17.900,-17.900,0.000,0.000,0.000
1605228818505940992,10.0.1.152,NaN,move_down,-17.920,-17.920,-17.920,0.000,0.000,0.000
1605228818720807936,10.0.1.152,NaN,move_down,-17.940,-17.940,-17.940,0.000,0.000,0.000
1605228818992225792,10.0.1.152,NaN,move_down,-17.960,-17.960,-17.960,0.000,0.000,0.000
1605228819465289216,10.0.1.152,NaN,move_down,-17.980,-17.980,-17.980,0.000,0.000,0.000
1605228820208493824,10.0.1.152,NaN,move_down,-18.000,-18.000,-18.000,0.000,0.000,0.000
1605228821131490048,10.0.1.152,NaN,move_down,-18.020,-18.020,-18.020,0.000,0.000,0.000
1605228821501352192,10.0.1.152,NaN,move_down,-18.040,-18.040,-18.040,0.000,0.000,0.000
1605228822719822848,10.0.1.152,NaN,move_down,-18.060,-18.060,-18.060,0.000,0.000,0.000
1605228823026264064,10.0.1.152,NaN,move_down,-18.080,-18.080,-18.080,0.000,0.000,0.000
1605228823349883136,10.0.1.152,NaN,move_down,-18.100,-18.100,-18.100,0.000,0.000,0.000
1605228823473826048,10.0.1.152,NaN,move_down,-18.120,-18.120,-18.120,0.000,0.000,0.000
1605228823711601920,10.0.1.152,NaN,move_down,-18.140,-18.140,-18.140,0.000,0.000,0.000
1605228824102426112,10.0.1.152,NaN,move_down,-18.160,-18.160,-18.160,0.000,0.000,0.000
1605228824246568960,10.0.1.152,NaN,move_down,-18.180,-18.180,-18.180,0.000,0.000,0.000
1605228824523735040,10.0.1.152,NaN,move_down,-18.200,-18.200,-18.200,0.000,0.000,0.000
1605228824839802112,10.0.1.152,NaN,move_down,-18.220,-18.220,-18.220,0.000,0.000,0.000
1605228825078278144,10.0.1.152,NaN,move_down,-18.240,-18.240,-18.240,0.000,0.000,0.000
1605228825430126848,10.0.1.152,NaN,move_down,-18.260,-18.260,-18.260,0.000,0.000,0.000
1605228825942819072,10.0.1.152,NaN,move_down,-18.280,-18.280,-18.280,0.000,0.000,0.000
1605228826327404032,10.0.1.152,NaN,move_down,-18.300,-18.300,-18.300,0.000,0.000,0.000
1605228826724567808,10.0.1.152,NaN,move_down,-18.320,-18.320,-18.320,0.000,0.000,0.000
1605228827055685888,10.0.1.152,NaN,move_down,-18.340,-18.340,-18.340,0.000,0.000,0.000
1605228827355389952,10.0.1.152,NaN,move_down,-18.360,-18.360,-18.360,0.000,0.000,0.000
1605228827846661120,10.0.1.152,NaN,move_down,-18.380,-18.380,-18.380,0.000,0.000,0.000
1605228828053916928,10.0.1.152,NaN,move_down,-18.400,-18.400,-18.400,0.000,0.000,0.000
1605228828501688832,10.0.1.152,NaN,move_down,-18.420,-18.420,-18.420,0.000,0.000,0.000
1605228828696260096,10.0.1.152,NaN,move_down,-18.440,-18.440,-18.440,0.000,0.000,0.000
1605228829026336000,10.0.1.152,NaN,move_down,-18.460,-18.460,-18.460,0.000,0.000,0.000
1605228829724541952,10.0.1.152,NaN,move_down,-18.480,-18.480,-18.480,0.000,0.000,0.000
1605228830671930112,10.0.1.152,NaN,move_down,-18.500,-18.500,-18.500,0.000,0.000,0.000
1605228830938312960,10.0.1.152,NaN,move_down,-18.520,-18.520,-18.520,0.000,0.000,0.000
1605228831363735040,10.0.1.152,NaN,move_down,-18.540,-18.540,-18.540,0.000,0.000,0.000
1605228831650480896,10.0.1.152,NaN,move_down,-18.560,-18.560,-18.560,0.000,0.000,0.000
1605228831903901184,10.0.1.152,NaN,move_down,-18.580,-18.580,-18.580,0.000,0.000,0.000
1605228831987764992,10.0.1.152,NaN,move_down,-18.600,-18.600,-18.600,0.000,0.000,0.000
1605228832935787008,10.0.1.152,NaN,move_down,-18.620,-18.620,-18.620,0.000,0.000,0.000
1605228833401488896,10.0.1.152,NaN,move_down,-18.640,-18.640,-18.640,0.000,0.000,0.000
1605228833975773184,10.0.1.152,NaN,move_down,-18.660,-18.660,-18.660,0.000,0.000,0.000
1605228834697635840,10.0.1.152,NaN,move_down,-18.680,-18.680,-18.680,0.000,0.000,0.000
1605228834973120000,10.0.1.152,NaN,move_down,-18.700,-18.700,-18.700,0.000,0.000,0.000
1605228835222995968,10.0.1.152,NaN,move_down,-18.720,-18.720,-18.720,0.000,0.000,0.000
1605228835858778112,10.0.1.152,NaN,move_down,-18.740,-18.740,-18.740,0.000,0.000,0.000
1605228836081842944,10.0.1.152,NaN,move_down,-18.760,-18.760,-18.760,0.000,0.000,0.000
1605228836490243072,10.0.1.152,NaN,move_down,-18.780,-18.780,-18.780,0.000,0.000,0.000
1605228836767784960,10.0.1.152,NaN,move_down,-18.800,-18.800,-18.800,0.000,0.000,0.000
1605228837731758080,10.0.1.152,NaN,move_down,-18.820,-18.820,-18.820,0.000,0.000,0.000
1605228838530824960,10.0.1.152,NaN,move_down,-18.840,-18.840,-18.840,0.000,0.000,0.000
1605228838991899136,10.0.1.152,NaN,move_down,-18.860,-18.860,-18.860,0.000,0.000,0.000
1605228839321374976,10.0.1.152,NaN,move_down,-18.880,-18.880,-18.880,0.000,0.000,0.000
1605228839964598016,10.0.1.152,NaN,move_down,-18.900,-18.900,-18.900,0.000,0.000,0.000
1605228840504724992,10.0.1.152,NaN,move_down,-18.920,-18.920,-18.920,0.000,0.000,0.000
1605228841112926976,10.0.1.152,NaN,move_down,-18.940,-18.940,-18.940,0.000,0.000,0.000
1605228841717107968,10.0.1.152,NaN,move_down,-18.960,-18.960,-18.960,0.000,0.000,0.000
1605228842572199936,10.0.1.152,NaN,move_down,-18.980,-18.980,-18.980,0.000,0.000,0.000
1605228843492813056,10.0.1.152,NaN,move_down,-19.000,-19.000,-19.000,0.000,0.000,0.000
1605228844547652096,10.0.1.152,NaN,move_down,-19.020,-19.020,-19.020,0.000,0.000,0.000
1605228844866176000,10.0.1.152,NaN,move_down,-19.040,-19.040,-19.040,0.000,0.000,0.000
1605228845486469888,10.0.1.152,NaN,move_down,-19.060,-19.060,-19.060,0.000,0.000,0.000
1605228846019037952,10.0.1.152,NaN,move_down,-19.080,-19.080,-19.080,0.000,0.000,0.000
1605228846483258112,10.0.1.152,NaN,move_down,-19.100,-19.100,-19.100,0.000,0.000,0.000
1605228846981657088,10.0.1.152,NaN,move_down,-19.120,-19.120,-19.120,0.000,0.000,0.000
1605228847568834048,10.0.1.152,NaN,move_down,-19.140,-19.140,-19.140,0.000,0.000,0.000
1605228848030966016,10.0.1.152,NaN,move_down,-19.160,-19.160,-19.160,0.000,0.000,0.000
1605228848279876864,10.0.1.152,NaN,move_down,-19.180,-19.180,-19.180,0.000,0.000,0.000
1605228848441703936,10.0.1.152,NaN,move_down,-19.200,-19.200,-19.200,0.000,0.000,0.000
1605228848970819840,10.0.1.152,NaN,move_down,-19.220,-19.220,-19.220,0.000,0.000,0.000
1605228849406560000,10.0.1.152,NaN,move_down,-19.240,-19.240,-19.240,0.000,0.000,0.000
1605228849651860992,10.0.1.152,NaN,move_down,-19.260,-19.260,-19.260,0.000,0.000,0.000
1605228850228847104,10.0.1.152,NaN,move_down,-19.280,-19.280,-19.280,0.000,0.000,0.000
1605228850385585152,10.0.1.152,NaN,move_down,-19.300,-19.300,-19.300,0.000,0.000,0.000
1605228850864195072,10.0.1.152,NaN,move_down,-19.320,-19.320,-19.320,0.000,0.000,0.000
1605228851186182912,10.0.1.152,NaN,move_down,-19.340,-19.340,-19.340,0.000,0.000,0.000
1605228851603784960,10.0.1.152,NaN,move_down,-19.360,-19.360,-19.360,0.000,0.000,0.000
1605228852430610944,10.0.1.152,NaN,move_down,-19.380,-19.380,-19.380,0.000,0.000,0.000
1605228852871630080,10.0.1.152,NaN,move_down,-19.400,-19.400,-19.400,0.000,0.000,0.000
1605228853324520960,10.0.1.152,NaN,move_down,-19.420,-19.420,-19.420,0.000,0.000,0.000
1605228853586368000,10.0.1.152,NaN,move_down,-19.440,-19.440,-19.440,0.000,0.000,0.000
1605228853912905984,10.0.1.152,NaN,move_down,-19.460,-19.460,-19.460,0.000,0.000,0.000
1605228854319974912,10.0.1.152,NaN,move_down,-19.480,-19.480,-19.480,0.000,0.000,0.000
1605228854664707072,10.0.1.152,NaN,move_down,-19.500,-19.500,-19.500,0.000,0.000,0.000
1605228855686918144,10.0.1.152,NaN,move_down,-19.520,-19.520,-19.520,0.000,0.000,0.000
1605228856200540928,10.0.1.152,NaN,move_down,-19.540,-19.540,-19.540,0.000,0.000,0.000
1605228857056265984,10.0.1.152,NaN,move_down,-19.560,-19.560,-19.560,0.000,0.000,0.000
1605228857928316160,10.0.1.152,NaN,move_down,-19.580,-19.580,-19.580,0.000,0.000,0.000
1605228858873660928,10.0.1.152,NaN,move_down,-19.600,-19.600,-19.600,0.000,0.000,0.000
1605228859454310912,10.0.1.152,NaN,move_down,-19.620,-19.620,-19.620,0.000,0.000,0.000
1605228859767604224,10.0.1.152,NaN,move_down,-19.640,-19.640,-19.640,0.000,0.000,0.000
1605228860357510144,10.0.1.152,NaN,move_down,-19.660,-19.660,-19.660,0.000,0.000,0.000
1605228860717971968,10.0.1.152,NaN,move_down,-19.680,-19.680,-19.680,0.000,0.000,0.000
1605228860968194048,10.0.1.152,NaN,move_down,-19.700,-19.700,-19.700,0.000,0.000,0.000
1605228861636513024,10.0.1.152,NaN,move_down,-19.720,-19.720,-19.720,0.000,0.000,0.000
1605228862902287104,10.0.1.152,NaN,move_down,-19.740,-19.740,-19.740,0.000,0.000,0.000
1605228863699736064,10.0.1.152,NaN,move_down,-19.760,-19.760,-19.760,0.000,0.000,0.000
1605228864121593856,10.0.1.152,NaN,move_down,-19.780,-19.780,-19.780,0.000,0.000,0.000
1605228864559346944,10.0.1.152,NaN,move_down,-19.800,-19.800,-19.800,0.000,0.000,0.000
1605228865028193024,10.0.1.152,NaN,move_down,-19.820,-19.820,-19.820,0.000,0.000,0.000
1605228865873544960,10.0.1.152,NaN,move_down,-19.840,-19.840,-19.840,0.000,0.000,0.000
1605228866335728896,10.0.1.152,NaN,move_down,-19.860,-19.860,-19.860,0.000,0.000,0.000
1605228867261296128,10.0.1.152,NaN,move_down,-19.880,-19.880,-19.880,0.000,0.000,0.000
1605228867837286912,10.0.1.152,NaN,move_down,-19.900,-19.900,-19.900,0.000,0.000,0.000
1605228868287548928,10.0.1.152,NaN,move_down,-19.920,-19.920,-19.920,0.000,0.000,0.000
1605228869194865920,10.0.1.152,NaN,move_down,-19.940,-19.940,-19.940,0.000,0.000,0.000
1605228869560393984,10.0.1.152,NaN,move_down,-19.960,-19.960,-19.960,0.000,0.000,0.000
1605228869833276928,10.0.1.152,NaN,move_down,-19.980,-19.980,-19.980,0.000,0.000,0.000
1605228870081694976,10.0.1.152,NaN,move_down,-20.000,-20.000,-20.000,0.000,0.000,0.000
1605228870566365952,10.0.1.152,NaN,move_down,-20.020,-20.020,-20.020,0.000,0.000,0.000
1605228871159068160,10.0.1.152,NaN,move_down,-20.040,-20.040,-20.040,0.000,0.000,0.000
1605228872351746048,10.0.1.152,NaN,move_down,-20.060,-20.060,-20.060,0.000,0.000,0.000
1605228872604657920,10.0.1.152,NaN,move_down,-20.080,-20.080,-20.080,0.000,0.000,0.000
1605228873229809920,10.0.1.152,NaN,move_down,-20.100,-20.100,-20.100,0.000,0.000,0.000
1605228873728678912,10.0.1.152,NaN,move_down,-20.120,-20.120,-20.120,0.000,0.000,0.000
1605228873917124864,10.0.1.152,NaN,move_down,-20.140,-20.140,-20.140,0.000,0.000,0.000
1605228874442202112,10.0.1.152,NaN,move_down,-20.160,-20.160,-20.160,0.000,0.000,0.000
1605228874927762944,10.0.1.152,NaN,move_down,-20.180,-20.180,-20.180,0.000,0.000,0.000
1605228875365854976,10.0.1.152,NaN,move_down,-20.200,-20.200,-20.200,0.000,0.000,0.000
1605228876590348032,10.0.1.152,NaN,move_down,-20.220,-20.220,-20.220,0.000,0.000,0.000
1605228877148314880,10.0.1.152,NaN,move_down,-20.240,-20.240,-20.240,0.000,0.000,0.000
1605228878517378048,10.0.1.152,NaN,move_down,-20.260,-20.260,-20.260,0.000,0.000,0.000
1605228878995728896,10.0.1.152,NaN,move_down,-20.280,-20.280,-20.280,0.000,0.000,0.000
1605228879239108096,10.0.1.152,NaN,move_down,-20.300,-20.300,-20.300,0.000,0.000,0.000
1605228879554406912,10.0.1.152,NaN,move_down,-20.320,-20.320,-20.320,0.000,0.000,0.000
1605228880210379008,10.0.1.152,NaN,move_down,-20.340,-20.340,-20.340,0.000,0.000,0.000
1605228880741190912,10.0.1.152,NaN,move_down,-20.360,-20.360,-20.360,0.000,0.000,0.000
1605228881263667968,10.0.1.152,NaN,move_down,-20.380,-20.380,-20.380,0.000,0.000,0.000
1605228881849157120,10.0.1.152,NaN,move_down,-20.400,-20.400,-20.400,0.000,0.000,0.000
1605228882342177024,10.0.1.152,NaN,move_down,-20.420,-20.420,-20.420,0.000,0.000,0.000
1605228883001629952,10.0.1.152,NaN,move_down,-20.440,-20.440,-20.440,0.000,0.000,0.000
1605228883419169024,10.0.1.152,NaN,move_down,-20.460,-20.460,-20.460,0.000,0.000,0.000
1605228884253051136,10.0.1.152,NaN,move_down,-20.480,-20.480,-20.480,0.000,0.000,0.000
1605228884595983104,10.0.1.152,NaN,move_down,-20.500,-20.500,-20.500,0.000,0.000,0.000
1605228885039809024,10.0.1.152,NaN,move_down,-20.520,-20.520,-20.520,0.000,0.000,0.000
1605228885278388992,10.0.1.152,NaN,move_down,-20.540,-20.540,-20.540,0.000,0.000,0.000
1605228886069502976,10.0.1.152,NaN,move_down,-20.560,-20.560,-20.560,0.000,0.000,0.000
1605228887098993920,10.0.1.152,NaN,move_down,-20.580,-20.580,-20.580,0.000,0.000,0.000
1605228887627880192,10.0.1.152,NaN,move_down,-20.600,-20.600,-20.600,0.000,0.000,0.000
1605228887911425024,10.0.1.152,NaN,move_down,-20.620,-20.620,-20.620,0.000,0.000,0.000
1605228888396198144,10.0.1.152,NaN,move_down,-20.640,-20.640,-20.640,0.000,0.000,0.000
1605228888830092800,10.0.1.152,NaN,move_down,-20.660,-20.660,-20.660,0.000,0.000,0.000
1605228889324390912,10.0.1.152,NaN,move_down,-20.680,-20.680,-20.680,0.000,0.000,0.000
1605228890508059904,10.0.1.152,NaN,move_down,-20.700,-20.700,-20.700,0.000,0.000,0.000
1605228891478497024,10.0.1.152,NaN,move_down,-20.720,-20.720,-20.720,0.000,0.000,0.000
1605228892123473920,10.0.1.152,NaN,move_down,-20.740,-20.740,-20.740,0.000,0.000,0.000
1605228892502326016,10.0.1.152,NaN,move_down,-20.760,-20.760,-20.760,0.000,0.000,0.000
1605228892790961152,10.0.1.152,NaN,move_down,-20.780,-20.780,-20.780,0.000,0.000,0.000
1605228892970198016,10.0.1.152,NaN,move_down,-20.800,-20.800,-20.800,0.000,0.000,0.000
1605228893359564032,10.0.1.152,NaN,move_down,-20.820,-20.820,-20.820,0.000,0.000,0.000
1605228894095570944,10.0.1.152,NaN,move_down,-20.840,-20.840,-20.840,0.000,0.000,0.000
1605228894718259200,10.0.1.152,NaN,move_down,-20.860,-20.860,-20.860,0.000,0.000,0.000
1605228894919383040,10.0.1.152,NaN,move_down,-20.880,-20.880,-20.880,0.000,0.000,0.000
1605228895250072064,10.0.1.152,NaN,move_down,-20.900,-20.900,-20.900,0.000,0.000,0.000
1605228895629647872,10.0.1.152,NaN,move_down,-20.920,-20.920,-20.920,0.000,0.000,0.000
1605228896239165952,10.0.1.152,NaN,move_down,-20.940,-20.940,-20.940,0.000,0.000,0.000
1605228896791277056,10.0.1.152,NaN,move_down,-20.960,-20.960,-20.960,0.000,0.000,0.000
1605228897085666816,10.0.1.152,NaN,move_down,-20.980,-20.980,-20.980,0.000,0.000,0.000
1605228897371536128,10.0.1.152,NaN,move_down,-21.000,-21.000,-21.000,0.000,0.000,0.000
1605228897537707008,10.0.1.152,NaN,move_down,-21.020,-21.020,-21.020,0.000,0.000,0.000
1605228897766266112,10.0.1.152,NaN,move_down,-21.040,-21.040,-21.040,0.000,0.000,0.000
1605228898795003904,10.0.1.152,NaN,move_down,-21.060,-21.060,-21.060,0.000,0.000,0.000
1605228899651921920,10.0.1.152,NaN,move_down,-21.080,-21.080,-21.080,0.000,0.000,0.000
1605228900558209024,10.0.1.152,NaN,move_down,-21.100,-21.100,-21.100,0.000,0.000,0.000
1605228901225327872,10.0.1.152,NaN,move_down,-21.120,-21.120,-21.120,0.000,0.000,0.000
1605228901959297792,10.0.1.152,NaN,move_down,-21.140,-21.140,-21.140,0.000,0.000,0.000
1605228903364387072,10.0.1.152,NaN,move_down,-21.160,-21.160,-21.160,0.000,0.000,0.000
1605228903764774144,10.0.1.152,NaN,move_down,-21.180,-21.180,-21.180,0.000,0.000,0.000
1605228904149337088,10.0.1.152,NaN,move_down,-21.200,-21.200,-21.200,0.000,0.000,0.000
1605228904433399040,10.0.1.152,NaN,move_down,-21.220,-21.220,-21.220,0.000,0.000,0.000
1605228906066497024,10.0.1.152,NaN,move_down,-21.240,-21.240,-21.240,0.000,0.000,0.000
1605228906759001088,10.0.1.152,NaN,move_down,-21.260,-21.260,-21.260,0.000,0.000,0.000
1605228907287051008,10.0.1.152,NaN,move_down,-21.280,-21.280,-21.280,0.000,0.000,0.000
1605228907748548096,10.0.1.152,NaN,move_down,-21.300,-21.300,-21.300,0.000,0.000,0.000
1605228908656013056,10.0.1.152,NaN,move_down,-21.320,-21.320,-21.320,0.000,0.000,0.000
1605228909523969792,10.0.1.152,NaN,move_down,-21.340,-21.340,-21.340,0.000,0.000,0.000
1605228909975260928,10.0.1.152,NaN,move_down,-21.360,-21.360,-21.360,0.000,0.000,0.000
1605228910175339008,10.0.1.152,NaN,move_down,-21.380,-21.380,-21.380,0.000,0.000,0.000
1605228910544101120,10.0.1.152,NaN,move_down,-21.400,-21.400,-21.400,0.000,0.000,0.000
1605228911713763072,10.0.1.152,NaN,move_down,-21.420,-21.420,-21.420,0.000,0.000,0.000
1605228912198062848,10.0.1.152,NaN,move_down,-21.440,-21.440,-21.440,0.000,0.000,0.000
1605228912515952128,10.0.1.152,NaN,move_down,-21.460,-21.460,-21.460,0.000,0.000,0.000
1605228912879153920,10.0.1.152,NaN,move_down,-21.480,-21.480,-21.480,0.000,0.000,0.000
1605228913144553984,10.0.1.152,NaN,move_down,-21.500,-21.500,-21.500,0.000,0.000,0.000
1605228913872665856,10.0.1.152,NaN,move_down,-21.520,-21.520,-21.520,0.000,0.000,0.000
1605228914182221056,10.0.1.152,NaN,move_down,-21.540,-21.540,-21.540,0.000,0.000,0.000
1605228914879929088,10.0.1.152,NaN,move_down,-21.560,-21.560,-21.560,0.000,0.000,0.000
1605228915407942912,10.0.1.152,NaN,move_down,-21.580,-21.580,-21.580,0.000,0.000,0.000
1605228915861027840,10.0.1.152,NaN,move_down,-21.600,-21.600,-21.600,0.000,0.000,0.000
1605228916007884032,10.0.1.152,NaN,move_down,-21.620,-21.620,-21.620,0.000,0.000,0.000
1605228916256304128,10.0.1.152,NaN,move_down,-21.640,-21.640,-21.640,0.000,0.000,0.000
1605228916747762944,10.0.1.152,NaN,move_down,-21.660,-21.660,-21.660,0.000,0.000,0.000
1605228917769504000,10.0.1.152,NaN,move_down,-21.680,-21.680,-21.680,0.000,0.000,0.000
1605228918176996864,10.0.1.152,NaN,move_down,-21.700,-21.700,-21.700,0.000,0.000,0.000
1605228918473881088,10.0.1.152,NaN,move_down,-21.720,-21.720,-21.720,0.000,0.000,0.000
1605228918648082944,10.0.1.152,NaN,move_down,-21.740,-21.740,-21.740,0.000,0.000,0.000
1605228920084029952,10.0.1.152,NaN,move_down,-21.760,-21.760,-21.760,0.000,0.000,0.000
1605228920647980032,10.0.1.152,NaN,move_down,-21.780,-21.780,-21.780,0.000,0.000,0.000
1605228921192353024,10.0.1.152,NaN,move_down,-21.800,-21.800,-21.800,0.000,0.000,0.000
1605228921872711936,10.0.1.152,NaN,move_down,-21.820,-21.820,-21.820,0.000,0.000,0.000
1605228922261780992,10.0.1.152,NaN,move_down,-21.840,-21.840,-21.840,0.000,0.000,0.000
1605228923002332928,10.0.1.152,NaN,move_down,-21.860,-21.860,-21.860,0.000,0.000,0.000
1605228923831734784,10.0.1.152,NaN,move_down,-21.880,-21.880,-21.880,0.000,0.000,0.000
1605228924732100864,10.0.1.152,NaN,move_down,-21.900,-21.900,-21.900,0.000,0.000,0.000
1605228925120166144,10.0.1.152,NaN,move_down,-21.920,-21.920,-21.920,0.000,0.000,0.000
1605228925768978176,10.0.1.152,NaN,move_down,-21.940,-21.940,-21.940,0.000,0.000,0.000
1605228926032263168,10.0.1.152,NaN,move_down,-21.960,-21.960,-21.960,0.000,0.000,0.000
1605228926596791040,10.0.1.152,NaN,move_down,-21.980,-21.980,-21.980,0.000,0.000,0.000
1605228927095715072,10.0.1.152,NaN,move_down,-22.000,-22.000,-22.000,0.000,0.000,0.000
1605228928038733056,10.0.1.152,NaN,move_down,-22.020,-22.020,-22.020,0.000,0.000,0.000
1605228928356518912,10.0.1.152,NaN,move_down,-22.040,-22.040,-22.040,0.000,0.000,0.000
1605228929580297984,10.0.1.152,NaN,move_down,-22.060,-22.060,-22.060,0.000,0.000,0.000
1605228929988052992,10.0.1.152,NaN,move_down,-22.080,-22.080,-22.080,0.000,0.000,0.000
1605228930481617920,10.0.1.152,NaN,move_down,-22.100,-22.100,-22.100,0.000,0.000,0.000
1605228931682779904,10.0.1.152,NaN,move_down,-22.120,-22.120,-22.120,0.000,0.000,0.000
1605228932215881984,10.0.1.152,NaN,move_down,-22.140,-22.140,-22.140,0.000,0.000,0.000
1605228932767260928,10.0.1.152,NaN,move_down,-22.160,-22.160,-22.160,0.000,0.000,0.000
1605228933507750912,10.0.1.152,NaN,move_down,-22.180,-22.180,-22.180,0.000,0.000,0.000
1605228934246521088,10.0.1.152,NaN,move_down,-22.200,-22.200,-22.200,0.000,0.000,0.000
1605228934773004032,10.0.1.152,NaN,move_down,-22.220,-22.220,-22.220,0.000,0.000,0.000
1605228936190570240,10.0.1.152,NaN,move_down,-22.240,-22.240,-22.240,0.000,0.000,0.000
1605228936861895936,10.0.1.152,NaN,move_down,-22.260,-22.260,-22.260,0.000,0.000,0.000
1605228937647012096,10.0.1.152,NaN,move_down,-22.280,-22.280,-22.280,0.000,0.000,0.000
1605228938502001920,10.0.1.152,NaN,move_down,-22.300,-22.300,-22.300,0.000,0.000,0.000
1605228938885822976,10.0.1.152,NaN,move_down,-22.320,-22.320,-22.320,0.000,0.000,0.000
1605228939244975104,10.0.1.152,NaN,move_down,-22.340,-22.340,-22.340,0.000,0.000,0.000
1605228939884008960,10.0.1.152,NaN,move_down,-22.360,-22.360,-22.360,0.000,0.000,0.000
1605228940314961920,10.0.1.152,NaN,move_down,-22.380,-22.380,-22.380,0.000,0.000,0.000
1605228940641625856,10.0.1.152,NaN,move_down,-22.400,-22.400,-22.400,0.000,0.000,0.000
1605228941010080000,10.0.1.152,NaN,move_down,-22.420,-22.420,-22.420,0.000,0.000,0.000
1605228942204684032,10.0.1.152,NaN,move_down,-22.440,-22.440,-22.440,0.000,0.000,0.000
1605228942840073984,10.0.1.152,NaN,move_down,-22.460,-22.460,-22.460,0.000,0.000,0.000
1605228943552139008,10.0.1.152,NaN,move_down,-22.480,-22.480,-22.480,0.000,0.000,0.000
1605228944545687040,10.0.1.152,NaN,move_down,-22.500,-22.500,-22.500,0.000,0.000,0.000
1605228945002792960,10.0.1.152,NaN,move_down,-22.520,-22.520,-22.520,0.000,0.000,0.000
1605228945912195072,10.0.1.152,NaN,move_down,-22.540,-22.540,-22.540,0.000,0.000,0.000
1605228946047826176,10.0.1.152,NaN,move_down,-22.560,-22.560,-22.560,0.000,0.000,0.000
1605228946695159808,10.0.1.152,NaN,move_down,-22.580,-22.580,-22.580,0.000,0.000,0.000
1605228947196625920,10.0.1.152,NaN,move_down,-22.600,-22.600,-22.600,0.000,0.000,0.000
1605228947458275072,10.0.1.152,NaN,move_down,-22.620,-22.620,-22.620,0.000,0.000,0.000
1605228948098885120,10.0.1.152,NaN,move_down,-22.640,-22.640,-22.640,0.000,0.000,0.000
1605228948608613888,10.0.1.152,NaN,move_down,-22.660,-22.660,-22.660,0.000,0.000,0.000
1605228949267330816,10.0.1.152,NaN,move_down,-22.680,-22.680,-22.680,0.000,0.000,0.000
1605228949869860864,10.0.1.152,NaN,move_down,-22.700,-22.700,-22.700,0.000,0.000,0.000
1605228950807853824,10.0.1.152,NaN,move_down,-22.720,-22.720,-22.720,0.000,0.000,0.000
1605228951223625984,10.0.1.152,NaN,move_down,-22.740,-22.740,-22.740,0.000,0.000,0.000
1605228951523009024,10.0.1.152,NaN,move_down,-22.760,-22.760,-22.760,0.000,0.000,0.000
1605228952488420096,10.0.1.152,NaN,move_down,-22.780,-22.780,-22.780,0.000,0.000,0.000
1605228953139732992,10.0.1.152,NaN,move_down,-22.800,-22.800,-22.800,0.000,0.000,0.000
1605228953624350976,10.0.1.152,NaN,move_down,-22.820,-22.820,-22.820,0.000,0.000,0.000
1605228953875761152,10.0.1.152,NaN,move_down,-22.840,-22.840,-22.840,0.000,0.000,0.000
1605228954357495040,10.0.1.152,NaN,move_down,-22.860,-22.860,-22.860,0.000,0.000,0.000
1605228955044552960,10.0.1.152,NaN,move_down,-22.880,-22.880,-22.880,0.000,0.000,0.000
1605228956064070912,10.0.1.152,NaN,move_down,-22.900,-22.900,-22.900,0.000,0.000,0.000
1605228956395851008,10.0.1.152,NaN,move_down,-22.920,-22.920,-22.920,0.000,0.000,0.000
1605228956759217920,10.0.1.152,NaN,move_down,-22.940,-22.940,-22.940,0.000,0.000,0.000
1605228957384957184,10.0.1.152,NaN,move_down,-22.960,-22.960,-22.960,0.000,0.000,0.000
1605228958206295040,10.0.1.152,NaN,move_down,-22.980,-22.980,-22.980,0.000,0.000,0.000
1605228958508827904,10.0.1.152,NaN,move_down,-23.000,-23.000,-23.000,0.000,0.000,0.000
1605228959007766016,10.0.1.152,NaN,move_down,-23.020,-23.020,-23.020,0.000,0.000,0.000
