milangroshev/digital-twin-scalability/logs/run5-3600s-nan/10.0.1.125.csv
timestamp,node,latency,action,joint_1,joint_2,joint_3,joint_4,joint_5,joint_6
1605195186494151168,10.0.1.125,NaN,,0.000,0.000,0.000,0.000,0.000,0.000
1605195188513253888,10.0.1.125,2019,,0.000,0.000,0.000,0.000,0.000,0.000
1605195191090342144,10.0.1.125,591,move_down,-0.020,-0.020,-0.020,0.000,0.000,0.000
1605195192551755008,10.0.1.125,388,move_down,-0.040,-0.040,-0.040,0.000,0.000,0.000
1605195193981039104,10.0.1.125,374,move_down,-0.060,-0.060,-0.060,0.000,0.000,0.000
1605195195431883008,10.0.1.125,391,move_down,-0.080,-0.080,-0.080,0.000,0.000,0.000
1605195196910580992,10.0.1.125,393,move_down,-0.100,-0.100,-0.100,0.000,0.000,0.000
1605195198350307072,10.0.1.125,389,move_down,-0.120,-0.120,-0.120,0.000,0.000,0.000
1605195199761383936,10.0.1.125,375,move_down,-0.140,-0.140,-0.140,0.000,0.000,0.000
1605195201210350080,10.0.1.125,367,move_down,-0.160,-0.160,-0.160,0.000,0.000,0.000
1605195202649772800,10.0.1.125,384,move_down,-0.180,-0.180,-0.180,0.000,0.000,0.000
1605195204060587776,10.0.1.125,350,move_down,-0.200,-0.200,-0.200,0.000,0.000,0.000
1605195205510227968,10.0.1.125,382,move_down,-0.220,-0.220,-0.220,0.000,0.000,0.000
1605195206920016128,10.0.1.125,367,move_down,-0.240,-0.240,-0.240,0.000,0.000,0.000
1605195208370237184,10.0.1.125,401,move_down,-0.260,-0.260,-0.260,0.000,0.000,0.000
1605195209839443968,10.0.1.125,395,move_down,-0.280,-0.280,-0.280,0.000,0.000,0.000
1605195211251458816,10.0.1.125,382,move_down,-0.300,-0.300,-0.300,0.000,0.000,0.000
1605195212659145216,10.0.1.125,363,move_down,-0.320,-0.320,-0.320,0.000,0.000,0.000
1605195214110105088,10.0.1.125,397,move_down,-0.340,-0.340,-0.340,0.000,0.000,0.000
1605195215520562944,10.0.1.125,380,move_down,-0.360,-0.360,-0.360,0.000,0.000,0.000
1605195216962913024,10.0.1.125,388,move_down,-0.380,-0.380,-0.380,0.000,0.000,0.000
1605195218389731840,10.0.1.125,372,move_down,-0.400,-0.400,-0.400,0.000,0.000,0.000
1605195219805677824,10.0.1.125,362,move_down,-0.420,-0.420,-0.420,0.000,0.000,0.000
1605195221249680128,10.0.1.125,398,move_down,-0.440,-0.440,-0.440,0.000,0.000,0.000
1605195222679700992,10.0.1.125,403,move_down,-0.460,-0.460,-0.460,0.000,0.000,0.000
1605195224102936064,10.0.1.125,378,move_down,-0.480,-0.480,-0.480,0.000,0.000,0.000
1605195225550257920,10.0.1.125,398,move_down,-0.500,-0.500,-0.500,0.000,0.000,0.000
1605195226993786112,10.0.1.125,400,move_down,-0.520,-0.520,-0.520,0.000,0.000,0.000
1605195228510252032,10.0.1.125,426,move_down,-0.540,-0.540,-0.540,0.000,0.000,0.000
1605195229932446976,10.0.1.125,371,move_down,-0.560,-0.560,-0.560,0.000,0.000,0.000
1605195231400953088,10.0.1.125,393,move_down,-0.580,-0.580,-0.580,0.000,0.000,0.000
1605195232501072896,10.0.1.125,44,pick,-0.590,-0.590,-0.590,0.000,0.000,0.000
1605195233503678976,10.0.1.125,46,pick,-0.600,-0.600,-0.600,0.000,0.000,0.000
1605195234501651968,10.0.1.125,42,pick,-0.610,-0.610,-0.610,0.000,0.000,0.000
1605195235500637952,10.0.1.125,39,pick,-0.620,-0.620,-0.620,0.000,0.000,0.000
1605195236500993024,10.0.1.125,38,pick,-0.630,-0.630,-0.630,0.000,0.000,0.000
1605195237500613888,10.0.1.125,36,pick,-0.640,-0.640,-0.640,0.000,0.000,0.000
1605195238502489088,10.0.1.125,37,pick,-0.650,-0.650,-0.650,0.000,0.000,0.000
1605195239500201984,10.0.1.125,33,pick,-0.660,-0.660,-0.660,0.000,0.000,0.000
1605195240503462912,10.0.1.125,35,pick,-0.670,-0.670,-0.670,0.000,0.000,0.000
1605195241503431936,10.0.1.125,34,pick,-0.680,-0.680,-0.680,0.000,0.000,0.000
1605195242522278144,10.0.1.125,51,pick,-0.690,-0.690,-0.690,0.000,0.000,0.000
1605195243520699136,10.0.1.125,49,pick,-0.700,-0.700,-0.700,0.000,0.000,0.000
1605195244520772096,10.0.1.125,47,pick,-0.710,-0.710,-0.710,0.000,0.000,0.000
1605195245520765184,10.0.1.125,46,pick,-0.720,-0.720,-0.720,0.000,0.000,0.000
1605195246520729088,10.0.1.125,45,pick,-0.730,-0.730,-0.730,0.000,0.000,0.000
1605195247520090112,10.0.1.125,43,pick,-0.740,-0.740,-0.740,0.000,0.000,0.000
1605195248520737792,10.0.1.125,42,pick,-0.750,-0.750,-0.750,0.000,0.000,0.000
1605195249521719040,10.0.1.125,42,pick,-0.760,-0.760,-0.760,0.000,0.000,0.000
1605195250521795072,10.0.1.125,40,pick,-0.770,-0.770,-0.770,0.000,0.000,0.000
1605195251873565952,10.0.1.125,391,move_up,-0.750,-0.750,-0.750,0.000,0.000,0.000
1605195253280517120,10.0.1.125,379,move_up,-0.730,-0.730,-0.730,0.000,0.000,0.000
1605195254741221888,10.0.1.125,395,move_up,-0.710,-0.710,-0.710,0.000,0.000,0.000
1605195256160216064,10.0.1.125,371,move_up,-0.690,-0.690,-0.690,0.000,0.000,0.000
1605195257602705920,10.0.1.125,389,move_up,-0.670,-0.670,-0.670,0.000,0.000,0.000
1605195259051536128,10.0.1.125,390,move_up,-0.650,-0.650,-0.650,0.000,0.000,0.000
1605195260456968960,10.0.1.125,384,move_up,-0.630,-0.630,-0.630,0.000,0.000,0.000
1605195261900732928,10.0.1.125,401,move_up,-0.610,-0.610,-0.610,0.000,0.000,0.000
1605195263351685120,10.0.1.125,378,move_up,-0.590,-0.590,-0.590,0.000,0.000,0.000
1605195264801761024,10.0.1.125,404,move_up,-0.570,-0.570,-0.570,0.000,0.000,0.000
1605195266190607104,10.0.1.125,358,move_up,-0.550,-0.550,-0.550,0.000,0.000,0.000
1605195267642822912,10.0.1.125,384,move_up,-0.530,-0.530,-0.530,0.000,0.000,0.000
1605195269070959104,10.0.1.125,379,move_up,-0.510,-0.510,-0.510,0.000,0.000,0.000
1605195270502990848,10.0.1.125,390,move_up,-0.490,-0.490,-0.490,0.000,0.000,0.000
1605195271910430976,10.0.1.125,353,move_up,-0.470,-0.470,-0.470,0.000,0.000,0.000
1605195273305494016,10.0.1.125,373,move_up,-0.450,-0.450,-0.450,0.000,0.000,0.000
1605195274693271040,10.0.1.125,383,move_up,-0.430,-0.430,-0.430,0.000,0.000,0.000
1605195276120284160,10.0.1.125,369,move_up,-0.410,-0.410,-0.410,0.000,0.000,0.000
1605195277532422912,10.0.1.125,366,move_up,-0.390,-0.390,-0.390,0.000,0.000,0.000
1605195278950215168,10.0.1.125,375,move_up,-0.370,-0.370,-0.370,0.000,0.000,0.000
1605195280359972864,10.0.1.125,375,move_up,-0.350,-0.350,-0.350,0.000,0.000,0.000
1605195281829931008,10.0.1.125,410,move_up,-0.330,-0.330,-0.330,0.000,0.000,0.000
1605195283241111040,10.0.1.125,368,move_up,-0.310,-0.310,-0.310,0.000,0.000,0.000
1605195284680073984,10.0.1.125,381,move_up,-0.290,-0.290,-0.290,0.000,0.000,0.000
1605195286160481024,10.0.1.125,417,move_up,-0.270,-0.270,-0.270,0.000,0.000,0.000
1605195287620584960,10.0.1.125,404,move_up,-0.250,-0.250,-0.250,0.000,0.000,0.000
1605195289060246016,10.0.1.125,393,move_up,-0.230,-0.230,-0.230,0.000,0.000,0.000
1605195290490447104,10.0.1.125,383,move_up,-0.210,-0.210,-0.210,0.000,0.000,0.000
1605195291903849984,10.0.1.125,385,move_up,-0.190,-0.190,-0.190,0.000,0.000,0.000
1605195292982279936,10.0.1.125,38,place,-0.180,-0.180,-0.180,0.000,0.000,0.000
1605195293984386816,10.0.1.125,38,place,-0.170,-0.170,-0.170,0.000,0.000,0.000
1605195294982588928,10.0.1.125,35,place,-0.160,-0.160,-0.160,0.000,0.000,0.000
1605195295980614912,10.0.1.125,32,place,-0.150,-0.150,-0.150,0.000,0.000,0.000
1605195297000844032,10.0.1.125,50,place,-0.140,-0.140,-0.140,0.000,0.000,0.000
1605195298001751808,10.0.1.125,50,place,-0.130,-0.130,-0.130,0.000,0.000,0.000
1605195299002855936,10.0.1.125,49,place,-0.120,-0.120,-0.120,0.000,0.000,0.000
1605195300000508928,10.0.1.125,45,place,-0.110,-0.110,-0.110,0.000,0.000,0.000
1605195301001792000,10.0.1.125,45,place,-0.100,-0.100,-0.100,0.000,0.000,0.000
1605195302003803904,10.0.1.125,46,place,-0.090,-0.090,-0.090,0.000,0.000,0.000
1605195303000505856,10.0.1.125,41,place,-0.080,-0.080,-0.080,0.000,0.000,0.000
1605195304011197184,10.0.1.125,50,place,-0.070,-0.070,-0.070,0.000,0.000,0.000
1605195305001054976,10.0.1.125,39,place,-0.060,-0.060,-0.060,0.000,0.000,0.000
1605195306002913024,10.0.1.125,39,place,-0.050,-0.050,-0.050,0.000,0.000,0.000
1605195307000422912,10.0.1.125,36,place,-0.040,-0.040,-0.040,0.000,0.000,0.000
1605195308000478976,10.0.1.125,34,place,-0.030,-0.030,-0.030,0.000,0.000,0.000
1605195309001601024,10.0.1.125,34,place,-0.020,-0.020,-0.020,0.000,0.000,0.000
1605195310012638976,10.0.1.125,44,place,-0.010,-0.010,-0.010,0.000,0.000,0.000
1605195311001307136,10.0.1.125,32,place,0.000,0.000,0.000,0.000,0.000,0.000
1605195312350755072,10.0.1.125,380,move_down,-0.020,-0.020,-0.020,0.000,0.000,0.000
1605195313730819072,10.0.1.125,385,move_down,-0.040,-0.040,-0.040,0.000,0.000,0.000
1605195315140176128,10.0.1.125,373,move_down,-0.060,-0.060,-0.060,0.000,0.000,0.000
1605195316570694912,10.0.1.125,377,move_down,-0.080,-0.080,-0.080,0.000,0.000,0.000
1605195318010673152,10.0.1.125,391,move_down,-0.100,-0.100,-0.100,0.000,0.000,0.000
1605195319440013056,10.0.1.125,386,move_down,-0.120,-0.120,-0.120,0.000,0.000,0.000
1605195320890846976,10.0.1.125,393,move_down,-0.140,-0.140,-0.140,0.000,0.000,0.000
1605195322302565120,10.0.1.125,378,move_down,-0.160,-0.160,-0.160,0.000,0.000,0.000
1605195323740925952,10.0.1.125,393,move_down,-0.180,-0.180,-0.180,0.000,0.000,0.000
1605195325180631040,10.0.1.125,391,move_down,-0.200,-0.200,-0.200,0.000,0.000,0.000
1605195326613810176,10.0.1.125,374,move_down,-0.220,-0.220,-0.220,0.000,0.000,0.000
1605195328031866112,10.0.1.125,362,move_down,-0.240,-0.240,-0.240,0.000,0.000,0.000
1605195329481206784,10.0.1.125,387,move_down,-0.260,-0.260,-0.260,0.000,0.000,0.000
1605195330938721792,10.0.1.125,403,move_down,-0.280,-0.280,-0.280,0.000,0.000,0.000
1605195332340244992,10.0.1.125,381,move_down,-0.300,-0.300,-0.300,0.000,0.000,0.000
1605195333781090048,10.0.1.125,392,move_down,-0.320,-0.320,-0.320,0.000,0.000,0.000
1605195335230382848,10.0.1.125,394,move_down,-0.340,-0.340,-0.340,0.000,0.000,0.000
1605195336680672768,10.0.1.125,403,move_down,-0.360,-0.360,-0.360,0.000,0.000,0.000
1605195338090850048,10.0.1.125,380,move_down,-0.380,-0.380,-0.380,0.000,0.000,0.000
1605195339510592000,10.0.1.125,371,move_down,-0.400,-0.400,-0.400,0.000,0.000,0.000
1605195340902561792,10.0.1.125,389,move_down,-0.420,-0.420,-0.420,0.000,0.000,0.000
1605195342351644928,10.0.1.125,398,move_down,-0.440,-0.440,-0.440,0.000,0.000,0.000
1605195343782219008,10.0.1.125,388,move_down,-0.460,-0.460,-0.460,0.000,0.000,0.000
1605195345207819008,10.0.1.125,372,move_down,-0.480,-0.480,-0.480,0.000,0.000,0.000
1605195346641112064,10.0.1.125,390,move_down,-0.500,-0.500,-0.500,0.000,0.000,0.000
1605195348083631104,10.0.1.125,405,move_down,-0.520,-0.520,-0.520,0.000,0.000,0.000
1605195349510302976,10.0.1.125,380,move_down,-0.540,-0.540,-0.540,0.000,0.000,0.000
1605195350571651072,10.0.1.125,-1,move_down,-0.560,-0.560,-0.560,0.000,0.000,0.000
1605195352421360896,10.0.1.125,404,move_down,-0.580,-0.580,-0.580,0.000,0.000,0.000
1605195353502283008,10.0.1.125,52,pick,-0.590,-0.590,-0.590,0.000,0.000,0.000
1605195354503660032,10.0.1.125,52,pick,-0.600,-0.600,-0.600,0.000,0.000,0.000
1605195355500315904,10.0.1.125,48,pick,-0.610,-0.610,-0.610,0.000,0.000,0.000
1605195356500237056,10.0.1.125,47,pick,-0.620,-0.620,-0.620,0.000,0.000,0.000
1605195357500278016,10.0.1.125,46,pick,-0.630,-0.630,-0.630,0.000,0.000,0.000
1605195358501652992,10.0.1.125,45,pick,-0.640,-0.640,-0.640,0.000,0.000,0.000
1605195359500000000,10.0.1.125,42,pick,-0.650,-0.650,-0.650,0.000,0.000,0.000
1605195360502466816,10.0.1.125,43,pick,-0.660,-0.660,-0.660,0.000,0.000,0.000
1605195361502433024,10.0.1.125,42,pick,-0.670,-0.670,-0.670,0.000,0.000,0.000
1605195362500307200,10.0.1.125,39,pick,-0.680,-0.680,-0.680,0.000,0.000,0.000
1605195363508513024,10.0.1.125,46,pick,-0.690,-0.690,-0.690,0.000,0.000,0.000
1605195364504476928,10.0.1.125,41,pick,-0.700,-0.700,-0.700,0.000,0.000,0.000
1605195365500296192,10.0.1.125,36,pick,-0.710,-0.710,-0.710,0.000,0.000,0.000
1605195366500385024,10.0.1.125,35,pick,-0.720,-0.720,-0.720,0.000,0.000,0.000
1605195367500214016,10.0.1.125,33,pick,-0.730,-0.730,-0.730,0.000,0.000,0.000
1605195368499911168,10.0.1.125,32,pick,-0.740,-0.740,-0.740,0.000,0.000,0.000
1605195369502347008,10.0.1.125,33,pick,-0.750,-0.750,-0.750,0.000,0.000,0.000
1605195370522468096,10.0.1.125,52,pick,-0.760,-0.760,-0.760,0.000,0.000,0.000
1605195371520312064,10.0.1.125,48,pick,-0.770,-0.770,-0.770,0.000,0.000,0.000
1605195372860114176,10.0.1.125,387,move_up,-0.750,-0.750,-0.750,0.000,0.000,0.000
1605195374291376128,10.0.1.125,377,move_up,-0.730,-0.730,-0.730,0.000,0.000,0.000
1605195375721743104,10.0.1.125,383,move_up,-0.710,-0.710,-0.710,0.000,0.000,0.000
1605195377143119104,10.0.1.125,392,move_up,-0.690,-0.690,-0.690,0.000,0.000,0.000
1605195378570496000,10.0.1.125,379,move_up,-0.670,-0.670,-0.670,0.000,0.000,0.000
1605195380041320192,10.0.1.125,405,move_up,-0.650,-0.650,-0.650,0.000,0.000,0.000
1605195381490361088,10.0.1.125,406,move_up,-0.630,-0.630,-0.630,0.000,0.000,0.000
1605195382900814080,10.0.1.125,372,move_up,-0.610,-0.610,-0.610,0.000,0.000,0.000
1605195384323399168,10.0.1.125,375,move_up,-0.590,-0.590,-0.590,0.000,0.000,0.000
1605195385740400128,10.0.1.125,382,move_up,-0.570,-0.570,-0.570,0.000,0.000,0.000
1605195387170674176,10.0.1.125,385,move_up,-0.550,-0.550,-0.550,0.000,0.000,0.000
1605195388600461056,10.0.1.125,372,move_up,-0.530,-0.530,-0.530,0.000,0.000,0.000
1605195390038234880,10.0.1.125,386,move_up,-0.510,-0.510,-0.510,0.000,0.000,0.000
1605195391430394880,10.0.1.125,350,move_up,-0.490,-0.490,-0.490,0.000,0.000,0.000
1605195392902617856,10.0.1.125,408,move_up,-0.470,-0.470,-0.470,0.000,0.000,0.000
1605195394291060992,10.0.1.125,352,move_up,-0.450,-0.450,-0.450,0.000,0.000,0.000
1605195395700480000,10.0.1.125,349,move_up,-0.430,-0.430,-0.430,0.000,0.000,0.000
1605195397099920896,10.0.1.125,375,move_up,-0.410,-0.410,-0.410,0.000,0.000,0.000
1605195398562195968,10.0.1.125,396,move_up,-0.390,-0.390,-0.390,0.000,0.000,0.000
1605195399969516032,10.0.1.125,378,move_up,-0.370,-0.370,-0.370,0.000,0.000,0.000
1605195401399548928,10.0.1.125,368,move_up,-0.350,-0.350,-0.350,0.000,0.000,0.000
1605195402840035840,10.0.1.125,392,move_up,-0.330,-0.330,-0.330,0.000,0.000,0.000
1605195404281171200,10.0.1.125,393,move_up,-0.310,-0.310,-0.310,0.000,0.000,0.000
1605195405730632192,10.0.1.125,384,move_up,-0.290,-0.290,-0.290,0.000,0.000,0.000
1605195407151120896,10.0.1.125,380,move_up,-0.270,-0.270,-0.270,0.000,0.000,0.000
1605195408551549952,10.0.1.125,353,move_up,-0.250,-0.250,-0.250,0.000,0.000,0.000
1605195409930476800,10.0.1.125,358,move_up,-0.230,-0.230,-0.230,0.000,0.000,0.000
1605195411360711168,10.0.1.125,374,move_up,-0.210,-0.210,-0.210,0.000,0.000,0.000
1605195412780581888,10.0.1.125,373,move_up,-0.190,-0.190,-0.190,0.000,0.000,0.000
1605195413860333056,10.0.1.125,34,place,-0.180,-0.180,-0.180,0.000,0.000,0.000
1605195414860065024,10.0.1.125,32,place,-0.170,-0.170,-0.170,0.000,0.000,0.000
1605195415860305152,10.0.1.125,31,place,-0.160,-0.160,-0.160,0.000,0.000,0.000
1605195416884337920,10.0.1.125,54,place,-0.150,-0.150,-0.150,0.000,0.000,0.000
1605195417881328128,10.0.1.125,50,place,-0.140,-0.140,-0.140,0.000,0.000,0.000
1605195418882813952,10.0.1.125,50,place,-0.130,-0.130,-0.130,0.000,0.000,0.000
1605195419879900928,10.0.1.125,46,place,-0.120,-0.120,-0.120,0.000,0.000,0.000
1605195420879962880,10.0.1.125,44,place,-0.110,-0.110,-0.110,0.000,0.000,0.000
1605195421879790080,10.0.1.125,43,place,-0.100,-0.100,-0.100,0.000,0.000,0.000
1605195422881062144,10.0.1.125,43,place,-0.090,-0.090,-0.090,0.000,0.000,0.000
1605195423880848896,10.0.1.125,41,place,-0.080,-0.080,-0.080,0.000,0.000,0.000
1605195424881766912,10.0.1.125,41,place,-0.070,-0.070,-0.070,0.000,0.000,0.000
1605195425882863104,10.0.1.125,39,place,-0.060,-0.060,-0.060,0.000,0.000,0.000
1605195426880494080,10.0.1.125,36,place,-0.050,-0.050,-0.050,0.000,0.000,0.000
1605195427880958976,10.0.1.125,36,place,-0.040,-0.040,-0.040,0.000,0.000,0.000
1605195428885441024,10.0.1.125,39,place,-0.030,-0.030,-0.030,0.000,0.000,0.000
1605195429881053952,10.0.1.125,33,place,-0.020,-0.020,-0.020,0.000,0.000,0.000
1605195430902193152,10.0.1.125,52,place,-0.010,-0.010,-0.010,0.000,0.000,0.000
1605195431900048128,10.0.1.125,49,place,0.000,0.000,0.000,0.000,0.000,0.000
1605195433230392064,10.0.1.125,378,move_down,-0.020,-0.020,-0.020,0.000,0.000,0.000
1605195434655646208,10.0.1.125,379,move_down,-0.040,-0.040,-0.040,0.000,0.000,0.000
1605195436106897152,10.0.1.125,403,move_down,-0.060,-0.060,-0.060,0.000,0.000,0.000
1605195437490384128,10.0.1.125,355,move_down,-0.080,-0.080,-0.080,0.000,0.000,0.000
1605195438960292096,10.0.1.125,405,move_down,-0.100,-0.100,-0.100,0.000,0.000,0.000
1605195440365359104,10.0.1.125,376,move_down,-0.120,-0.120,-0.120,0.000,0.000,0.000
1605195441771266048,10.0.1.125,400,move_down,-0.140,-0.140,-0.140,0.000,0.000,0.000
1605195443191617024,10.0.1.125,389,move_down,-0.160,-0.160,-0.160,0.000,0.000,0.000
1605195444650795008,10.0.1.125,416,move_down,-0.180,-0.180,-0.180,0.000,0.000,0.000
1605195446082829056,10.0.1.125,386,move_down,-0.200,-0.200,-0.200,0.000,0.000,0.000
1605195447451535104,10.0.1.125,376,move_down,-0.220,-0.220,-0.220,0.000,0.000,0.000
1605195448841065984,10.0.1.125,347,move_down,-0.240,-0.240,-0.240,0.000,0.000,0.000
1605195450290263040,10.0.1.125,386,move_down,-0.260,-0.260,-0.260,0.000,0.000,0.000
1605195451700421120,10.0.1.125,384,move_down,-0.280,-0.280,-0.280,0.000,0.000,0.000
1605195453140109056,10.0.1.125,381,move_down,-0.300,-0.300,-0.300,0.000,0.000,0.000
1605195454616615168,10.0.1.125,412,move_down,-0.320,-0.320,-0.320,0.000,0.000,0.000
1605195456020785920,10.0.1.125,370,move_down,-0.340,-0.340,-0.340,0.000,0.000,0.000
1605195457412174848,10.0.1.125,387,move_down,-0.360,-0.360,-0.360,0.000,0.000,0.000
1605195458830610944,10.0.1.125,363,move_down,-0.380,-0.380,-0.380,0.000,0.000,0.000
1605195460280744960,10.0.1.125,400,move_down,-0.400,-0.400,-0.400,0.000,0.000,0.000
1605195461710000128,10.0.1.125,396,move_down,-0.420,-0.420,-0.420,0.000,0.000,0.000
1605195463140230912,10.0.1.125,382,move_down,-0.440,-0.440,-0.440,0.000,0.000,0.000
1605195464600444928,10.0.1.125,400,move_down,-0.460,-0.460,-0.460,0.000,0.000,0.000
1605195466071624960,10.0.1.125,394,move_down,-0.480,-0.480,-0.480,0.000,0.000,0.000
1605195467482492928,10.0.1.125,388,move_down,-0.500,-0.500,-0.500,0.000,0.000,0.000
1605195468910269952,10.0.1.125,368,move_down,-0.520,-0.520,-0.520,0.000,0.000,0.000
1605195470352850944,10.0.1.125,397,move_down,-0.540,-0.540,-0.540,0.000,0.000,0.000
1605195471780440064,10.0.1.125,383,move_down,-0.560,-0.560,-0.560,0.000,0.000,0.000
1605195473214746112,10.0.1.125,390,move_down,-0.580,-0.580,-0.580,0.000,0.000,0.000
1605195474270558976,10.0.1.125,35,pick,-0.590,-0.590,-0.590,0.000,0.000,0.000
1605195475270916864,10.0.1.125,33,pick,-0.600,-0.600,-0.600,0.000,0.000,0.000
1605195476270102016,10.0.1.125,31,pick,-0.610,-0.610,-0.610,0.000,0.000,0.000
1605195477290348032,10.0.1.125,50,pick,-0.620,-0.620,-0.620,0.000,0.000,0.000
1605195478290766848,10.0.1.125,49,pick,-0.630,-0.630,-0.630,0.000,0.000,0.000
1605195479290499840,10.0.1.125,47,pick,-0.640,-0.640,-0.640,0.000,0.000,0.000
1605195480290483968,10.0.1.125,46,pick,-0.650,-0.650,-0.650,0.000,0.000,0.000
1605195481290596864,10.0.1.125,45,pick,-0.660,-0.660,-0.660,0.000,0.000,0.000
1605195482291805952,10.0.1.125,45,pick,-0.670,-0.670,-0.670,0.000,0.000,0.000
1605195483289922048,10.0.1.125,42,pick,-0.680,-0.680,-0.680,0.000,0.000,0.000
1605195484290311936,10.0.1.125,41,pick,-0.690,-0.690,-0.690,0.000,0.000,0.000
1605195485305263872,10.0.1.125,54,pick,-0.700,-0.700,-0.700,0.000,0.000,0.000
1605195486290492928,10.0.1.125,37,pick,-0.710,-0.710,-0.710,0.000,0.000,0.000
1605195487289978880,10.0.1.125,35,pick,-0.720,-0.720,-0.720,0.000,0.000,0.000
1605195488290405888,10.0.1.125,34,pick,-0.730,-0.730,-0.730,0.000,0.000,0.000
1605195489289569024,10.0.1.125,32,pick,-0.740,-0.740,-0.740,0.000,0.000,0.000
1605195490290532096,10.0.1.125,32,pick,-0.750,-0.750,-0.750,0.000,0.000,0.000
1605195491310158080,10.0.1.125,50,pick,-0.760,-0.760,-0.760,0.000,0.000,0.000
1605195492310454016,10.0.1.125,49,pick,-0.770,-0.770,-0.770,0.000,0.000,0.000
1605195493640918016,10.0.1.125,378,move_up,-0.750,-0.750,-0.750,0.000,0.000,0.000
1605195495070854912,10.0.1.125,378,move_up,-0.730,-0.730,-0.730,0.000,0.000,0.000
1605195496509861120,10.0.1.125,390,move_up,-0.710,-0.710,-0.710,0.000,0.000,0.000
1605195497970630912,10.0.1.125,412,move_up,-0.690,-0.690,-0.690,0.000,0.000,0.000
1605195499390081024,10.0.1.125,383,move_up,-0.670,-0.670,-0.670,0.000,0.000,0.000
1605195500840778240,10.0.1.125,389,move_up,-0.650,-0.650,-0.650,0.000,0.000,0.000
1605195502260838144,10.0.1.125,367,move_up,-0.630,-0.630,-0.630,0.000,0.000,0.000
1605195503690700032,10.0.1.125,369,move_up,-0.610,-0.610,-0.610,0.000,0.000,0.000
1605195505140891136,10.0.1.125,402,move_up,-0.590,-0.590,-0.590,0.000,0.000,0.000
1605195506561150976,10.0.1.125,389,move_up,-0.570,-0.570,-0.570,0.000,0.000,0.000
1605195507970802944,10.0.1.125,389,move_up,-0.550,-0.550,-0.550,0.000,0.000,0.000
1605195509420797952,10.0.1.125,399,move_up,-0.530,-0.530,-0.530,0.000,0.000,0.000
1605195510861339136,10.0.1.125,413,move_up,-0.510,-0.510,-0.510,0.000,0.000,0.000
1605195512270661120,10.0.1.125,381,move_up,-0.490,-0.490,-0.490,0.000,0.000,0.000
1605195513720551936,10.0.1.125,402,move_up,-0.470,-0.470,-0.470,0.000,0.000,0.000
1605195515119750912,10.0.1.125,361,move_up,-0.450,-0.450,-0.450,0.000,0.000,0.000
1605195516541296896,10.0.1.125,371,move_up,-0.430,-0.430,-0.430,0.000,0.000,0.000
1605195517950311936,10.0.1.125,363,move_up,-0.410,-0.410,-0.410,0.000,0.000,0.000
1605195519391527936,10.0.1.125,393,move_up,-0.390,-0.390,-0.390,0.000,0.000,0.000
1605195520841375232,10.0.1.125,400,move_up,-0.370,-0.370,-0.370,0.000,0.000,0.000
1605195522291090944,10.0.1.125,400,move_up,-0.350,-0.350,-0.350,0.000,0.000,0.000
1605195523720561152,10.0.1.125,387,move_up,-0.330,-0.330,-0.330,0.000,0.000,0.000
1605195525159948032,10.0.1.125,384,move_up,-0.310,-0.310,-0.310,0.000,0.000,0.000
1605195526573250048,10.0.1.125,387,move_up,-0.290,-0.290,-0.290,0.000,0.000,0.000
1605195528030215936,10.0.1.125,402,move_up,-0.270,-0.270,-0.270,0.000,0.000,0.000
1605195529440685056,10.0.1.125,367,move_up,-0.250,-0.250,-0.250,0.000,0.000,0.000
1605195530870318848,10.0.1.125,384,move_up,-0.230,-0.230,-0.230,0.000,0.000,0.000
1605195532299794944,10.0.1.125,371,move_up,-0.210,-0.210,-0.210,0.000,0.000,0.000
1605195533760451072,10.0.1.125,403,move_up,-0.190,-0.190,-0.190,0.000,0.000,0.000
1605195534840688896,10.0.1.125,40,place,-0.180,-0.180,-0.180,0.000,0.000,0.000
1605195535840444160,10.0.1.125,38,place,-0.170,-0.170,-0.170,0.000,0.000,0.000
1605195536840129024,10.0.1.125,36,place,-0.160,-0.160,-0.160,0.000,0.000,0.000
1605195537840528896,10.0.1.125,35,place,-0.150,-0.150,-0.150,0.000,0.000,0.000
1605195538842089984,10.0.1.125,36,place,-0.140,-0.140,-0.140,0.000,0.000,0.000
1605195540807544832,10.0.1.125,NaN,place,-0.120,-0.120,-0.120,0.000,0.000,0.000
1605195540841998080,10.0.1.125,34,place,-0.120,-0.120,-0.120,0.000,0.000,0.000
1605195541844568064,10.0.1.125,35,place,-0.110,-0.110,-0.110,0.000,0.000,0.000
1605195542861670912,10.0.1.125,51,place,-0.100,-0.100,-0.100,0.000,0.000,0.000
1605195543868201984,10.0.1.125,56,place,-0.090,-0.090,-0.090,0.000,0.000,0.000
1605195544860790016,10.0.1.125,47,place,-0.080,-0.080,-0.080,0.000,0.000,0.000
1605195545860594944,10.0.1.125,46,place,-0.070,-0.070,-0.070,0.000,0.000,0.000
1605195546865104896,10.0.1.125,49,place,-0.060,-0.060,-0.060,0.000,0.000,0.000
1605195547862322944,10.0.1.125,45,place,-0.050,-0.050,-0.050,0.000,0.000,0.000
1605195548860312064,10.0.1.125,42,place,-0.040,-0.040,-0.040,0.000,0.000,0.000
1605195549860722944,10.0.1.125,41,place,-0.030,-0.030,-0.030,0.000,0.000,0.000
1605195550861826048,10.0.1.125,41,place,-0.020,-0.020,-0.020,0.000,0.000,0.000
1605195551860436992,10.0.1.125,38,place,-0.010,-0.010,-0.010,0.000,0.000,0.000
1605195552862749184,10.0.1.125,38,place,0.000,0.000,0.000,0.000,0.000,0.000
1605195554209785088,10.0.1.125,382,move_down,-0.020,-0.020,-0.020,0.000,0.000,0.000
1605195555659697920,10.0.1.125,383,move_down,-0.040,-0.040,-0.040,0.000,0.000,0.000
1605195557109828864,10.0.1.125,397,move_down,-0.060,-0.060,-0.060,0.000,0.000,0.000
1605195558540242944,10.0.1.125,378,move_down,-0.080,-0.080,-0.080,0.000,0.000,0.000
1605195559980977920,10.0.1.125,393,move_down,-0.100,-0.100,-0.100,0.000,0.000,0.000
1605195561494874112,10.0.1.125,390,move_down,-0.120,-0.120,-0.120,0.000,0.000,0.000
1605195562945873920,10.0.1.125,417,move_down,-0.140,-0.140,-0.140,0.000,0.000,0.000
1605195564352407808,10.0.1.125,374,move_down,-0.160,-0.160,-0.160,0.000,0.000,0.000
1605195565802086144,10.0.1.125,404,move_down,-0.180,-0.180,-0.180,0.000,0.000,0.000
1605195567252655104,10.0.1.125,380,move_down,-0.200,-0.200,-0.200,0.000,0.000,0.000
1605195568674201856,10.0.1.125,377,move_down,-0.220,-0.220,-0.220,0.000,0.000,0.000
1605195570121752064,10.0.1.125,383,move_down,-0.240,-0.240,-0.240,0.000,0.000,0.000
1605195571552248064,10.0.1.125,380,move_down,-0.260,-0.260,-0.260,0.000,0.000,0.000
1605195572981640960,10.0.1.125,378,move_down,-0.280,-0.280,-0.280,0.000,0.000,0.000
1605195574414242048,10.0.1.125,383,move_down,-0.300,-0.300,-0.300,0.000,0.000,0.000
1605195575841995008,10.0.1.125,368,move_down,-0.320,-0.320,-0.320,0.000,0.000,0.000
1605195577273863936,10.0.1.125,388,move_down,-0.340,-0.340,-0.340,0.000,0.000,0.000
1605195578681937920,10.0.1.125,378,move_down,-0.360,-0.360,-0.360,0.000,0.000,0.000
1605195580112771072,10.0.1.125,394,move_down,-0.380,-0.380,-0.380,0.000,0.000,0.000
1605195581544910848,10.0.1.125,406,move_down,-0.400,-0.400,-0.400,0.000,0.000,0.000
1605195582962213120,10.0.1.125,379,move_down,-0.420,-0.420,-0.420,0.000,0.000,0.000
1605195584393022976,10.0.1.125,381,move_down,-0.440,-0.440,-0.440,0.000,0.000,0.000
1605195585802607104,10.0.1.125,362,move_down,-0.460,-0.460,-0.460,0.000,0.000,0.000
1605195587253266944,10.0.1.125,376,move_down,-0.480,-0.480,-0.480,0.000,0.000,0.000
1605195588722204928,10.0.1.125,419,move_down,-0.500,-0.500,-0.500,0.000,0.000,0.000
1605195590132353024,10.0.1.125,382,move_down,-0.520,-0.520,-0.520,0.000,0.000,0.000
1605195591532459008,10.0.1.125,373,move_down,-0.540,-0.540,-0.540,0.000,0.000,0.000
1605195592972356096,10.0.1.125,369,move_down,-0.560,-0.560,-0.560,0.000,0.000,0.000
1605195594422078976,10.0.1.125,394,move_down,-0.580,-0.580,-0.580,0.000,0.000,0.000
1605195595483386112,10.0.1.125,34,pick,-0.590,-0.590,-0.590,0.000,0.000,0.000
1605195596483454976,10.0.1.125,32,pick,-0.600,-0.600,-0.600,0.000,0.000,0.000
1605195597504110080,10.0.1.125,52,pick,-0.610,-0.610,-0.610,0.000,0.000,0.000
1605195598506455040,10.0.1.125,53,pick,-0.620,-0.620,-0.620,0.000,0.000,0.000
1605195599503575040,10.0.1.125,49,pick,-0.630,-0.630,-0.630,0.000,0.000,0.000
1605195600505500160,10.0.1.125,49,pick,-0.640,-0.640,-0.640,0.000,0.000,0.000
1605195601506331904,10.0.1.125,49,pick,-0.650,-0.650,-0.650,0.000,0.000,0.000
1605195602503987200,10.0.1.125,45,pick,-0.660,-0.660,-0.660,0.000,0.000,0.000
1605195603506164992,10.0.1.125,46,pick,-0.670,-0.670,-0.670,0.000,0.000,0.000
1605195604503494144,10.0.1.125,42,pick,-0.680,-0.680,-0.680,0.000,0.000,0.000
1605195605504815104,10.0.1.125,42,pick,-0.690,-0.690,-0.690,0.000,0.000,0.000
1605195606504472064,10.0.1.125,40,pick,-0.700,-0.700,-0.700,0.000,0.000,0.000
1605195607504748032,10.0.1.125,39,pick,-0.710,-0.710,-0.710,0.000,0.000,0.000
1605195608504283904,10.0.1.125,38,pick,-0.720,-0.720,-0.720,0.000,0.000,0.000
1605195609504172032,10.0.1.125,36,pick,-0.730,-0.730,-0.730,0.000,0.000,0.000
1605195610506640896,10.0.1.125,37,pick,-0.740,-0.740,-0.740,0.000,0.000,0.000
1605195611506896128,10.0.1.125,36,pick,-0.750,-0.750,-0.750,0.000,0.000,0.000
1605195612523735040,10.0.1.125,52,pick,-0.760,-0.760,-0.760,0.000,0.000,0.000
1605195613524471040,10.0.1.125,51,pick,-0.770,-0.770,-0.770,0.000,0.000,0.000
1605195614873505024,10.0.1.125,399,move_up,-0.750,-0.750,-0.750,0.000,0.000,0.000
1605195616285125888,10.0.1.125,384,move_up,-0.730,-0.730,-0.730,0.000,0.000,0.000
1605195617733872896,10.0.1.125,389,move_up,-0.710,-0.710,-0.710,0.000,0.000,0.000
1605195619143398144,10.0.1.125,387,move_up,-0.690,-0.690,-0.690,0.000,0.000,0.000
1605195620593041920,10.0.1.125,394,move_up,-0.670,-0.670,-0.670,0.000,0.000,0.000
1605195622023604992,10.0.1.125,379,move_up,-0.650,-0.650,-0.650,0.000,0.000,0.000
1605195623474644992,10.0.1.125,404,move_up,-0.630,-0.630,-0.630,0.000,0.000,0.000
1605195624893394944,10.0.1.125,380,move_up,-0.610,-0.610,-0.610,0.000,0.000,0.000
1605195626322941184,10.0.1.125,365,move_up,-0.590,-0.590,-0.590,0.000,0.000,0.000
1605195627762705920,10.0.1.125,381,move_up,-0.570,-0.570,-0.570,0.000,0.000,0.000
1605195629193579008,10.0.1.125,384,move_up,-0.550,-0.550,-0.550,0.000,0.000,0.000
1605195630622324992,10.0.1.125,370,move_up,-0.530,-0.530,-0.530,0.000,0.000,0.000
1605195632072779008,10.0.1.125,406,move_up,-0.510,-0.510,-0.510,0.000,0.000,0.000
1605195633483527936,10.0.1.125,375,move_up,-0.490,-0.490,-0.490,0.000,0.000,0.000
1605195634933684224,10.0.1.125,394,move_up,-0.470,-0.470,-0.470,0.000,0.000,0.000
1605195636375181056,10.0.1.125,401,move_up,-0.450,-0.450,-0.450,0.000,0.000,0.000
1605195637844557056,10.0.1.125,397,move_up,-0.430,-0.430,-0.430,0.000,0.000,0.000
1605195639253190144,10.0.1.125,353,move_up,-0.410,-0.410,-0.410,0.000,0.000,0.000
1605195640672269056,10.0.1.125,393,move_up,-0.390,-0.390,-0.390,0.000,0.000,0.000
1605195642122117120,10.0.1.125,370,move_up,-0.370,-0.370,-0.370,0.000,0.000,0.000
1605195643552090880,10.0.1.125,384,move_up,-0.350,-0.350,-0.350,0.000,0.000,0.000
1605195645022844928,10.0.1.125,381,move_up,-0.330,-0.330,-0.330,0.000,0.000,0.000
1605195646473430016,10.0.1.125,388,move_up,-0.310,-0.310,-0.310,0.000,0.000,0.000
1605195647923387136,10.0.1.125,396,move_up,-0.290,-0.290,-0.290,0.000,0.000,0.000
1605195649332264960,10.0.1.125,379,move_up,-0.270,-0.270,-0.270,0.000,0.000,0.000
1605195650768230912,10.0.1.125,388,move_up,-0.250,-0.250,-0.250,0.000,0.000,0.000
1605195652202373120,10.0.1.125,378,move_up,-0.230,-0.230,-0.230,0.000,0.000,0.000
1605195653624669952,10.0.1.125,383,move_up,-0.210,-0.210,-0.210,0.000,0.000,0.000
1605195655062233088,10.0.1.125,388,move_up,-0.190,-0.190,-0.190,0.000,0.000,0.000
1605195656162894848,10.0.1.125,48,place,-0.180,-0.180,-0.180,0.000,0.000,0.000
1605195657162816000,10.0.1.125,47,place,-0.170,-0.170,-0.170,0.000,0.000,0.000
1605195658165192960,10.0.1.125,48,place,-0.160,-0.160,-0.160,0.000,0.000,0.000
1605195659163130112,10.0.1.125,44,place,-0.150,-0.150,-0.150,0.000,0.000,0.000
1605195660162236928,10.0.1.125,42,place,-0.140,-0.140,-0.140,0.000,0.000,0.000
1605195661163719936,10.0.1.125,42,place,-0.130,-0.130,-0.130,0.000,0.000,0.000
1605195662163115008,10.0.1.125,41,place,-0.120,-0.120,-0.120,0.000,0.000,0.000
1605195663162995200,10.0.1.125,39,place,-0.110,-0.110,-0.110,0.000,0.000,0.000
1605195664162326016,10.0.1.125,37,place,-0.100,-0.100,-0.100,0.000,0.000,0.000
1605195665163175936,10.0.1.125,37,place,-0.090,-0.090,-0.090,0.000,0.000,0.000
1605195666175720960,10.0.1.125,48,place,-0.080,-0.080,-0.080,0.000,0.000,0.000
1605195667163273216,10.0.1.125,35,place,-0.070,-0.070,-0.070,0.000,0.000,0.000
1605195668164890112,10.0.1.125,36,place,-0.060,-0.060,-0.060,0.000,0.000,0.000
1605195669163821824,10.0.1.125,33,place,-0.050,-0.050,-0.050,0.000,0.000,0.000
1605195670164227072,10.0.1.125,32,place,-0.040,-0.040,-0.040,0.000,0.000,0.000
1605195671182797056,10.0.1.125,50,place,-0.030,-0.030,-0.030,0.000,0.000,0.000
1605195672183428096,10.0.1.125,49,place,-0.020,-0.020,-0.020,0.000,0.000,0.000
1605195673194169088,10.0.1.125,58,place,-0.010,-0.010,-0.010,0.000,0.000,0.000
1605195674183245824,10.0.1.125,47,place,0.000,0.000,0.000,0.000,0.000,0.000
1605195675512685056,10.0.1.125,375,move_down,-0.020,-0.020,-0.020,0.000,0.000,0.000
1605195676943809024,10.0.1.125,380,move_down,-0.040,-0.040,-0.040,0.000,0.000,0.000
1605195678414055168,10.0.1.125,410,move_down,-0.060,-0.060,-0.060,0.000,0.000,0.000
1605195679846795008,10.0.1.125,393,move_down,-0.080,-0.080,-0.080,0.000,0.000,0.000
1605195681283616000,10.0.1.125,403,move_down,-0.100,-0.100,-0.100,0.000,0.000,0.000
1605195682713628928,10.0.1.125,414,move_down,-0.120,-0.120,-0.120,0.000,0.000,0.000
1605195684125956096,10.0.1.125,382,move_down,-0.140,-0.140,-0.140,0.000,0.000,0.000
1605195685553914112,10.0.1.125,370,move_down,-0.160,-0.160,-0.160,0.000,0.000,0.000
1605195686994385920,10.0.1.125,394,move_down,-0.180,-0.180,-0.180,0.000,0.000,0.000
1605195688418721792,10.0.1.125,391,move_down,-0.200,-0.200,-0.200,0.000,0.000,0.000
1605195689852881920,10.0.1.125,385,move_down,-0.220,-0.220,-0.220,0.000,0.000,0.000
1605195691313522944,10.0.1.125,372,move_down,-0.240,-0.240,-0.240,0.000,0.000,0.000
1605195692733218816,10.0.1.125,381,move_down,-0.260,-0.260,-0.260,0.000,0.000,0.000
1605195694162684928,10.0.1.125,385,move_down,-0.280,-0.280,-0.280,0.000,0.000,0.000
1605195695592852224,10.0.1.125,373,move_down,-0.300,-0.300,-0.300,0.000,0.000,0.000
1605195697025326080,10.0.1.125,384,move_down,-0.320,-0.320,-0.320,0.000,0.000,0.000
1605195698473128960,10.0.1.125,402,move_down,-0.340,-0.340,-0.340,0.000,0.000,0.000
1605195699868238848,10.0.1.125,368,move_down,-0.360,-0.360,-0.360,0.000,0.000,0.000
1605195701243700992,10.0.1.125,363,move_down,-0.380,-0.380,-0.380,0.000,0.000,0.000
1605195702704284928,10.0.1.125,379,move_down,-0.400,-0.400,-0.400,0.000,0.000,0.000
1605195704112624896,10.0.1.125,369,move_down,-0.420,-0.420,-0.420,0.000,0.000,0.000
1605195705542718976,10.0.1.125,384,move_down,-0.440,-0.440,-0.440,0.000,0.000,0.000
1605195706992747008,10.0.1.125,389,move_down,-0.460,-0.460,-0.460,0.000,0.000,0.000
1605195708462865152,10.0.1.125,407,move_down,-0.480,-0.480,-0.480,0.000,0.000,0.000
1605195709853260032,10.0.1.125,355,move_down,-0.500,-0.500,-0.500,0.000,0.000,0.000
1605195711313214976,10.0.1.125,393,move_down,-0.520,-0.520,-0.520,0.000,0.000,0.000
1605195712773938944,10.0.1.125,406,move_down,-0.540,-0.540,-0.540,0.000,0.000,0.000
1605195714232763136,10.0.1.125,389,move_down,-0.560,-0.560,-0.560,0.000,0.000,0.000
1605195715702081024,10.0.1.125,422,move_down,-0.580,-0.580,-0.580,0.000,0.000,0.000
1605195716824508928,10.0.1.125,51,pick,-0.590,-0.590,-0.590,0.000,0.000,0.000
1605195717825166080,10.0.1.125,50,pick,-0.600,-0.600,-0.600,0.000,0.000,0.000
1605195718823448064,10.0.1.125,47,pick,-0.610,-0.610,-0.610,0.000,0.000,0.000
1605195719825483008,10.0.1.125,48,pick,-0.620,-0.620,-0.620,0.000,0.000,0.000
1605195720823488000,10.0.1.125,44,pick,-0.630,-0.630,-0.630,0.000,0.000,0.000
1605195721823041024,10.0.1.125,43,pick,-0.640,-0.640,-0.640,0.000,0.000,0.000
1605195722831131904,10.0.1.125,50,pick,-0.650,-0.650,-0.650,0.000,0.000,0.000
1605195723824687104,10.0.1.125,42,pick,-0.660,-0.660,-0.660,0.000,0.000,0.000
1605195724824183040,10.0.1.125,40,pick,-0.670,-0.670,-0.670,0.000,0.000,0.000
1605195725823143936,10.0.1.125,38,pick,-0.680,-0.680,-0.680,0.000,0.000,0.000
1605195726822632960,10.0.1.125,36,pick,-0.690,-0.690,-0.690,0.000,0.000,0.000
1605195727830887168,10.0.1.125,43,pick,-0.700,-0.700,-0.700,0.000,0.000,0.000
1605195728824753152,10.0.1.125,36,pick,-0.710,-0.710,-0.710,0.000,0.000,0.000
1605195729826266112,10.0.1.125,36,pick,-0.720,-0.720,-0.720,0.000,0.000,0.000
1605195730841968128,10.0.1.125,50,pick,-0.730,-0.730,-0.730,0.000,0.000,0.000
1605195731842627072,10.0.1.125,50,pick,-0.740,-0.740,-0.740,0.000,0.000,0.000
1605195732843034112,10.0.1.125,49,pick,-0.750,-0.750,-0.750,0.000,0.000,0.000
1605195733842536960,10.0.1.125,47,pick,-0.760,-0.760,-0.760,0.000,0.000,0.000
1605195734843921920,10.0.1.125,47,pick,-0.770,-0.770,-0.770,0.000,0.000,0.000
1605195736174948864,10.0.1.125,377,move_up,-0.750,-0.750,-0.750,0.000,0.000,0.000
1605195737632960000,10.0.1.125,415,move_up,-0.730,-0.730,-0.730,0.000,0.000,0.000
1605195739063559168,10.0.1.125,390,move_up,-0.710,-0.710,-0.710,0.000,0.000,0.000
1605195740512819968,10.0.1.125,391,move_up,-0.690,-0.690,-0.690,0.000,0.000,0.000
1605195741973937920,10.0.1.125,405,move_up,-0.670,-0.670,-0.670,0.000,0.000,0.000
1605195743425633024,10.0.1.125,382,move_up,-0.650,-0.650,-0.650,0.000,0.000,0.000
1605195744843489792,10.0.1.125,370,move_up,-0.630,-0.630,-0.630,0.000,0.000,0.000
1605195746292455936,10.0.1.125,378,move_up,-0.610,-0.610,-0.610,0.000,0.000,0.000
1605195747723682048,10.0.1.125,381,move_up,-0.590,-0.590,-0.590,0.000,0.000,0.000
1605195749162662144,10.0.1.125,391,move_up,-0.570,-0.570,-0.570,0.000,0.000,0.000
1605195750573512960,10.0.1.125,360,move_up,-0.550,-0.550,-0.550,0.000,0.000,0.000
1605195752030423040,10.0.1.125,391,move_up,-0.530,-0.530,-0.530,0.000,0.000,0.000
1605195753439152896,10.0.1.125,358,move_up,-0.510,-0.510,-0.510,0.000,0.000,0.000
1605195754823141120,10.0.1.125,366,move_up,-0.490,-0.490,-0.490,0.000,0.000,0.000
1605195756264051968,10.0.1.125,395,move_up,-0.470,-0.470,-0.470,0.000,0.000,0.000
1605195757693389824,10.0.1.125,383,move_up,-0.450,-0.450,-0.450,0.000,0.000,0.000
1605195759123688960,10.0.1.125,372,move_up,-0.430,-0.430,-0.430,0.000,0.000,0.000
1605195760525703936,10.0.1.125,359,move_up,-0.410,-0.410,-0.410,0.000,0.000,0.000
1605195761993256960,10.0.1.125,401,move_up,-0.390,-0.390,-0.390,0.000,0.000,0.000
1605195763406183936,10.0.1.125,373,move_up,-0.370,-0.370,-0.370,0.000,0.000,0.000
1605195764823604224,10.0.1.125,376,move_up,-0.350,-0.350,-0.350,0.000,0.000,0.000
1605195766252722944,10.0.1.125,386,move_up,-0.330,-0.330,-0.330,0.000,0.000,0.000
1605195767704321024,10.0.1.125,395,move_up,-0.310,-0.310,-0.310,0.000,0.000,0.000
1605195769131814912,10.0.1.125,378,move_up,-0.290,-0.290,-0.290,0.000,0.000,0.000
1605195770552248832,10.0.1.125,371,move_up,-0.270,-0.270,-0.270,0.000,0.000,0.000
1605195771983225088,10.0.1.125,377,move_up,-0.250,-0.250,-0.250,0.000,0.000,0.000
1605195773442738176,10.0.1.125,392,move_up,-0.230,-0.230,-0.230,0.000,0.000,0.000
1605195774916011008,10.0.1.125,423,move_up,-0.210,-0.210,-0.210,0.000,0.000,0.000
1605195776323113984,10.0.1.125,380,move_up,-0.190,-0.190,-0.190,0.000,0.000,0.000
1605195777442217984,10.0.1.125,57,place,-0.180,-0.180,-0.180,0.000,0.000,0.000
1605195778423852800,10.0.1.125,37,place,-0.170,-0.170,-0.170,0.000,0.000,0.000
1605195779423325184,10.0.1.125,35,place,-0.160,-0.160,-0.160,0.000,0.000,0.000
1605195780426248960,10.0.1.125,38,place,-0.150,-0.150,-0.150,0.000,0.000,0.000
1605195781427709184,10.0.1.125,38,place,-0.140,-0.140,-0.140,0.000,0.000,0.000
1605195782426032128,10.0.1.125,35,place,-0.130,-0.130,-0.130,0.000,0.000,0.000
1605195783442998784,10.0.1.125,51,place,-0.120,-0.120,-0.120,0.000,0.000,0.000
1605195784444536832,10.0.1.125,50,place,-0.110,-0.110,-0.110,0.000,0.000,0.000
1605195785444521984,10.0.1.125,50,place,-0.100,-0.100,-0.100,0.000,0.000,0.000
1605195786442931968,10.0.1.125,47,place,-0.090,-0.090,-0.090,0.000,0.000,0.000
1605195787442790144,10.0.1.125,45,place,-0.080,-0.080,-0.080,0.000,0.000,0.000
1605195788442970880,10.0.1.125,37,place,-0.070,-0.070,-0.070,0.000,0.000,0.000
1605195789442500096,10.0.1.125,35,place,-0.060,-0.060,-0.060,0.000,0.000,0.000
1605195790462002944,10.0.1.125,46,place,-0.050,-0.050,-0.050,0.000,0.000,0.000
1605195791462876160,10.0.1.125,46,place,-0.040,-0.040,-0.040,0.000,0.000,0.000
1605195792464307968,10.0.1.125,44,place,-0.030,-0.030,-0.030,0.000,0.000,0.000
1605195793463475968,10.0.1.125,42,place,-0.020,-0.020,-0.020,0.000,0.000,0.000
1605195794462951936,10.0.1.125,40,place,-0.010,-0.010,-0.010,0.000,0.000,0.000
1605195795462488832,10.0.1.125,38,place,0.000,0.000,0.000,0.000,0.000,0.000
1605195796793071872,10.0.1.125,367,move_down,-0.020,-0.020,-0.020,0.000,0.000,0.000
1605195798226270976,10.0.1.125,376,move_down,-0.040,-0.040,-0.040,0.000,0.000,0.000
1605195799653063168,10.0.1.125,383,move_down,-0.060,-0.060,-0.060,0.000,0.000,0.000
1605195801072199936,10.0.1.125,357,move_down,-0.080,-0.080,-0.080,0.000,0.000,0.000
1605195802505561088,10.0.1.125,378,move_down,-0.100,-0.100,-0.100,0.000,0.000,0.000
1605195803932837120,10.0.1.125,380,move_down,-0.120,-0.120,-0.120,0.000,0.000,0.000
1605195805372436992,10.0.1.125,392,move_down,-0.140,-0.140,-0.140,0.000,0.000,0.000
1605195806782572032,10.0.1.125,371,move_down,-0.160,-0.160,-0.160,0.000,0.000,0.000
1605195808232194048,10.0.1.125,377,move_down,-0.180,-0.180,-0.180,0.000,0.000,0.000
1605195809642220032,10.0.1.125,367,move_down,-0.200,-0.200,-0.200,0.000,0.000,0.000
1605195811012782080,10.0.1.125,366,move_down,-0.220,-0.220,-0.220,0.000,0.000,0.000
1605195812452041984,10.0.1.125,388,move_down,-0.240,-0.240,-0.240,0.000,0.000,0.000
1605195813883058944,10.0.1.125,377,move_down,-0.260,-0.260,-0.260,0.000,0.000,0.000
1605195815351385088,10.0.1.125,405,move_down,-0.280,-0.280,-0.280,0.000,0.000,0.000
1605195816732393984,10.0.1.125,376,move_down,-0.300,-0.300,-0.300,0.000,0.000,0.000
1605195818182873856,10.0.1.125,395,move_down,-0.320,-0.320,-0.320,0.000,0.000,0.000
1605195819632822016,10.0.1.125,399,move_down,-0.340,-0.340,-0.340,0.000,0.000,0.000
1605195821042784000,10.0.1.125,375,move_down,-0.360,-0.360,-0.360,0.000,0.000,0.000
1605195822472551936,10.0.1.125,380,move_down,-0.380,-0.380,-0.380,0.000,0.000,0.000
1605195823886096896,10.0.1.125,354,move_down,-0.400,-0.400,-0.400,0.000,0.000,0.000
1605195825332587008,10.0.1.125,383,move_down,-0.420,-0.420,-0.420,0.000,0.000,0.000
1605195826783847936,10.0.1.125,393,move_down,-0.440,-0.440,-0.440,0.000,0.000,0.000
1605195828262525952,10.0.1.125,389,move_down,-0.460,-0.460,-0.460,0.000,0.000,0.000
1605195829712434944,10.0.1.125,397,move_down,-0.480,-0.480,-0.480,0.000,0.000,0.000
1605195831145263872,10.0.1.125,385,move_down,-0.500,-0.500,-0.500,0.000,0.000,0.000
1605195832592775168,10.0.1.125,381,move_down,-0.520,-0.520,-0.520,0.000,0.000,0.000
1605195834054373888,10.0.1.125,403,move_down,-0.540,-0.540,-0.540,0.000,0.000,0.000
1605195835524283904,10.0.1.125,395,move_down,-0.560,-0.560,-0.560,0.000,0.000,0.000
1605195837017079040,10.0.1.125,379,move_down,-0.580,-0.580,-0.580,0.000,0.000,0.000
1605195838114181888,10.0.1.125,34,pick,-0.590,-0.590,-0.590,0.000,0.000,0.000
1605195839113115904,10.0.1.125,32,pick,-0.600,-0.600,-0.600,0.000,0.000,0.000
1605195840114604032,10.0.1.125,32,pick,-0.610,-0.610,-0.610,0.000,0.000,0.000
1605195841117767936,10.0.1.125,34,pick,-0.620,-0.620,-0.620,0.000,0.000,0.000
1605195842133250048,10.0.1.125,49,pick,-0.630,-0.630,-0.630,0.000,0.000,0.000
1605195843135757056,10.0.1.125,50,pick,-0.640,-0.640,-0.640,0.000,0.000,0.000
1605195844133748992,10.0.1.125,47,pick,-0.650,-0.650,-0.650,0.000,0.000,0.000
1605195845133827840,10.0.1.125,46,pick,-0.660,-0.660,-0.660,0.000,0.000,0.000
1605195846135705856,10.0.1.125,46,pick,-0.670,-0.670,-0.670,0.000,0.000,0.000
1605195847132697088,10.0.1.125,42,pick,-0.680,-0.680,-0.680,0.000,0.000,0.000
1605195848133692928,10.0.1.125,42,pick,-0.690,-0.690,-0.690,0.000,0.000,0.000
1605195849132198144,10.0.1.125,39,pick,-0.700,-0.700,-0.700,0.000,0.000,0.000
1605195850132706048,10.0.1.125,39,pick,-0.710,-0.710,-0.710,0.000,0.000,0.000
1605195851132992000,10.0.1.125,38,pick,-0.720,-0.720,-0.720,0.000,0.000,0.000
1605195852133548032,10.0.1.125,37,pick,-0.730,-0.730,-0.730,0.000,0.000,0.000
1605195853132504832,10.0.1.125,36,pick,-0.740,-0.740,-0.740,0.000,0.000,0.000
1605195854131809024,10.0.1.125,34,pick,-0.750,-0.750,-0.750,0.000,0.000,0.000
1605195855132548096,10.0.1.125,33,pick,-0.760,-0.760,-0.760,0.000,0.000,0.000
1605195856132919040,10.0.1.125,32,pick,-0.770,-0.770,-0.770,0.000,0.000,0.000
1605195857492013824,10.0.1.125,390,move_up,-0.750,-0.750,-0.750,0.000,0.000,0.000
1605195858972333056,10.0.1.125,421,move_up,-0.730,-0.730,-0.730,0.000,0.000,0.000
1605195860382392832,10.0.1.125,352,move_up,-0.710,-0.710,-0.710,0.000,0.000,0.000
1605195861794574848,10.0.1.125,385,move_up,-0.690,-0.690,-0.690,0.000,0.000,0.000
1605195863242067968,10.0.1.125,390,move_up,-0.670,-0.670,-0.670,0.000,0.000,0.000
1605195864694434816,10.0.1.125,390,move_up,-0.650,-0.650,-0.650,0.000,0.000,0.000
1605195866114471936,10.0.1.125,369,move_up,-0.630,-0.630,-0.630,0.000,0.000,0.000
1605195867543653888,10.0.1.125,369,move_up,-0.610,-0.610,-0.610,0.000,0.000,0.000
1605195868972891136,10.0.1.125,386,move_up,-0.590,-0.590,-0.590,0.000,0.000,0.000
1605195870430052096,10.0.1.125,368,move_up,-0.570,-0.570,-0.570,0.000,0.000,0.000
1605195871892353024,10.0.1.125,399,move_up,-0.550,-0.550,-0.550,0.000,0.000,0.000
1605195873323065088,10.0.1.125,389,move_up,-0.530,-0.530,-0.530,0.000,0.000,0.000
1605195874722317056,10.0.1.125,376,move_up,-0.510,-0.510,-0.510,0.000,0.000,0.000
1605195876173764096,10.0.1.125,384,move_up,-0.490,-0.490,-0.490,0.000,0.000,0.000
1605195877604636928,10.0.1.125,371,move_up,-0.470,-0.470,-0.470,0.000,0.000,0.000
1605195879045850880,10.0.1.125,395,move_up,-0.450,-0.450,-0.450,0.000,0.000,0.000
1605195880475810048,10.0.1.125,384,move_up,-0.430,-0.430,-0.430,0.000,0.000,0.000
1605195881882957056,10.0.1.125,366,move_up,-0.410,-0.410,-0.410,0.000,0.000,0.000
1605195883312637952,10.0.1.125,371,move_up,-0.390,-0.390,-0.390,0.000,0.000,0.000
1605195884762799872,10.0.1.125,401,move_up,-0.370,-0.370,-0.370,0.000,0.000,0.000
1605195886192162048,10.0.1.125,381,move_up,-0.350,-0.350,-0.350,0.000,0.000,0.000
1605195887622172160,10.0.1.125,388,move_up,-0.330,-0.330,-0.330,0.000,0.000,0.000
1605195889024628992,10.0.1.125,382,move_up,-0.310,-0.310,-0.310,0.000,0.000,0.000
1605195890472232960,10.0.1.125,385,move_up,-0.290,-0.290,-0.290,0.000,0.000,0.000
1605195891902669056,10.0.1.125,375,move_up,-0.270,-0.270,-0.270,0.000,0.000,0.000
1605195893322487040,10.0.1.125,367,move_up,-0.250,-0.250,-0.250,0.000,0.000,0.000
1605195894793092096,10.0.1.125,397,move_up,-0.230,-0.230,-0.230,0.000,0.000,0.000
1605195896242449920,10.0.1.125,369,move_up,-0.210,-0.210,-0.210,0.000,0.000,0.000
1605195897671926016,10.0.1.125,380,move_up,-0.190,-0.190,-0.190,0.000,0.000,0.000
1605195898713472000,10.0.1.125,47,place,-0.180,-0.180,-0.180,0.000,0.000,0.000
1605195899712325120,10.0.1.125,44,place,-0.170,-0.170,-0.170,0.000,0.000,0.000
1605195900711915008,10.0.1.125,43,place,-0.160,-0.160,-0.160,0.000,0.000,0.000
1605195901714531072,10.0.1.125,45,place,-0.150,-0.150,-0.150,0.000,0.000,0.000
1605195902714468864,10.0.1.125,44,place,-0.140,-0.140,-0.140,0.000,0.000,0.000
1605195903716201984,10.0.1.125,44,place,-0.130,-0.130,-0.130,0.000,0.000,0.000
1605195904715256064,10.0.1.125,42,place,-0.120,-0.120,-0.120,0.000,0.000,0.000
1605195905727318016,10.0.1.125,53,place,-0.110,-0.110,-0.110,0.000,0.000,0.000
1605195906713565184,10.0.1.125,39,place,-0.100,-0.100,-0.100,0.000,0.000,0.000
1605195907713619968,10.0.1.125,38,place,-0.090,-0.090,-0.090,0.000,0.000,0.000
1605195908724522240,10.0.1.125,48,place,-0.080,-0.080,-0.080,0.000,0.000,0.000
1605195909724832000,10.0.1.125,47,place,-0.070,-0.070,-0.070,0.000,0.000,0.000
1605195910712961024,10.0.1.125,34,place,-0.060,-0.060,-0.060,0.000,0.000,0.000
1605195911714724096,10.0.1.125,34,place,-0.050,-0.050,-0.050,0.000,0.000,0.000
1605195912715136000,10.0.1.125,34,place,-0.040,-0.040,-0.040,0.000,0.000,0.000
1605195913732961024,10.0.1.125,51,place,-0.030,-0.030,-0.030,0.000,0.000,0.000
1605195914732600832,10.0.1.125,49,place,-0.020,-0.020,-0.020,0.000,0.000,0.000
1605195915732433152,10.0.1.125,48,place,-0.010,-0.010,-0.010,0.000,0.000,0.000
1605195916733442048,10.0.1.125,48,place,0.000,0.000,0.000,0.000,0.000,0.000
1605195918073810944,10.0.1.125,388,move_down,-0.020,-0.020,-0.020,0.000,0.000,0.000
1605195919507168000,10.0.1.125,379,move_down,-0.040,-0.040,-0.040,0.000,0.000,0.000
1605195920932573184,10.0.1.125,371,move_down,-0.060,-0.060,-0.060,0.000,0.000,0.000
1605195922352685056,10.0.1.125,378,move_down,-0.080,-0.080,-0.080,0.000,0.000,0.000
1605195923802594816,10.0.1.125,403,move_down,-0.100,-0.100,-0.100,0.000,0.000,0.000
1605195925252711168,10.0.1.125,370,move_down,-0.120,-0.120,-0.120,0.000,0.000,0.000
1605195926682708992,10.0.1.125,382,move_down,-0.140,-0.140,-0.140,0.000,0.000,0.000
1605195928112683008,10.0.1.125,381,move_down,-0.160,-0.160,-0.160,0.000,0.000,0.000
1605195929523580160,10.0.1.125,364,move_down,-0.180,-0.180,-0.180,0.000,0.000,0.000
1605195930973637120,10.0.1.125,372,move_down,-0.200,-0.200,-0.200,0.000,0.000,0.000
1605195932402811136,10.0.1.125,379,move_down,-0.220,-0.220,-0.220,0.000,0.000,0.000
1605195933833399040,10.0.1.125,373,move_down,-0.240,-0.240,-0.240,0.000,0.000,0.000
1605195935262862848,10.0.1.125,380,move_down,-0.260,-0.260,-0.260,0.000,0.000,0.000
1605195936693276928,10.0.1.125,368,move_down,-0.280,-0.280,-0.280,0.000,0.000,0.000
1605195938122036992,10.0.1.125,382,move_down,-0.300,-0.300,-0.300,0.000,0.000,0.000
1605195939552241152,10.0.1.125,401,move_down,-0.320,-0.320,-0.320,0.000,0.000,0.000
1605195940953092096,10.0.1.125,361,move_down,-0.340,-0.340,-0.340,0.000,0.000,0.000
1605195942425167104,10.0.1.125,408,move_down,-0.360,-0.360,-0.360,0.000,0.000,0.000
1605195943853095936,10.0.1.125,371,move_down,-0.380,-0.380,-0.380,0.000,0.000,0.000
1605195945292572928,10.0.1.125,392,move_down,-0.400,-0.400,-0.400,0.000,0.000,0.000
1605195946704282880,10.0.1.125,357,move_down,-0.420,-0.420,-0.420,0.000,0.000,0.000
1605195948132576000,10.0.1.125,361,move_down,-0.440,-0.440,-0.440,0.000,0.000,0.000
1605195949522710016,10.0.1.125,379,move_down,-0.460,-0.460,-0.460,0.000,0.000,0.000
1605195950938728960,10.0.1.125,365,move_down,-0.480,-0.480,-0.480,0.000,0.000,0.000
1605195952393292800,10.0.1.125,405,move_down,-0.500,-0.500,-0.500,0.000,0.000,0.000
1605195953833699840,10.0.1.125,383,move_down,-0.520,-0.520,-0.520,0.000,0.000,0.000
1605195955304979968,10.0.1.125,416,move_down,-0.540,-0.540,-0.540,0.000,0.000,0.000
1605195956742845184,10.0.1.125,372,move_down,-0.560,-0.560,-0.560,0.000,0.000,0.000
1605195958172487936,10.0.1.125,387,move_down,-0.580,-0.580,-0.580,0.000,0.000,0.000
1605195959272794112,10.0.1.125,44,pick,-0.590,-0.590,-0.590,0.000,0.000,0.000
1605195960272155904,10.0.1.125,42,pick,-0.600,-0.600,-0.600,0.000,0.000,0.000
1605195961272124160,10.0.1.125,42,pick,-0.610,-0.610,-0.610,0.000,0.000,0.000
1605195962274543104,10.0.1.125,44,pick,-0.620,-0.620,-0.620,0.000,0.000,0.000
1605195963272068864,10.0.1.125,39,pick,-0.630,-0.630,-0.630,0.000,0.000,0.000
1605195964272049920,10.0.1.125,38,pick,-0.640,-0.640,-0.640,0.000,0.000,0.000
1605195965271593984,10.0.1.125,36,pick,-0.650,-0.650,-0.650,0.000,0.000,0.000
1605195966273057024,10.0.1.125,37,pick,-0.660,-0.660,-0.660,0.000,0.000,0.000
1605195967272363776,10.0.1.125,35,pick,-0.670,-0.670,-0.670,0.000,0.000,0.000
1605195968272705024,10.0.1.125,34,pick,-0.680,-0.680,-0.680,0.000,0.000,0.000
1605195969273241088,10.0.1.125,33,pick,-0.690,-0.690,-0.690,0.000,0.000,0.000
1605195970272015104,10.0.1.125,31,pick,-0.700,-0.700,-0.700,0.000,0.000,0.000
1605195971295828224,10.0.1.125,53,pick,-0.710,-0.710,-0.710,0.000,0.000,0.000
1605195972292662016,10.0.1.125,49,pick,-0.720,-0.720,-0.720,0.000,0.000,0.000
1605195973292294144,10.0.1.125,48,pick,-0.730,-0.730,-0.730,0.000,0.000,0.000
1605195974292217856,10.0.1.125,47,pick,-0.740,-0.740,-0.740,0.000,0.000,0.000
1605195975292887040,10.0.1.125,47,pick,-0.750,-0.750,-0.750,0.000,0.000,0.000
1605195976291696128,10.0.1.125,46,pick,-0.760,-0.760,-0.760,0.000,0.000,0.000
1605195977292560128,10.0.1.125,45,pick,-0.770,-0.770,-0.770,0.000,0.000,0.000
1605195978642155776,10.0.1.125,394,move_up,-0.750,-0.750,-0.750,0.000,0.000,0.000
1605195980092449792,10.0.1.125,397,move_up,-0.730,-0.730,-0.730,0.000,0.000,0.000
1605195981508285952,10.0.1.125,368,move_up,-0.710,-0.710,-0.710,0.000,0.000,0.000
1605195982962835200,10.0.1.125,387,move_up,-0.690,-0.690,-0.690,0.000,0.000,0.000
1605195984391987968,10.0.1.125,384,move_up,-0.670,-0.670,-0.670,0.000,0.000,0.000
1605195985823055104,10.0.1.125,381,move_up,-0.650,-0.650,-0.650,0.000,0.000,0.000
1605195987252324096,10.0.1.125,366,move_up,-0.630,-0.630,-0.630,0.000,0.000,0.000
1605195988683602944,10.0.1.125,380,move_up,-0.610,-0.610,-0.610,0.000,0.000,0.000
1605195990133918976,10.0.1.125,381,move_up,-0.590,-0.590,-0.590,0.000,0.000,0.000
1605195991545576192,10.0.1.125,367,move_up,-0.570,-0.570,-0.570,0.000,0.000,0.000
1605195992992749056,10.0.1.125,385,move_up,-0.550,-0.550,-0.550,0.000,0.000,0.000
1605195994433356032,10.0.1.125,383,move_up,-0.530,-0.530,-0.530,0.000,0.000,0.000
1605195995884113920,10.0.1.125,387,move_up,-0.510,-0.510,-0.510,0.000,0.000,0.000
1605195997292422144,10.0.1.125,355,move_up,-0.490,-0.490,-0.490,0.000,0.000,0.000
1605195998724536832,10.0.1.125,361,move_up,-0.470,-0.470,-0.470,0.000,0.000,0.000
1605196000192226816,10.0.1.125,398,move_up,-0.450,-0.450,-0.450,0.000,0.000,0.000
1605196001622239232,10.0.1.125,377,move_up,-0.430,-0.430,-0.430,0.000,0.000,0.000
1605196003041976832,10.0.1.125,377,move_up,-0.410,-0.410,-0.410,0.000,0.000,0.000
1605196004471868928,10.0.1.125,379,move_up,-0.390,-0.390,-0.390,0.000,0.000,0.000
1605196005904496896,10.0.1.125,385,move_up,-0.370,-0.370,-0.370,0.000,0.000,0.000
1605196007322552064,10.0.1.125,362,move_up,-0.350,-0.350,-0.350,0.000,0.000,0.000
1605196008774637824,10.0.1.125,390,move_up,-0.330,-0.330,-0.330,0.000,0.000,0.000
1605196010175484928,10.0.1.125,379,move_up,-0.310,-0.310,-0.310,0.000,0.000,0.000
1605196011582170880,10.0.1.125,377,move_up,-0.290,-0.290,-0.290,0.000,0.000,0.000
1605196013024569088,10.0.1.125,391,move_up,-0.270,-0.270,-0.270,0.000,0.000,0.000
1605196014461729024,10.0.1.125,396,move_up,-0.250,-0.250,-0.250,0.000,0.000,0.000
1605196015907779840,10.0.1.125,397,move_up,-0.230,-0.230,-0.230,0.000,0.000,0.000
1605196017315207936,10.0.1.125,380,move_up,-0.210,-0.210,-0.210,0.000,0.000,0.000
1605196018722031104,10.0.1.125,359,move_up,-0.190,-0.190,-0.190,0.000,0.000,0.000
1605196019844865024,10.0.1.125,52,place,-0.180,-0.180,-0.180,0.000,0.000,0.000
1605196020842743040,10.0.1.125,48,place,-0.170,-0.170,-0.170,0.000,0.000,0.000
1605196021841892096,10.0.1.125,47,place,-0.160,-0.160,-0.160,0.000,0.000,0.000
1605196022842104064,10.0.1.125,46,place,-0.150,-0.150,-0.150,0.000,0.000,0.000
1605196023842104064,10.0.1.125,45,place,-0.140,-0.140,-0.140,0.000,0.000,0.000
1605196024842472192,10.0.1.125,44,place,-0.130,-0.130,-0.130,0.000,0.000,0.000
1605196026800719872,10.0.1.125,NaN,place,-0.110,-0.110,-0.110,0.000,0.000,0.000
1605196026845331968,10.0.1.125,44,place,-0.110,-0.110,-0.110,0.000,0.000,0.000
1605196027842417920,10.0.1.125,40,place,-0.100,-0.100,-0.100,0.000,0.000,0.000
1605196028842820864,10.0.1.125,39,place,-0.090,-0.090,-0.090,0.000,0.000,0.000
1605196030805591040,10.0.1.125,NaN,place,-0.070,-0.070,-0.070,0.000,0.000,0.000
1605196030844019968,10.0.1.125,38,place,-0.070,-0.070,-0.070,0.000,0.000,0.000
1605196031842689024,10.0.1.125,35,place,-0.060,-0.060,-0.060,0.000,0.000,0.000
1605196032843090176,10.0.1.125,35,place,-0.050,-0.050,-0.050,0.000,0.000,0.000
1605196033842010880,10.0.1.125,33,place,-0.040,-0.040,-0.040,0.000,0.000,0.000
1605196034863468032,10.0.1.125,50,place,-0.030,-0.030,-0.030,0.000,0.000,0.000
1605196035862413824,10.0.1.125,48,place,-0.020,-0.020,-0.020,0.000,0.000,0.000
1605196036863528960,10.0.1.125,47,place,-0.010,-0.010,-0.010,0.000,0.000,0.000
1605196037865600000,10.0.1.125,48,place,0.000,0.000,0.000,0.000,0.000,0.000
1605196039213609984,10.0.1.125,394,move_down,-0.020,-0.020,-0.020,0.000,0.000,0.000
1605196040642343936,10.0.1.125,394,move_down,-0.040,-0.040,-0.040,0.000,0.000,0.000
1605196042053543168,10.0.1.125,365,move_down,-0.060,-0.060,-0.060,0.000,0.000,0.000
1605196043512773120,10.0.1.125,385,move_down,-0.080,-0.080,-0.080,0.000,0.000,0.000
1605196044945078016,10.0.1.125,389,move_down,-0.100,-0.100,-0.100,0.000,0.000,0.000
1605196046392457984,10.0.1.125,392,move_down,-0.120,-0.120,-0.120,0.000,0.000,0.000
1605196047853030912,10.0.1.125,395,move_down,-0.140,-0.140,-0.140,0.000,0.000,0.000
1605196049265227008,10.0.1.125,366,move_down,-0.160,-0.160,-0.160,0.000,0.000,0.000
1605196050692528896,10.0.1.125,376,move_down,-0.180,-0.180,-0.180,0.000,0.000,0.000
1605196052142355968,10.0.1.125,385,move_down,-0.200,-0.200,-0.200,0.000,0.000,0.000
1605196053592484096,10.0.1.125,394,move_down,-0.220,-0.220,-0.220,0.000,0.000,0.000
1605196055023300864,10.0.1.125,376,move_down,-0.240,-0.240,-0.240,0.000,0.000,0.000
1605196056490649088,10.0.1.125,418,move_down,-0.260,-0.260,-0.260,0.000,0.000,0.000
1605196057935096064,10.0.1.125,384,move_down,-0.280,-0.280,-0.280,0.000,0.000,0.000
1605196059382653952,10.0.1.125,390,move_down,-0.300,-0.300,-0.300,0.000,0.000,0.000
1605196060814944000,10.0.1.125,375,move_down,-0.320,-0.320,-0.320,0.000,0.000,0.000
1605196062236398848,10.0.1.125,377,move_down,-0.340,-0.340,-0.340,0.000,0.000,0.000
1605196063682411008,10.0.1.125,381,move_down,-0.360,-0.360,-0.360,0.000,0.000,0.000
1605196065112515840,10.0.1.125,363,move_down,-0.380,-0.380,-0.380,0.000,0.000,0.000
1605196066571762176,10.0.1.125,381,move_down,-0.400,-0.400,-0.400,0.000,0.000,0.000
1605196068002230784,10.0.1.125,383,move_down,-0.420,-0.420,-0.420,0.000,0.000,0.000
1605196069433472000,10.0.1.125,384,move_down,-0.440,-0.440,-0.440,0.000,0.000,0.000
1605196070852014080,10.0.1.125,392,move_down,-0.460,-0.460,-0.460,0.000,0.000,0.000
1605196072281896960,10.0.1.125,384,move_down,-0.480,-0.480,-0.480,0.000,0.000,0.000
1605196073692456960,10.0.1.125,376,move_down,-0.500,-0.500,-0.500,0.000,0.000,0.000
1605196075123032064,10.0.1.125,381,move_down,-0.520,-0.520,-0.520,0.000,0.000,0.000
1605196076552203776,10.0.1.125,384,move_down,-0.540,-0.540,-0.540,0.000,0.000,0.000
1605196078002423040,10.0.1.125,388,move_down,-0.560,-0.560,-0.560,0.000,0.000,0.000
1605196079434024192,10.0.1.125,382,move_down,-0.580,-0.580,-0.580,0.000,0.000,0.000
1605196080532344064,10.0.1.125,38,pick,-0.590,-0.590,-0.590,0.000,0.000,0.000
1605196081532210176,10.0.1.125,36,pick,-0.600,-0.600,-0.600,0.000,0.000,0.000
1605196082532214016,10.0.1.125,35,pick,-0.610,-0.610,-0.610,0.000,0.000,0.000
1605196083531938048,10.0.1.125,34,pick,-0.620,-0.620,-0.620,0.000,0.000,0.000
1605196084535638016,10.0.1.125,36,pick,-0.630,-0.630,-0.630,0.000,0.000,0.000
1605196085535878912,10.0.1.125,36,pick,-0.640,-0.640,-0.640,0.000,0.000,0.000
1605196086531897088,10.0.1.125,31,pick,-0.650,-0.650,-0.650,0.000,0.000,0.000
1605196087554904064,10.0.1.125,53,pick,-0.660,-0.660,-0.660,0.000,0.000,0.000
1605196088551884032,10.0.1.125,49,pick,-0.670,-0.670,-0.670,0.000,0.000,0.000
1605196089553100032,10.0.1.125,49,pick,-0.680,-0.680,-0.680,0.000,0.000,0.000
1605196090553421056,10.0.1.125,48,pick,-0.690,-0.690,-0.690,0.000,0.000,0.000
1605196091551691008,10.0.1.125,45,pick,-0.700,-0.700,-0.700,0.000,0.000,0.000
1605196092551984128,10.0.1.125,44,pick,-0.710,-0.710,-0.710,0.000,0.000,0.000
1605196093551998976,10.0.1.125,42,pick,-0.720,-0.720,-0.720,0.000,0.000,0.000
1605196094552066048,10.0.1.125,41,pick,-0.730,-0.730,-0.730,0.000,0.000,0.000
1605196095552206080,10.0.1.125,40,pick,-0.740,-0.740,-0.740,0.000,0.000,0.000
1605196096552040960,10.0.1.125,39,pick,-0.750,-0.750,-0.750,0.000,0.000,0.000
1605196097555795968,10.0.1.125,42,pick,-0.760,-0.760,-0.760,0.000,0.000,0.000
1605196098552243968,10.0.1.125,38,pick,-0.770,-0.770,-0.770,0.000,0.000,0.000
1605196099875835904,10.0.1.125,361,move_up,-0.750,-0.750,-0.750,0.000,0.000,0.000
1605196101307343104,10.0.1.125,409,move_up,-0.730,-0.730,-0.730,0.000,0.000,0.000
1605196102742418944,10.0.1.125,391,move_up,-0.710,-0.710,-0.710,0.000,0.000,0.000
1605196104182904832,10.0.1.125,385,move_up,-0.690,-0.690,-0.690,0.000,0.000,0.000
1605196105596150016,10.0.1.125,360,move_up,-0.670,-0.670,-0.670,0.000,0.000,0.000
1605196107035417088,10.0.1.125,422,move_up,-0.650,-0.650,-0.650,0.000,0.000,0.000
1605196108435147008,10.0.1.125,379,move_up,-0.630,-0.630,-0.630,0.000,0.000,0.000
1605196109866769152,10.0.1.125,387,move_up,-0.610,-0.610,-0.610,0.000,0.000,0.000
1605196111283448832,10.0.1.125,371,move_up,-0.590,-0.590,-0.590,0.000,0.000,0.000
1605196112744466176,10.0.1.125,388,move_up,-0.570,-0.570,-0.570,0.000,0.000,0.000
1605196114163176960,10.0.1.125,375,move_up,-0.550,-0.550,-0.550,0.000,0.000,0.000
1605196115564395008,10.0.1.125,403,move_up,-0.530,-0.530,-0.530,0.000,0.000,0.000
1605196117016880896,10.0.1.125,379,move_up,-0.510,-0.510,-0.510,0.000,0.000,0.000
1605196118442849024,10.0.1.125,376,move_up,-0.490,-0.490,-0.490,0.000,0.000,0.000
1605196119892580864,10.0.1.125,402,move_up,-0.470,-0.470,-0.470,0.000,0.000,0.000
1605196121285414912,10.0.1.125,354,move_up,-0.450,-0.450,-0.450,0.000,0.000,0.000
1605196122693658112,10.0.1.125,390,move_up,-0.430,-0.430,-0.430,0.000,0.000,0.000
1605196124122003200,10.0.1.125,377,move_up,-0.410,-0.410,-0.410,0.000,0.000,0.000
1605196125552425984,10.0.1.125,381,move_up,-0.390,-0.390,-0.390,0.000,0.000,0.000
1605196127002477056,10.0.1.125,383,move_up,-0.370,-0.370,-0.370,0.000,0.000,0.000
1605196128444904960,10.0.1.125,396,move_up,-0.350,-0.350,-0.350,0.000,0.000,0.000
1605196129873150208,10.0.1.125,383,move_up,-0.330,-0.330,-0.330,0.000,0.000,0.000
1605196131322680064,10.0.1.125,391,move_up,-0.310,-0.310,-0.310,0.000,0.000,0.000
1605196132812762880,10.0.1.125,400,move_up,-0.290,-0.290,-0.290,0.000,0.000,0.000
1605196134222125056,10.0.1.125,384,move_up,-0.270,-0.270,-0.270,0.000,0.000,0.000
1605196135652327936,10.0.1.125,372,move_up,-0.250,-0.250,-0.250,0.000,0.000,0.000
1605196137082426112,10.0.1.125,378,move_up,-0.230,-0.230,-0.230,0.000,0.000,0.000
1605196138535034880,10.0.1.125,399,move_up,-0.210,-0.210,-0.210,0.000,0.000,0.000
1605196139982366208,10.0.1.125,384,move_up,-0.190,-0.190,-0.190,0.000,0.000,0.000
1605196141062312960,10.0.1.125,40,place,-0.180,-0.180,-0.180,0.000,0.000,0.000
1605196142068572928,10.0.1.125,46,place,-0.170,-0.170,-0.170,0.000,0.000,0.000
1605196143062427904,10.0.1.125,40,place,-0.160,-0.160,-0.160,0.000,0.000,0.000
1605196144063175936,10.0.1.125,39,place,-0.150,-0.150,-0.150,0.000,0.000,0.000
1605196145062379008,10.0.1.125,37,place,-0.140,-0.140,-0.140,0.000,0.000,0.000
1605196146067186944,10.0.1.125,41,place,-0.130,-0.130,-0.130,0.000,0.000,0.000
1605196147062934016,10.0.1.125,35,place,-0.120,-0.120,-0.120,0.000,0.000,0.000
1605196148062948096,10.0.1.125,35,place,-0.110,-0.110,-0.110,0.000,0.000,0.000
1605196149062753024,10.0.1.125,33,place,-0.100,-0.100,-0.100,0.000,0.000,0.000
1605196150062320896,10.0.1.125,32,place,-0.090,-0.090,-0.090,0.000,0.000,0.000
1605196151083571968,10.0.1.125,52,place,-0.080,-0.080,-0.080,0.000,0.000,0.000
1605196152083267072,10.0.1.125,50,place,-0.070,-0.070,-0.070,0.000,0.000,0.000
1605196153082770944,10.0.1.125,48,place,-0.060,-0.060,-0.060,0.000,0.000,0.000
1605196154083028992,10.0.1.125,47,place,-0.050,-0.050,-0.050,0.000,0.000,0.000
1605196155084899072,10.0.1.125,48,place,-0.040,-0.040,-0.040,0.000,0.000,0.000
1605196156083215104,10.0.1.125,45,place,-0.030,-0.030,-0.030,0.000,0.000,0.000
1605196157083076096,10.0.1.125,44,place,-0.020,-0.020,-0.020,0.000,0.000,0.000
1605196158085320960,10.0.1.125,45,place,-0.010,-0.010,-0.010,0.000,0.000,0.000
1605196159083518976,10.0.1.125,42,place,0.000,0.000,0.000,0.000,0.000,0.000
1605196160420491008,10.0.1.125,378,move_down,-0.020,-0.020,-0.020,0.000,0.000,0.000
1605196161843830016,10.0.1.125,380,move_down,-0.040,-0.040,-0.040,0.000,0.000,0.000
1605196163253169920,10.0.1.125,362,move_down,-0.060,-0.060,-0.060,0.000,0.000,0.000
1605196164693591040,10.0.1.125,378,move_down,-0.080,-0.080,-0.080,0.000,0.000,0.000
1605196166123304960,10.0.1.125,384,move_down,-0.100,-0.100,-0.100,0.000,0.000,0.000
1605196167553477120,10.0.1.125,372,move_down,-0.120,-0.120,-0.120,0.000,0.000,0.000
1605196168992835072,10.0.1.125,392,move_down,-0.140,-0.140,-0.140,0.000,0.000,0.000
1605196170423627008,10.0.1.125,377,move_down,-0.160,-0.160,-0.160,0.000,0.000,0.000
1605196171838315008,10.0.1.125,371,move_down,-0.180,-0.180,-0.180,0.000,0.000,0.000
1605196173304217088,10.0.1.125,406,move_down,-0.200,-0.200,-0.200,0.000,0.000,0.000
1605196174753438976,10.0.1.125,381,move_down,-0.220,-0.220,-0.220,0.000,0.000,0.000
1605196176194843904,10.0.1.125,394,move_down,-0.240,-0.240,-0.240,0.000,0.000,0.000
1605196177613428992,10.0.1.125,365,move_down,-0.260,-0.260,-0.260,0.000,0.000,0.000
1605196179064257024,10.0.1.125,388,move_down,-0.280,-0.280,-0.280,0.000,0.000,0.000
1605196180472706048,10.0.1.125,380,move_down,-0.300,-0.300,-0.300,0.000,0.000,0.000
1605196181883917056,10.0.1.125,365,move_down,-0.320,-0.320,-0.320,0.000,0.000,0.000
1605196183332348160,10.0.1.125,371,move_down,-0.340,-0.340,-0.340,0.000,0.000,0.000
1605196184742950912,10.0.1.125,363,move_down,-0.360,-0.360,-0.360,0.000,0.000,0.000
1605196186202512896,10.0.1.125,403,move_down,-0.380,-0.380,-0.380,0.000,0.000,0.000
1605196187634327040,10.0.1.125,380,move_down,-0.400,-0.400,-0.400,0.000,0.000,0.000
1605196189084114176,10.0.1.125,388,move_down,-0.420,-0.420,-0.420,0.000,0.000,0.000
1605196190522636800,10.0.1.125,393,move_down,-0.440,-0.440,-0.440,0.000,0.000,0.000
1605196191952840960,10.0.1.125,381,move_down,-0.460,-0.460,-0.460,0.000,0.000,0.000
1605196193392926976,10.0.1.125,393,move_down,-0.480,-0.480,-0.480,0.000,0.000,0.000
1605196194826936064,10.0.1.125,383,move_down,-0.500,-0.500,-0.500,0.000,0.000,0.000
1605196196242511104,10.0.1.125,358,move_down,-0.520,-0.520,-0.520,0.000,0.000,0.000
1605196197712282880,10.0.1.125,403,move_down,-0.540,-0.540,-0.540,0.000,0.000,0.000
1605196199133021952,10.0.1.125,383,move_down,-0.560,-0.560,-0.560,0.000,0.000,0.000
1605196200582179072,10.0.1.125,358,move_down,-0.580,-0.580,-0.580,0.000,0.000,0.000
1605196201682724096,10.0.1.125,33,pick,-0.590,-0.590,-0.590,0.000,0.000,0.000
1605196202682275072,10.0.1.125,31,pick,-0.600,-0.600,-0.600,0.000,0.000,0.000
1605196203702315008,10.0.1.125,50,pick,-0.610,-0.610,-0.610,0.000,0.000,0.000
1605196204706368000,10.0.1.125,53,pick,-0.620,-0.620,-0.620,0.000,0.000,0.000
1605196205706420992,10.0.1.125,51,pick,-0.630,-0.630,-0.630,0.000,0.000,0.000
1605196206706861056,10.0.1.125,46,pick,-0.640,-0.640,-0.640,0.000,0.000,0.000
1605196207702092800,10.0.1.125,40,pick,-0.650,-0.650,-0.650,0.000,0.000,0.000
1605196208707994112,10.0.1.125,44,pick,-0.660,-0.660,-0.660,0.000,0.000,0.000
1605196209702244096,10.0.1.125,37,pick,-0.670,-0.670,-0.670,0.000,0.000,0.000
1605196210709711104,10.0.1.125,43,pick,-0.680,-0.680,-0.680,0.000,0.000,0.000
1605196211706518016,10.0.1.125,38,pick,-0.690,-0.690,-0.690,0.000,0.000,0.000
1605196212706343936,10.0.1.125,37,pick,-0.700,-0.700,-0.700,0.000,0.000,0.000
1605196213709007872,10.0.1.125,38,pick,-0.710,-0.710,-0.710,0.000,0.000,0.000
1605196214721726976,10.0.1.125,50,pick,-0.720,-0.720,-0.720,0.000,0.000,0.000
1605196215722701056,10.0.1.125,49,pick,-0.730,-0.730,-0.730,0.000,0.000,0.000
1605196216722172928,10.0.1.125,48,pick,-0.740,-0.740,-0.740,0.000,0.000,0.000
1605196217723361024,10.0.1.125,48,pick,-0.750,-0.750,-0.750,0.000,0.000,0.000
1605196218724364032,10.0.1.125,48,pick,-0.760,-0.760,-0.760,0.000,0.000,0.000
1605196219730482944,10.0.1.125,53,pick,-0.770,-0.770,-0.770,0.000,0.000,0.000
1605196221052057856,10.0.1.125,373,move_up,-0.750,-0.750,-0.750,0.000,0.000,0.000
1605196222513529088,10.0.1.125,410,move_up,-0.730,-0.730,-0.730,0.000,0.000,0.000
1605196223908559104,10.0.1.125,360,move_up,-0.710,-0.710,-0.710,0.000,0.000,0.000
1605196225332644864,10.0.1.125,367,move_up,-0.690,-0.690,-0.690,0.000,0.000,0.000
1605196226762548992,10.0.1.125,382,move_up,-0.670,-0.670,-0.670,0.000,0.000,0.000
1605196228192446976,10.0.1.125,366,move_up,-0.650,-0.650,-0.650,0.000,0.000,0.000
1605196229642076928,10.0.1.125,399,move_up,-0.630,-0.630,-0.630,0.000,0.000,0.000
1605196231042200064,10.0.1.125,359,move_up,-0.610,-0.610,-0.610,0.000,0.000,0.000
1605196232492566016,10.0.1.125,387,move_up,-0.590,-0.590,-0.590,0.000,0.000,0.000
1605196233922168064,10.0.1.125,373,move_up,-0.570,-0.570,-0.570,0.000,0.000,0.000
1605196235372430080,10.0.1.125,399,move_up,-0.550,-0.550,-0.550,0.000,0.000,0.000
1605196236792755968,10.0.1.125,376,move_up,-0.530,-0.530,-0.530,0.000,0.000,0.000
1605196238233377024,10.0.1.125,377,move_up,-0.510,-0.510,-0.510,0.000,0.000,0.000
1605196239682363136,10.0.1.125,403,move_up,-0.490,-0.490,-0.490,0.000,0.000,0.000
1605196241093419008,10.0.1.125,372,move_up,-0.470,-0.470,-0.470,0.000,0.000,0.000
1605196242524076032,10.0.1.125,378,move_up,-0.450,-0.450,-0.450,0.000,0.000,0.000
1605196243991725056,10.0.1.125,422,move_up,-0.430,-0.430,-0.430,0.000,0.000,0.000
1605196245422384896,10.0.1.125,384,move_up,-0.410,-0.410,-0.410,0.000,0.000,0.000
1605196246851896064,10.0.1.125,373,move_up,-0.390,-0.390,-0.390,0.000,0.000,0.000
1605196248287343104,10.0.1.125,385,move_up,-0.370,-0.370,-0.370,0.000,0.000,0.000
1605196249661956096,10.0.1.125,380,move_up,-0.350,-0.350,-0.350,0.000,0.000,0.000
1605196251072147968,10.0.1.125,364,move_up,-0.330,-0.330,-0.330,0.000,0.000,0.000
1605196252492306944,10.0.1.125,371,move_up,-0.310,-0.310,-0.310,0.000,0.000,0.000
1605196253954011904,10.0.1.125,391,move_up,-0.290,-0.290,-0.290,0.000,0.000,0.000
1605196255383670016,10.0.1.125,379,move_up,-0.270,-0.270,-0.270,0.000,0.000,0.000
1605196256854055936,10.0.1.125,401,move_up,-0.250,-0.250,-0.250,0.000,0.000,0.000
1605196258262067968,10.0.1.125,365,move_up,-0.230,-0.230,-0.230,0.000,0.000,0.000
1605196259712475904,10.0.1.125,399,move_up,-0.210,-0.210,-0.210,0.000,0.000,0.000
1605196261122239232,10.0.1.125,368,move_up,-0.190,-0.190,-0.190,0.000,0.000,0.000
1605196262225094144,10.0.1.125,53,place,-0.180,-0.180,-0.180,0.000,0.000,0.000
1605196263225788160,10.0.1.125,53,place,-0.170,-0.170,-0.170,0.000,0.000,0.000
1605196264222558976,10.0.1.125,48,place,-0.160,-0.160,-0.160,0.000,0.000,0.000
1605196265229660160,10.0.1.125,54,place,-0.150,-0.150,-0.150,0.000,0.000,0.000
1605196266230225920,10.0.1.125,53,place,-0.140,-0.140,-0.140,0.000,0.000,0.000
1605196267226008832,10.0.1.125,48,place,-0.130,-0.130,-0.130,0.000,0.000,0.000
1605196268222733056,10.0.1.125,43,place,-0.120,-0.120,-0.120,0.000,0.000,0.000
1605196269222935040,10.0.1.125,43,place,-0.110,-0.110,-0.110,0.000,0.000,0.000
1605196270227396864,10.0.1.125,47,place,-0.100,-0.100,-0.100,0.000,0.000,0.000
1605196271224178944,10.0.1.125,42,place,-0.090,-0.090,-0.090,0.000,0.000,0.000
1605196272225299968,10.0.1.125,42,place,-0.080,-0.080,-0.080,0.000,0.000,0.000
1605196273225719808,10.0.1.125,40,place,-0.070,-0.070,-0.070,0.000,0.000,0.000
1605196274225888000,10.0.1.125,39,place,-0.060,-0.060,-0.060,0.000,0.000,0.000
1605196275227781120,10.0.1.125,40,place,-0.050,-0.050,-0.050,0.000,0.000,0.000
1605196276228449024,10.0.1.125,39,place,-0.040,-0.040,-0.040,0.000,0.000,0.000
1605196277226309120,10.0.1.125,36,place,-0.030,-0.030,-0.030,0.000,0.000,0.000
1605196278226337792,10.0.1.125,35,place,-0.020,-0.020,-0.020,0.000,0.000,0.000
1605196279242320896,10.0.1.125,49,place,-0.010,-0.010,-0.010,0.000,0.000,0.000
1605196280242744832,10.0.1.125,48,place,0.000,0.000,0.000,0.000,0.000,0.000
1605196281582472192,10.0.1.125,387,move_down,-0.020,-0.020,-0.020,0.000,0.000,0.000
1605196283019593984,10.0.1.125,381,move_down,-0.040,-0.040,-0.040,0.000,0.000,0.000
1605196284443258880,10.0.1.125,376,move_down,-0.060,-0.060,-0.060,0.000,0.000,0.000
1605196285893543936,10.0.1.125,404,move_down,-0.080,-0.080,-0.080,0.000,0.000,0.000
1605196287307387136,10.0.1.125,377,move_down,-0.100,-0.100,-0.100,0.000,0.000,0.000
1605196288733329920,10.0.1.125,373,move_down,-0.120,-0.120,-0.120,0.000,0.000,0.000
1605196290162755072,10.0.1.125,378,move_down,-0.140,-0.140,-0.140,0.000,0.000,0.000
1605196291612471040,10.0.1.125,386,move_down,-0.160,-0.160,-0.160,0.000,0.000,0.000
1605196293036392960,10.0.1.125,369,move_down,-0.180,-0.180,-0.180,0.000,0.000,0.000
1605196294482675968,10.0.1.125,392,move_down,-0.200,-0.200,-0.200,0.000,0.000,0.000
1605196295922297088,10.0.1.125,387,move_down,-0.220,-0.220,-0.220,0.000,0.000,0.000
1605196297332838912,10.0.1.125,355,move_down,-0.240,-0.240,-0.240,0.000,0.000,0.000
1605196298793026048,10.0.1.125,389,move_down,-0.260,-0.260,-0.260,0.000,0.000,0.000
1605196300202480128,10.0.1.125,360,move_down,-0.280,-0.280,-0.280,0.000,0.000,0.000
1605196301672833024,10.0.1.125,402,move_down,-0.300,-0.300,-0.300,0.000,0.000,0.000
1605196303082771968,10.0.1.125,370,move_down,-0.320,-0.320,-0.320,0.000,0.000,0.000
1605196304491982848,10.0.1.125,360,move_down,-0.340,-0.340,-0.340,0.000,0.000,0.000
1605196305952228096,10.0.1.125,393,move_down,-0.360,-0.360,-0.360,0.000,0.000,0.000
1605196307382255104,10.0.1.125,381,move_down,-0.380,-0.380,-0.380,0.000,0.000,0.000
1605196308792061184,10.0.1.125,349,move_down,-0.400,-0.400,-0.400,0.000,0.000,0.000
1605196310232118016,10.0.1.125,368,move_down,-0.420,-0.420,-0.420,0.000,0.000,0.000
1605196311683159040,10.0.1.125,390,move_down,-0.440,-0.440,-0.440,0.000,0.000,0.000
1605196313108748032,10.0.1.125,389,move_down,-0.460,-0.460,-0.460,0.000,0.000,0.000
1605196314578213888,10.0.1.125,406,move_down,-0.480,-0.480,-0.480,0.000,0.000,0.000
1605196316002204928,10.0.1.125,387,move_down,-0.500,-0.500,-0.500,0.000,0.000,0.000
1605196317422406912,10.0.1.125,373,move_down,-0.520,-0.520,-0.520,0.000,0.000,0.000
1605196318872690944,10.0.1.125,382,move_down,-0.540,-0.540,-0.540,0.000,0.000,0.000
1605196320325004032,10.0.1.125,388,move_down,-0.560,-0.560,-0.560,0.000,0.000,0.000
1605196321755116032,10.0.1.125,373,move_down,-0.580,-0.580,-0.580,0.000,0.000,0.000
1605196322853032192,10.0.1.125,47,pick,-0.590,-0.590,-0.590,0.000,0.000,0.000
1605196323858246144,10.0.1.125,51,pick,-0.600,-0.600,-0.600,0.000,0.000,0.000
1605196324857260032,10.0.1.125,49,pick,-0.610,-0.610,-0.610,0.000,0.000,0.000
1605196325853732096,10.0.1.125,44,pick,-0.620,-0.620,-0.620,0.000,0.000,0.000
1605196327811348992,10.0.1.125,NaN,pick,-0.640,-0.640,-0.640,0.000,0.000,0.000
1605196327853200896,10.0.1.125,41,pick,-0.640,-0.640,-0.640,0.000,0.000,0.000
1605196328852803072,10.0.1.125,40,pick,-0.650,-0.650,-0.650,0.000,0.000,0.000
1605196329852723968,10.0.1.125,38,pick,-0.660,-0.660,-0.660,0.000,0.000,0.000
1605196330852773888,10.0.1.125,37,pick,-0.670,-0.670,-0.670,0.000,0.000,0.000
1605196331852256000,10.0.1.125,35,pick,-0.680,-0.680,-0.680,0.000,0.000,0.000
1605196332852848128,10.0.1.125,34,pick,-0.690,-0.690,-0.690,0.000,0.000,0.000
1605196333852273920,10.0.1.125,33,pick,-0.700,-0.700,-0.700,0.000,0.000,0.000
1605196334852192000,10.0.1.125,32,pick,-0.710,-0.710,-0.710,0.000,0.000,0.000
1605196335852699136,10.0.1.125,31,pick,-0.720,-0.720,-0.720,0.000,0.000,0.000
1605196336872502016,10.0.1.125,50,pick,-0.730,-0.730,-0.730,0.000,0.000,0.000
1605196337872705024,10.0.1.125,49,pick,-0.740,-0.740,-0.740,0.000,0.000,0.000
1605196338872873984,10.0.1.125,48,pick,-0.750,-0.750,-0.750,0.000,0.000,0.000
1605196339873355008,10.0.1.125,47,pick,-0.760,-0.760,-0.760,0.000,0.000,0.000
1605196340872844032,10.0.1.125,45,pick,-0.770,-0.770,-0.770,0.000,0.000,0.000
1605196342182995200,10.0.1.125,354,move_up,-0.750,-0.750,-0.750,0.000,0.000,0.000
1605196343635211008,10.0.1.125,387,move_up,-0.730,-0.730,-0.730,0.000,0.000,0.000
1605196345063052032,10.0.1.125,375,move_up,-0.710,-0.710,-0.710,0.000,0.000,0.000
1605196346523036928,10.0.1.125,393,move_up,-0.690,-0.690,-0.690,0.000,0.000,0.000
1605196347993035008,10.0.1.125,423,move_up,-0.670,-0.670,-0.670,0.000,0.000,0.000
1605196349422338048,10.0.1.125,379,move_up,-0.650,-0.650,-0.650,0.000,0.000,0.000
1605196350864188928,10.0.1.125,393,move_up,-0.630,-0.630,-0.630,0.000,0.000,0.000
1605196352292809984,10.0.1.125,381,move_up,-0.610,-0.610,-0.610,0.000,0.000,0.000
1605196353723331840,10.0.1.125,370,move_up,-0.590,-0.590,-0.590,0.000,0.000,0.000
1605196355142406912,10.0.1.125,376,move_up,-0.570,-0.570,-0.570,0.000,0.000,0.000
1605196356573849856,10.0.1.125,383,move_up,-0.550,-0.550,-0.550,0.000,0.000,0.000
1605196358014811136,10.0.1.125,373,move_up,-0.530,-0.530,-0.530,0.000,0.000,0.000
1605196359415874048,10.0.1.125,356,move_up,-0.510,-0.510,-0.510,0.000,0.000,0.000
1605196360824883968,10.0.1.125,348,move_up,-0.490,-0.490,-0.490,0.000,0.000,0.000
1605196362252934912,10.0.1.125,403,move_up,-0.470,-0.470,-0.470,0.000,0.000,0.000
1605196363642484992,10.0.1.125,351,move_up,-0.450,-0.450,-0.450,0.000,0.000,0.000
1605196365092574976,10.0.1.125,382,move_up,-0.430,-0.430,-0.430,0.000,0.000,0.000
1605196366543689984,10.0.1.125,393,move_up,-0.410,-0.410,-0.410,0.000,0.000,0.000
1605196367991486976,10.0.1.125,398,move_up,-0.390,-0.390,-0.390,0.000,0.000,0.000
1605196369429074176,10.0.1.125,395,move_up,-0.370,-0.370,-0.370,0.000,0.000,0.000
1605196370841963008,10.0.1.125,386,move_up,-0.350,-0.350,-0.350,0.000,0.000,0.000
1605196372272205056,10.0.1.125,373,move_up,-0.330,-0.330,-0.330,0.000,0.000,0.000
1605196373705041920,10.0.1.125,379,move_up,-0.310,-0.310,-0.310,0.000,0.000,0.000
1605196375112819968,10.0.1.125,359,move_up,-0.290,-0.290,-0.290,0.000,0.000,0.000
1605196376572371968,10.0.1.125,410,move_up,-0.270,-0.270,-0.270,0.000,0.000,0.000
1605196378032748032,10.0.1.125,397,move_up,-0.250,-0.250,-0.250,0.000,0.000,0.000
1605196379472688896,10.0.1.125,393,move_up,-0.230,-0.230,-0.230,0.000,0.000,0.000
1605196380902010880,10.0.1.125,371,move_up,-0.210,-0.210,-0.210,0.000,0.000,0.000
1605196382311909888,10.0.1.125,360,move_up,-0.190,-0.190,-0.190,0.000,0.000,0.000
1605196383456572928,10.0.1.125,62,place,-0.180,-0.180,-0.180,0.000,0.000,0.000
1605196384431727872,10.0.1.125,36,place,-0.170,-0.170,-0.170,0.000,0.000,0.000
1605196385432627968,10.0.1.125,35,place,-0.160,-0.160,-0.160,0.000,0.000,0.000
1605196386439140096,10.0.1.125,41,place,-0.150,-0.150,-0.150,0.000,0.000,0.000
1605196387434560000,10.0.1.125,35,place,-0.140,-0.140,-0.140,0.000,0.000,0.000
1605196388431872000,10.0.1.125,31,place,-0.130,-0.130,-0.130,0.000,0.000,0.000
1605196389452423936,10.0.1.125,50,place,-0.120,-0.120,-0.120,0.000,0.000,0.000
1605196390452326912,10.0.1.125,49,place,-0.110,-0.110,-0.110,0.000,0.000,0.000
1605196392405257984,10.0.1.125,NaN,place,-0.090,-0.090,-0.090,0.000,0.000,0.000
1605196392452729088,10.0.1.125,47,place,-0.090,-0.090,-0.090,0.000,0.000,0.000
1605196394406670080,10.0.1.125,NaN,place,-0.070,-0.070,-0.070,0.000,0.000,0.000
1605196394452410880,10.0.1.125,45,place,-0.070,-0.070,-0.070,0.000,0.000,0.000
1605196395452640000,10.0.1.125,44,place,-0.060,-0.060,-0.060,0.000,0.000,0.000
1605196396452068096,10.0.1.125,42,place,-0.050,-0.050,-0.050,0.000,0.000,0.000
1605196397452260864,10.0.1.125,42,place,-0.040,-0.040,-0.040,0.000,0.000,0.000
1605196398452101120,10.0.1.125,41,place,-0.030,-0.030,-0.030,0.000,0.000,0.000
1605196399452191232,10.0.1.125,40,place,-0.020,-0.020,-0.020,0.000,0.000,0.000
1605196400452550912,10.0.1.125,39,place,-0.010,-0.010,-0.010,0.000,0.000,0.000
1605196401452529920,10.0.1.125,38,place,0.000,0.000,0.000,0.000,0.000,0.000
1605196402802243072,10.0.1.125,386,move_down,-0.020,-0.020,-0.020,0.000,0.000,0.000
1605196404232625920,10.0.1.125,374,move_down,-0.040,-0.040,-0.040,0.000,0.000,0.000
1605196405652379136,10.0.1.125,366,move_down,-0.060,-0.060,-0.060,0.000,0.000,0.000
1605196407072141824,10.0.1.125,357,move_down,-0.080,-0.080,-0.080,0.000,0.000,0.000
1605196408522237952,10.0.1.125,367,move_down,-0.100,-0.100,-0.100,0.000,0.000,0.000
1605196409962219008,10.0.1.125,391,move_down,-0.120,-0.120,-0.120,0.000,0.000,0.000
1605196411425121024,10.0.1.125,405,move_down,-0.140,-0.140,-0.140,0.000,0.000,0.000
1605196412816551936,10.0.1.125,369,move_down,-0.160,-0.160,-0.160,0.000,0.000,0.000
1605196414262679040,10.0.1.125,381,move_down,-0.180,-0.180,-0.180,0.000,0.000,0.000
1605196415682539008,10.0.1.125,365,move_down,-0.200,-0.200,-0.200,0.000,0.000,0.000
1605196417113143040,10.0.1.125,379,move_down,-0.220,-0.220,-0.220,0.000,0.000,0.000
1605196418562757888,10.0.1.125,387,move_down,-0.240,-0.240,-0.240,0.000,0.000,0.000
1605196419975620096,10.0.1.125,375,move_down,-0.260,-0.260,-0.260,0.000,0.000,0.000
1605196421382484992,10.0.1.125,407,move_down,-0.280,-0.280,-0.280,0.000,0.000,0.000
1605196422783687168,10.0.1.125,360,move_down,-0.300,-0.300,-0.300,0.000,0.000,0.000
1605196424233490944,10.0.1.125,389,move_down,-0.320,-0.320,-0.320,0.000,0.000,0.000
1605196425672926976,10.0.1.125,381,move_down,-0.340,-0.340,-0.340,0.000,0.000,0.000
1605196427127739904,10.0.1.125,391,move_down,-0.360,-0.360,-0.360,0.000,0.000,0.000
1605196428509277184,10.0.1.125,358,move_down,-0.380,-0.380,-0.380,0.000,0.000,0.000
1605196429952168960,10.0.1.125,382,move_down,-0.400,-0.400,-0.400,0.000,0.000,0.000
1605196431422830080,10.0.1.125,406,move_down,-0.420,-0.420,-0.420,0.000,0.000,0.000
1605196432872504832,10.0.1.125,413,move_down,-0.440,-0.440,-0.440,0.000,0.000,0.000
1605196434281972992,10.0.1.125,373,move_down,-0.460,-0.460,-0.460,0.000,0.000,0.000
1605196435672439040,10.0.1.125,380,move_down,-0.480,-0.480,-0.480,0.000,0.000,0.000
1605196437122641920,10.0.1.125,389,move_down,-0.500,-0.500,-0.500,0.000,0.000,0.000
1605196438532520960,10.0.1.125,363,move_down,-0.520,-0.520,-0.520,0.000,0.000,0.000
1605196439973000960,10.0.1.125,374,move_down,-0.540,-0.540,-0.540,0.000,0.000,0.000
1605196441432826880,10.0.1.125,393,move_down,-0.560,-0.560,-0.560,0.000,0.000,0.000
1605196442853249024,10.0.1.125,373,move_down,-0.580,-0.580,-0.580,0.000,0.000,0.000
1605196443952734976,10.0.1.125,46,pick,-0.590,-0.590,-0.590,0.000,0.000,0.000
1605196444955062016,10.0.1.125,47,pick,-0.600,-0.600,-0.600,0.000,0.000,0.000
1605196445952883968,10.0.1.125,45,pick,-0.610,-0.610,-0.610,0.000,0.000,0.000
1605196446952715008,10.0.1.125,43,pick,-0.620,-0.620,-0.620,0.000,0.000,0.000
1605196447954649088,10.0.1.125,44,pick,-0.630,-0.630,-0.630,0.000,0.000,0.000
1605196448954515968,10.0.1.125,43,pick,-0.640,-0.640,-0.640,0.000,0.000,0.000
1605196449952205056,10.0.1.125,40,pick,-0.650,-0.650,-0.650,0.000,0.000,0.000
1605196450956076032,10.0.1.125,42,pick,-0.660,-0.660,-0.660,0.000,0.000,0.000
1605196451952397056,10.0.1.125,37,pick,-0.670,-0.670,-0.670,0.000,0.000,0.000
1605196452952009984,10.0.1.125,36,pick,-0.680,-0.680,-0.680,0.000,0.000,0.000
1605196453952346112,10.0.1.125,35,pick,-0.690,-0.690,-0.690,0.000,0.000,0.000
1605196454953768960,10.0.1.125,35,pick,-0.700,-0.700,-0.700,0.000,0.000,0.000
1605196455952199936,10.0.1.125,32,pick,-0.710,-0.710,-0.710,0.000,0.000,0.000
1605196456951778816,10.0.1.125,31,pick,-0.720,-0.720,-0.720,0.000,0.000,0.000
1605196457973272064,10.0.1.125,51,pick,-0.730,-0.730,-0.730,0.000,0.000,0.000
1605196458975174912,10.0.1.125,52,pick,-0.740,-0.740,-0.740,0.000,0.000,0.000
1605196459972323840,10.0.1.125,47,pick,-0.750,-0.750,-0.750,0.000,0.000,0.000
1605196460972886016,10.0.1.125,47,pick,-0.760,-0.760,-0.760,0.000,0.000,0.000
1605196461974929920,10.0.1.125,47,pick,-0.770,-0.770,-0.770,0.000,0.000,0.000
1605196463292579840,10.0.1.125,364,move_up,-0.750,-0.750,-0.750,0.000,0.000,0.000
1605196464732072192,10.0.1.125,376,move_up,-0.730,-0.730,-0.730,0.000,0.000,0.000
1605196466162200064,10.0.1.125,380,move_up,-0.710,-0.710,-0.710,0.000,0.000,0.000
1605196467626203136,10.0.1.125,403,move_up,-0.690,-0.690,-0.690,0.000,0.000,0.000
1605196469072833024,10.0.1.125,377,move_up,-0.670,-0.670,-0.670,0.000,0.000,0.000
1605196470531845120,10.0.1.125,396,move_up,-0.650,-0.650,-0.650,0.000,0.000,0.000
1605196471997832960,10.0.1.125,419,move_up,-0.630,-0.630,-0.630,0.000,0.000,0.000
1605196473442657024,10.0.1.125,387,move_up,-0.610,-0.610,-0.610,0.000,0.000,0.000
1605196474893029888,10.0.1.125,392,move_up,-0.590,-0.590,-0.590,0.000,0.000,0.000
1605196476333796096,10.0.1.125,380,move_up,-0.570,-0.570,-0.570,0.000,0.000,0.000
1605196477763642112,10.0.1.125,381,move_up,-0.550,-0.550,-0.550,0.000,0.000,0.000
1605196479203660032,10.0.1.125,380,move_up,-0.530,-0.530,-0.530,0.000,0.000,0.000
1605196480682822912,10.0.1.125,377,move_up,-0.510,-0.510,-0.510,0.000,0.000,0.000
1605196482122780928,10.0.1.125,388,move_up,-0.490,-0.490,-0.490,0.000,0.000,0.000
1605196483555776000,10.0.1.125,376,move_up,-0.470,-0.470,-0.470,0.000,0.000,0.000
1605196484992190976,10.0.1.125,385,move_up,-0.450,-0.450,-0.450,0.000,0.000,0.000
1605196486422458880,10.0.1.125,383,move_up,-0.430,-0.430,-0.430,0.000,0.000,0.000
1605196487855771136,10.0.1.125,374,move_up,-0.410,-0.410,-0.410,0.000,0.000,0.000
1605196489271884032,10.0.1.125,402,move_up,-0.390,-0.390,-0.390,0.000,0.000,0.000
1605196490772235008,10.0.1.125,417,move_up,-0.370,-0.370,-0.370,0.000,0.000,0.000
1605196492205331968,10.0.1.125,378,move_up,-0.350,-0.350,-0.350,0.000,0.000,0.000
1605196493624649984,10.0.1.125,374,move_up,-0.330,-0.330,-0.330,0.000,0.000,0.000
1605196495093741056,10.0.1.125,400,move_up,-0.310,-0.310,-0.310,0.000,0.000,0.000
1605196496549305856,10.0.1.125,395,move_up,-0.290,-0.290,-0.290,0.000,0.000,0.000
1605196497952809216,10.0.1.125,374,move_up,-0.270,-0.270,-0.270,0.000,0.000,0.000
1605196499401870848,10.0.1.125,382,move_up,-0.250,-0.250,-0.250,0.000,0.000,0.000
1605196500862835968,10.0.1.125,400,move_up,-0.230,-0.230,-0.230,0.000,0.000,0.000
1605196502343442944,10.0.1.125,408,move_up,-0.210,-0.210,-0.210,0.000,0.000,0.000
1605196503842729216,10.0.1.125,387,move_up,-0.190,-0.190,-0.190,0.000,0.000,0.000
1605196504932774144,10.0.1.125,48,place,-0.180,-0.180,-0.180,0.000,0.000,0.000
1605196505932303872,10.0.1.125,46,place,-0.170,-0.170,-0.170,0.000,0.000,0.000
1605196506932046848,10.0.1.125,45,place,-0.160,-0.160,-0.160,0.000,0.000,0.000
1605196507932486912,10.0.1.125,44,place,-0.150,-0.150,-0.150,0.000,0.000,0.000
1605196508932584960,10.0.1.125,43,place,-0.140,-0.140,-0.140,0.000,0.000,0.000
1605196509933257216,10.0.1.125,43,place,-0.130,-0.130,-0.130,0.000,0.000,0.000
1605196510933294080,10.0.1.125,39,place,-0.120,-0.120,-0.120,0.000,0.000,0.000
1605196511932729088,10.0.1.125,38,place,-0.110,-0.110,-0.110,0.000,0.000,0.000
1605196512932879872,10.0.1.125,37,place,-0.100,-0.100,-0.100,0.000,0.000,0.000
1605196513934114048,10.0.1.125,37,place,-0.090,-0.090,-0.090,0.000,0.000,0.000
1605196514932684800,10.0.1.125,35,place,-0.080,-0.080,-0.080,0.000,0.000,0.000
1605196515931809024,10.0.1.125,33,place,-0.070,-0.070,-0.070,0.000,0.000,0.000
1605196516938568960,10.0.1.125,38,place,-0.060,-0.060,-0.060,0.000,0.000,0.000
1605196517932820992,10.0.1.125,31,place,-0.050,-0.050,-0.050,0.000,0.000,0.000
1605196518952043008,10.0.1.125,49,place,-0.040,-0.040,-0.040,0.000,0.000,0.000
1605196519952709888,10.0.1.125,49,place,-0.030,-0.030,-0.030,0.000,0.000,0.000
1605196520952940032,10.0.1.125,48,place,-0.020,-0.020,-0.020,0.000,0.000,0.000
1605196521952809216,10.0.1.125,47,place,-0.010,-0.010,-0.010,0.000,0.000,0.000
1605196522953452032,10.0.1.125,47,place,0.000,0.000,0.000,0.000,0.000,0.000
1605196524307319040,10.0.1.125,399,move_down,-0.020,-0.020,-0.020,0.000,0.000,0.000
1605196525712434176,10.0.1.125,377,move_down,-0.040,-0.040,-0.040,0.000,0.000,0.000
1605196527166423040,10.0.1.125,404,move_down,-0.060,-0.060,-0.060,0.000,0.000,0.000
1605196528612421888,10.0.1.125,377,move_down,-0.080,-0.080,-0.080,0.000,0.000,0.000
1605196530062292224,10.0.1.125,386,move_down,-0.100,-0.100,-0.100,0.000,0.000,0.000
1605196531442658048,10.0.1.125,356,move_down,-0.120,-0.120,-0.120,0.000,0.000,0.000
1605196532868526848,10.0.1.125,363,move_down,-0.140,-0.140,-0.140,0.000,0.000,0.000
1605196534322451200,10.0.1.125,398,move_down,-0.160,-0.160,-0.160,0.000,0.000,0.000
1605196535721940992,10.0.1.125,357,move_down,-0.180,-0.180,-0.180,0.000,0.000,0.000
1605196537173069056,10.0.1.125,387,move_down,-0.200,-0.200,-0.200,0.000,0.000,0.000
1605196538592144896,10.0.1.125,376,move_down,-0.220,-0.220,-0.220,0.000,0.000,0.000
1605196540027833856,10.0.1.125,388,move_down,-0.240,-0.240,-0.240,0.000,0.000,0.000
1605196541454676992,10.0.1.125,388,move_down,-0.260,-0.260,-0.260,0.000,0.000,0.000
1605196542882199040,10.0.1.125,374,move_down,-0.280,-0.280,-0.280,0.000,0.000,0.000
1605196544392515072,10.0.1.125,409,move_down,-0.300,-0.300,-0.300,0.000,0.000,0.000
1605196545807331072,10.0.1.125,380,move_down,-0.320,-0.320,-0.320,0.000,0.000,0.000
1605196547221709056,10.0.1.125,370,move_down,-0.340,-0.340,-0.340,0.000,0.000,0.000
1605196548693107968,10.0.1.125,394,move_down,-0.360,-0.360,-0.360,0.000,0.000,0.000
1605196550133256960,10.0.1.125,381,move_down,-0.380,-0.380,-0.380,0.000,0.000,0.000
1605196551553353984,10.0.1.125,373,move_down,-0.400,-0.400,-0.400,0.000,0.000,0.000
1605196553002108160,10.0.1.125,382,move_down,-0.420,-0.420,-0.420,0.000,0.000,0.000
1605196554426491136,10.0.1.125,375,move_down,-0.440,-0.440,-0.440,0.000,0.000,0.000
1605196555873210880,10.0.1.125,379,move_down,-0.460,-0.460,-0.460,0.000,0.000,0.000
1605196557312665088,10.0.1.125,392,move_down,-0.480,-0.480,-0.480,0.000,0.000,0.000
1605196558755237120,10.0.1.125,394,move_down,-0.500,-0.500,-0.500,0.000,0.000,0.000
1605196560203177984,10.0.1.125,397,move_down,-0.520,-0.520,-0.520,0.000,0.000,0.000
1605196561624135936,10.0.1.125,377,move_down,-0.540,-0.540,-0.540,0.000,0.000,0.000
1605196563062547968,10.0.1.125,374,move_down,-0.560,-0.560,-0.560,0.000,0.000,0.000
1605196564513027072,10.0.1.125,406,move_down,-0.580,-0.580,-0.580,0.000,0.000,0.000
1605196565641107968,10.0.1.125,55,pick,-0.590,-0.590,-0.590,0.000,0.000,0.000
1605196566632824832,10.0.1.125,45,pick,-0.600,-0.600,-0.600,0.000,0.000,0.000
1605196567634291968,10.0.1.125,45,pick,-0.610,-0.610,-0.610,0.000,0.000,0.000
1605196568632731904,10.0.1.125,42,pick,-0.620,-0.620,-0.620,0.000,0.000,0.000
1605196569632239104,10.0.1.125,38,pick,-0.630,-0.630,-0.630,0.000,0.000,0.000
1605196570632304896,10.0.1.125,36,pick,-0.640,-0.640,-0.640,0.000,0.000,0.000
1605196571633477888,10.0.1.125,36,pick,-0.650,-0.650,-0.650,0.000,0.000,0.000
1605196572632449024,10.0.1.125,34,pick,-0.660,-0.660,-0.660,0.000,0.000,0.000
1605196573633191936,10.0.1.125,33,pick,-0.670,-0.670,-0.670,0.000,0.000,0.000
1605196574632505856,10.0.1.125,31,pick,-0.680,-0.680,-0.680,0.000,0.000,0.000
1605196575653027072,10.0.1.125,51,pick,-0.690,-0.690,-0.690,0.000,0.000,0.000
1605196576652527104,10.0.1.125,49,pick,-0.700,-0.700,-0.700,0.000,0.000,0.000
1605196578605668096,10.0.1.125,NaN,pick,-0.720,-0.720,-0.720,0.000,0.000,0.000
1605196578652389120,10.0.1.125,46,pick,-0.720,-0.720,-0.720,0.000,0.000,0.000
1605196579656824064,10.0.1.125,49,pick,-0.730,-0.730,-0.730,0.000,0.000,0.000
1605196580653089024,10.0.1.125,45,pick,-0.740,-0.740,-0.740,0.000,0.000,0.000
1605196581652262912,10.0.1.125,43,pick,-0.750,-0.750,-0.750,0.000,0.000,0.000
1605196582652226816,10.0.1.125,42,pick,-0.760,-0.760,-0.760,0.000,0.000,0.000
1605196583652254208,10.0.1.125,40,pick,-0.770,-0.770,-0.770,0.000,0.000,0.000
1605196584992232960,10.0.1.125,379,move_up,-0.750,-0.750,-0.750,0.000,0.000,0.000
1605196586462294016,10.0.1.125,376,move_up,-0.730,-0.730,-0.730,0.000,0.000,0.000
1605196587908925952,10.0.1.125,397,move_up,-0.710,-0.710,-0.710,0.000,0.000,0.000
1605196589345003008,10.0.1.125,390,move_up,-0.690,-0.690,-0.690,0.000,0.000,0.000
1605196590784221952,10.0.1.125,386,move_up,-0.670,-0.670,-0.670,0.000,0.000,0.000
1605196592214832896,10.0.1.125,380,move_up,-0.650,-0.650,-0.650,0.000,0.000,0.000
1605196593643600896,10.0.1.125,382,move_up,-0.630,-0.630,-0.630,0.000,0.000,0.000
1605196595075486976,10.0.1.125,384,move_up,-0.610,-0.610,-0.610,0.000,0.000,0.000
1605196596510669824,10.0.1.125,379,move_up,-0.590,-0.590,-0.590,0.000,0.000,0.000
1605196597977814016,10.0.1.125,423,move_up,-0.570,-0.570,-0.570,0.000,0.000,0.000
1605196599435228160,10.0.1.125,417,move_up,-0.550,-0.550,-0.550,0.000,0.000,0.000
1605196600866169856,10.0.1.125,398,move_up,-0.530,-0.530,-0.530,0.000,0.000,0.000
1605196602294013952,10.0.1.125,384,move_up,-0.510,-0.510,-0.510,0.000,0.000,0.000
1605196603735302912,10.0.1.125,381,move_up,-0.490,-0.490,-0.490,0.000,0.000,0.000
1605196605194109952,10.0.1.125,395,move_up,-0.470,-0.470,-0.470,0.000,0.000,0.000
1605196606625629952,10.0.1.125,387,move_up,-0.450,-0.450,-0.450,0.000,0.000,0.000
1605196608073304832,10.0.1.125,393,move_up,-0.430,-0.430,-0.430,0.000,0.000,0.000
1605196609503271936,10.0.1.125,397,move_up,-0.410,-0.410,-0.410,0.000,0.000,0.000
1605196610914113024,10.0.1.125,376,move_up,-0.390,-0.390,-0.390,0.000,0.000,0.000
1605196612343409920,10.0.1.125,380,move_up,-0.370,-0.370,-0.370,0.000,0.000,0.000
1605196613797777920,10.0.1.125,381,move_up,-0.350,-0.350,-0.350,0.000,0.000,0.000
1605196615255291904,10.0.1.125,398,move_up,-0.330,-0.330,-0.330,0.000,0.000,0.000
1605196616685612032,10.0.1.125,379,move_up,-0.310,-0.310,-0.310,0.000,0.000,0.000
1605196618043224064,10.0.1.125,359,move_up,-0.290,-0.290,-0.290,0.000,0.000,0.000
1605196619493068032,10.0.1.125,389,move_up,-0.270,-0.270,-0.270,0.000,0.000,0.000
1605196620975527168,10.0.1.125,389,move_up,-0.250,-0.250,-0.250,0.000,0.000,0.000
1605196622415009024,10.0.1.125,389,move_up,-0.230,-0.230,-0.230,0.000,0.000,0.000
1605196623819177984,10.0.1.125,375,move_up,-0.210,-0.210,-0.210,0.000,0.000,0.000
1605196625212933120,10.0.1.125,357,move_up,-0.190,-0.190,-0.190,0.000,0.000,0.000
1605196626332999936,10.0.1.125,49,place,-0.180,-0.180,-0.180,0.000,0.000,0.000
1605196627332910080,10.0.1.125,48,place,-0.170,-0.170,-0.170,0.000,0.000,0.000
1605196628332633088,10.0.1.125,46,place,-0.160,-0.160,-0.160,0.000,0.000,0.000
1605196629332987136,10.0.1.125,45,place,-0.150,-0.150,-0.150,0.000,0.000,0.000
1605196630332560896,10.0.1.125,44,place,-0.140,-0.140,-0.140,0.000,0.000,0.000
1605196631336581888,10.0.1.125,46,place,-0.130,-0.130,-0.130,0.000,0.000,0.000
1605196632333005056,10.0.1.125,41,place,-0.120,-0.120,-0.120,0.000,0.000,0.000
1605196633332175104,10.0.1.125,39,place,-0.110,-0.110,-0.110,0.000,0.000,0.000
1605196634333668864,10.0.1.125,40,place,-0.100,-0.100,-0.100,0.000,0.000,0.000
1605196635333605888,10.0.1.125,39,place,-0.090,-0.090,-0.090,0.000,0.000,0.000
1605196636332427008,10.0.1.125,37,place,-0.080,-0.080,-0.080,0.000,0.000,0.000
1605196637333159936,10.0.1.125,37,place,-0.070,-0.070,-0.070,0.000,0.000,0.000
1605196638332904192,10.0.1.125,36,place,-0.060,-0.060,-0.060,0.000,0.000,0.000
1605196639332104960,10.0.1.125,35,place,-0.050,-0.050,-0.050,0.000,0.000,0.000
1605196640332340992,10.0.1.125,34,place,-0.040,-0.040,-0.040,0.000,0.000,0.000
1605196641332119040,10.0.1.125,32,place,-0.030,-0.030,-0.030,0.000,0.000,0.000
1605196642352942848,10.0.1.125,51,place,-0.020,-0.020,-0.020,0.000,0.000,0.000
1605196643352788992,10.0.1.125,50,place,-0.010,-0.010,-0.010,0.000,0.000,0.000
1605196644352369920,10.0.1.125,48,place,0.000,0.000,0.000,0.000,0.000,0.000
1605196645686022144,10.0.1.125,381,move_down,-0.020,-0.020,-0.020,0.000,0.000,0.000
1605196647092150016,10.0.1.125,359,move_down,-0.040,-0.040,-0.040,0.000,0.000,0.000
1605196648543403008,10.0.1.125,383,move_down,-0.060,-0.060,-0.060,0.000,0.000,0.000
1605196649982542080,10.0.1.125,382,move_down,-0.080,-0.080,-0.080,0.000,0.000,0.000
1605196651424760064,10.0.1.125,372,move_down,-0.100,-0.100,-0.100,0.000,0.000,0.000
1605196652892473856,10.0.1.125,397,move_down,-0.120,-0.120,-0.120,0.000,0.000,0.000
1605196654312242944,10.0.1.125,376,move_down,-0.140,-0.140,-0.140,0.000,0.000,0.000
1605196655782198784,10.0.1.125,403,move_down,-0.160,-0.160,-0.160,0.000,0.000,0.000
1605196657217719040,10.0.1.125,394,move_down,-0.180,-0.180,-0.180,0.000,0.000,0.000
1605196658643547136,10.0.1.125,374,move_down,-0.200,-0.200,-0.200,0.000,0.000,0.000
1605196660078541056,10.0.1.125,386,move_down,-0.220,-0.220,-0.220,0.000,0.000,0.000
1605196661482173952,10.0.1.125,381,move_down,-0.240,-0.240,-0.240,0.000,0.000,0.000
1605196662922457856,10.0.1.125,386,move_down,-0.260,-0.260,-0.260,0.000,0.000,0.000
1605196664321825024,10.0.1.125,354,move_down,-0.280,-0.280,-0.280,0.000,0.000,0.000
1605196665794372096,10.0.1.125,397,move_down,-0.300,-0.300,-0.300,0.000,0.000,0.000
1605196667212399104,10.0.1.125,360,move_down,-0.320,-0.320,-0.320,0.000,0.000,0.000
1605196668642643968,10.0.1.125,358,move_down,-0.340,-0.340,-0.340,0.000,0.000,0.000
1605196670112718080,10.0.1.125,388,move_down,-0.360,-0.360,-0.360,0.000,0.000,0.000
1605196671504809984,10.0.1.125,355,move_down,-0.380,-0.380,-0.380,0.000,0.000,0.000
1605196672981895936,10.0.1.125,408,move_down,-0.400,-0.400,-0.400,0.000,0.000,0.000
1605196674392839936,10.0.1.125,370,move_down,-0.420,-0.420,-0.420,0.000,0.000,0.000
1605196675834228992,10.0.1.125,364,move_down,-0.440,-0.440,-0.440,0.000,0.000,0.000
1605196677282879232,10.0.1.125,382,move_down,-0.460,-0.460,-0.460,0.000,0.000,0.000
1605196678692228096,10.0.1.125,374,move_down,-0.480,-0.480,-0.480,0.000,0.000,0.000
1605196680142031872,10.0.1.125,382,move_down,-0.500,-0.500,-0.500,0.000,0.000,0.000
1605196681572473088,10.0.1.125,381,move_down,-0.520,-0.520,-0.520,0.000,0.000,0.000
1605196683002438144,10.0.1.125,367,move_down,-0.540,-0.540,-0.540,0.000,0.000,0.000
1605196684422682880,10.0.1.125,367,move_down,-0.560,-0.560,-0.560,0.000,0.000,0.000
1605196685916727040,10.0.1.125,417,move_down,-0.580,-0.580,-0.580,0.000,0.000,0.000
1605196687025651968,10.0.1.125,43,pick,-0.590,-0.590,-0.590,0.000,0.000,0.000
1605196688032818176,10.0.1.125,49,pick,-0.600,-0.600,-0.600,0.000,0.000,0.000
1605196689036216064,10.0.1.125,51,pick,-0.610,-0.610,-0.610,0.000,0.000,0.000
1605196690034423040,10.0.1.125,48,pick,-0.620,-0.620,-0.620,0.000,0.000,0.000
1605196691034208000,10.0.1.125,47,pick,-0.630,-0.630,-0.630,0.000,0.000,0.000
1605196692032696064,10.0.1.125,44,pick,-0.640,-0.640,-0.640,0.000,0.000,0.000
1605196693033591040,10.0.1.125,41,pick,-0.650,-0.650,-0.650,0.000,0.000,0.000
1605196694032026880,10.0.1.125,38,pick,-0.660,-0.660,-0.660,0.000,0.000,0.000
1605196695035293952,10.0.1.125,40,pick,-0.670,-0.670,-0.670,0.000,0.000,0.000
1605196696033476096,10.0.1.125,37,pick,-0.680,-0.680,-0.680,0.000,0.000,0.000
1605196697032061952,10.0.1.125,34,pick,-0.690,-0.690,-0.690,0.000,0.000,0.000
1605196698031845120,10.0.1.125,33,pick,-0.700,-0.700,-0.700,0.000,0.000,0.000
1605196699033313024,10.0.1.125,33,pick,-0.710,-0.710,-0.710,0.000,0.000,0.000
1605196700033742848,10.0.1.125,32,pick,-0.720,-0.720,-0.720,0.000,0.000,0.000
1605196701052794880,10.0.1.125,50,pick,-0.730,-0.730,-0.730,0.000,0.000,0.000
1605196702052953856,10.0.1.125,49,pick,-0.740,-0.740,-0.740,0.000,0.000,0.000
1605196703046711040,10.0.1.125,41,pick,-0.750,-0.750,-0.750,0.000,0.000,0.000
1605196704052403968,10.0.1.125,36,pick,-0.760,-0.760,-0.760,0.000,0.000,0.000
1605196705057363968,10.0.1.125,40,pick,-0.770,-0.770,-0.770,0.000,0.000,0.000
1605196706403060992,10.0.1.125,384,move_up,-0.750,-0.750,-0.750,0.000,0.000,0.000
1605196707835340032,10.0.1.125,375,move_up,-0.730,-0.730,-0.730,0.000,0.000,0.000
1605196709283351040,10.0.1.125,395,move_up,-0.710,-0.710,-0.710,0.000,0.000,0.000
1605196710722403072,10.0.1.125,389,move_up,-0.690,-0.690,-0.690,0.000,0.000,0.000
1605196712164998144,10.0.1.125,390,move_up,-0.670,-0.670,-0.670,0.000,0.000,0.000
1605196713582343936,10.0.1.125,359,move_up,-0.650,-0.650,-0.650,0.000,0.000,0.000
1605196715055854080,10.0.1.125,404,move_up,-0.630,-0.630,-0.630,0.000,0.000,0.000
1605196716462428928,10.0.1.125,369,move_up,-0.610,-0.610,-0.610,0.000,0.000,0.000
1605196717902117120,10.0.1.125,365,move_up,-0.590,-0.590,-0.590,0.000,0.000,0.000
1605196719312540160,10.0.1.125,357,move_up,-0.570,-0.570,-0.570,0.000,0.000,0.000
1605196720772631040,10.0.1.125,393,move_up,-0.550,-0.550,-0.550,0.000,0.000,0.000
1605196722202289152,10.0.1.125,378,move_up,-0.530,-0.530,-0.530,0.000,0.000,0.000
1605196723641586944,10.0.1.125,370,move_up,-0.510,-0.510,-0.510,0.000,0.000,0.000
