milangroshev/digital-twin-scalability/logs/run5-3600s-nan/10.0.1.128.csv
timestamp,node,latency,action,joint_1,joint_2,joint_3,joint_4,joint_5,joint_6
1605198857055588864,10.0.1.128,NaN,,0.000,0.000,0.000,0.000,0.000,0.000
1605198859061701888,10.0.1.128,2006,,0.000,0.000,0.000,0.000,0.000,0.000
1605198861624105984,10.0.1.128,559,move_down,-0.020,-0.020,-0.020,0.000,0.000,0.000
1605198863075634944,10.0.1.128,393,move_down,-0.040,-0.040,-0.040,0.000,0.000,0.000
1605198864615042048,10.0.1.128,411,move_down,-0.060,-0.060,-0.060,0.000,0.000,0.000
1605198866049137152,10.0.1.128,381,move_down,-0.080,-0.080,-0.080,0.000,0.000,0.000
1605198867497679104,10.0.1.128,399,move_down,-0.100,-0.100,-0.100,0.000,0.000,0.000
1605198868916491008,10.0.1.128,400,move_down,-0.120,-0.120,-0.120,0.000,0.000,0.000
1605198870343767808,10.0.1.128,380,move_down,-0.140,-0.140,-0.140,0.000,0.000,0.000
1605198871794328832,10.0.1.128,421,move_down,-0.160,-0.160,-0.160,0.000,0.000,0.000
1605198873318833152,10.0.1.128,447,move_down,-0.180,-0.180,-0.180,0.000,0.000,0.000
1605198874774016000,10.0.1.128,416,move_down,-0.200,-0.200,-0.200,0.000,0.000,0.000
1605198876293821184,10.0.1.128,422,move_down,-0.220,-0.220,-0.220,0.000,0.000,0.000
1605198877765507840,10.0.1.128,403,move_down,-0.240,-0.240,-0.240,0.000,0.000,0.000
1605198879283323136,10.0.1.128,433,move_down,-0.260,-0.260,-0.260,0.000,0.000,0.000
1605198880743686912,10.0.1.128,404,move_down,-0.280,-0.280,-0.280,0.000,0.000,0.000
1605198882193711872,10.0.1.128,372,move_down,-0.300,-0.300,-0.300,0.000,0.000,0.000
1605198883657144064,10.0.1.128,410,move_down,-0.320,-0.320,-0.320,0.000,0.000,0.000
1605198885132470016,10.0.1.128,424,move_down,-0.340,-0.340,-0.340,0.000,0.000,0.000
1605198886603168000,10.0.1.128,424,move_down,-0.360,-0.360,-0.360,0.000,0.000,0.000
1605198888117063936,10.0.1.128,398,move_down,-0.380,-0.380,-0.380,0.000,0.000,0.000
1605198889602530048,10.0.1.128,413,move_down,-0.400,-0.400,-0.400,0.000,0.000,0.000
1605198891042948864,10.0.1.128,374,move_down,-0.420,-0.420,-0.420,0.000,0.000,0.000
1605198892504019968,10.0.1.128,392,move_down,-0.440,-0.440,-0.440,0.000,0.000,0.000
1605198893913780992,10.0.1.128,357,move_down,-0.460,-0.460,-0.460,0.000,0.000,0.000
1605198895392297984,10.0.1.128,412,move_down,-0.480,-0.480,-0.480,0.000,0.000,0.000
1605198896802468096,10.0.1.128,379,move_down,-0.500,-0.500,-0.500,0.000,0.000,0.000
1605198898264339968,10.0.1.128,412,move_down,-0.520,-0.520,-0.520,0.000,0.000,0.000
1605198899725145088,10.0.1.128,395,move_down,-0.540,-0.540,-0.540,0.000,0.000,0.000
1605198901152461056,10.0.1.128,378,move_down,-0.560,-0.560,-0.560,0.000,0.000,0.000
1605198902601906176,10.0.1.128,383,move_down,-0.580,-0.580,-0.580,0.000,0.000,0.000
1605198903690316032,10.0.1.128,44,pick,-0.590,-0.590,-0.590,0.000,0.000,0.000
1605198904683185152,10.0.1.128,35,pick,-0.600,-0.600,-0.600,0.000,0.000,0.000
1605198905685126144,10.0.1.128,35,pick,-0.610,-0.610,-0.610,0.000,0.000,0.000
1605198906685435904,10.0.1.128,34,pick,-0.620,-0.620,-0.620,0.000,0.000,0.000
1605198907704724992,10.0.1.128,52,pick,-0.630,-0.630,-0.630,0.000,0.000,0.000
1605198908719929856,10.0.1.128,63,pick,-0.640,-0.640,-0.640,0.000,0.000,0.000
1605198910658716928,10.0.1.128,NaN,pick,-0.660,-0.660,-0.660,0.000,0.000,0.000
1605198910704154880,10.0.1.128,45,pick,-0.660,-0.660,-0.660,0.000,0.000,0.000
1605198911705681920,10.0.1.128,45,pick,-0.670,-0.670,-0.670,0.000,0.000,0.000
1605198912710042880,10.0.1.128,48,pick,-0.680,-0.680,-0.680,0.000,0.000,0.000
1605198913715038976,10.0.1.128,52,pick,-0.690,-0.690,-0.690,0.000,0.000,0.000
1605198914704775936,10.0.1.128,41,pick,-0.700,-0.700,-0.700,0.000,0.000,0.000
1605198915705434112,10.0.1.128,40,pick,-0.710,-0.710,-0.710,0.000,0.000,0.000
1605198916712296960,10.0.1.128,46,pick,-0.720,-0.720,-0.720,0.000,0.000,0.000
1605198917703421184,10.0.1.128,36,pick,-0.730,-0.730,-0.730,0.000,0.000,0.000
1605198918704140032,10.0.1.128,35,pick,-0.740,-0.740,-0.740,0.000,0.000,0.000
1605198919703684096,10.0.1.128,33,pick,-0.750,-0.750,-0.750,0.000,0.000,0.000
1605198920724515072,10.0.1.128,53,pick,-0.760,-0.760,-0.760,0.000,0.000,0.000
1605198921726918912,10.0.1.128,54,pick,-0.770,-0.770,-0.770,0.000,0.000,0.000
1605198923065433856,10.0.1.128,391,move_up,-0.750,-0.750,-0.750,0.000,0.000,0.000
1605198924514529024,10.0.1.128,367,move_up,-0.730,-0.730,-0.730,0.000,0.000,0.000
1605198925963883008,10.0.1.128,396,move_up,-0.710,-0.710,-0.710,0.000,0.000,0.000
1605198927446675968,10.0.1.128,404,move_up,-0.690,-0.690,-0.690,0.000,0.000,0.000
1605198928873737216,10.0.1.128,388,move_up,-0.670,-0.670,-0.670,0.000,0.000,0.000
1605198930335258112,10.0.1.128,399,move_up,-0.650,-0.650,-0.650,0.000,0.000,0.000
1605198931865291008,10.0.1.128,446,move_up,-0.630,-0.630,-0.630,0.000,0.000,0.000
1605198933316272128,10.0.1.128,396,move_up,-0.610,-0.610,-0.610,0.000,0.000,0.000
1605198934798233088,10.0.1.128,424,move_up,-0.590,-0.590,-0.590,0.000,0.000,0.000
1605198936264055040,10.0.1.128,406,move_up,-0.570,-0.570,-0.570,0.000,0.000,0.000
1605198937758176000,10.0.1.128,404,move_up,-0.550,-0.550,-0.550,0.000,0.000,0.000
1605198939276892928,10.0.1.128,428,move_up,-0.530,-0.530,-0.530,0.000,0.000,0.000
1605198940747326976,10.0.1.128,423,move_up,-0.510,-0.510,-0.510,0.000,0.000,0.000
1605198942229422080,10.0.1.128,403,move_up,-0.490,-0.490,-0.490,0.000,0.000,0.000
1605198943721184000,10.0.1.128,440,move_up,-0.470,-0.470,-0.470,0.000,0.000,0.000
1605198945159485184,10.0.1.128,389,move_up,-0.450,-0.450,-0.450,0.000,0.000,0.000
1605198946607841024,10.0.1.128,390,move_up,-0.430,-0.430,-0.430,0.000,0.000,0.000
1605198948049200128,10.0.1.128,394,move_up,-0.410,-0.410,-0.410,0.000,0.000,0.000
1605198949481869056,10.0.1.128,383,move_up,-0.390,-0.390,-0.390,0.000,0.000,0.000
1605198950915715072,10.0.1.128,405,move_up,-0.370,-0.370,-0.370,0.000,0.000,0.000
1605198952367636992,10.0.1.128,405,move_up,-0.350,-0.350,-0.350,0.000,0.000,0.000
1605198953878408960,10.0.1.128,383,move_up,-0.330,-0.330,-0.330,0.000,0.000,0.000
1605198955330693120,10.0.1.128,391,move_up,-0.310,-0.310,-0.310,0.000,0.000,0.000
1605198956838255872,10.0.1.128,457,move_up,-0.290,-0.290,-0.290,0.000,0.000,0.000
1605198958298059008,10.0.1.128,410,move_up,-0.270,-0.270,-0.270,0.000,0.000,0.000
1605198959788034816,10.0.1.128,398,move_up,-0.250,-0.250,-0.250,0.000,0.000,0.000
1605198961269725184,10.0.1.128,404,move_up,-0.230,-0.230,-0.230,0.000,0.000,0.000
1605198962757978880,10.0.1.128,408,move_up,-0.210,-0.210,-0.210,0.000,0.000,0.000
1605198964267680000,10.0.1.128,440,move_up,-0.190,-0.190,-0.190,0.000,0.000,0.000
1605198965348752896,10.0.1.128,43,place,-0.180,-0.180,-0.180,0.000,0.000,0.000
1605198966347558912,10.0.1.128,41,place,-0.170,-0.170,-0.170,0.000,0.000,0.000
1605198967347713024,10.0.1.128,40,place,-0.160,-0.160,-0.160,0.000,0.000,0.000
1605198968347718912,10.0.1.128,38,place,-0.150,-0.150,-0.150,0.000,0.000,0.000
1605198969348033024,10.0.1.128,37,place,-0.140,-0.140,-0.140,0.000,0.000,0.000
1605198970371922944,10.0.1.128,53,place,-0.130,-0.130,-0.130,0.000,0.000,0.000
1605198971368182784,10.0.1.128,48,place,-0.120,-0.120,-0.120,0.000,0.000,0.000
1605198972369223168,10.0.1.128,47,place,-0.110,-0.110,-0.110,0.000,0.000,0.000
1605198973368662016,10.0.1.128,45,place,-0.100,-0.100,-0.100,0.000,0.000,0.000
1605198974368014080,10.0.1.128,43,place,-0.090,-0.090,-0.090,0.000,0.000,0.000
1605198975368928000,10.0.1.128,43,place,-0.080,-0.080,-0.080,0.000,0.000,0.000
1605198976372807936,10.0.1.128,46,place,-0.070,-0.070,-0.070,0.000,0.000,0.000
1605198977367602944,10.0.1.128,39,place,-0.060,-0.060,-0.060,0.000,0.000,0.000
1605198978369338112,10.0.1.128,40,place,-0.050,-0.050,-0.050,0.000,0.000,0.000
1605198979369466112,10.0.1.128,39,place,-0.040,-0.040,-0.040,0.000,0.000,0.000
1605198980368976128,10.0.1.128,36,place,-0.030,-0.030,-0.030,0.000,0.000,0.000
1605198981368228864,10.0.1.128,34,place,-0.020,-0.020,-0.020,0.000,0.000,0.000
1605198982373202944,10.0.1.128,38,place,-0.010,-0.010,-0.010,0.000,0.000,0.000
1605198983367232000,10.0.1.128,31,place,0.000,0.000,0.000,0.000,0.000,0.000
1605198984720199936,10.0.1.128,383,move_down,-0.020,-0.020,-0.020,0.000,0.000,0.000
1605198986168730112,10.0.1.128,390,move_down,-0.040,-0.040,-0.040,0.000,0.000,0.000
1605198987597592064,10.0.1.128,375,move_down,-0.060,-0.060,-0.060,0.000,0.000,0.000
1605198989051367936,10.0.1.128,399,move_down,-0.080,-0.080,-0.080,0.000,0.000,0.000
1605198990518745856,10.0.1.128,400,move_down,-0.100,-0.100,-0.100,0.000,0.000,0.000
1605198991978614016,10.0.1.128,384,move_down,-0.120,-0.120,-0.120,0.000,0.000,0.000
1605198993419022080,10.0.1.128,391,move_down,-0.140,-0.140,-0.140,0.000,0.000,0.000
1605198994849423872,10.0.1.128,402,move_down,-0.160,-0.160,-0.160,0.000,0.000,0.000
1605198996299008000,10.0.1.128,393,move_down,-0.180,-0.180,-0.180,0.000,0.000,0.000
1605198997737270016,10.0.1.128,380,move_down,-0.200,-0.200,-0.200,0.000,0.000,0.000
1605198999177321984,10.0.1.128,389,move_down,-0.220,-0.220,-0.220,0.000,0.000,0.000
1605199000666731008,10.0.1.128,430,move_down,-0.240,-0.240,-0.240,0.000,0.000,0.000
1605199002057101056,10.0.1.128,384,move_down,-0.260,-0.260,-0.260,0.000,0.000,0.000
1605199003532550144,10.0.1.128,414,move_down,-0.280,-0.280,-0.280,0.000,0.000,0.000
1605199004957494016,10.0.1.128,388,move_down,-0.300,-0.300,-0.300,0.000,0.000,0.000
1605199006440793088,10.0.1.128,419,move_down,-0.320,-0.320,-0.320,0.000,0.000,0.000
1605199007899025920,10.0.1.128,425,move_down,-0.340,-0.340,-0.340,0.000,0.000,0.000
1605199009378925056,10.0.1.128,413,move_down,-0.360,-0.360,-0.360,0.000,0.000,0.000
1605199010878972160,10.0.1.128,413,move_down,-0.380,-0.380,-0.380,0.000,0.000,0.000
1605199012320781056,10.0.1.128,401,move_down,-0.400,-0.400,-0.400,0.000,0.000,0.000
1605199013749001984,10.0.1.128,374,move_down,-0.420,-0.420,-0.420,0.000,0.000,0.000
1605199015188584192,10.0.1.128,387,move_down,-0.440,-0.440,-0.440,0.000,0.000,0.000
1605199016663278080,10.0.1.128,418,move_down,-0.460,-0.460,-0.460,0.000,0.000,0.000
1605199018089762816,10.0.1.128,390,move_down,-0.480,-0.480,-0.480,0.000,0.000,0.000
1605199019569032960,10.0.1.128,416,move_down,-0.500,-0.500,-0.500,0.000,0.000,0.000
1605199021021466112,10.0.1.128,390,move_down,-0.520,-0.520,-0.520,0.000,0.000,0.000
1605199022501337088,10.0.1.128,423,move_down,-0.540,-0.540,-0.540,0.000,0.000,0.000
1605199023962636032,10.0.1.128,396,move_down,-0.560,-0.560,-0.560,0.000,0.000,0.000
1605199025439805952,10.0.1.128,426,move_down,-0.580,-0.580,-0.580,0.000,0.000,0.000
1605199026539556096,10.0.1.128,40,pick,-0.590,-0.590,-0.590,0.000,0.000,0.000
1605199027548281856,10.0.1.128,48,pick,-0.600,-0.600,-0.600,0.000,0.000,0.000
1605199028540619008,10.0.1.128,39,pick,-0.610,-0.610,-0.610,0.000,0.000,0.000
1605199029538817792,10.0.1.128,36,pick,-0.620,-0.620,-0.620,0.000,0.000,0.000
1605199030539410944,10.0.1.128,35,pick,-0.630,-0.630,-0.630,0.000,0.000,0.000
1605199031539343104,10.0.1.128,33,pick,-0.640,-0.640,-0.640,0.000,0.000,0.000
1605199032540359936,10.0.1.128,33,pick,-0.650,-0.650,-0.650,0.000,0.000,0.000
1605199033540154880,10.0.1.128,32,pick,-0.660,-0.660,-0.660,0.000,0.000,0.000
1605199034563817984,10.0.1.128,55,pick,-0.670,-0.670,-0.670,0.000,0.000,0.000
1605199035559584000,10.0.1.128,49,pick,-0.680,-0.680,-0.680,0.000,0.000,0.000
1605199036564686080,10.0.1.128,53,pick,-0.690,-0.690,-0.690,0.000,0.000,0.000
1605199037558799872,10.0.1.128,46,pick,-0.700,-0.700,-0.700,0.000,0.000,0.000
1605199038561865216,10.0.1.128,47,pick,-0.710,-0.710,-0.710,0.000,0.000,0.000
1605199039564183040,10.0.1.128,49,pick,-0.720,-0.720,-0.720,0.000,0.000,0.000
1605199040559086080,10.0.1.128,43,pick,-0.730,-0.730,-0.730,0.000,0.000,0.000
1605199041559088896,10.0.1.128,42,pick,-0.740,-0.740,-0.740,0.000,0.000,0.000
1605199042564276992,10.0.1.128,46,pick,-0.750,-0.750,-0.750,0.000,0.000,0.000
1605199043560231936,10.0.1.128,40,pick,-0.760,-0.760,-0.760,0.000,0.000,0.000
1605199044562371072,10.0.1.128,39,pick,-0.770,-0.770,-0.770,0.000,0.000,0.000
1605199045918406912,10.0.1.128,394,move_up,-0.750,-0.750,-0.750,0.000,0.000,0.000
1605199047437811968,10.0.1.128,400,move_up,-0.730,-0.730,-0.730,0.000,0.000,0.000
1605199048900414976,10.0.1.128,414,move_up,-0.710,-0.710,-0.710,0.000,0.000,0.000
1605199050379659776,10.0.1.128,399,move_up,-0.690,-0.690,-0.690,0.000,0.000,0.000
1605199051844954880,10.0.1.128,386,move_up,-0.670,-0.670,-0.670,0.000,0.000,0.000
1605199053294913024,10.0.1.128,387,move_up,-0.650,-0.650,-0.650,0.000,0.000,0.000
1605199054706206208,10.0.1.128,379,move_up,-0.630,-0.630,-0.630,0.000,0.000,0.000
1605199056133725952,10.0.1.128,363,move_up,-0.610,-0.610,-0.610,0.000,0.000,0.000
1605199057605428992,10.0.1.128,391,move_up,-0.590,-0.590,-0.590,0.000,0.000,0.000
1605199059104530944,10.0.1.128,404,move_up,-0.570,-0.570,-0.570,0.000,0.000,0.000
1605199060546334976,10.0.1.128,390,move_up,-0.550,-0.550,-0.550,0.000,0.000,0.000
1605199061973150976,10.0.1.128,391,move_up,-0.530,-0.530,-0.530,0.000,0.000,0.000
1605199063474713088,10.0.1.128,420,move_up,-0.510,-0.510,-0.510,0.000,0.000,0.000
1605199064906400000,10.0.1.128,400,move_up,-0.490,-0.490,-0.490,0.000,0.000,0.000
1605199066386238976,10.0.1.128,420,move_up,-0.470,-0.470,-0.470,0.000,0.000,0.000
1605199067872611072,10.0.1.128,397,move_up,-0.450,-0.450,-0.450,0.000,0.000,0.000
1605199069318834944,10.0.1.128,397,move_up,-0.430,-0.430,-0.430,0.000,0.000,0.000
1605199070794584064,10.0.1.128,429,move_up,-0.410,-0.410,-0.410,0.000,0.000,0.000
1605199072227351808,10.0.1.128,384,move_up,-0.390,-0.390,-0.390,0.000,0.000,0.000
1605199073673854208,10.0.1.128,387,move_up,-0.370,-0.370,-0.370,0.000,0.000,0.000
1605199075144323072,10.0.1.128,377,move_up,-0.350,-0.350,-0.350,0.000,0.000,0.000
1605199076592924160,10.0.1.128,398,move_up,-0.330,-0.330,-0.330,0.000,0.000,0.000
1605199078074036992,10.0.1.128,425,move_up,-0.310,-0.310,-0.310,0.000,0.000,0.000
1605199079529163008,10.0.1.128,393,move_up,-0.290,-0.290,-0.290,0.000,0.000,0.000
1605199080952892928,10.0.1.128,395,move_up,-0.270,-0.270,-0.270,0.000,0.000,0.000
1605199082403911168,10.0.1.128,403,move_up,-0.250,-0.250,-0.250,0.000,0.000,0.000
1605199083892275968,10.0.1.128,414,move_up,-0.230,-0.230,-0.230,0.000,0.000,0.000
1605199085344086016,10.0.1.128,406,move_up,-0.210,-0.210,-0.210,0.000,0.000,0.000
1605199086823461888,10.0.1.128,399,move_up,-0.190,-0.190,-0.190,0.000,0.000,0.000
1605199087926227200,10.0.1.128,54,place,-0.180,-0.180,-0.180,0.000,0.000,0.000
1605199088925537024,10.0.1.128,52,place,-0.170,-0.170,-0.170,0.000,0.000,0.000
1605199089924338176,10.0.1.128,49,place,-0.160,-0.160,-0.160,0.000,0.000,0.000
1605199090919872000,10.0.1.128,43,place,-0.150,-0.150,-0.150,0.000,0.000,0.000
1605199091918705920,10.0.1.128,41,place,-0.140,-0.140,-0.140,0.000,0.000,0.000
1605199092920182016,10.0.1.128,41,place,-0.130,-0.130,-0.130,0.000,0.000,0.000
1605199093919051776,10.0.1.128,39,place,-0.120,-0.120,-0.120,0.000,0.000,0.000
1605199094919443968,10.0.1.128,38,place,-0.110,-0.110,-0.110,0.000,0.000,0.000
1605199095918994944,10.0.1.128,36,place,-0.100,-0.100,-0.100,0.000,0.000,0.000
1605199096925312000,10.0.1.128,40,place,-0.090,-0.090,-0.090,0.000,0.000,0.000
1605199097918067968,10.0.1.128,32,place,-0.080,-0.080,-0.080,0.000,0.000,0.000
1605199098918523904,10.0.1.128,31,place,-0.070,-0.070,-0.070,0.000,0.000,0.000
1605199099923207936,10.0.1.128,34,place,-0.060,-0.060,-0.060,0.000,0.000,0.000
1605199100937657088,10.0.1.128,48,place,-0.050,-0.050,-0.050,0.000,0.000,0.000
1605199101938102016,10.0.1.128,46,place,-0.040,-0.040,-0.040,0.000,0.000,0.000
1605199102938610176,10.0.1.128,45,place,-0.030,-0.030,-0.030,0.000,0.000,0.000
1605199103938364928,10.0.1.128,44,place,-0.020,-0.020,-0.020,0.000,0.000,0.000
1605199104940196096,10.0.1.128,45,place,-0.010,-0.010,-0.010,0.000,0.000,0.000
1605199105938169856,10.0.1.128,41,place,0.000,0.000,0.000,0.000,0.000,0.000
1605199107319464960,10.0.1.128,421,move_down,-0.020,-0.020,-0.020,0.000,0.000,0.000
1605199108768356096,10.0.1.128,385,move_down,-0.040,-0.040,-0.040,0.000,0.000,0.000
1605199110238552064,10.0.1.128,411,move_down,-0.060,-0.060,-0.060,0.000,0.000,0.000
1605199111658100992,10.0.1.128,379,move_down,-0.080,-0.080,-0.080,0.000,0.000,0.000
1605199113168946944,10.0.1.128,411,move_down,-0.100,-0.100,-0.100,0.000,0.000,0.000
1605199114619927040,10.0.1.128,385,move_down,-0.120,-0.120,-0.120,0.000,0.000,0.000
1605199116067266816,10.0.1.128,388,move_down,-0.140,-0.140,-0.140,0.000,0.000,0.000
1605199117519772160,10.0.1.128,392,move_down,-0.160,-0.160,-0.160,0.000,0.000,0.000
1605199118968456960,10.0.1.128,400,move_down,-0.180,-0.180,-0.180,0.000,0.000,0.000
1605199120424983040,10.0.1.128,405,move_down,-0.200,-0.200,-0.200,0.000,0.000,0.000
1605199121871730944,10.0.1.128,377,move_down,-0.220,-0.220,-0.220,0.000,0.000,0.000
1605199123330873856,10.0.1.128,404,move_down,-0.240,-0.240,-0.240,0.000,0.000,0.000
1605199124758513920,10.0.1.128,377,move_down,-0.260,-0.260,-0.260,0.000,0.000,0.000
1605199126239276800,10.0.1.128,416,move_down,-0.280,-0.280,-0.280,0.000,0.000,0.000
1605199127677950976,10.0.1.128,390,move_down,-0.300,-0.300,-0.300,0.000,0.000,0.000
1605199129202658816,10.0.1.128,439,move_down,-0.320,-0.320,-0.320,0.000,0.000,0.000
1605199130648355072,10.0.1.128,417,move_down,-0.340,-0.340,-0.340,0.000,0.000,0.000
1605199132119740928,10.0.1.128,380,move_down,-0.360,-0.360,-0.360,0.000,0.000,0.000
1605199133578105856,10.0.1.128,395,move_down,-0.380,-0.380,-0.380,0.000,0.000,0.000
1605199135044177920,10.0.1.128,416,move_down,-0.400,-0.400,-0.400,0.000,0.000,0.000
1605199136485490176,10.0.1.128,402,move_down,-0.420,-0.420,-0.420,0.000,0.000,0.000
1605199137949219840,10.0.1.128,419,move_down,-0.440,-0.440,-0.440,0.000,0.000,0.000
1605199139397641984,10.0.1.128,394,move_down,-0.460,-0.460,-0.460,0.000,0.000,0.000
1605199140830775040,10.0.1.128,400,move_down,-0.480,-0.480,-0.480,0.000,0.000,0.000
1605199142277510912,10.0.1.128,386,move_down,-0.500,-0.500,-0.500,0.000,0.000,0.000
1605199143724133888,10.0.1.128,391,move_down,-0.520,-0.520,-0.520,0.000,0.000,0.000
1605199145148258816,10.0.1.128,370,move_down,-0.540,-0.540,-0.540,0.000,0.000,0.000
1605199146623037952,10.0.1.128,403,move_down,-0.560,-0.560,-0.560,0.000,0.000,0.000
1605199148078660864,10.0.1.128,385,move_down,-0.580,-0.580,-0.580,0.000,0.000,0.000
1605199149181460992,10.0.1.128,40,pick,-0.590,-0.590,-0.590,0.000,0.000,0.000
1605199150181379072,10.0.1.128,39,pick,-0.600,-0.600,-0.600,0.000,0.000,0.000
1605199151180005120,10.0.1.128,36,pick,-0.610,-0.610,-0.610,0.000,0.000,0.000
1605199152178103808,10.0.1.128,33,pick,-0.620,-0.620,-0.620,0.000,0.000,0.000
1605199153185285120,10.0.1.128,39,pick,-0.630,-0.630,-0.630,0.000,0.000,0.000
1605199154198800128,10.0.1.128,51,pick,-0.640,-0.640,-0.640,0.000,0.000,0.000
1605199155201814784,10.0.1.128,52,pick,-0.650,-0.650,-0.650,0.000,0.000,0.000
1605199156205395968,10.0.1.128,55,pick,-0.660,-0.660,-0.660,0.000,0.000,0.000
1605199157203399936,10.0.1.128,52,pick,-0.670,-0.670,-0.670,0.000,0.000,0.000
1605199158200370176,10.0.1.128,47,pick,-0.680,-0.680,-0.680,0.000,0.000,0.000
1605199159200231936,10.0.1.128,46,pick,-0.690,-0.690,-0.690,0.000,0.000,0.000
1605199160203821056,10.0.1.128,48,pick,-0.700,-0.700,-0.700,0.000,0.000,0.000
1605199161189500928,10.0.1.128,32,pick,-0.710,-0.710,-0.710,0.000,0.000,0.000
1605199162199662848,10.0.1.128,41,pick,-0.720,-0.720,-0.720,0.000,0.000,0.000
1605199163199979008,10.0.1.128,36,pick,-0.730,-0.730,-0.730,0.000,0.000,0.000
1605199164202824192,10.0.1.128,37,pick,-0.740,-0.740,-0.740,0.000,0.000,0.000
1605199165206480896,10.0.1.128,41,pick,-0.750,-0.750,-0.750,0.000,0.000,0.000
1605199166202009856,10.0.1.128,35,pick,-0.760,-0.760,-0.760,0.000,0.000,0.000
1605199167229238016,10.0.1.128,61,pick,-0.770,-0.770,-0.770,0.000,0.000,0.000
1605199168542316032,10.0.1.128,373,move_up,-0.750,-0.750,-0.750,0.000,0.000,0.000
1605199170009010944,10.0.1.128,391,move_up,-0.730,-0.730,-0.730,0.000,0.000,0.000
1605199171481970944,10.0.1.128,417,move_up,-0.710,-0.710,-0.710,0.000,0.000,0.000
1605199172889492992,10.0.1.128,379,move_up,-0.690,-0.690,-0.690,0.000,0.000,0.000
1605199174320557056,10.0.1.128,380,move_up,-0.670,-0.670,-0.670,0.000,0.000,0.000
1605199175781918976,10.0.1.128,399,move_up,-0.650,-0.650,-0.650,0.000,0.000,0.000
1605199177250976000,10.0.1.128,393,move_up,-0.630,-0.630,-0.630,0.000,0.000,0.000
1605199178770376960,10.0.1.128,383,move_up,-0.610,-0.610,-0.610,0.000,0.000,0.000
1605199180300288000,10.0.1.128,436,move_up,-0.590,-0.590,-0.590,0.000,0.000,0.000
1605199181763267072,10.0.1.128,416,move_up,-0.570,-0.570,-0.570,0.000,0.000,0.000
1605199183190039040,10.0.1.128,392,move_up,-0.550,-0.550,-0.550,0.000,0.000,0.000
1605199184688955904,10.0.1.128,401,move_up,-0.530,-0.530,-0.530,0.000,0.000,0.000
1605199186150135040,10.0.1.128,383,move_up,-0.510,-0.510,-0.510,0.000,0.000,0.000
1605199187581590784,10.0.1.128,386,move_up,-0.490,-0.490,-0.490,0.000,0.000,0.000
1605199189040594176,10.0.1.128,419,move_up,-0.470,-0.470,-0.470,0.000,0.000,0.000
1605199190509931008,10.0.1.128,404,move_up,-0.450,-0.450,-0.450,0.000,0.000,0.000
1605199191919388928,10.0.1.128,375,move_up,-0.430,-0.430,-0.430,0.000,0.000,0.000
1605199193378152960,10.0.1.128,393,move_up,-0.410,-0.410,-0.410,0.000,0.000,0.000
1605199194840219904,10.0.1.128,408,move_up,-0.390,-0.390,-0.390,0.000,0.000,0.000
1605199196307962880,10.0.1.128,390,move_up,-0.370,-0.370,-0.370,0.000,0.000,0.000
1605199197786793984,10.0.1.128,416,move_up,-0.350,-0.350,-0.350,0.000,0.000,0.000
1605199199240755968,10.0.1.128,419,move_up,-0.330,-0.330,-0.330,0.000,0.000,0.000
1605199200695482112,10.0.1.128,383,move_up,-0.310,-0.310,-0.310,0.000,0.000,0.000
1605199202118297088,10.0.1.128,395,move_up,-0.290,-0.290,-0.290,0.000,0.000,0.000
1605199203548934912,10.0.1.128,382,move_up,-0.270,-0.270,-0.270,0.000,0.000,0.000
1605199205045275904,10.0.1.128,445,move_up,-0.250,-0.250,-0.250,0.000,0.000,0.000
1605199206477561088,10.0.1.128,399,move_up,-0.230,-0.230,-0.230,0.000,0.000,0.000
1605199207949254144,10.0.1.128,385,move_up,-0.210,-0.210,-0.210,0.000,0.000,0.000
1605199209390116096,10.0.1.128,389,move_up,-0.190,-0.190,-0.190,0.000,0.000,0.000
1605199210491933184,10.0.1.128,55,place,-0.180,-0.180,-0.180,0.000,0.000,0.000
1605199211498491904,10.0.1.128,60,place,-0.170,-0.170,-0.170,0.000,0.000,0.000
1605199212493027072,10.0.1.128,53,place,-0.160,-0.160,-0.160,0.000,0.000,0.000
1605199213489480960,10.0.1.128,49,place,-0.150,-0.150,-0.150,0.000,0.000,0.000
1605199214488448000,10.0.1.128,47,place,-0.140,-0.140,-0.140,0.000,0.000,0.000
1605199215488640000,10.0.1.128,46,place,-0.130,-0.130,-0.130,0.000,0.000,0.000
1605199216490770944,10.0.1.128,46,place,-0.120,-0.120,-0.120,0.000,0.000,0.000
1605199217490881024,10.0.1.128,45,place,-0.110,-0.110,-0.110,0.000,0.000,0.000
1605199218489870080,10.0.1.128,43,place,-0.100,-0.100,-0.100,0.000,0.000,0.000
1605199219493829888,10.0.1.128,45,place,-0.090,-0.090,-0.090,0.000,0.000,0.000
1605199220492196096,10.0.1.128,42,place,-0.080,-0.080,-0.080,0.000,0.000,0.000
1605199221488231936,10.0.1.128,37,place,-0.070,-0.070,-0.070,0.000,0.000,0.000
1605199222489097216,10.0.1.128,36,place,-0.060,-0.060,-0.060,0.000,0.000,0.000
1605199223490336000,10.0.1.128,36,place,-0.050,-0.050,-0.050,0.000,0.000,0.000
1605199224492372992,10.0.1.128,37,place,-0.040,-0.040,-0.040,0.000,0.000,0.000
1605199225508529920,10.0.1.128,52,place,-0.030,-0.030,-0.030,0.000,0.000,0.000
1605199226508857088,10.0.1.128,51,place,-0.020,-0.020,-0.020,0.000,0.000,0.000
1605199227511358976,10.0.1.128,50,place,-0.010,-0.010,-0.010,0.000,0.000,0.000
1605199228508338944,10.0.1.128,47,place,0.000,0.000,0.000,0.000,0.000,0.000
1605199229869682944,10.0.1.128,407,move_down,-0.020,-0.020,-0.020,0.000,0.000,0.000
1605199231328635904,10.0.1.128,389,move_down,-0.040,-0.040,-0.040,0.000,0.000,0.000
1605199232749620992,10.0.1.128,367,move_down,-0.060,-0.060,-0.060,0.000,0.000,0.000
1605199234220252160,10.0.1.128,407,move_down,-0.080,-0.080,-0.080,0.000,0.000,0.000
1605199235678415104,10.0.1.128,401,move_down,-0.100,-0.100,-0.100,0.000,0.000,0.000
1605199237128230144,10.0.1.128,372,move_down,-0.120,-0.120,-0.120,0.000,0.000,0.000
1605199238588195072,10.0.1.128,405,move_down,-0.140,-0.140,-0.140,0.000,0.000,0.000
1605199240049926144,10.0.1.128,393,move_down,-0.160,-0.160,-0.160,0.000,0.000,0.000
1605199241521601792,10.0.1.128,410,move_down,-0.180,-0.180,-0.180,0.000,0.000,0.000
1605199242989047040,10.0.1.128,417,move_down,-0.200,-0.200,-0.200,0.000,0.000,0.000
1605199244419631872,10.0.1.128,387,move_down,-0.220,-0.220,-0.220,0.000,0.000,0.000
1605199245887988992,10.0.1.128,401,move_down,-0.240,-0.240,-0.240,0.000,0.000,0.000
1605199247348601088,10.0.1.128,380,move_down,-0.260,-0.260,-0.260,0.000,0.000,0.000
1605199248799392000,10.0.1.128,401,move_down,-0.280,-0.280,-0.280,0.000,0.000,0.000
1605199250272397056,10.0.1.128,391,move_down,-0.300,-0.300,-0.300,0.000,0.000,0.000
1605199251719397120,10.0.1.128,393,move_down,-0.320,-0.320,-0.320,0.000,0.000,0.000
1605199253191715072,10.0.1.128,416,move_down,-0.340,-0.340,-0.340,0.000,0.000,0.000
1605199254662436864,10.0.1.128,408,move_down,-0.360,-0.360,-0.360,0.000,0.000,0.000
1605199256142888192,10.0.1.128,421,move_down,-0.380,-0.380,-0.380,0.000,0.000,0.000
1605199257624680960,10.0.1.128,417,move_down,-0.400,-0.400,-0.400,0.000,0.000,0.000
1605199259151664896,10.0.1.128,405,move_down,-0.420,-0.420,-0.420,0.000,0.000,0.000
1605199260632822016,10.0.1.128,411,move_down,-0.440,-0.440,-0.440,0.000,0.000,0.000
1605199262105108992,10.0.1.128,397,move_down,-0.460,-0.460,-0.460,0.000,0.000,0.000
1605199263566888960,10.0.1.128,379,move_down,-0.480,-0.480,-0.480,0.000,0.000,0.000
1605199265018845184,10.0.1.128,396,move_down,-0.500,-0.500,-0.500,0.000,0.000,0.000
1605199266468651008,10.0.1.128,390,move_down,-0.520,-0.520,-0.520,0.000,0.000,0.000
1605199267912080128,10.0.1.128,391,move_down,-0.540,-0.540,-0.540,0.000,0.000,0.000
1605199269405643008,10.0.1.128,427,move_down,-0.560,-0.560,-0.560,0.000,0.000,0.000
1605199270939176960,10.0.1.128,441,move_down,-0.580,-0.580,-0.580,0.000,0.000,0.000
1605199272016258048,10.0.1.128,47,pick,-0.590,-0.590,-0.590,0.000,0.000,0.000
1605199273019849984,10.0.1.128,49,pick,-0.600,-0.600,-0.600,0.000,0.000,0.000
1605199274022074880,10.0.1.128,50,pick,-0.610,-0.610,-0.610,0.000,0.000,0.000
1605199275020296192,10.0.1.128,47,pick,-0.620,-0.620,-0.620,0.000,0.000,0.000
1605199276022093056,10.0.1.128,47,pick,-0.630,-0.630,-0.630,0.000,0.000,0.000
1605199277023196928,10.0.1.128,47,pick,-0.640,-0.640,-0.640,0.000,0.000,0.000
1605199278022254080,10.0.1.128,45,pick,-0.650,-0.650,-0.650,0.000,0.000,0.000
1605199279021091840,10.0.1.128,42,pick,-0.660,-0.660,-0.660,0.000,0.000,0.000
1605199280020924160,10.0.1.128,40,pick,-0.670,-0.670,-0.670,0.000,0.000,0.000
1605199281019929856,10.0.1.128,38,pick,-0.680,-0.680,-0.680,0.000,0.000,0.000
1605199282025367040,10.0.1.128,42,pick,-0.690,-0.690,-0.690,0.000,0.000,0.000
1605199283018603008,10.0.1.128,32,pick,-0.700,-0.700,-0.700,0.000,0.000,0.000
1605199284039352064,10.0.1.128,51,pick,-0.710,-0.710,-0.710,0.000,0.000,0.000
1605199285039282944,10.0.1.128,50,pick,-0.720,-0.720,-0.720,0.000,0.000,0.000
1605199286038139136,10.0.1.128,46,pick,-0.730,-0.730,-0.730,0.000,0.000,0.000
1605199287040900864,10.0.1.128,47,pick,-0.740,-0.740,-0.740,0.000,0.000,0.000
1605199288040966144,10.0.1.128,46,pick,-0.750,-0.750,-0.750,0.000,0.000,0.000
1605199289040656128,10.0.1.128,44,pick,-0.760,-0.760,-0.760,0.000,0.000,0.000
1605199290039406080,10.0.1.128,42,pick,-0.770,-0.770,-0.770,0.000,0.000,0.000
1605199291399070976,10.0.1.128,400,move_up,-0.750,-0.750,-0.750,0.000,0.000,0.000
1605199292839094016,10.0.1.128,361,move_up,-0.730,-0.730,-0.730,0.000,0.000,0.000
1605199294289693952,10.0.1.128,379,move_up,-0.710,-0.710,-0.710,0.000,0.000,0.000
1605199295738434048,10.0.1.128,392,move_up,-0.690,-0.690,-0.690,0.000,0.000,0.000
1605199297240111104,10.0.1.128,440,move_up,-0.670,-0.670,-0.670,0.000,0.000,0.000
1605199298699987968,10.0.1.128,410,move_up,-0.650,-0.650,-0.650,0.000,0.000,0.000
1605199300149494016,10.0.1.128,369,move_up,-0.630,-0.630,-0.630,0.000,0.000,0.000
1605199301624641792,10.0.1.128,427,move_up,-0.610,-0.610,-0.610,0.000,0.000,0.000
1605199303079849984,10.0.1.128,397,move_up,-0.590,-0.590,-0.590,0.000,0.000,0.000
1605199304582518016,10.0.1.128,422,move_up,-0.570,-0.570,-0.570,0.000,0.000,0.000
1605199306049614080,10.0.1.128,412,move_up,-0.550,-0.550,-0.550,0.000,0.000,0.000
1605199307500058880,10.0.1.128,382,move_up,-0.530,-0.530,-0.530,0.000,0.000,0.000
1605199308950451968,10.0.1.128,415,move_up,-0.510,-0.510,-0.510,0.000,0.000,0.000
1605199310426661888,10.0.1.128,433,move_up,-0.490,-0.490,-0.490,0.000,0.000,0.000
1605199311889323008,10.0.1.128,407,move_up,-0.470,-0.470,-0.470,0.000,0.000,0.000
1605199313318237184,10.0.1.128,374,move_up,-0.450,-0.450,-0.450,0.000,0.000,0.000
1605199314788505088,10.0.1.128,422,move_up,-0.430,-0.430,-0.430,0.000,0.000,0.000
1605199316198400000,10.0.1.128,380,move_up,-0.410,-0.410,-0.410,0.000,0.000,0.000
1605199317659554048,10.0.1.128,406,move_up,-0.390,-0.390,-0.390,0.000,0.000,0.000
1605199319148302080,10.0.1.128,412,move_up,-0.370,-0.370,-0.370,0.000,0.000,0.000
1605199320615721984,10.0.1.128,422,move_up,-0.350,-0.350,-0.350,0.000,0.000,0.000
1605199322079566080,10.0.1.128,403,move_up,-0.330,-0.330,-0.330,0.000,0.000,0.000
1605199323598786048,10.0.1.128,400,move_up,-0.310,-0.310,-0.310,0.000,0.000,0.000
1605199325066003968,10.0.1.128,408,move_up,-0.290,-0.290,-0.290,0.000,0.000,0.000
1605199326440922880,10.0.1.128,357,move_up,-0.270,-0.270,-0.270,0.000,0.000,0.000
1605199327842736128,10.0.1.128,380,move_up,-0.250,-0.250,-0.250,0.000,0.000,0.000
1605199329268196096,10.0.1.128,379,move_up,-0.230,-0.230,-0.230,0.000,0.000,0.000
1605199330703131904,10.0.1.128,384,move_up,-0.210,-0.210,-0.210,0.000,0.000,0.000
1605199332158152192,10.0.1.128,393,move_up,-0.190,-0.190,-0.190,0.000,0.000,0.000
1605199333238496000,10.0.1.128,32,place,-0.180,-0.180,-0.180,0.000,0.000,0.000
1605199334267347968,10.0.1.128,52,place,-0.170,-0.170,-0.170,0.000,0.000,0.000
1605199335257273856,10.0.1.128,40,place,-0.160,-0.160,-0.160,0.000,0.000,0.000
1605199336259994880,10.0.1.128,38,place,-0.150,-0.150,-0.150,0.000,0.000,0.000
1605199337261532928,10.0.1.128,37,place,-0.140,-0.140,-0.140,0.000,0.000,0.000
1605199338277900032,10.0.1.128,49,place,-0.130,-0.130,-0.130,0.000,0.000,0.000
1605199339279097088,10.0.1.128,47,place,-0.120,-0.120,-0.120,0.000,0.000,0.000
1605199340279287040,10.0.1.128,46,place,-0.110,-0.110,-0.110,0.000,0.000,0.000
1605199341278883072,10.0.1.128,44,place,-0.100,-0.100,-0.100,0.000,0.000,0.000
1605199342281006080,10.0.1.128,45,place,-0.090,-0.090,-0.090,0.000,0.000,0.000
1605199343278654976,10.0.1.128,41,place,-0.080,-0.080,-0.080,0.000,0.000,0.000
1605199345239293952,10.0.1.128,NaN,place,-0.060,-0.060,-0.060,0.000,0.000,0.000
1605199345277744896,10.0.1.128,38,place,-0.060,-0.060,-0.060,0.000,0.000,0.000
1605199346278274048,10.0.1.128,37,place,-0.050,-0.050,-0.050,0.000,0.000,0.000
1605199347278682112,10.0.1.128,36,place,-0.040,-0.040,-0.040,0.000,0.000,0.000
1605199348278978048,10.0.1.128,35,place,-0.030,-0.030,-0.030,0.000,0.000,0.000
1605199349279824128,10.0.1.128,35,place,-0.020,-0.020,-0.020,0.000,0.000,0.000
1605199350279192064,10.0.1.128,33,place,-0.010,-0.010,-0.010,0.000,0.000,0.000
1605199351298428928,10.0.1.128,51,place,0.000,0.000,0.000,0.000,0.000,0.000
1605199352639792896,10.0.1.128,392,move_down,-0.020,-0.020,-0.020,0.000,0.000,0.000
1605199354104141824,10.0.1.128,407,move_down,-0.040,-0.040,-0.040,0.000,0.000,0.000
1605199355531970048,10.0.1.128,383,move_down,-0.060,-0.060,-0.060,0.000,0.000,0.000
1605199356971613952,10.0.1.128,380,move_down,-0.080,-0.080,-0.080,0.000,0.000,0.000
1605199358423934976,10.0.1.128,408,move_down,-0.100,-0.100,-0.100,0.000,0.000,0.000
1605199359898566912,10.0.1.128,399,move_down,-0.120,-0.120,-0.120,0.000,0.000,0.000
1605199361337993984,10.0.1.128,385,move_down,-0.140,-0.140,-0.140,0.000,0.000,0.000
1605199362789683200,10.0.1.128,394,move_down,-0.160,-0.160,-0.160,0.000,0.000,0.000
1605199364280466944,10.0.1.128,408,move_down,-0.180,-0.180,-0.180,0.000,0.000,0.000
1605199365718262784,10.0.1.128,394,move_down,-0.200,-0.200,-0.200,0.000,0.000,0.000
1605199367218375936,10.0.1.128,419,move_down,-0.220,-0.220,-0.220,0.000,0.000,0.000
1605199368701596928,10.0.1.128,430,move_down,-0.240,-0.240,-0.240,0.000,0.000,0.000
1605199370128645888,10.0.1.128,372,move_down,-0.260,-0.260,-0.260,0.000,0.000,0.000
1605199371560837888,10.0.1.128,373,move_down,-0.280,-0.280,-0.280,0.000,0.000,0.000
1605199373109888000,10.0.1.128,407,move_down,-0.300,-0.300,-0.300,0.000,0.000,0.000
1605199374517689856,10.0.1.128,361,move_down,-0.320,-0.320,-0.320,0.000,0.000,0.000
1605199376000769024,10.0.1.128,425,move_down,-0.340,-0.340,-0.340,0.000,0.000,0.000
1605199377479904768,10.0.1.128,440,move_down,-0.360,-0.360,-0.360,0.000,0.000,0.000
1605199378889446144,10.0.1.128,362,move_down,-0.380,-0.380,-0.380,0.000,0.000,0.000
1605199380329914112,10.0.1.128,387,move_down,-0.400,-0.400,-0.400,0.000,0.000,0.000
1605199381799422976,10.0.1.128,410,move_down,-0.420,-0.420,-0.420,0.000,0.000,0.000
1605199383294780928,10.0.1.128,394,move_down,-0.440,-0.440,-0.440,0.000,0.000,0.000
1605199384719747072,10.0.1.128,372,move_down,-0.460,-0.460,-0.460,0.000,0.000,0.000
1605199386158248960,10.0.1.128,388,move_down,-0.480,-0.480,-0.480,0.000,0.000,0.000
1605199387631251200,10.0.1.128,417,move_down,-0.500,-0.500,-0.500,0.000,0.000,0.000
1605199389048051968,10.0.1.128,383,move_down,-0.520,-0.520,-0.520,0.000,0.000,0.000
1605199390529089024,10.0.1.128,421,move_down,-0.540,-0.540,-0.540,0.000,0.000,0.000
1605199391968781056,10.0.1.128,403,move_down,-0.560,-0.560,-0.560,0.000,0.000,0.000
1605199393479926016,10.0.1.128,426,move_down,-0.580,-0.580,-0.580,0.000,0.000,0.000
1605199394588445952,10.0.1.128,32,pick,-0.590,-0.590,-0.590,0.000,0.000,0.000
1605199395616674048,10.0.1.128,59,pick,-0.600,-0.600,-0.600,0.000,0.000,0.000
1605199396611727104,10.0.1.128,52,pick,-0.610,-0.610,-0.610,0.000,0.000,0.000
1605199397613337088,10.0.1.128,52,pick,-0.620,-0.620,-0.620,0.000,0.000,0.000
1605199398618113024,10.0.1.128,56,pick,-0.630,-0.630,-0.630,0.000,0.000,0.000
1605199399616210944,10.0.1.128,53,pick,-0.640,-0.640,-0.640,0.000,0.000,0.000
1605199400613178880,10.0.1.128,49,pick,-0.650,-0.650,-0.650,0.000,0.000,0.000
1605199401609582848,10.0.1.128,44,pick,-0.660,-0.660,-0.660,0.000,0.000,0.000
1605199402608887808,10.0.1.128,42,pick,-0.670,-0.670,-0.670,0.000,0.000,0.000
1605199403614754048,10.0.1.128,47,pick,-0.680,-0.680,-0.680,0.000,0.000,0.000
1605199404608679168,10.0.1.128,39,pick,-0.690,-0.690,-0.690,0.000,0.000,0.000
1605199405614723072,10.0.1.128,44,pick,-0.700,-0.700,-0.700,0.000,0.000,0.000
1605199406610390016,10.0.1.128,39,pick,-0.710,-0.710,-0.710,0.000,0.000,0.000
1605199407607815936,10.0.1.128,35,pick,-0.720,-0.720,-0.720,0.000,0.000,0.000
1605199408618455040,10.0.1.128,45,pick,-0.730,-0.730,-0.730,0.000,0.000,0.000
1605199409608421120,10.0.1.128,33,pick,-0.740,-0.740,-0.740,0.000,0.000,0.000
1605199410609127168,10.0.1.128,33,pick,-0.750,-0.750,-0.750,0.000,0.000,0.000
1605199411633310976,10.0.1.128,55,pick,-0.760,-0.760,-0.760,0.000,0.000,0.000
1605199412629543936,10.0.1.128,50,pick,-0.770,-0.770,-0.770,0.000,0.000,0.000
1605199413989337088,10.0.1.128,409,move_up,-0.750,-0.750,-0.750,0.000,0.000,0.000
1605199415468115200,10.0.1.128,413,move_up,-0.730,-0.730,-0.730,0.000,0.000,0.000
1605199416939618048,10.0.1.128,374,move_up,-0.710,-0.710,-0.710,0.000,0.000,0.000
1605199418390619136,10.0.1.128,392,move_up,-0.690,-0.690,-0.690,0.000,0.000,0.000
1605199419841872896,10.0.1.128,389,move_up,-0.670,-0.670,-0.670,0.000,0.000,0.000
1605199421311815936,10.0.1.128,379,move_up,-0.650,-0.650,-0.650,0.000,0.000,0.000
1605199422770270208,10.0.1.128,397,move_up,-0.630,-0.630,-0.630,0.000,0.000,0.000
1605199424202295040,10.0.1.128,410,move_up,-0.610,-0.610,-0.610,0.000,0.000,0.000
1605199425660530944,10.0.1.128,412,move_up,-0.590,-0.590,-0.590,0.000,0.000,0.000
1605199427061646848,10.0.1.128,371,move_up,-0.570,-0.570,-0.570,0.000,0.000,0.000
1605199428527426048,10.0.1.128,385,move_up,-0.550,-0.550,-0.550,0.000,0.000,0.000
1605199430018074880,10.0.1.128,437,move_up,-0.530,-0.530,-0.530,0.000,0.000,0.000
1605199431514833920,10.0.1.128,410,move_up,-0.510,-0.510,-0.510,0.000,0.000,0.000
1605199433090771968,10.0.1.128,463,move_up,-0.490,-0.490,-0.490,0.000,0.000,0.000
1605199434542402048,10.0.1.128,380,move_up,-0.470,-0.470,-0.470,0.000,0.000,0.000
1605199436019748096,10.0.1.128,380,move_up,-0.450,-0.450,-0.450,0.000,0.000,0.000
1605199437461990144,10.0.1.128,396,move_up,-0.430,-0.430,-0.430,0.000,0.000,0.000
1605199438913677056,10.0.1.128,381,move_up,-0.410,-0.410,-0.410,0.000,0.000,0.000
1605199440335685888,10.0.1.128,366,move_up,-0.390,-0.390,-0.390,0.000,0.000,0.000
1605199441754030080,10.0.1.128,363,move_up,-0.370,-0.370,-0.370,0.000,0.000,0.000
1605199443227038976,10.0.1.128,388,move_up,-0.350,-0.350,-0.350,0.000,0.000,0.000
1605199444695990016,10.0.1.128,409,move_up,-0.330,-0.330,-0.330,0.000,0.000,0.000
1605199446180237056,10.0.1.128,416,move_up,-0.310,-0.310,-0.310,0.000,0.000,0.000
1605199447650872064,10.0.1.128,400,move_up,-0.290,-0.290,-0.290,0.000,0.000,0.000
1605199449150157056,10.0.1.128,401,move_up,-0.270,-0.270,-0.270,0.000,0.000,0.000
1605199450662508032,10.0.1.128,426,move_up,-0.250,-0.250,-0.250,0.000,0.000,0.000
1605199452110713856,10.0.1.128,411,move_up,-0.230,-0.230,-0.230,0.000,0.000,0.000
1605199453560559104,10.0.1.128,392,move_up,-0.210,-0.210,-0.210,0.000,0.000,0.000
1605199454949676032,10.0.1.128,366,move_up,-0.190,-0.190,-0.190,0.000,0.000,0.000
1605199456050385920,10.0.1.128,42,place,-0.180,-0.180,-0.180,0.000,0.000,0.000
1605199457049519104,10.0.1.128,40,place,-0.170,-0.170,-0.170,0.000,0.000,0.000
1605199458049298944,10.0.1.128,38,place,-0.160,-0.160,-0.160,0.000,0.000,0.000
1605199459049189120,10.0.1.128,37,place,-0.150,-0.150,-0.150,0.000,0.000,0.000
1605199460050483968,10.0.1.128,37,place,-0.140,-0.140,-0.140,0.000,0.000,0.000
1605199461050518016,10.0.1.128,35,place,-0.130,-0.130,-0.130,0.000,0.000,0.000
1605199462069394176,10.0.1.128,48,place,-0.120,-0.120,-0.120,0.000,0.000,0.000
1605199463069690112,10.0.1.128,47,place,-0.110,-0.110,-0.110,0.000,0.000,0.000
1605199464070547200,10.0.1.128,46,place,-0.100,-0.100,-0.100,0.000,0.000,0.000
1605199465070338048,10.0.1.128,44,place,-0.090,-0.090,-0.090,0.000,0.000,0.000
1605199466078284032,10.0.1.128,51,place,-0.080,-0.080,-0.080,0.000,0.000,0.000
1605199467069889024,10.0.1.128,41,place,-0.070,-0.070,-0.070,0.000,0.000,0.000
1605199468070343936,10.0.1.128,40,place,-0.060,-0.060,-0.060,0.000,0.000,0.000
1605199469070030080,10.0.1.128,38,place,-0.050,-0.050,-0.050,0.000,0.000,0.000
1605199470071620864,10.0.1.128,38,place,-0.040,-0.040,-0.040,0.000,0.000,0.000
1605199471070702080,10.0.1.128,36,place,-0.030,-0.030,-0.030,0.000,0.000,0.000
1605199472070266880,10.0.1.128,34,place,-0.020,-0.020,-0.020,0.000,0.000,0.000
1605199473070738944,10.0.1.128,33,place,-0.010,-0.010,-0.010,0.000,0.000,0.000
1605199475039053056,10.0.1.128,NaN,move_down,-0.020,-0.020,-0.020,0.000,0.000,0.000
1605199475374764800,10.0.1.128,335,move_down,-0.020,-0.020,-0.020,0.000,0.000,0.000
1605199476811428096,10.0.1.128,430,move_down,-0.040,-0.040,-0.040,0.000,0.000,0.000
1605199478241003008,10.0.1.128,376,move_down,-0.060,-0.060,-0.060,0.000,0.000,0.000
1605199479690016000,10.0.1.128,383,move_down,-0.080,-0.080,-0.080,0.000,0.000,0.000
1605199481129591040,10.0.1.128,377,move_down,-0.100,-0.100,-0.100,0.000,0.000,0.000
1605199482626097920,10.0.1.128,395,move_down,-0.120,-0.120,-0.120,0.000,0.000,0.000
1605199484090809088,10.0.1.128,412,move_down,-0.140,-0.140,-0.140,0.000,0.000,0.000
1605199485553551872,10.0.1.128,400,move_down,-0.160,-0.160,-0.160,0.000,0.000,0.000
1605199486972513792,10.0.1.128,373,move_down,-0.180,-0.180,-0.180,0.000,0.000,0.000
1605199488461942784,10.0.1.128,381,move_down,-0.200,-0.200,-0.200,0.000,0.000,0.000
1605199489954541056,10.0.1.128,429,move_down,-0.220,-0.220,-0.220,0.000,0.000,0.000
1605199491423049984,10.0.1.128,416,move_down,-0.240,-0.240,-0.240,0.000,0.000,0.000
1605199492919827968,10.0.1.128,427,move_down,-0.260,-0.260,-0.260,0.000,0.000,0.000
1605199494351286784,10.0.1.128,382,move_down,-0.280,-0.280,-0.280,0.000,0.000,0.000
1605199495834959872,10.0.1.128,390,move_down,-0.300,-0.300,-0.300,0.000,0.000,0.000
1605199497299638016,10.0.1.128,400,move_down,-0.320,-0.320,-0.320,0.000,0.000,0.000
1605199498760473856,10.0.1.128,406,move_down,-0.340,-0.340,-0.340,0.000,0.000,0.000
1605199500239682816,10.0.1.128,404,move_down,-0.360,-0.360,-0.360,0.000,0.000,0.000
1605199501669563136,10.0.1.128,391,move_down,-0.380,-0.380,-0.380,0.000,0.000,0.000
1605199503180484096,10.0.1.128,382,move_down,-0.400,-0.400,-0.400,0.000,0.000,0.000
1605199504589143040,10.0.1.128,399,move_down,-0.420,-0.420,-0.420,0.000,0.000,0.000
1605199506031819008,10.0.1.128,399,move_down,-0.440,-0.440,-0.440,0.000,0.000,0.000
1605199507499744000,10.0.1.128,411,move_down,-0.460,-0.460,-0.460,0.000,0.000,0.000
1605199509000046848,10.0.1.128,419,move_down,-0.480,-0.480,-0.480,0.000,0.000,0.000
1605199510445764096,10.0.1.128,396,move_down,-0.500,-0.500,-0.500,0.000,0.000,0.000
1605199511855664896,10.0.1.128,362,move_down,-0.520,-0.520,-0.520,0.000,0.000,0.000
1605199513335661056,10.0.1.128,396,move_down,-0.540,-0.540,-0.540,0.000,0.000,0.000
1605199514818162944,10.0.1.128,431,move_down,-0.560,-0.560,-0.560,0.000,0.000,0.000
1605199516267726848,10.0.1.128,402,move_down,-0.580,-0.580,-0.580,0.000,0.000,0.000
1605199517386135040,10.0.1.128,39,pick,-0.590,-0.590,-0.590,0.000,0.000,0.000
1605199518385811200,10.0.1.128,36,pick,-0.600,-0.600,-0.600,0.000,0.000,0.000
1605199519389121024,10.0.1.128,38,pick,-0.610,-0.610,-0.610,0.000,0.000,0.000
1605199520388215040,10.0.1.128,35,pick,-0.620,-0.620,-0.620,0.000,0.000,0.000
1605199521387876864,10.0.1.128,33,pick,-0.630,-0.630,-0.630,0.000,0.000,0.000
1605199522408727040,10.0.1.128,53,pick,-0.640,-0.640,-0.640,0.000,0.000,0.000
1605199523411418880,10.0.1.128,54,pick,-0.650,-0.650,-0.650,0.000,0.000,0.000
1605199524413981952,10.0.1.128,55,pick,-0.660,-0.660,-0.660,0.000,0.000,0.000
1605199525408435200,10.0.1.128,48,pick,-0.670,-0.670,-0.670,0.000,0.000,0.000
1605199526413240064,10.0.1.128,52,pick,-0.680,-0.680,-0.680,0.000,0.000,0.000
1605199527421999104,10.0.1.128,60,pick,-0.690,-0.690,-0.690,0.000,0.000,0.000
1605199528424422144,10.0.1.128,61,pick,-0.700,-0.700,-0.700,0.000,0.000,0.000
1605199529414993152,10.0.1.128,50,pick,-0.710,-0.710,-0.710,0.000,0.000,0.000
1605199530405713920,10.0.1.128,38,pick,-0.720,-0.720,-0.720,0.000,0.000,0.000
1605199531405775104,10.0.1.128,36,pick,-0.730,-0.730,-0.730,0.000,0.000,0.000
1605199532405682944,10.0.1.128,35,pick,-0.740,-0.740,-0.740,0.000,0.000,0.000
1605199533410042880,10.0.1.128,38,pick,-0.750,-0.750,-0.750,0.000,0.000,0.000
1605199534414608896,10.0.1.128,40,pick,-0.760,-0.760,-0.760,0.000,0.000,0.000
1605199535425878016,10.0.1.128,49,pick,-0.770,-0.770,-0.770,0.000,0.000,0.000
1605199536750755072,10.0.1.128,373,move_up,-0.750,-0.750,-0.750,0.000,0.000,0.000
1605199538265149952,10.0.1.128,390,move_up,-0.730,-0.730,-0.730,0.000,0.000,0.000
1605199539721339904,10.0.1.128,404,move_up,-0.710,-0.710,-0.710,0.000,0.000,0.000
1605199541185786880,10.0.1.128,387,move_up,-0.690,-0.690,-0.690,0.000,0.000,0.000
1605199542628311040,10.0.1.128,381,move_up,-0.670,-0.670,-0.670,0.000,0.000,0.000
1605199544078967040,10.0.1.128,388,move_up,-0.650,-0.650,-0.650,0.000,0.000,0.000
1605199545596462848,10.0.1.128,425,move_up,-0.630,-0.630,-0.630,0.000,0.000,0.000
1605199547060740864,10.0.1.128,402,move_up,-0.610,-0.610,-0.610,0.000,0.000,0.000
1605199548546844928,10.0.1.128,406,move_up,-0.590,-0.590,-0.590,0.000,0.000,0.000
1605199550025521152,10.0.1.128,371,move_up,-0.570,-0.570,-0.570,0.000,0.000,0.000
1605199551516352000,10.0.1.128,407,move_up,-0.550,-0.550,-0.550,0.000,0.000,0.000
1605199553018435840,10.0.1.128,426,move_up,-0.530,-0.530,-0.530,0.000,0.000,0.000
1605199554457549056,10.0.1.128,381,move_up,-0.510,-0.510,-0.510,0.000,0.000,0.000
1605199555927608064,10.0.1.128,409,move_up,-0.490,-0.490,-0.490,0.000,0.000,0.000
1605199557364728832,10.0.1.128,397,move_up,-0.470,-0.470,-0.470,0.000,0.000,0.000
1605199558831918080,10.0.1.128,412,move_up,-0.450,-0.450,-0.450,0.000,0.000,0.000
1605199560316062976,10.0.1.128,401,move_up,-0.430,-0.430,-0.430,0.000,0.000,0.000
1605199561830487040,10.0.1.128,442,move_up,-0.410,-0.410,-0.410,0.000,0.000,0.000
1605199563268687104,10.0.1.128,390,move_up,-0.390,-0.390,-0.390,0.000,0.000,0.000
1605199564728755968,10.0.1.128,370,move_up,-0.370,-0.370,-0.370,0.000,0.000,0.000
1605199566270426112,10.0.1.128,425,move_up,-0.350,-0.350,-0.350,0.000,0.000,0.000
1605199567739139072,10.0.1.128,398,move_up,-0.330,-0.330,-0.330,0.000,0.000,0.000
1605199569202971904,10.0.1.128,406,move_up,-0.310,-0.310,-0.310,0.000,0.000,0.000
1605199570650072064,10.0.1.128,398,move_up,-0.290,-0.290,-0.290,0.000,0.000,0.000
1605199572120503808,10.0.1.128,415,move_up,-0.270,-0.270,-0.270,0.000,0.000,0.000
1605199573589654016,10.0.1.128,423,move_up,-0.250,-0.250,-0.250,0.000,0.000,0.000
1605199575051446016,10.0.1.128,391,move_up,-0.230,-0.230,-0.230,0.000,0.000,0.000
1605199576501801984,10.0.1.128,398,move_up,-0.210,-0.210,-0.210,0.000,0.000,0.000
1605199577963206144,10.0.1.128,412,move_up,-0.190,-0.190,-0.190,0.000,0.000,0.000
1605199579065860864,10.0.1.128,38,place,-0.180,-0.180,-0.180,0.000,0.000,0.000
1605199580079799040,10.0.1.128,50,place,-0.170,-0.170,-0.170,0.000,0.000,0.000
1605199581079783936,10.0.1.128,49,place,-0.160,-0.160,-0.160,0.000,0.000,0.000
1605199582082320896,10.0.1.128,50,place,-0.150,-0.150,-0.150,0.000,0.000,0.000
1605199583085367808,10.0.1.128,52,place,-0.140,-0.140,-0.140,0.000,0.000,0.000
1605199584079279872,10.0.1.128,44,place,-0.130,-0.130,-0.130,0.000,0.000,0.000
1605199585094458112,10.0.1.128,58,place,-0.120,-0.120,-0.120,0.000,0.000,0.000
1605199586079611136,10.0.1.128,41,place,-0.110,-0.110,-0.110,0.000,0.000,0.000
1605199587081517824,10.0.1.128,42,place,-0.100,-0.100,-0.100,0.000,0.000,0.000
1605199588099746816,10.0.1.128,58,place,-0.090,-0.090,-0.090,0.000,0.000,0.000
1605199589081263104,10.0.1.128,38,place,-0.080,-0.080,-0.080,0.000,0.000,0.000
1605199590084563968,10.0.1.128,40,place,-0.070,-0.070,-0.070,0.000,0.000,0.000
1605199591080523008,10.0.1.128,34,place,-0.060,-0.060,-0.060,0.000,0.000,0.000
1605199592099265024,10.0.1.128,50,place,-0.050,-0.050,-0.050,0.000,0.000,0.000
1605199593100420096,10.0.1.128,49,place,-0.040,-0.040,-0.040,0.000,0.000,0.000
1605199594100167936,10.0.1.128,48,place,-0.030,-0.030,-0.030,0.000,0.000,0.000
1605199595102187008,10.0.1.128,49,place,-0.020,-0.020,-0.020,0.000,0.000,0.000
1605199596100071936,10.0.1.128,45,place,-0.010,-0.010,-0.010,0.000,0.000,0.000
1605199597098987008,10.0.1.128,42,place,0.000,0.000,0.000,0.000,0.000,0.000
1605199598453723904,10.0.1.128,395,move_down,-0.020,-0.020,-0.020,0.000,0.000,0.000
1605199599912055040,10.0.1.128,400,move_down,-0.040,-0.040,-0.040,0.000,0.000,0.000
1605199601389914880,10.0.1.128,397,move_down,-0.060,-0.060,-0.060,0.000,0.000,0.000
1605199602873830912,10.0.1.128,407,move_down,-0.080,-0.080,-0.080,0.000,0.000,0.000
1605199604315905024,10.0.1.128,364,move_down,-0.100,-0.100,-0.100,0.000,0.000,0.000
1605199605784684800,10.0.1.128,392,move_down,-0.120,-0.120,-0.120,0.000,0.000,0.000
1605199607256249856,10.0.1.128,415,move_down,-0.140,-0.140,-0.140,0.000,0.000,0.000
1605199608727708160,10.0.1.128,372,move_down,-0.160,-0.160,-0.160,0.000,0.000,0.000
1605199610236399872,10.0.1.128,404,move_down,-0.180,-0.180,-0.180,0.000,0.000,0.000
1605199611733520128,10.0.1.128,435,move_down,-0.200,-0.200,-0.200,0.000,0.000,0.000
1605199613230604032,10.0.1.128,413,move_down,-0.220,-0.220,-0.220,0.000,0.000,0.000
1605199614688683008,10.0.1.128,439,move_down,-0.240,-0.240,-0.240,0.000,0.000,0.000
1605199616114114048,10.0.1.128,387,move_down,-0.260,-0.260,-0.260,0.000,0.000,0.000
1605199617574492928,10.0.1.128,407,move_down,-0.280,-0.280,-0.280,0.000,0.000,0.000
1605199619054380032,10.0.1.128,391,move_down,-0.300,-0.300,-0.300,0.000,0.000,0.000
1605199620505747200,10.0.1.128,397,move_down,-0.320,-0.320,-0.320,0.000,0.000,0.000
1605199622026524928,10.0.1.128,404,move_down,-0.340,-0.340,-0.340,0.000,0.000,0.000
1605199623472407040,10.0.1.128,393,move_down,-0.360,-0.360,-0.360,0.000,0.000,0.000
1605199624946997760,10.0.1.128,417,move_down,-0.380,-0.380,-0.380,0.000,0.000,0.000
1605199626424700928,10.0.1.128,422,move_down,-0.400,-0.400,-0.400,0.000,0.000,0.000
1605199627927079936,10.0.1.128,423,move_down,-0.420,-0.420,-0.420,0.000,0.000,0.000
1605199629365395968,10.0.1.128,381,move_down,-0.440,-0.440,-0.440,0.000,0.000,0.000
1605199630805288960,10.0.1.128,375,move_down,-0.460,-0.460,-0.460,0.000,0.000,0.000
1605199632254724864,10.0.1.128,408,move_down,-0.480,-0.480,-0.480,0.000,0.000,0.000
1605199633743992064,10.0.1.128,441,move_down,-0.500,-0.500,-0.500,0.000,0.000,0.000
1605199635193876992,10.0.1.128,400,move_down,-0.520,-0.520,-0.520,0.000,0.000,0.000
1605199636724580096,10.0.1.128,413,move_down,-0.540,-0.540,-0.540,0.000,0.000,0.000
1605199638167987200,10.0.1.128,397,move_down,-0.560,-0.560,-0.560,0.000,0.000,0.000
1605199639603913984,10.0.1.128,388,move_down,-0.580,-0.580,-0.580,0.000,0.000,0.000
1605199640744882944,10.0.1.128,51,pick,-0.590,-0.590,-0.590,0.000,0.000,0.000
1605199641743077120,10.0.1.128,48,pick,-0.600,-0.600,-0.600,0.000,0.000,0.000
1605199642743407104,10.0.1.128,47,pick,-0.610,-0.610,-0.610,0.000,0.000,0.000
1605199643751867136,10.0.1.128,54,pick,-0.620,-0.620,-0.620,0.000,0.000,0.000
1605199644744390912,10.0.1.128,45,pick,-0.630,-0.630,-0.630,0.000,0.000,0.000
1605199645745583104,10.0.1.128,44,pick,-0.640,-0.640,-0.640,0.000,0.000,0.000
1605199646743134976,10.0.1.128,40,pick,-0.650,-0.650,-0.650,0.000,0.000,0.000
1605199647743187968,10.0.1.128,39,pick,-0.660,-0.660,-0.660,0.000,0.000,0.000
1605199648755318016,10.0.1.128,48,pick,-0.670,-0.670,-0.670,0.000,0.000,0.000
1605199649743838976,10.0.1.128,35,pick,-0.680,-0.680,-0.680,0.000,0.000,0.000
1605199650743318016,10.0.1.128,33,pick,-0.690,-0.690,-0.690,0.000,0.000,0.000
1605199651764986880,10.0.1.128,53,pick,-0.700,-0.700,-0.700,0.000,0.000,0.000
1605199652764560896,10.0.1.128,51,pick,-0.710,-0.710,-0.710,0.000,0.000,0.000
1605199653764275968,10.0.1.128,49,pick,-0.720,-0.720,-0.720,0.000,0.000,0.000
1605199654764722944,10.0.1.128,45,pick,-0.730,-0.730,-0.730,0.000,0.000,0.000
1605199655764709888,10.0.1.128,43,pick,-0.740,-0.740,-0.740,0.000,0.000,0.000
1605199656763801088,10.0.1.128,36,pick,-0.750,-0.750,-0.750,0.000,0.000,0.000
1605199657763518976,10.0.1.128,34,pick,-0.760,-0.760,-0.760,0.000,0.000,0.000
1605199658764712960,10.0.1.128,34,pick,-0.770,-0.770,-0.770,0.000,0.000,0.000
1605199660116888064,10.0.1.128,384,move_up,-0.750,-0.750,-0.750,0.000,0.000,0.000
1605199661564244992,10.0.1.128,389,move_up,-0.730,-0.730,-0.730,0.000,0.000,0.000
1605199662986970880,10.0.1.128,395,move_up,-0.710,-0.710,-0.710,0.000,0.000,0.000
1605199664442099968,10.0.1.128,406,move_up,-0.690,-0.690,-0.690,0.000,0.000,0.000
1605199665911042048,10.0.1.128,381,move_up,-0.670,-0.670,-0.670,0.000,0.000,0.000
1605199667344527872,10.0.1.128,385,move_up,-0.650,-0.650,-0.650,0.000,0.000,0.000
1605199668828955904,10.0.1.128,426,move_up,-0.630,-0.630,-0.630,0.000,0.000,0.000
1605199670266451968,10.0.1.128,384,move_up,-0.610,-0.610,-0.610,0.000,0.000,0.000
1605199671754813952,10.0.1.128,392,move_up,-0.590,-0.590,-0.590,0.000,0.000,0.000
1605199673244427008,10.0.1.128,398,move_up,-0.570,-0.570,-0.570,0.000,0.000,0.000
1605199674704216064,10.0.1.128,408,move_up,-0.550,-0.550,-0.550,0.000,0.000,0.000
1605199676145538048,10.0.1.128,380,move_up,-0.530,-0.530,-0.530,0.000,0.000,0.000
1605199677659811072,10.0.1.128,442,move_up,-0.510,-0.510,-0.510,0.000,0.000,0.000
1605199679146522880,10.0.1.128,423,move_up,-0.490,-0.490,-0.490,0.000,0.000,0.000
1605199680665807872,10.0.1.128,449,move_up,-0.470,-0.470,-0.470,0.000,0.000,0.000
1605199682121399040,10.0.1.128,412,move_up,-0.450,-0.450,-0.450,0.000,0.000,0.000
1605199683584274176,10.0.1.128,394,move_up,-0.430,-0.430,-0.430,0.000,0.000,0.000
1605199685056765952,10.0.1.128,391,move_up,-0.410,-0.410,-0.410,0.000,0.000,0.000
1605199686584888064,10.0.1.128,436,move_up,-0.390,-0.390,-0.390,0.000,0.000,0.000
1605199688050631936,10.0.1.128,416,move_up,-0.370,-0.370,-0.370,0.000,0.000,0.000
1605199689521848064,10.0.1.128,397,move_up,-0.350,-0.350,-0.350,0.000,0.000,0.000
1605199690965086976,10.0.1.128,398,move_up,-0.330,-0.330,-0.330,0.000,0.000,0.000
1605199692449981952,10.0.1.128,396,move_up,-0.310,-0.310,-0.310,0.000,0.000,0.000
1605199693918845952,10.0.1.128,388,move_up,-0.290,-0.290,-0.290,0.000,0.000,0.000
1605199695416798976,10.0.1.128,402,move_up,-0.270,-0.270,-0.270,0.000,0.000,0.000
1605199696922487040,10.0.1.128,423,move_up,-0.250,-0.250,-0.250,0.000,0.000,0.000
1605199698367774976,10.0.1.128,402,move_up,-0.230,-0.230,-0.230,0.000,0.000,0.000
1605199699881996032,10.0.1.128,438,move_up,-0.210,-0.210,-0.210,0.000,0.000,0.000
1605199701321852928,10.0.1.128,389,move_up,-0.190,-0.190,-0.190,0.000,0.000,0.000
1605199702452503040,10.0.1.128,45,place,-0.180,-0.180,-0.180,0.000,0.000,0.000
1605199703453184000,10.0.1.128,45,place,-0.170,-0.170,-0.170,0.000,0.000,0.000
1605199704455331072,10.0.1.128,46,place,-0.160,-0.160,-0.160,0.000,0.000,0.000
1605199705454725888,10.0.1.128,44,place,-0.150,-0.150,-0.150,0.000,0.000,0.000
1605199706455424000,10.0.1.128,44,place,-0.140,-0.140,-0.140,0.000,0.000,0.000
1605199707456429056,10.0.1.128,43,place,-0.130,-0.130,-0.130,0.000,0.000,0.000
1605199708453224960,10.0.1.128,39,place,-0.120,-0.120,-0.120,0.000,0.000,0.000
1605199709452939008,10.0.1.128,37,place,-0.110,-0.110,-0.110,0.000,0.000,0.000
1605199710453104128,10.0.1.128,37,place,-0.100,-0.100,-0.100,0.000,0.000,0.000
1605199711453458944,10.0.1.128,36,place,-0.090,-0.090,-0.090,0.000,0.000,0.000
1605199712457614848,10.0.1.128,39,place,-0.080,-0.080,-0.080,0.000,0.000,0.000
1605199713457295872,10.0.1.128,37,place,-0.070,-0.070,-0.070,0.000,0.000,0.000
1605199714454904064,10.0.1.128,34,place,-0.060,-0.060,-0.060,0.000,0.000,0.000
1605199715454461184,10.0.1.128,32,place,-0.050,-0.050,-0.050,0.000,0.000,0.000
1605199716477460992,10.0.1.128,54,place,-0.040,-0.040,-0.040,0.000,0.000,0.000
1605199717472588032,10.0.1.128,48,place,-0.030,-0.030,-0.030,0.000,0.000,0.000
1605199718472666112,10.0.1.128,47,place,-0.020,-0.020,-0.020,0.000,0.000,0.000
1605199719475406848,10.0.1.128,49,place,-0.010,-0.010,-0.010,0.000,0.000,0.000
1605199720473793024,10.0.1.128,46,place,0.000,0.000,0.000,0.000,0.000,0.000
1605199721833764096,10.0.1.128,404,move_down,-0.020,-0.020,-0.020,0.000,0.000,0.000
1605199723345891072,10.0.1.128,416,move_down,-0.040,-0.040,-0.040,0.000,0.000,0.000
1605199724803732992,10.0.1.128,414,move_down,-0.060,-0.060,-0.060,0.000,0.000,0.000
1605199726283602944,10.0.1.128,413,move_down,-0.080,-0.080,-0.080,0.000,0.000,0.000
1605199727693344000,10.0.1.128,373,move_down,-0.100,-0.100,-0.100,0.000,0.000,0.000
1605199729194152192,10.0.1.128,429,move_down,-0.120,-0.120,-0.120,0.000,0.000,0.000
1605199730610302976,10.0.1.128,361,move_down,-0.140,-0.140,-0.140,0.000,0.000,0.000
1605199732073292032,10.0.1.128,382,move_down,-0.160,-0.160,-0.160,0.000,0.000,0.000
1605199733563429120,10.0.1.128,426,move_down,-0.180,-0.180,-0.180,0.000,0.000,0.000
1605199735014630144,10.0.1.128,401,move_down,-0.200,-0.200,-0.200,0.000,0.000,0.000
1605199736527142144,10.0.1.128,424,move_down,-0.220,-0.220,-0.220,0.000,0.000,0.000
1605199737985415936,10.0.1.128,397,move_down,-0.240,-0.240,-0.240,0.000,0.000,0.000
1605199739445920000,10.0.1.128,385,move_down,-0.260,-0.260,-0.260,0.000,0.000,0.000
1605199740904840960,10.0.1.128,394,move_down,-0.280,-0.280,-0.280,0.000,0.000,0.000
1605199742395389952,10.0.1.128,426,move_down,-0.300,-0.300,-0.300,0.000,0.000,0.000
1605199743870712064,10.0.1.128,423,move_down,-0.320,-0.320,-0.320,0.000,0.000,0.000
1605199745325473024,10.0.1.128,361,move_down,-0.340,-0.340,-0.340,0.000,0.000,0.000
1605199746810391040,10.0.1.128,405,move_down,-0.360,-0.360,-0.360,0.000,0.000,0.000
1605199748304812032,10.0.1.128,389,move_down,-0.380,-0.380,-0.380,0.000,0.000,0.000
1605199749782966016,10.0.1.128,420,move_down,-0.400,-0.400,-0.400,0.000,0.000,0.000
1605199751264296960,10.0.1.128,388,move_down,-0.420,-0.420,-0.420,0.000,0.000,0.000
1605199752763113984,10.0.1.128,428,move_down,-0.440,-0.440,-0.440,0.000,0.000,0.000
1605199754225753088,10.0.1.128,396,move_down,-0.460,-0.460,-0.460,0.000,0.000,0.000
1605199755693517824,10.0.1.128,405,move_down,-0.480,-0.480,-0.480,0.000,0.000,0.000
1605199757165869056,10.0.1.128,396,move_down,-0.500,-0.500,-0.500,0.000,0.000,0.000
1605199758594237184,10.0.1.128,416,move_down,-0.520,-0.520,-0.520,0.000,0.000,0.000
1605199760079544064,10.0.1.128,386,move_down,-0.540,-0.540,-0.540,0.000,0.000,0.000
1605199761544648960,10.0.1.128,396,move_down,-0.560,-0.560,-0.560,0.000,0.000,0.000
1605199763010206976,10.0.1.128,418,move_down,-0.580,-0.580,-0.580,0.000,0.000,0.000
1605199764170001152,10.0.1.128,52,pick,-0.590,-0.590,-0.590,0.000,0.000,0.000
1605199765153656064,10.0.1.128,32,pick,-0.600,-0.600,-0.600,0.000,0.000,0.000
1605199766176721152,10.0.1.128,54,pick,-0.610,-0.610,-0.610,0.000,0.000,0.000
1605199767163806976,10.0.1.128,40,pick,-0.620,-0.620,-0.620,0.000,0.000,0.000
1605199768165272064,10.0.1.128,40,pick,-0.630,-0.630,-0.630,0.000,0.000,0.000
1605199769163858944,10.0.1.128,37,pick,-0.640,-0.640,-0.640,0.000,0.000,0.000
1605199770185696000,10.0.1.128,57,pick,-0.650,-0.650,-0.650,0.000,0.000,0.000
1605199771164491008,10.0.1.128,35,pick,-0.660,-0.660,-0.660,0.000,0.000,0.000
1605199772165221888,10.0.1.128,34,pick,-0.670,-0.670,-0.670,0.000,0.000,0.000
1605199773163758080,10.0.1.128,31,pick,-0.680,-0.680,-0.680,0.000,0.000,0.000
1605199774173672960,10.0.1.128,40,pick,-0.690,-0.690,-0.690,0.000,0.000,0.000
1605199775185376768,10.0.1.128,50,pick,-0.700,-0.700,-0.700,0.000,0.000,0.000
1605199776190326016,10.0.1.128,53,pick,-0.710,-0.710,-0.710,0.000,0.000,0.000
1605199777174163968,10.0.1.128,36,pick,-0.720,-0.720,-0.720,0.000,0.000,0.000
1605199778193425920,10.0.1.128,54,pick,-0.730,-0.730,-0.730,0.000,0.000,0.000
1605199779183181056,10.0.1.128,42,pick,-0.740,-0.740,-0.740,0.000,0.000,0.000
1605199780188549888,10.0.1.128,46,pick,-0.750,-0.750,-0.750,0.000,0.000,0.000
1605199781184487936,10.0.1.128,41,pick,-0.760,-0.760,-0.760,0.000,0.000,0.000
1605199782186749952,10.0.1.128,42,pick,-0.770,-0.770,-0.770,0.000,0.000,0.000
1605199783523401984,10.0.1.128,377,move_up,-0.750,-0.750,-0.750,0.000,0.000,0.000
1605199785005979904,10.0.1.128,381,move_up,-0.730,-0.730,-0.730,0.000,0.000,0.000
1605199786445245952,10.0.1.128,393,move_up,-0.710,-0.710,-0.710,0.000,0.000,0.000
1605199787866651136,10.0.1.128,403,move_up,-0.690,-0.690,-0.690,0.000,0.000,0.000
1605199789325437184,10.0.1.128,385,move_up,-0.670,-0.670,-0.670,0.000,0.000,0.000
1605199790771731968,10.0.1.128,386,move_up,-0.650,-0.650,-0.650,0.000,0.000,0.000
1605199792284684032,10.0.1.128,418,move_up,-0.630,-0.630,-0.630,0.000,0.000,0.000
1605199793733766912,10.0.1.128,390,move_up,-0.610,-0.610,-0.610,0.000,0.000,0.000
1605199795212651008,10.0.1.128,420,move_up,-0.590,-0.590,-0.590,0.000,0.000,0.000
1605199796694925056,10.0.1.128,382,move_up,-0.570,-0.570,-0.570,0.000,0.000,0.000
1605199798133384960,10.0.1.128,385,move_up,-0.550,-0.550,-0.550,0.000,0.000,0.000
1605199799574828032,10.0.1.128,377,move_up,-0.530,-0.530,-0.530,0.000,0.000,0.000
1605199801004093952,10.0.1.128,389,move_up,-0.510,-0.510,-0.510,0.000,0.000,0.000
1605199802453463040,10.0.1.128,381,move_up,-0.490,-0.490,-0.490,0.000,0.000,0.000
1605199803993446144,10.0.1.128,412,move_up,-0.470,-0.470,-0.470,0.000,0.000,0.000
1605199805455745024,10.0.1.128,400,move_up,-0.450,-0.450,-0.450,0.000,0.000,0.000
1605199806895812096,10.0.1.128,396,move_up,-0.430,-0.430,-0.430,0.000,0.000,0.000
1605199808337705984,10.0.1.128,393,move_up,-0.410,-0.410,-0.410,0.000,0.000,0.000
1605199809836886016,10.0.1.128,418,move_up,-0.390,-0.390,-0.390,0.000,0.000,0.000
1605199811306288128,10.0.1.128,393,move_up,-0.370,-0.370,-0.370,0.000,0.000,0.000
1605199812744332032,10.0.1.128,379,move_up,-0.350,-0.350,-0.350,0.000,0.000,0.000
1605199814204470016,10.0.1.128,396,move_up,-0.330,-0.330,-0.330,0.000,0.000,0.000
1605199815654392832,10.0.1.128,396,move_up,-0.310,-0.310,-0.310,0.000,0.000,0.000
1605199817144617984,10.0.1.128,431,move_up,-0.290,-0.290,-0.290,0.000,0.000,0.000
1605199818663324160,10.0.1.128,433,move_up,-0.270,-0.270,-0.270,0.000,0.000,0.000
1605199820169398016,10.0.1.128,409,move_up,-0.250,-0.250,-0.250,0.000,0.000,0.000
1605199821672471040,10.0.1.128,398,move_up,-0.230,-0.230,-0.230,0.000,0.000,0.000
1605199823121615872,10.0.1.128,391,move_up,-0.210,-0.210,-0.210,0.000,0.000,0.000
1605199824619771904,10.0.1.128,414,move_up,-0.190,-0.190,-0.190,0.000,0.000,0.000
1605199825719635968,10.0.1.128,32,place,-0.180,-0.180,-0.180,0.000,0.000,0.000
1605199826719408896,10.0.1.128,31,place,-0.170,-0.170,-0.170,0.000,0.000,0.000
1605199827739411968,10.0.1.128,50,place,-0.160,-0.160,-0.160,0.000,0.000,0.000
1605199828739758080,10.0.1.128,49,place,-0.150,-0.150,-0.150,0.000,0.000,0.000
1605199829740762112,10.0.1.128,49,place,-0.140,-0.140,-0.140,0.000,0.000,0.000
1605199830740033024,10.0.1.128,47,place,-0.130,-0.130,-0.130,0.000,0.000,0.000
1605199831741362944,10.0.1.128,47,place,-0.120,-0.120,-0.120,0.000,0.000,0.000
1605199832742025984,10.0.1.128,47,place,-0.110,-0.110,-0.110,0.000,0.000,0.000
1605199833740133888,10.0.1.128,44,place,-0.100,-0.100,-0.100,0.000,0.000,0.000
1605199834741071104,10.0.1.128,44,place,-0.090,-0.090,-0.090,0.000,0.000,0.000
1605199835740017920,10.0.1.128,41,place,-0.080,-0.080,-0.080,0.000,0.000,0.000
1605199836739734784,10.0.1.128,40,place,-0.070,-0.070,-0.070,0.000,0.000,0.000
1605199837740371968,10.0.1.128,39,place,-0.060,-0.060,-0.060,0.000,0.000,0.000
1605199838742760960,10.0.1.128,40,place,-0.050,-0.050,-0.050,0.000,0.000,0.000
1605199839739960832,10.0.1.128,35,place,-0.040,-0.040,-0.040,0.000,0.000,0.000
1605199840739012096,10.0.1.128,32,place,-0.030,-0.030,-0.030,0.000,0.000,0.000
1605199841739682048,10.0.1.128,32,place,-0.020,-0.020,-0.020,0.000,0.000,0.000
1605199842766387968,10.0.1.128,57,place,-0.010,-0.010,-0.010,0.000,0.000,0.000
1605199843761100032,10.0.1.128,51,place,0.000,0.000,0.000,0.000,0.000,0.000
1605199845092823040,10.0.1.128,381,move_down,-0.020,-0.020,-0.020,0.000,0.000,0.000
1605199846532118016,10.0.1.128,394,move_down,-0.040,-0.040,-0.040,0.000,0.000,0.000
1605199848020163072,10.0.1.128,448,move_down,-0.060,-0.060,-0.060,0.000,0.000,0.000
1605199849513572864,10.0.1.128,453,move_down,-0.080,-0.080,-0.080,0.000,0.000,0.000
1605199850951906048,10.0.1.128,385,move_down,-0.100,-0.100,-0.100,0.000,0.000,0.000
1605199852420047104,10.0.1.128,409,move_down,-0.120,-0.120,-0.120,0.000,0.000,0.000
1605199853880187136,10.0.1.128,419,move_down,-0.140,-0.140,-0.140,0.000,0.000,0.000
1605199855310176000,10.0.1.128,372,move_down,-0.160,-0.160,-0.160,0.000,0.000,0.000
1605199856769975040,10.0.1.128,385,move_down,-0.180,-0.180,-0.180,0.000,0.000,0.000
1605199858280077824,10.0.1.128,422,move_down,-0.200,-0.200,-0.200,0.000,0.000,0.000
1605199859729373952,10.0.1.128,380,move_down,-0.220,-0.220,-0.220,0.000,0.000,0.000
1605199861189400064,10.0.1.128,407,move_down,-0.240,-0.240,-0.240,0.000,0.000,0.000
1605199862649619200,10.0.1.128,388,move_down,-0.260,-0.260,-0.260,0.000,0.000,0.000
1605199864140396032,10.0.1.128,422,move_down,-0.280,-0.280,-0.280,0.000,0.000,0.000
1605199865600250112,10.0.1.128,393,move_down,-0.300,-0.300,-0.300,0.000,0.000,0.000
1605199867065457152,10.0.1.128,399,move_down,-0.320,-0.320,-0.320,0.000,0.000,0.000
1605199868529530112,10.0.1.128,414,move_down,-0.340,-0.340,-0.340,0.000,0.000,0.000
1605199870035217152,10.0.1.128,423,move_down,-0.360,-0.360,-0.360,0.000,0.000,0.000
1605199871500727808,10.0.1.128,402,move_down,-0.380,-0.380,-0.380,0.000,0.000,0.000
1605199872961220864,10.0.1.128,381,move_down,-0.400,-0.400,-0.400,0.000,0.000,0.000
1605199874441571072,10.0.1.128,383,move_down,-0.420,-0.420,-0.420,0.000,0.000,0.000
1605199875911283968,10.0.1.128,408,move_down,-0.440,-0.440,-0.440,0.000,0.000,0.000
1605199877360367104,10.0.1.128,403,move_down,-0.460,-0.460,-0.460,0.000,0.000,0.000
1605199878821193984,10.0.1.128,383,move_down,-0.480,-0.480,-0.480,0.000,0.000,0.000
1605199880267982080,10.0.1.128,378,move_down,-0.500,-0.500,-0.500,0.000,0.000,0.000
1605199881748116992,10.0.1.128,416,move_down,-0.520,-0.520,-0.520,0.000,0.000,0.000
1605199883208226048,10.0.1.128,396,move_down,-0.540,-0.540,-0.540,0.000,0.000,0.000
1605199884726533888,10.0.1.128,398,move_down,-0.560,-0.560,-0.560,0.000,0.000,0.000
1605199886196557056,10.0.1.128,414,move_down,-0.580,-0.580,-0.580,0.000,0.000,0.000
1605199887276668160,10.0.1.128,36,pick,-0.590,-0.590,-0.590,0.000,0.000,0.000
1605199888277592832,10.0.1.128,36,pick,-0.600,-0.600,-0.600,0.000,0.000,0.000
1605199889281223168,10.0.1.128,38,pick,-0.610,-0.610,-0.610,0.000,0.000,0.000
1605199890276765184,10.0.1.128,32,pick,-0.620,-0.620,-0.620,0.000,0.000,0.000
1605199891295776000,10.0.1.128,50,pick,-0.630,-0.630,-0.630,0.000,0.000,0.000
1605199892292505856,10.0.1.128,46,pick,-0.640,-0.640,-0.640,0.000,0.000,0.000
1605199893298460928,10.0.1.128,50,pick,-0.650,-0.650,-0.650,0.000,0.000,0.000
1605199894295309056,10.0.1.128,46,pick,-0.660,-0.660,-0.660,0.000,0.000,0.000
1605199895295220992,10.0.1.128,44,pick,-0.670,-0.670,-0.670,0.000,0.000,0.000
1605199896296103936,10.0.1.128,44,pick,-0.680,-0.680,-0.680,0.000,0.000,0.000
1605199897295286016,10.0.1.128,42,pick,-0.690,-0.690,-0.690,0.000,0.000,0.000
1605199898295397888,10.0.1.128,41,pick,-0.700,-0.700,-0.700,0.000,0.000,0.000
1605199899297518080,10.0.1.128,39,pick,-0.710,-0.710,-0.710,0.000,0.000,0.000
1605199900298105856,10.0.1.128,39,pick,-0.720,-0.720,-0.720,0.000,0.000,0.000
1605199901294321152,10.0.1.128,34,pick,-0.730,-0.730,-0.730,0.000,0.000,0.000
1605199902299051008,10.0.1.128,37,pick,-0.740,-0.740,-0.740,0.000,0.000,0.000
1605199903297794048,10.0.1.128,34,pick,-0.750,-0.750,-0.750,0.000,0.000,0.000
1605199904315186944,10.0.1.128,51,pick,-0.760,-0.760,-0.760,0.000,0.000,0.000
1605199905295783936,10.0.1.128,30,pick,-0.770,-0.770,-0.770,0.000,0.000,0.000
1605199906655052032,10.0.1.128,388,move_up,-0.750,-0.750,-0.750,0.000,0.000,0.000
1605199908116724992,10.0.1.128,399,move_up,-0.730,-0.730,-0.730,0.000,0.000,0.000
1605199909558828032,10.0.1.128,395,move_up,-0.710,-0.710,-0.710,0.000,0.000,0.000
1605199911039628032,10.0.1.128,433,move_up,-0.690,-0.690,-0.690,0.000,0.000,0.000
1605199912506823936,10.0.1.128,405,move_up,-0.670,-0.670,-0.670,0.000,0.000,0.000
1605199913995959040,10.0.1.128,404,move_up,-0.650,-0.650,-0.650,0.000,0.000,0.000
1605199915477537024,10.0.1.128,398,move_up,-0.630,-0.630,-0.630,0.000,0.000,0.000
1605199916945654016,10.0.1.128,406,move_up,-0.610,-0.610,-0.610,0.000,0.000,0.000
1605199918427627008,10.0.1.128,427,move_up,-0.590,-0.590,-0.590,0.000,0.000,0.000
1605199919920051968,10.0.1.128,435,move_up,-0.570,-0.570,-0.570,0.000,0.000,0.000
1605199921377545984,10.0.1.128,403,move_up,-0.550,-0.550,-0.550,0.000,0.000,0.000
1605199922876955136,10.0.1.128,444,move_up,-0.530,-0.530,-0.530,0.000,0.000,0.000
1605199924335748864,10.0.1.128,387,move_up,-0.510,-0.510,-0.510,0.000,0.000,0.000
1605199925827450112,10.0.1.128,422,move_up,-0.490,-0.490,-0.490,0.000,0.000,0.000
1605199927320347904,10.0.1.128,422,move_up,-0.470,-0.470,-0.470,0.000,0.000,0.000
1605199928868536064,10.0.1.128,474,move_up,-0.450,-0.450,-0.450,0.000,0.000,0.000
1605199930397803008,10.0.1.128,430,move_up,-0.430,-0.430,-0.430,0.000,0.000,0.000
1605199931894200064,10.0.1.128,389,move_up,-0.410,-0.410,-0.410,0.000,0.000,0.000
1605199933348655104,10.0.1.128,402,move_up,-0.390,-0.390,-0.390,0.000,0.000,0.000
1605199934859013120,10.0.1.128,435,move_up,-0.370,-0.370,-0.370,0.000,0.000,0.000
1605199936338658048,10.0.1.128,390,move_up,-0.350,-0.350,-0.350,0.000,0.000,0.000
1605199937799941120,10.0.1.128,403,move_up,-0.330,-0.330,-0.330,0.000,0.000,0.000
1605199939291721216,10.0.1.128,416,move_up,-0.310,-0.310,-0.310,0.000,0.000,0.000
1605199940789284096,10.0.1.128,429,move_up,-0.290,-0.290,-0.290,0.000,0.000,0.000
1605199942239756032,10.0.1.128,397,move_up,-0.270,-0.270,-0.270,0.000,0.000,0.000
1605199943690597120,10.0.1.128,420,move_up,-0.250,-0.250,-0.250,0.000,0.000,0.000
1605199945213773056,10.0.1.128,424,move_up,-0.230,-0.230,-0.230,0.000,0.000,0.000
1605199946689675008,10.0.1.128,396,move_up,-0.210,-0.210,-0.210,0.000,0.000,0.000
1605199948146681088,10.0.1.128,398,move_up,-0.190,-0.190,-0.190,0.000,0.000,0.000
1605199949266787072,10.0.1.128,40,place,-0.180,-0.180,-0.180,0.000,0.000,0.000
1605199950267429120,10.0.1.128,39,place,-0.170,-0.170,-0.170,0.000,0.000,0.000
1605199951267972864,10.0.1.128,39,place,-0.160,-0.160,-0.160,0.000,0.000,0.000
1605199952266129920,10.0.1.128,35,place,-0.150,-0.150,-0.150,0.000,0.000,0.000
1605199953285659904,10.0.1.128,49,place,-0.140,-0.140,-0.140,0.000,0.000,0.000
1605199954289470976,10.0.1.128,51,place,-0.130,-0.130,-0.130,0.000,0.000,0.000
1605199955287789056,10.0.1.128,48,place,-0.120,-0.120,-0.120,0.000,0.000,0.000
1605199956287897088,10.0.1.128,48,place,-0.110,-0.110,-0.110,0.000,0.000,0.000
1605199957305413120,10.0.1.128,60,place,-0.100,-0.100,-0.100,0.000,0.000,0.000
1605199958286114816,10.0.1.128,39,place,-0.090,-0.090,-0.090,0.000,0.000,0.000
1605199959286976000,10.0.1.128,39,place,-0.080,-0.080,-0.080,0.000,0.000,0.000
1605199960292324096,10.0.1.128,42,place,-0.070,-0.070,-0.070,0.000,0.000,0.000
1605199961288590848,10.0.1.128,37,place,-0.060,-0.060,-0.060,0.000,0.000,0.000
1605199962285752064,10.0.1.128,34,place,-0.050,-0.050,-0.050,0.000,0.000,0.000
1605199963289174016,10.0.1.128,36,place,-0.040,-0.040,-0.040,0.000,0.000,0.000
1605199964312733952,10.0.1.128,53,place,-0.030,-0.030,-0.030,0.000,0.000,0.000
1605199965315291904,10.0.1.128,55,place,-0.020,-0.020,-0.020,0.000,0.000,0.000
1605199966307177984,10.0.1.128,46,place,-0.010,-0.010,-0.010,0.000,0.000,0.000
1605199967308384000,10.0.1.128,46,place,0.000,0.000,0.000,0.000,0.000,0.000
1605199968663676928,10.0.1.128,400,move_down,-0.020,-0.020,-0.020,0.000,0.000,0.000
1605199970137088000,10.0.1.128,392,move_down,-0.040,-0.040,-0.040,0.000,0.000,0.000
1605199971596638976,10.0.1.128,406,move_down,-0.060,-0.060,-0.060,0.000,0.000,0.000
1605199973057105152,10.0.1.128,390,move_down,-0.080,-0.080,-0.080,0.000,0.000,0.000
1605199974486267136,10.0.1.128,378,move_down,-0.100,-0.100,-0.100,0.000,0.000,0.000
1605199975947717888,10.0.1.128,387,move_down,-0.120,-0.120,-0.120,0.000,0.000,0.000
1605199977397380096,10.0.1.128,403,move_down,-0.140,-0.140,-0.140,0.000,0.000,0.000
1605199978877024768,10.0.1.128,423,move_down,-0.160,-0.160,-0.160,0.000,0.000,0.000
1605199980353233152,10.0.1.128,409,move_down,-0.180,-0.180,-0.180,0.000,0.000,0.000
1605199981788794880,10.0.1.128,417,move_down,-0.200,-0.200,-0.200,0.000,0.000,0.000
1605199983250543104,10.0.1.128,399,move_down,-0.220,-0.220,-0.220,0.000,0.000,0.000
1605199984729507840,10.0.1.128,428,move_down,-0.240,-0.240,-0.240,0.000,0.000,0.000
1605199986197905152,10.0.1.128,404,move_down,-0.260,-0.260,-0.260,0.000,0.000,0.000
1605199987677730048,10.0.1.128,426,move_down,-0.280,-0.280,-0.280,0.000,0.000,0.000
1605199989138173184,10.0.1.128,409,move_down,-0.300,-0.300,-0.300,0.000,0.000,0.000
1605199990557129984,10.0.1.128,381,move_down,-0.320,-0.320,-0.320,0.000,0.000,0.000
1605199991976406016,10.0.1.128,358,move_down,-0.340,-0.340,-0.340,0.000,0.000,0.000
1605199993499569920,10.0.1.128,438,move_down,-0.360,-0.360,-0.360,0.000,0.000,0.000
1605199994967292160,10.0.1.128,394,move_down,-0.380,-0.380,-0.380,0.000,0.000,0.000
1605199996406883840,10.0.1.128,359,move_down,-0.400,-0.400,-0.400,0.000,0.000,0.000
1605199997846611968,10.0.1.128,372,move_down,-0.420,-0.420,-0.420,0.000,0.000,0.000
1605199999382141184,10.0.1.128,416,move_down,-0.440,-0.440,-0.440,0.000,0.000,0.000
1605200000840545792,10.0.1.128,396,move_down,-0.460,-0.460,-0.460,0.000,0.000,0.000
1605200002354824192,10.0.1.128,414,move_down,-0.480,-0.480,-0.480,0.000,0.000,0.000
1605200003858190080,10.0.1.128,427,move_down,-0.500,-0.500,-0.500,0.000,0.000,0.000
1605200005314161920,10.0.1.128,414,move_down,-0.520,-0.520,-0.520,0.000,0.000,0.000
1605200006771246080,10.0.1.128,406,move_down,-0.540,-0.540,-0.540,0.000,0.000,0.000
1605200008280147200,10.0.1.128,436,move_down,-0.560,-0.560,-0.560,0.000,0.000,0.000
1605200009708331008,10.0.1.128,379,move_down,-0.580,-0.580,-0.580,0.000,0.000,0.000
1605200010814217984,10.0.1.128,40,pick,-0.590,-0.590,-0.590,0.000,0.000,0.000
1605200011811522048,10.0.1.128,36,pick,-0.600,-0.600,-0.600,0.000,0.000,0.000
1605200012819532032,10.0.1.128,42,pick,-0.610,-0.610,-0.610,0.000,0.000,0.000
1605200013829760000,10.0.1.128,51,pick,-0.620,-0.620,-0.620,0.000,0.000,0.000
1605200014828468992,10.0.1.128,49,pick,-0.630,-0.630,-0.630,0.000,0.000,0.000
1605200015828815872,10.0.1.128,48,pick,-0.640,-0.640,-0.640,0.000,0.000,0.000
1605200016833991168,10.0.1.128,51,pick,-0.650,-0.650,-0.650,0.000,0.000,0.000
1605200017833539072,10.0.1.128,49,pick,-0.660,-0.660,-0.660,0.000,0.000,0.000
1605200018831816960,10.0.1.128,46,pick,-0.670,-0.670,-0.670,0.000,0.000,0.000
1605200019828388864,10.0.1.128,41,pick,-0.680,-0.680,-0.680,0.000,0.000,0.000
1605200020834650112,10.0.1.128,46,pick,-0.690,-0.690,-0.690,0.000,0.000,0.000
1605200021827930880,10.0.1.128,38,pick,-0.700,-0.700,-0.700,0.000,0.000,0.000
1605200022840160000,10.0.1.128,49,pick,-0.710,-0.710,-0.710,0.000,0.000,0.000
1605200023829271040,10.0.1.128,36,pick,-0.720,-0.720,-0.720,0.000,0.000,0.000
1605200024831899904,10.0.1.128,37,pick,-0.730,-0.730,-0.730,0.000,0.000,0.000
1605200025829554944,10.0.1.128,34,pick,-0.740,-0.740,-0.740,0.000,0.000,0.000
1605200026831001088,10.0.1.128,34,pick,-0.750,-0.750,-0.750,0.000,0.000,0.000
1605200027829458944,10.0.1.128,31,pick,-0.760,-0.760,-0.760,0.000,0.000,0.000
1605200028849373952,10.0.1.128,49,pick,-0.770,-0.770,-0.770,0.000,0.000,0.000
1605200030189832960,10.0.1.128,387,move_up,-0.750,-0.750,-0.750,0.000,0.000,0.000
1605200031668212992,10.0.1.128,387,move_up,-0.730,-0.730,-0.730,0.000,0.000,0.000
1605200033122589184,10.0.1.128,391,move_up,-0.710,-0.710,-0.710,0.000,0.000,0.000
1605200034612416000,10.0.1.128,432,move_up,-0.690,-0.690,-0.690,0.000,0.000,0.000
1605200036047904000,10.0.1.128,394,move_up,-0.670,-0.670,-0.670,0.000,0.000,0.000
1605200037519699200,10.0.1.128,413,move_up,-0.650,-0.650,-0.650,0.000,0.000,0.000
1605200038998114048,10.0.1.128,402,move_up,-0.630,-0.630,-0.630,0.000,0.000,0.000
1605200040492500992,10.0.1.128,382,move_up,-0.610,-0.610,-0.610,0.000,0.000,0.000
1605200041948886016,10.0.1.128,389,move_up,-0.590,-0.590,-0.590,0.000,0.000,0.000
1605200043446392064,10.0.1.128,411,move_up,-0.570,-0.570,-0.570,0.000,0.000,0.000
1605200044858813952,10.0.1.128,369,move_up,-0.550,-0.550,-0.550,0.000,0.000,0.000
1605200046370156032,10.0.1.128,393,move_up,-0.530,-0.530,-0.530,0.000,0.000,0.000
1605200047848290048,10.0.1.128,383,move_up,-0.510,-0.510,-0.510,0.000,0.000,0.000
1605200049278338816,10.0.1.128,366,move_up,-0.490,-0.490,-0.490,0.000,0.000,0.000
1605200050759277056,10.0.1.128,411,move_up,-0.470,-0.470,-0.470,0.000,0.000,0.000
1605200052191442944,10.0.1.128,398,move_up,-0.450,-0.450,-0.450,0.000,0.000,0.000
1605200053659148032,10.0.1.128,386,move_up,-0.430,-0.430,-0.430,0.000,0.000,0.000
1605200055110173952,10.0.1.128,362,move_up,-0.410,-0.410,-0.410,0.000,0.000,0.000
1605200056619122944,10.0.1.128,418,move_up,-0.390,-0.390,-0.390,0.000,0.000,0.000
1605200058070782976,10.0.1.128,386,move_up,-0.370,-0.370,-0.370,0.000,0.000,0.000
1605200059519157760,10.0.1.128,392,move_up,-0.350,-0.350,-0.350,0.000,0.000,0.000
1605200061002605824,10.0.1.128,444,move_up,-0.330,-0.330,-0.330,0.000,0.000,0.000
1605200062509663232,10.0.1.128,427,move_up,-0.310,-0.310,-0.310,0.000,0.000,0.000
1605200063997801984,10.0.1.128,411,move_up,-0.290,-0.290,-0.290,0.000,0.000,0.000
1605200065508722944,10.0.1.128,427,move_up,-0.270,-0.270,-0.270,0.000,0.000,0.000
1605200067019095040,10.0.1.128,423,move_up,-0.250,-0.250,-0.250,0.000,0.000,0.000
1605200068493138944,10.0.1.128,411,move_up,-0.230,-0.230,-0.230,0.000,0.000,0.000
1605200069952594944,10.0.1.128,392,move_up,-0.210,-0.210,-0.210,0.000,0.000,0.000
1605200071434104064,10.0.1.128,392,move_up,-0.190,-0.190,-0.190,0.000,0.000,0.000
1605200072552889088,10.0.1.128,37,place,-0.180,-0.180,-0.180,0.000,0.000,0.000
1605200073552353024,10.0.1.128,34,place,-0.170,-0.170,-0.170,0.000,0.000,0.000
1605200074556237824,10.0.1.128,36,place,-0.160,-0.160,-0.160,0.000,0.000,0.000
1605200075552483072,10.0.1.128,31,place,-0.150,-0.150,-0.150,0.000,0.000,0.000
1605200076573000960,10.0.1.128,49,place,-0.140,-0.140,-0.140,0.000,0.000,0.000
1605200077573421056,10.0.1.128,48,place,-0.130,-0.130,-0.130,0.000,0.000,0.000
1605200078572016896,10.0.1.128,45,place,-0.120,-0.120,-0.120,0.000,0.000,0.000
1605200079572814080,10.0.1.128,45,place,-0.110,-0.110,-0.110,0.000,0.000,0.000
1605200080573709056,10.0.1.128,44,place,-0.100,-0.100,-0.100,0.000,0.000,0.000
1605200081572877056,10.0.1.128,42,place,-0.090,-0.090,-0.090,0.000,0.000,0.000
1605200082572262912,10.0.1.128,40,place,-0.080,-0.080,-0.080,0.000,0.000,0.000
1605200083571933952,10.0.1.128,39,place,-0.070,-0.070,-0.070,0.000,0.000,0.000
1605200084572737024,10.0.1.128,38,place,-0.060,-0.060,-0.060,0.000,0.000,0.000
1605200085572713984,10.0.1.128,37,place,-0.050,-0.050,-0.050,0.000,0.000,0.000
1605200086572403968,10.0.1.128,35,place,-0.040,-0.040,-0.040,0.000,0.000,0.000
1605200087573619968,10.0.1.128,33,place,-0.030,-0.030,-0.030,0.000,0.000,0.000
1605200088591629056,10.0.1.128,50,place,-0.020,-0.020,-0.020,0.000,0.000,0.000
1605200089591443968,10.0.1.128,48,place,-0.010,-0.010,-0.010,0.000,0.000,0.000
1605200090592075008,10.0.1.128,43,place,0.000,0.000,0.000,0.000,0.000,0.000
1605200091921789952,10.0.1.128,372,move_down,-0.020,-0.020,-0.020,0.000,0.000,0.000
1605200093432030976,10.0.1.128,395,move_down,-0.040,-0.040,-0.040,0.000,0.000,0.000
1605200094925681152,10.0.1.128,401,move_down,-0.060,-0.060,-0.060,0.000,0.000,0.000
1605200096378604800,10.0.1.128,377,move_down,-0.080,-0.080,-0.080,0.000,0.000,0.000
1605200097771827968,10.0.1.128,392,move_down,-0.100,-0.100,-0.100,0.000,0.000,0.000
1605200099261754112,10.0.1.128,410,move_down,-0.120,-0.120,-0.120,0.000,0.000,0.000
1605200100717905920,10.0.1.128,386,move_down,-0.140,-0.140,-0.140,0.000,0.000,0.000
1605200102181803008,10.0.1.128,398,move_down,-0.160,-0.160,-0.160,0.000,0.000,0.000
1605200103661272064,10.0.1.128,397,move_down,-0.180,-0.180,-0.180,0.000,0.000,0.000
1605200105142717952,10.0.1.128,404,move_down,-0.200,-0.200,-0.200,0.000,0.000,0.000
1605200106651629056,10.0.1.128,397,move_down,-0.220,-0.220,-0.220,0.000,0.000,0.000
1605200108115938816,10.0.1.128,388,move_down,-0.240,-0.240,-0.240,0.000,0.000,0.000
1605200109626104064,10.0.1.128,419,move_down,-0.260,-0.260,-0.260,0.000,0.000,0.000
1605200111112073984,10.0.1.128,385,move_down,-0.280,-0.280,-0.280,0.000,0.000,0.000
1605200112611470080,10.0.1.128,401,move_down,-0.300,-0.300,-0.300,0.000,0.000,0.000
1605200114022948864,10.0.1.128,362,move_down,-0.320,-0.320,-0.320,0.000,0.000,0.000
1605200115514240000,10.0.1.128,412,move_down,-0.340,-0.340,-0.340,0.000,0.000,0.000
1605200116992494080,10.0.1.128,410,move_down,-0.360,-0.360,-0.360,0.000,0.000,0.000
1605200118453211136,10.0.1.128,418,move_down,-0.380,-0.380,-0.380,0.000,0.000,0.000
1605200119927113984,10.0.1.128,404,move_down,-0.400,-0.400,-0.400,0.000,0.000,0.000
1605200121392820992,10.0.1.128,394,move_down,-0.420,-0.420,-0.420,0.000,0.000,0.000
1605200122874159104,10.0.1.128,393,move_down,-0.440,-0.440,-0.440,0.000,0.000,0.000
1605200124367262976,10.0.1.128,414,move_down,-0.460,-0.460,-0.460,0.000,0.000,0.000
1605200125877422080,10.0.1.128,446,move_down,-0.480,-0.480,-0.480,0.000,0.000,0.000
1605200127322621952,10.0.1.128,395,move_down,-0.500,-0.500,-0.500,0.000,0.000,0.000
1605200128827707136,10.0.1.128,418,move_down,-0.520,-0.520,-0.520,0.000,0.000,0.000
1605200130312259840,10.0.1.128,412,move_down,-0.540,-0.540,-0.540,0.000,0.000,0.000
1605200131753021952,10.0.1.128,402,move_down,-0.560,-0.560,-0.560,0.000,0.000,0.000
1605200133248992000,10.0.1.128,421,move_down,-0.580,-0.580,-0.580,0.000,0.000,0.000
1605200134288135936,10.0.1.128,43,pick,-0.590,-0.590,-0.590,0.000,0.000,0.000
1605200135291625984,10.0.1.128,45,pick,-0.600,-0.600,-0.600,0.000,0.000,0.000
1605200136296050176,10.0.1.128,48,pick,-0.610,-0.610,-0.610,0.000,0.000,0.000
1605200137296925952,10.0.1.128,48,pick,-0.620,-0.620,-0.620,0.000,0.000,0.000
1605200138298614016,10.0.1.128,48,pick,-0.630,-0.630,-0.630,0.000,0.000,0.000
1605200139299877888,10.0.1.128,48,pick,-0.640,-0.640,-0.640,0.000,0.000,0.000
1605200140291203072,10.0.1.128,38,pick,-0.650,-0.650,-0.650,0.000,0.000,0.000
1605200141297569024,10.0.1.128,43,pick,-0.660,-0.660,-0.660,0.000,0.000,0.000
1605200142296873216,10.0.1.128,41,pick,-0.670,-0.670,-0.670,0.000,0.000,0.000
1605200143295949056,10.0.1.128,39,pick,-0.680,-0.680,-0.680,0.000,0.000,0.000
1605200144297411840,10.0.1.128,38,pick,-0.690,-0.690,-0.690,0.000,0.000,0.000
1605200145297220096,10.0.1.128,37,pick,-0.700,-0.700,-0.700,0.000,0.000,0.000
1605200146298464000,10.0.1.128,37,pick,-0.710,-0.710,-0.710,0.000,0.000,0.000
1605200147301938944,10.0.1.128,39,pick,-0.720,-0.720,-0.720,0.000,0.000,0.000
1605200148296318976,10.0.1.128,32,pick,-0.730,-0.730,-0.730,0.000,0.000,0.000
1605200149297667072,10.0.1.128,32,pick,-0.740,-0.740,-0.740,0.000,0.000,0.000
1605200150319188992,10.0.1.128,53,pick,-0.750,-0.750,-0.750,0.000,0.000,0.000
1605200151319219200,10.0.1.128,51,pick,-0.760,-0.760,-0.760,0.000,0.000,0.000
1605200152316353024,10.0.1.128,47,pick,-0.770,-0.770,-0.770,0.000,0.000,0.000
1605200153668953856,10.0.1.128,398,move_up,-0.750,-0.750,-0.750,0.000,0.000,0.000
1605200155122889984,10.0.1.128,410,move_up,-0.730,-0.730,-0.730,0.000,0.000,0.000
1605200156517551872,10.0.1.128,393,move_up,-0.710,-0.710,-0.710,0.000,0.000,0.000
1605200157996273152,10.0.1.128,386,move_up,-0.690,-0.690,-0.690,0.000,0.000,0.000
1605200159461059072,10.0.1.128,377,move_up,-0.670,-0.670,-0.670,0.000,0.000,0.000
1605200160894180096,10.0.1.128,392,move_up,-0.650,-0.650,-0.650,0.000,0.000,0.000
1605200162398221056,10.0.1.128,415,move_up,-0.630,-0.630,-0.630,0.000,0.000,0.000
1605200163830220032,10.0.1.128,365,move_up,-0.610,-0.610,-0.610,0.000,0.000,0.000
1605200165298104064,10.0.1.128,372,move_up,-0.590,-0.590,-0.590,0.000,0.000,0.000
1605200166778383872,10.0.1.128,400,move_up,-0.570,-0.570,-0.570,0.000,0.000,0.000
1605200168258838784,10.0.1.128,429,move_up,-0.550,-0.550,-0.550,0.000,0.000,0.000
1605200169711294976,10.0.1.128,396,move_up,-0.530,-0.530,-0.530,0.000,0.000,0.000
1605200171212786944,10.0.1.128,414,move_up,-0.510,-0.510,-0.510,0.000,0.000,0.000
1605200172669794048,10.0.1.128,403,move_up,-0.490,-0.490,-0.490,0.000,0.000,0.000
1605200174090183936,10.0.1.128,378,move_up,-0.470,-0.470,-0.470,0.000,0.000,0.000
1605200175523741952,10.0.1.128,393,move_up,-0.450,-0.450,-0.450,0.000,0.000,0.000
1605200177022556928,10.0.1.128,416,move_up,-0.430,-0.430,-0.430,0.000,0.000,0.000
1605200178479113216,10.0.1.128,388,move_up,-0.410,-0.410,-0.410,0.000,0.000,0.000
1605200179922790144,10.0.1.128,405,move_up,-0.390,-0.390,-0.390,0.000,0.000,0.000
1605200181367606016,10.0.1.128,387,move_up,-0.370,-0.370,-0.370,0.000,0.000,0.000
1605200182830630912,10.0.1.128,371,move_up,-0.350,-0.350,-0.350,0.000,0.000,0.000
1605200184262508032,10.0.1.128,393,move_up,-0.330,-0.330,-0.330,0.000,0.000,0.000
1605200185691521792,10.0.1.128,400,move_up,-0.310,-0.310,-0.310,0.000,0.000,0.000
1605200187097139968,10.0.1.128,392,move_up,-0.290,-0.290,-0.290,0.000,0.000,0.000
1605200188514550016,10.0.1.128,387,move_up,-0.270,-0.270,-0.270,0.000,0.000,0.000
1605200189923726080,10.0.1.128,383,move_up,-0.250,-0.250,-0.250,0.000,0.000,0.000
1605200191391494912,10.0.1.128,406,move_up,-0.230,-0.230,-0.230,0.000,0.000,0.000
1605200192868036096,10.0.1.128,403,move_up,-0.210,-0.210,-0.210,0.000,0.000,0.000
1605200194416186112,10.0.1.128,439,move_up,-0.190,-0.190,-0.190,0.000,0.000,0.000
1605200195547889920,10.0.1.128,43,place,-0.180,-0.180,-0.180,0.000,0.000,0.000
1605200196547091968,10.0.1.128,42,place,-0.170,-0.170,-0.170,0.000,0.000,0.000
1605200197546843136,10.0.1.128,41,place,-0.160,-0.160,-0.160,0.000,0.000,0.000
1605200198548032000,10.0.1.128,41,place,-0.150,-0.150,-0.150,0.000,0.000,0.000
1605200199547471104,10.0.1.128,39,place,-0.140,-0.140,-0.140,0.000,0.000,0.000
1605200200552165120,10.0.1.128,43,place,-0.130,-0.130,-0.130,0.000,0.000,0.000
1605200201547059968,10.0.1.128,36,place,-0.120,-0.120,-0.120,0.000,0.000,0.000
1605200202547769088,10.0.1.128,36,place,-0.110,-0.110,-0.110,0.000,0.000,0.000
1605200203547812096,10.0.1.128,35,place,-0.100,-0.100,-0.100,0.000,0.000,0.000
1605200204547940864,10.0.1.128,34,place,-0.090,-0.090,-0.090,0.000,0.000,0.000
1605200205548774912,10.0.1.128,33,place,-0.080,-0.080,-0.080,0.000,0.000,0.000
1605200206548752896,10.0.1.128,33,place,-0.070,-0.070,-0.070,0.000,0.000,0.000
1605200207567418112,10.0.1.128,50,place,-0.060,-0.060,-0.060,0.000,0.000,0.000
1605200208568828160,10.0.1.128,50,place,-0.050,-0.050,-0.050,0.000,0.000,0.000
1605200209568005120,10.0.1.128,46,place,-0.040,-0.040,-0.040,0.000,0.000,0.000
1605200210572016128,10.0.1.128,49,place,-0.030,-0.030,-0.030,0.000,0.000,0.000
1605200211570912000,10.0.1.128,47,place,-0.020,-0.020,-0.020,0.000,0.000,0.000
1605200212567945984,10.0.1.128,42,place,-0.010,-0.010,-0.010,0.000,0.000,0.000
1605200213568221952,10.0.1.128,39,place,0.000,0.000,0.000,0.000,0.000,0.000
1605200214937492992,10.0.1.128,407,move_down,-0.020,-0.020,-0.020,0.000,0.000,0.000
1605200216398135040,10.0.1.128,383,move_down,-0.040,-0.040,-0.040,0.000,0.000,0.000
1605200217879724032,10.0.1.128,412,move_down,-0.060,-0.060,-0.060,0.000,0.000,0.000
1605200219319973888,10.0.1.128,398,move_down,-0.080,-0.080,-0.080,0.000,0.000,0.000
1605200220758151936,10.0.1.128,386,move_down,-0.100,-0.100,-0.100,0.000,0.000,0.000
1605200222219557120,10.0.1.128,372,move_down,-0.120,-0.120,-0.120,0.000,0.000,0.000
1605200223707226112,10.0.1.128,384,move_down,-0.140,-0.140,-0.140,0.000,0.000,0.000
1605200225175147008,10.0.1.128,407,move_down,-0.160,-0.160,-0.160,0.000,0.000,0.000
1605200226654758912,10.0.1.128,405,move_down,-0.180,-0.180,-0.180,0.000,0.000,0.000
1605200228097466112,10.0.1.128,373,move_down,-0.200,-0.200,-0.200,0.000,0.000,0.000
1605200229568826880,10.0.1.128,398,move_down,-0.220,-0.220,-0.220,0.000,0.000,0.000
1605200231052214016,10.0.1.128,405,move_down,-0.240,-0.240,-0.240,0.000,0.000,0.000
1605200232496299008,10.0.1.128,398,move_down,-0.260,-0.260,-0.260,0.000,0.000,0.000
1605200233983417088,10.0.1.128,398,move_down,-0.280,-0.280,-0.280,0.000,0.000,0.000
1605200235437320960,10.0.1.128,380,move_down,-0.300,-0.300,-0.300,0.000,0.000,0.000
1605200236949271808,10.0.1.128,387,move_down,-0.320,-0.320,-0.320,0.000,0.000,0.000
1605200238414374144,10.0.1.128,406,move_down,-0.340,-0.340,-0.340,0.000,0.000,0.000
1605200239857408000,10.0.1.128,388,move_down,-0.360,-0.360,-0.360,0.000,0.000,0.000
1605200241349864960,10.0.1.128,407,move_down,-0.380,-0.380,-0.380,0.000,0.000,0.000
1605200242845427968,10.0.1.128,425,move_down,-0.400,-0.400,-0.400,0.000,0.000,0.000
1605200244280164096,10.0.1.128,373,move_down,-0.420,-0.420,-0.420,0.000,0.000,0.000
1605200245797743104,10.0.1.128,406,move_down,-0.440,-0.440,-0.440,0.000,0.000,0.000
1605200247239088896,10.0.1.128,399,move_down,-0.460,-0.460,-0.460,0.000,0.000,0.000
1605200248669351168,10.0.1.128,383,move_down,-0.480,-0.480,-0.480,0.000,0.000,0.000
1605200250139045120,10.0.1.128,377,move_down,-0.500,-0.500,-0.500,0.000,0.000,0.000
1605200251578169088,10.0.1.128,407,move_down,-0.520,-0.520,-0.520,0.000,0.000,0.000
1605200253055220992,10.0.1.128,394,move_down,-0.540,-0.540,-0.540,0.000,0.000,0.000
1605200254502424064,10.0.1.128,424,move_down,-0.560,-0.560,-0.560,0.000,0.000,0.000
1605200255948793856,10.0.1.128,381,move_down,-0.580,-0.580,-0.580,0.000,0.000,0.000
1605200257047828992,10.0.1.128,34,pick,-0.590,-0.590,-0.590,0.000,0.000,0.000
1605200258048391168,10.0.1.128,33,pick,-0.600,-0.600,-0.600,0.000,0.000,0.000
1605200259068989952,10.0.1.128,53,pick,-0.610,-0.610,-0.610,0.000,0.000,0.000
1605200260068646912,10.0.1.128,51,pick,-0.620,-0.620,-0.620,0.000,0.000,0.000
1605200261067454976,10.0.1.128,46,pick,-0.630,-0.630,-0.630,0.000,0.000,0.000
1605200262067323904,10.0.1.128,44,pick,-0.640,-0.640,-0.640,0.000,0.000,0.000
1605200263067777024,10.0.1.128,44,pick,-0.650,-0.650,-0.650,0.000,0.000,0.000
1605200264067270912,10.0.1.128,42,pick,-0.660,-0.660,-0.660,0.000,0.000,0.000
1605200265068148992,10.0.1.128,42,pick,-0.670,-0.670,-0.670,0.000,0.000,0.000
1605200267027868160,10.0.1.128,NaN,pick,-0.690,-0.690,-0.690,0.000,0.000,0.000
1605200267072082944,10.0.1.128,44,pick,-0.690,-0.690,-0.690,0.000,0.000,0.000
1605200268068852992,10.0.1.128,39,pick,-0.700,-0.700,-0.700,0.000,0.000,0.000
1605200269090167040,10.0.1.128,59,pick,-0.710,-0.710,-0.710,0.000,0.000,0.000
1605200270068141824,10.0.1.128,35,pick,-0.720,-0.720,-0.720,0.000,0.000,0.000
1605200271091660032,10.0.1.128,57,pick,-0.730,-0.730,-0.730,0.000,0.000,0.000
1605200273039635968,10.0.1.128,NaN,pick,-0.750,-0.750,-0.750,0.000,0.000,0.000
1605200273084325120,10.0.1.128,44,pick,-0.750,-0.750,-0.750,0.000,0.000,0.000
1605200274086401024,10.0.1.128,44,pick,-0.760,-0.760,-0.760,0.000,0.000,0.000
1605200275090213120,10.0.1.128,47,pick,-0.770,-0.770,-0.770,0.000,0.000,0.000
1605200276447619840,10.0.1.128,404,move_up,-0.750,-0.750,-0.750,0.000,0.000,0.000
1605200277856916992,10.0.1.128,395,move_up,-0.730,-0.730,-0.730,0.000,0.000,0.000
1605200279325204992,10.0.1.128,389,move_up,-0.710,-0.710,-0.710,0.000,0.000,0.000
1605200280814145024,10.0.1.128,398,move_up,-0.690,-0.690,-0.690,0.000,0.000,0.000
1605200282275031040,10.0.1.128,382,move_up,-0.670,-0.670,-0.670,0.000,0.000,0.000
1605200283745848832,10.0.1.128,409,move_up,-0.650,-0.650,-0.650,0.000,0.000,0.000
1605200285265264896,10.0.1.128,418,move_up,-0.630,-0.630,-0.630,0.000,0.000,0.000
1605200286737655040,10.0.1.128,397,move_up,-0.610,-0.610,-0.610,0.000,0.000,0.000
1605200288185220864,10.0.1.128,382,move_up,-0.590,-0.590,-0.590,0.000,0.000,0.000
1605200289655920128,10.0.1.128,407,move_up,-0.570,-0.570,-0.570,0.000,0.000,0.000
1605200291125922816,10.0.1.128,405,move_up,-0.550,-0.550,-0.550,0.000,0.000,0.000
1605200292611464960,10.0.1.128,439,move_up,-0.530,-0.530,-0.530,0.000,0.000,0.000
1605200294036189184,10.0.1.128,383,move_up,-0.510,-0.510,-0.510,0.000,0.000,0.000
1605200295455835136,10.0.1.128,391,move_up,-0.490,-0.490,-0.490,0.000,0.000,0.000
1605200296956494080,10.0.1.128,405,move_up,-0.470,-0.470,-0.470,0.000,0.000,0.000
1605200298436901120,10.0.1.128,406,move_up,-0.450,-0.450,-0.450,0.000,0.000,0.000
1605200299930865152,10.0.1.128,417,move_up,-0.430,-0.430,-0.430,0.000,0.000,0.000
1605200301395240960,10.0.1.128,401,move_up,-0.410,-0.410,-0.410,0.000,0.000,0.000
1605200302842106112,10.0.1.128,382,move_up,-0.390,-0.390,-0.390,0.000,0.000,0.000
1605200304335782912,10.0.1.128,387,move_up,-0.370,-0.370,-0.370,0.000,0.000,0.000
1605200305833118976,10.0.1.128,433,move_up,-0.350,-0.350,-0.350,0.000,0.000,0.000
1605200307306277120,10.0.1.128,411,move_up,-0.330,-0.330,-0.330,0.000,0.000,0.000
1605200308813849088,10.0.1.128,424,move_up,-0.310,-0.310,-0.310,0.000,0.000,0.000
1605200310311222016,10.0.1.128,437,move_up,-0.290,-0.290,-0.290,0.000,0.000,0.000
1605200311695277056,10.0.1.128,378,move_up,-0.270,-0.270,-0.270,0.000,0.000,0.000
1605200313178268928,10.0.1.128,383,move_up,-0.250,-0.250,-0.250,0.000,0.000,0.000
1605200314719679232,10.0.1.128,434,move_up,-0.230,-0.230,-0.230,0.000,0.000,0.000
1605200316187896064,10.0.1.128,399,move_up,-0.210,-0.210,-0.210,0.000,0.000,0.000
1605200317739147008,10.0.1.128,432,move_up,-0.190,-0.190,-0.190,0.000,0.000,0.000
1605200318830957056,10.0.1.128,58,place,-0.180,-0.180,-0.180,0.000,0.000,0.000
1605200319815691008,10.0.1.128,36,place,-0.170,-0.170,-0.170,0.000,0.000,0.000
1605200320815319040,10.0.1.128,35,place,-0.160,-0.160,-0.160,0.000,0.000,0.000
1605200321816750080,10.0.1.128,35,place,-0.150,-0.150,-0.150,0.000,0.000,0.000
1605200322818689024,10.0.1.128,35,place,-0.140,-0.140,-0.140,0.000,0.000,0.000
1605200323836788992,10.0.1.128,52,place,-0.130,-0.130,-0.130,0.000,0.000,0.000
1605200324839694080,10.0.1.128,54,place,-0.120,-0.120,-0.120,0.000,0.000,0.000
1605200325839816192,10.0.1.128,53,place,-0.110,-0.110,-0.110,0.000,0.000,0.000
1605200326837338880,10.0.1.128,46,place,-0.100,-0.100,-0.100,0.000,0.000,0.000
1605200327844926976,10.0.1.128,53,place,-0.090,-0.090,-0.090,0.000,0.000,0.000
1605200328838182912,10.0.1.128,45,place,-0.080,-0.080,-0.080,0.000,0.000,0.000
1605200329827356160,10.0.1.128,33,place,-0.070,-0.070,-0.070,0.000,0.000,0.000
1605200330837264128,10.0.1.128,41,place,-0.060,-0.060,-0.060,0.000,0.000,0.000
1605200331838094080,10.0.1.128,40,place,-0.050,-0.050,-0.050,0.000,0.000,0.000
1605200332840244992,10.0.1.128,41,place,-0.040,-0.040,-0.040,0.000,0.000,0.000
1605200333834560000,10.0.1.128,34,place,-0.030,-0.030,-0.030,0.000,0.000,0.000
1605200334841541888,10.0.1.128,40,place,-0.020,-0.020,-0.020,0.000,0.000,0.000
1605200335854624000,10.0.1.128,52,place,-0.010,-0.010,-0.010,0.000,0.000,0.000
1605200336844609024,10.0.1.128,41,place,0.000,0.000,0.000,0.000,0.000,0.000
1605200338196152832,10.0.1.128,391,move_down,-0.020,-0.020,-0.020,0.000,0.000,0.000
1605200339675782912,10.0.1.128,412,move_down,-0.040,-0.040,-0.040,0.000,0.000,0.000
1605200341105614848,10.0.1.128,359,move_down,-0.060,-0.060,-0.060,0.000,0.000,0.000
1605200342605408000,10.0.1.128,416,move_down,-0.080,-0.080,-0.080,0.000,0.000,0.000
1605200344098490112,10.0.1.128,398,move_down,-0.100,-0.100,-0.100,0.000,0.000,0.000
1605200345575042048,10.0.1.128,426,move_down,-0.120,-0.120,-0.120,0.000,0.000,0.000
1605200347049193984,10.0.1.128,381,move_down,-0.140,-0.140,-0.140,0.000,0.000,0.000
1605200348457899008,10.0.1.128,382,move_down,-0.160,-0.160,-0.160,0.000,0.000,0.000
1605200349995342848,10.0.1.128,410,move_down,-0.180,-0.180,-0.180,0.000,0.000,0.000
1605200351483761920,10.0.1.128,423,move_down,-0.200,-0.200,-0.200,0.000,0.000,0.000
1605200352931607040,10.0.1.128,380,move_down,-0.220,-0.220,-0.220,0.000,0.000,0.000
1605200354375298048,10.0.1.128,377,move_down,-0.240,-0.240,-0.240,0.000,0.000,0.000
1605200355816451072,10.0.1.128,369,move_down,-0.260,-0.260,-0.260,0.000,0.000,0.000
1605200357256192000,10.0.1.128,400,move_down,-0.280,-0.280,-0.280,0.000,0.000,0.000
1605200358704873984,10.0.1.128,372,move_down,-0.300,-0.300,-0.300,0.000,0.000,0.000
1605200360147238144,10.0.1.128,384,move_down,-0.320,-0.320,-0.320,0.000,0.000,0.000
1605200361635144960,10.0.1.128,420,move_down,-0.340,-0.340,-0.340,0.000,0.000,0.000
1605200363115812096,10.0.1.128,419,move_down,-0.360,-0.360,-0.360,0.000,0.000,0.000
1605200364575536128,10.0.1.128,397,move_down,-0.380,-0.380,-0.380,0.000,0.000,0.000
1605200366007774976,10.0.1.128,387,move_down,-0.400,-0.400,-0.400,0.000,0.000,0.000
1605200367444317184,10.0.1.128,373,move_down,-0.420,-0.420,-0.420,0.000,0.000,0.000
1605200368906539008,10.0.1.128,394,move_down,-0.440,-0.440,-0.440,0.000,0.000,0.000
1605200370345314048,10.0.1.128,392,move_down,-0.460,-0.460,-0.460,0.000,0.000,0.000
1605200371826059008,10.0.1.128,389,move_down,-0.480,-0.480,-0.480,0.000,0.000,0.000
1605200373325500928,10.0.1.128,403,move_down,-0.500,-0.500,-0.500,0.000,0.000,0.000
1605200374796435968,10.0.1.128,396,move_down,-0.520,-0.520,-0.520,0.000,0.000,0.000
1605200376309159168,10.0.1.128,396,move_down,-0.540,-0.540,-0.540,0.000,0.000,0.000
1605200377786308096,10.0.1.128,408,move_down,-0.560,-0.560,-0.560,0.000,0.000,0.000
1605200379327343872,10.0.1.128,453,move_down,-0.580,-0.580,-0.580,0.000,0.000,0.000
1605200381378205952,10.0.1.128,NaN,pick,-0.600,-0.600,-0.600,0.000,0.000,0.000
1605200381427877888,10.0.1.128,49,pick,-0.600,-0.600,-0.600,0.000,0.000,0.000
1605200382440134144,10.0.1.128,60,pick,-0.610,-0.610,-0.610,0.000,0.000,0.000
1605200383426937088,10.0.1.128,45,pick,-0.620,-0.620,-0.620,0.000,0.000,0.000
1605200384434642176,10.0.1.128,52,pick,-0.630,-0.630,-0.630,0.000,0.000,0.000
1605200386385499904,10.0.1.128,NaN,pick,-0.650,-0.650,-0.650,0.000,0.000,0.000
1605200386430771968,10.0.1.128,45,pick,-0.650,-0.650,-0.650,0.000,0.000,0.000
1605200387425085952,10.0.1.128,38,pick,-0.660,-0.660,-0.660,0.000,0.000,0.000
1605200388425800192,10.0.1.128,38,pick,-0.670,-0.670,-0.670,0.000,0.000,0.000
1605200389425425152,10.0.1.128,36,pick,-0.680,-0.680,-0.680,0.000,0.000,0.000
1605200390424555008,10.0.1.128,32,pick,-0.690,-0.690,-0.690,0.000,0.000,0.000
1605200391425342976,10.0.1.128,32,pick,-0.700,-0.700,-0.700,0.000,0.000,0.000
1605200392427403008,10.0.1.128,32,pick,-0.710,-0.710,-0.710,0.000,0.000,0.000
1605200393444998912,10.0.1.128,49,pick,-0.720,-0.720,-0.720,0.000,0.000,0.000
1605200394446388992,10.0.1.128,49,pick,-0.730,-0.730,-0.730,0.000,0.000,0.000
1605200395445331968,10.0.1.128,47,pick,-0.740,-0.740,-0.740,0.000,0.000,0.000
1605200396444758016,10.0.1.128,45,pick,-0.750,-0.750,-0.750,0.000,0.000,0.000
1605200397446168832,10.0.1.128,45,pick,-0.760,-0.760,-0.760,0.000,0.000,0.000
1605200398445880064,10.0.1.128,43,pick,-0.770,-0.770,-0.770,0.000,0.000,0.000
1605200399806358016,10.0.1.128,402,move_up,-0.750,-0.750,-0.750,0.000,0.000,0.000
1605200401305939968,10.0.1.128,407,move_up,-0.730,-0.730,-0.730,0.000,0.000,0.000
1605200402865324032,10.0.1.128,481,move_up,-0.710,-0.710,-0.710,0.000,0.000,0.000
1605200404366467840,10.0.1.128,424,move_up,-0.690,-0.690,-0.690,0.000,0.000,0.000
1605200405886992896,10.0.1.128,414,move_up,-0.670,-0.670,-0.670,0.000,0.000,0.000
1605200407377966848,10.0.1.128,392,move_up,-0.650,-0.650,-0.650,0.000,0.000,0.000
1605200408865460992,10.0.1.128,405,move_up,-0.630,-0.630,-0.630,0.000,0.000,0.000
1605200410326083072,10.0.1.128,381,move_up,-0.610,-0.610,-0.610,0.000,0.000,0.000
1605200411815383040,10.0.1.128,417,move_up,-0.590,-0.590,-0.590,0.000,0.000,0.000
1605200413288849152,10.0.1.128,467,move_up,-0.570,-0.570,-0.570,0.000,0.000,0.000
1605200414719003904,10.0.1.128,375,move_up,-0.550,-0.550,-0.550,0.000,0.000,0.000
1605200416196997888,10.0.1.128,410,move_up,-0.530,-0.530,-0.530,0.000,0.000,0.000
1605200417706641920,10.0.1.128,406,move_up,-0.510,-0.510,-0.510,0.000,0.000,0.000
