milangroshev/digital-twin-scalability/logs/run5-3600s-nan/10.0.1.143.csv
timestamp,node,latency,action,joint_1,joint_2,joint_3,joint_4,joint_5,joint_6
1605217245358254080,10.0.1.143,NaN,,0.000,0.000,0.000,0.000,0.000,0.000
1605217249391661824,10.0.1.143,NaN,move_down,-0.020,-0.020,-0.020,0.000,0.000,0.000
1605217251611012864,10.0.1.143,NaN,move_down,-0.040,-0.040,-0.040,0.000,0.000,0.000
1605217253664062976,10.0.1.143,NaN,move_down,-0.060,-0.060,-0.060,0.000,0.000,0.000
1605217255731719936,10.0.1.143,NaN,move_down,-0.080,-0.080,-0.080,0.000,0.000,0.000
1605217259517509888,10.0.1.143,3785,move_down,-0.080,-0.080,-0.080,0.000,0.000,0.000
1605217261235843840,10.0.1.143,599,move_down,-0.100,-0.100,-0.100,0.000,0.000,0.000
1605217263038000128,10.0.1.143,622,move_down,-0.120,-0.120,-0.120,0.000,0.000,0.000
1605217264829228032,10.0.1.143,734,move_down,-0.140,-0.140,-0.140,0.000,0.000,0.000
1605217266701137152,10.0.1.143,597,move_down,-0.160,-0.160,-0.160,0.000,0.000,0.000
1605217268317775104,10.0.1.143,542,move_down,-0.180,-0.180,-0.180,0.000,0.000,0.000
1605217270378675968,10.0.1.143,808,move_down,-0.200,-0.200,-0.200,0.000,0.000,0.000
1605217272327003904,10.0.1.143,772,move_down,-0.220,-0.220,-0.220,0.000,0.000,0.000
1605217274162754048,10.0.1.143,607,move_down,-0.240,-0.240,-0.240,0.000,0.000,0.000
1605217276042792960,10.0.1.143,827,move_down,-0.260,-0.260,-0.260,0.000,0.000,0.000
1605217278159960064,10.0.1.143,1065,move_down,-0.280,-0.280,-0.280,0.000,0.000,0.000
1605217279852792064,10.0.1.143,623,move_down,-0.300,-0.300,-0.300,0.000,0.000,0.000
1605217281456912128,10.0.1.143,425,move_down,-0.320,-0.320,-0.320,0.000,0.000,0.000
1605217283339951872,10.0.1.143,856,move_down,-0.340,-0.340,-0.340,0.000,0.000,0.000
1605217285057734912,10.0.1.143,614,move_down,-0.360,-0.360,-0.360,0.000,0.000,0.000
1605217287380882944,10.0.1.143,1195,move_down,-0.380,-0.380,-0.380,0.000,0.000,0.000
1605217289027458816,10.0.1.143,572,move_down,-0.400,-0.400,-0.400,0.000,0.000,0.000
1605217290928870912,10.0.1.143,827,move_down,-0.420,-0.420,-0.420,0.000,0.000,0.000
1605217292858361856,10.0.1.143,882,move_down,-0.440,-0.440,-0.440,0.000,0.000,0.000
1605217295056427008,10.0.1.143,1079,move_down,-0.460,-0.460,-0.460,0.000,0.000,0.000
1605217297103653888,10.0.1.143,951,move_down,-0.480,-0.480,-0.480,0.000,0.000,0.000
1605217298618740992,10.0.1.143,523,move_down,-0.500,-0.500,-0.500,0.000,0.000,0.000
1605217300470859008,10.0.1.143,818,move_down,-0.520,-0.520,-0.520,0.000,0.000,0.000
1605217302160544000,10.0.1.143,614,move_down,-0.540,-0.540,-0.540,0.000,0.000,0.000
1605217303902454016,10.0.1.143,650,move_down,-0.560,-0.560,-0.560,0.000,0.000,0.000
1605217305794176000,10.0.1.143,782,move_down,-0.580,-0.580,-0.580,0.000,0.000,0.000
1605217307557617920,10.0.1.143,693,move_down,-0.600,-0.600,-0.600,0.000,0.000,0.000
1605217309592135936,10.0.1.143,893,move_down,-0.620,-0.620,-0.620,0.000,0.000,0.000
1605217311579634944,10.0.1.143,892,move_down,-0.640,-0.640,-0.640,0.000,0.000,0.000
1605217312719065856,10.0.1.143,66,pick,-0.650,-0.650,-0.650,0.000,0.000,0.000
1605217313698148864,10.0.1.143,43,pick,-0.660,-0.660,-0.660,0.000,0.000,0.000
1605217315665536000,10.0.1.143,NaN,pick,-0.680,-0.680,-0.680,0.000,0.000,0.000
1605217316668284928,10.0.1.143,NaN,pick,-0.690,-0.690,-0.690,0.000,0.000,0.000
1605217317669817856,10.0.1.143,NaN,pick,-0.700,-0.700,-0.700,0.000,0.000,0.000
1605217317759516928,10.0.1.143,89,pick,-0.700,-0.700,-0.700,0.000,0.000,0.000
1605217318740457984,10.0.1.143,69,pick,-0.710,-0.710,-0.710,0.000,0.000,0.000
1605217320672781824,10.0.1.143,NaN,pick,-0.730,-0.730,-0.730,0.000,0.000,0.000
1605217320727538176,10.0.1.143,54,pick,-0.730,-0.730,-0.730,0.000,0.000,0.000
1605217322680829952,10.0.1.143,NaN,pick,-0.750,-0.750,-0.750,0.000,0.000,0.000
1605217322733798912,10.0.1.143,52,pick,-0.750,-0.750,-0.750,0.000,0.000,0.000
1605217323745521920,10.0.1.143,63,pick,-0.760,-0.760,-0.760,0.000,0.000,0.000
1605217324728832000,10.0.1.143,45,pick,-0.770,-0.770,-0.770,0.000,0.000,0.000
1605217325772407040,10.0.1.143,76,pick,-0.780,-0.780,-0.780,0.000,0.000,0.000
1605217326742752000,10.0.1.143,45,pick,-0.790,-0.790,-0.790,0.000,0.000,0.000
1605217327752324096,10.0.1.143,51,pick,-0.800,-0.800,-0.800,0.000,0.000,0.000
1605217329703543808,10.0.1.143,NaN,pick,-0.820,-0.820,-0.820,0.000,0.000,0.000
1605217330706068992,10.0.1.143,NaN,pick,-0.830,-0.830,-0.830,0.000,0.000,0.000
1605217330801350144,10.0.1.143,95,pick,-0.830,-0.830,-0.830,0.000,0.000,0.000
1605217332224395008,10.0.1.143,493,move_up,-0.810,-0.810,-0.810,0.000,0.000,0.000
1605217334460691968,10.0.1.143,1108,move_up,-0.790,-0.790,-0.790,0.000,0.000,0.000
1605217336144601088,10.0.1.143,574,move_up,-0.770,-0.770,-0.770,0.000,0.000,0.000
1605217337764652032,10.0.1.143,578,move_up,-0.750,-0.750,-0.750,0.000,0.000,0.000
1605217339604270080,10.0.1.143,703,move_up,-0.730,-0.730,-0.730,0.000,0.000,0.000
1605217341477368064,10.0.1.143,631,move_up,-0.710,-0.710,-0.710,0.000,0.000,0.000
1605217343825270016,10.0.1.143,893,move_up,-0.690,-0.690,-0.690,0.000,0.000,0.000
1605217346318466816,10.0.1.143,738,move_up,-0.670,-0.670,-0.670,0.000,0.000,0.000
1605217348237630976,10.0.1.143,731,move_up,-0.650,-0.650,-0.650,0.000,0.000,0.000
1605217350226326016,10.0.1.143,605,move_up,-0.630,-0.630,-0.630,0.000,0.000,0.000
1605217352194091008,10.0.1.143,931,move_up,-0.610,-0.610,-0.610,0.000,0.000,0.000
1605217354366158080,10.0.1.143,1130,move_up,-0.590,-0.590,-0.590,0.000,0.000,0.000
1605217356316328960,10.0.1.143,906,move_up,-0.570,-0.570,-0.570,0.000,0.000,0.000
1605217358248811008,10.0.1.143,585,move_up,-0.550,-0.550,-0.550,0.000,0.000,0.000
1605217360040658944,10.0.1.143,695,move_up,-0.530,-0.530,-0.530,0.000,0.000,0.000
1605217362522525952,10.0.1.143,1076,move_up,-0.510,-0.510,-0.510,0.000,0.000,0.000
1605217364460606976,10.0.1.143,882,move_up,-0.490,-0.490,-0.490,0.000,0.000,0.000
1605217366296974848,10.0.1.143,783,move_up,-0.470,-0.470,-0.470,0.000,0.000,0.000
1605217368339757056,10.0.1.143,792,move_up,-0.450,-0.450,-0.450,0.000,0.000,0.000
1605217370194202880,10.0.1.143,849,move_up,-0.430,-0.430,-0.430,0.000,0.000,0.000
1605217371899003136,10.0.1.143,664,move_up,-0.410,-0.410,-0.410,0.000,0.000,0.000
1605217373642259968,10.0.1.143,533,move_up,-0.390,-0.390,-0.390,0.000,0.000,0.000
1605217375376540928,10.0.1.143,631,move_up,-0.370,-0.370,-0.370,0.000,0.000,0.000
1605217377231283968,10.0.1.143,736,move_up,-0.350,-0.350,-0.350,0.000,0.000,0.000
1605217379158647040,10.0.1.143,900,move_up,-0.330,-0.330,-0.330,0.000,0.000,0.000
1605217381528350208,10.0.1.143,879,move_up,-0.310,-0.310,-0.310,0.000,0.000,0.000
1605217383576084992,10.0.1.143,882,move_up,-0.290,-0.290,-0.290,0.000,0.000,0.000
1605217385439565824,10.0.1.143,828,move_up,-0.270,-0.270,-0.270,0.000,0.000,0.000
1605217387961113856,10.0.1.143,1438,move_up,-0.250,-0.250,-0.250,0.000,0.000,0.000
1605217389227077888,10.0.1.143,63,place,-0.240,-0.240,-0.240,0.000,0.000,0.000
1605217390226584064,10.0.1.143,61,place,-0.230,-0.230,-0.230,0.000,0.000,0.000
1605217392172203008,10.0.1.143,NaN,place,-0.210,-0.210,-0.210,0.000,0.000,0.000
1605217393173480960,10.0.1.143,NaN,place,-0.200,-0.200,-0.200,0.000,0.000,0.000
1605217394174766080,10.0.1.143,NaN,place,-0.190,-0.190,-0.190,0.000,0.000,0.000
1605217394244486144,10.0.1.143,69,place,-0.190,-0.190,-0.190,0.000,0.000,0.000
1605217395271897088,10.0.1.143,81,place,-0.180,-0.180,-0.180,0.000,0.000,0.000
1605217396241249024,10.0.1.143,41,place,-0.170,-0.170,-0.170,0.000,0.000,0.000
1605217397249751040,10.0.1.143,36,place,-0.160,-0.160,-0.160,0.000,0.000,0.000
1605217398266962944,10.0.1.143,50,place,-0.150,-0.150,-0.150,0.000,0.000,0.000
1605217399251791104,10.0.1.143,35,place,-0.140,-0.140,-0.140,0.000,0.000,0.000
1605217400296516864,10.0.1.143,78,place,-0.130,-0.130,-0.130,0.000,0.000,0.000
1605217401279536896,10.0.1.143,59,place,-0.120,-0.120,-0.120,0.000,0.000,0.000
1605217402289899008,10.0.1.143,69,place,-0.110,-0.110,-0.110,0.000,0.000,0.000
1605217403281161984,10.0.1.143,57,place,-0.100,-0.100,-0.100,0.000,0.000,0.000
1605217405226327040,10.0.1.143,NaN,place,-0.080,-0.080,-0.080,0.000,0.000,0.000
1605217405262727936,10.0.1.143,36,place,-0.080,-0.080,-0.080,0.000,0.000,0.000
1605217406282237952,10.0.1.143,48,place,-0.070,-0.070,-0.070,0.000,0.000,0.000
1605217407304913152,10.0.1.143,60,place,-0.060,-0.060,-0.060,0.000,0.000,0.000
1605217408971975936,10.0.1.143,726,move_down,-0.080,-0.080,-0.080,0.000,0.000,0.000
1605217411123085056,10.0.1.143,805,move_down,-0.100,-0.100,-0.100,0.000,0.000,0.000
1605217413134272000,10.0.1.143,864,move_down,-0.120,-0.120,-0.120,0.000,0.000,0.000
1605217415120459008,10.0.1.143,944,move_down,-0.140,-0.140,-0.140,0.000,0.000,0.000
1605217417132827904,10.0.1.143,702,move_down,-0.160,-0.160,-0.160,0.000,0.000,0.000
1605217418938801920,10.0.1.143,671,move_down,-0.180,-0.180,-0.180,0.000,0.000,0.000
1605217420921804032,10.0.1.143,881,move_down,-0.200,-0.200,-0.200,0.000,0.000,0.000
1605217422620791040,10.0.1.143,654,move_down,-0.220,-0.220,-0.220,0.000,0.000,0.000
1605217424705234176,10.0.1.143,1015,move_down,-0.240,-0.240,-0.240,0.000,0.000,0.000
1605217426321104896,10.0.1.143,584,move_down,-0.260,-0.260,-0.260,0.000,0.000,0.000
1605217427982209024,10.0.1.143,496,move_down,-0.280,-0.280,-0.280,0.000,0.000,0.000
1605217430127734784,10.0.1.143,1052,move_down,-0.300,-0.300,-0.300,0.000,0.000,0.000
1605217431967930112,10.0.1.143,635,move_down,-0.320,-0.320,-0.320,0.000,0.000,0.000
1605217433878544128,10.0.1.143,817,move_down,-0.340,-0.340,-0.340,0.000,0.000,0.000
1605217436111932928,10.0.1.143,1128,move_down,-0.360,-0.360,-0.360,0.000,0.000,0.000
1605217438432889856,10.0.1.143,815,move_down,-0.380,-0.380,-0.380,0.000,0.000,0.000
1605217440985704960,10.0.1.143,1466,move_down,-0.400,-0.400,-0.400,0.000,0.000,0.000
1605217443634712832,10.0.1.143,1569,move_down,-0.420,-0.420,-0.420,0.000,0.000,0.000
1605217445562144000,10.0.1.143,556,move_down,-0.440,-0.440,-0.440,0.000,0.000,0.000
1605217447214798848,10.0.1.143,647,move_down,-0.460,-0.460,-0.460,0.000,0.000,0.000
1605217449543768832,10.0.1.143,1146,move_down,-0.480,-0.480,-0.480,0.000,0.000,0.000
1605217451861886976,10.0.1.143,1100,move_down,-0.500,-0.500,-0.500,0.000,0.000,0.000
1605217454078466816,10.0.1.143,910,move_down,-0.520,-0.520,-0.520,0.000,0.000,0.000
1605217456894000896,10.0.1.143,1186,move_down,-0.540,-0.540,-0.540,0.000,0.000,0.000
1605217458711606016,10.0.1.143,782,move_down,-0.560,-0.560,-0.560,0.000,0.000,0.000
1605217460815824128,10.0.1.143,1010,move_down,-0.580,-0.580,-0.580,0.000,0.000,0.000
1605217462790029056,10.0.1.143,827,move_down,-0.600,-0.600,-0.600,0.000,0.000,0.000
1605217464465556992,10.0.1.143,628,move_down,-0.620,-0.620,-0.620,0.000,0.000,0.000
1605217466080404992,10.0.1.143,539,move_down,-0.640,-0.640,-0.640,0.000,0.000,0.000
1605217467241810944,10.0.1.143,39,pick,-0.650,-0.650,-0.650,0.000,0.000,0.000
1605217468248875008,10.0.1.143,41,pick,-0.660,-0.660,-0.660,0.000,0.000,0.000
1605217469263536896,10.0.1.143,51,pick,-0.670,-0.670,-0.670,0.000,0.000,0.000
1605217470264419072,10.0.1.143,50,pick,-0.680,-0.680,-0.680,0.000,0.000,0.000
1605217471263622912,10.0.1.143,45,pick,-0.690,-0.690,-0.690,0.000,0.000,0.000
1605217472260247040,10.0.1.143,41,pick,-0.700,-0.700,-0.700,0.000,0.000,0.000
1605217473281966080,10.0.1.143,62,pick,-0.710,-0.710,-0.710,0.000,0.000,0.000
1605217475226757888,10.0.1.143,NaN,pick,-0.730,-0.730,-0.730,0.000,0.000,0.000
1605217476227544064,10.0.1.143,NaN,pick,-0.740,-0.740,-0.740,0.000,0.000,0.000
1605217476282423040,10.0.1.143,54,pick,-0.740,-0.740,-0.740,0.000,0.000,0.000
1605217478235558912,10.0.1.143,NaN,pick,-0.760,-0.760,-0.760,0.000,0.000,0.000
1605217478290315008,10.0.1.143,54,pick,-0.760,-0.760,-0.760,0.000,0.000,0.000
1605217479299771136,10.0.1.143,60,pick,-0.770,-0.770,-0.770,0.000,0.000,0.000
1605217480297939968,10.0.1.143,53,pick,-0.780,-0.780,-0.780,0.000,0.000,0.000
1605217482247066112,10.0.1.143,NaN,pick,-0.800,-0.800,-0.800,0.000,0.000,0.000
1605217483253447168,10.0.1.143,NaN,pick,-0.810,-0.810,-0.810,0.000,0.000,0.000
1605217484258966016,10.0.1.143,NaN,pick,-0.820,-0.820,-0.820,0.000,0.000,0.000
1605217485270270976,10.0.1.143,NaN,pick,-0.830,-0.830,-0.830,0.000,0.000,0.000
1605217485336285184,10.0.1.143,65,pick,-0.830,-0.830,-0.830,0.000,0.000,0.000
1605217487427161856,10.0.1.143,1155,move_up,-0.810,-0.810,-0.810,0.000,0.000,0.000
1605217490246260992,10.0.1.143,1132,move_up,-0.790,-0.790,-0.790,0.000,0.000,0.000
1605217492415750912,10.0.1.143,948,move_up,-0.770,-0.770,-0.770,0.000,0.000,0.000
1605217494341645056,10.0.1.143,890,move_up,-0.750,-0.750,-0.750,0.000,0.000,0.000
1605217496123433216,10.0.1.143,633,move_up,-0.730,-0.730,-0.730,0.000,0.000,0.000
1605217498086742016,10.0.1.143,899,move_up,-0.710,-0.710,-0.710,0.000,0.000,0.000
1605217499860541184,10.0.1.143,572,move_up,-0.690,-0.690,-0.690,0.000,0.000,0.000
1605217501824506880,10.0.1.143,850,move_up,-0.670,-0.670,-0.670,0.000,0.000,0.000
1605217503770391040,10.0.1.143,853,move_up,-0.650,-0.650,-0.650,0.000,0.000,0.000
1605217505411179008,10.0.1.143,615,move_up,-0.630,-0.630,-0.630,0.000,0.000,0.000
1605217507632194048,10.0.1.143,1154,move_up,-0.610,-0.610,-0.610,0.000,0.000,0.000
1605217509542219008,10.0.1.143,813,move_up,-0.590,-0.590,-0.590,0.000,0.000,0.000
1605217511353563136,10.0.1.143,683,move_up,-0.570,-0.570,-0.570,0.000,0.000,0.000
1605217513213253120,10.0.1.143,737,move_up,-0.550,-0.550,-0.550,0.000,0.000,0.000
1605217514932985088,10.0.1.143,656,move_up,-0.530,-0.530,-0.530,0.000,0.000,0.000
1605217516902993920,10.0.1.143,886,move_up,-0.510,-0.510,-0.510,0.000,0.000,0.000
1605217519072141824,10.0.1.143,1112,move_up,-0.490,-0.490,-0.490,0.000,0.000,0.000
1605217522015234048,10.0.1.143,1115,move_up,-0.470,-0.470,-0.470,0.000,0.000,0.000
1605217523721971968,10.0.1.143,671,move_up,-0.450,-0.450,-0.450,0.000,0.000,0.000
1605217526107994112,10.0.1.143,1296,move_up,-0.430,-0.430,-0.430,0.000,0.000,0.000
1605217528049436928,10.0.1.143,744,move_up,-0.410,-0.410,-0.410,0.000,0.000,0.000
1605217530033127168,10.0.1.143,802,move_up,-0.390,-0.390,-0.390,0.000,0.000,0.000
1605217532087915776,10.0.1.143,977,move_up,-0.370,-0.370,-0.370,0.000,0.000,0.000
1605217533908756992,10.0.1.143,744,move_up,-0.350,-0.350,-0.350,0.000,0.000,0.000
1605217536119527936,10.0.1.143,979,move_up,-0.330,-0.330,-0.330,0.000,0.000,0.000
1605217537996057088,10.0.1.143,863,move_up,-0.310,-0.310,-0.310,0.000,0.000,0.000
1605217540073203200,10.0.1.143,1037,move_up,-0.290,-0.290,-0.290,0.000,0.000,0.000
1605217541861491968,10.0.1.143,683,move_up,-0.270,-0.270,-0.270,0.000,0.000,0.000
1605217543901890048,10.0.1.143,780,move_up,-0.250,-0.250,-0.250,0.000,0.000,0.000
1605217545077682944,10.0.1.143,67,place,-0.240,-0.240,-0.240,0.000,0.000,0.000
1605217547016766976,10.0.1.143,NaN,place,-0.220,-0.220,-0.220,0.000,0.000,0.000
1605217547067204096,10.0.1.143,50,place,-0.220,-0.220,-0.220,0.000,0.000,0.000
1605217549019207936,10.0.1.143,NaN,place,-0.200,-0.200,-0.200,0.000,0.000,0.000
1605217549060023040,10.0.1.143,40,place,-0.200,-0.200,-0.200,0.000,0.000,0.000
1605217551021853952,10.0.1.143,NaN,place,-0.180,-0.180,-0.180,0.000,0.000,0.000
1605217551083823872,10.0.1.143,61,place,-0.180,-0.180,-0.180,0.000,0.000,0.000
1605217552066364160,10.0.1.143,35,place,-0.170,-0.170,-0.170,0.000,0.000,0.000
1605217553103322112,10.0.1.143,70,place,-0.160,-0.160,-0.160,0.000,0.000,0.000
1605217555035557120,10.0.1.143,NaN,place,-0.140,-0.140,-0.140,0.000,0.000,0.000
1605217555097914880,10.0.1.143,62,place,-0.140,-0.140,-0.140,0.000,0.000,0.000
1605217556097230848,10.0.1.143,60,place,-0.130,-0.130,-0.130,0.000,0.000,0.000
1605217558060225024,10.0.1.143,NaN,place,-0.110,-0.110,-0.110,0.000,0.000,0.000
1605217558116720896,10.0.1.143,56,place,-0.110,-0.110,-0.110,0.000,0.000,0.000
1605217560067533056,10.0.1.143,NaN,place,-0.090,-0.090,-0.090,0.000,0.000,0.000
1605217560130161920,10.0.1.143,62,place,-0.090,-0.090,-0.090,0.000,0.000,0.000
1605217561126938112,10.0.1.143,58,place,-0.080,-0.080,-0.080,0.000,0.000,0.000
1605217562137337088,10.0.1.143,56,place,-0.070,-0.070,-0.070,0.000,0.000,0.000
1605217563129259008,10.0.1.143,46,place,-0.060,-0.060,-0.060,0.000,0.000,0.000
1605217565460846848,10.0.1.143,1377,move_down,-0.080,-0.080,-0.080,0.000,0.000,0.000
1605217567601548032,10.0.1.143,746,move_down,-0.100,-0.100,-0.100,0.000,0.000,0.000
1605217570074656000,10.0.1.143,1359,move_down,-0.120,-0.120,-0.120,0.000,0.000,0.000
1605217572127816960,10.0.1.143,719,move_down,-0.140,-0.140,-0.140,0.000,0.000,0.000
1605217574333137920,10.0.1.143,1149,move_down,-0.160,-0.160,-0.160,0.000,0.000,0.000
1605217575996588032,10.0.1.143,522,move_down,-0.180,-0.180,-0.180,0.000,0.000,0.000
1605217578099762944,10.0.1.143,1051,move_down,-0.200,-0.200,-0.200,0.000,0.000,0.000
1605217579724271104,10.0.1.143,580,move_down,-0.220,-0.220,-0.220,0.000,0.000,0.000
1605217581668005888,10.0.1.143,732,move_down,-0.240,-0.240,-0.240,0.000,0.000,0.000
1605217583504028928,10.0.1.143,801,move_down,-0.260,-0.260,-0.260,0.000,0.000,0.000
1605217585839892992,10.0.1.143,1186,move_down,-0.280,-0.280,-0.280,0.000,0.000,0.000
1605217587721623808,10.0.1.143,828,move_down,-0.300,-0.300,-0.300,0.000,0.000,0.000
1605217589556508160,10.0.1.143,724,move_down,-0.320,-0.320,-0.320,0.000,0.000,0.000
1605217591588386048,10.0.1.143,998,move_down,-0.340,-0.340,-0.340,0.000,0.000,0.000
1605217593470761984,10.0.1.143,720,move_down,-0.360,-0.360,-0.360,0.000,0.000,0.000
1605217596305963008,10.0.1.143,1441,move_down,-0.380,-0.380,-0.380,0.000,0.000,0.000
1605217598506437120,10.0.1.143,1051,move_down,-0.400,-0.400,-0.400,0.000,0.000,0.000
1605217600370411008,10.0.1.143,672,move_down,-0.420,-0.420,-0.420,0.000,0.000,0.000
1605217602298505984,10.0.1.143,871,move_down,-0.440,-0.440,-0.440,0.000,0.000,0.000
1605217604625957888,10.0.1.143,496,move_down,-0.460,-0.460,-0.460,0.000,0.000,0.000
1605217606752157952,10.0.1.143,949,move_down,-0.480,-0.480,-0.480,0.000,0.000,0.000
1605217608558376960,10.0.1.143,759,move_down,-0.500,-0.500,-0.500,0.000,0.000,0.000
1605217610745789952,10.0.1.143,1128,move_down,-0.520,-0.520,-0.520,0.000,0.000,0.000
1605217612679563008,10.0.1.143,777,move_down,-0.540,-0.540,-0.540,0.000,0.000,0.000
1605217614344155904,10.0.1.143,597,move_down,-0.560,-0.560,-0.560,0.000,0.000,0.000
1605217616122345984,10.0.1.143,772,move_down,-0.580,-0.580,-0.580,0.000,0.000,0.000
1605217618179193088,10.0.1.143,980,move_down,-0.600,-0.600,-0.600,0.000,0.000,0.000
1605217620038390016,10.0.1.143,692,move_down,-0.620,-0.620,-0.620,0.000,0.000,0.000
1605217622511350016,10.0.1.143,1161,move_down,-0.640,-0.640,-0.640,0.000,0.000,0.000
1605217623811197952,10.0.1.143,31,pick,-0.650,-0.650,-0.650,0.000,0.000,0.000
1605217624838280960,10.0.1.143,55,pick,-0.660,-0.660,-0.660,0.000,0.000,0.000
1605217625835350016,10.0.1.143,51,pick,-0.670,-0.670,-0.670,0.000,0.000,0.000
1605217627790955008,10.0.1.143,NaN,pick,-0.690,-0.690,-0.690,0.000,0.000,0.000
1605217627831960064,10.0.1.143,40,pick,-0.690,-0.690,-0.690,0.000,0.000,0.000
1605217629793154048,10.0.1.143,NaN,pick,-0.710,-0.710,-0.710,0.000,0.000,0.000
1605217629855158016,10.0.1.143,61,pick,-0.710,-0.710,-0.710,0.000,0.000,0.000
1605217630846692096,10.0.1.143,52,pick,-0.720,-0.720,-0.720,0.000,0.000,0.000
1605217631844196096,10.0.1.143,43,pick,-0.730,-0.730,-0.730,0.000,0.000,0.000
1605217632847300096,10.0.1.143,45,pick,-0.740,-0.740,-0.740,0.000,0.000,0.000
1605217634822432000,10.0.1.143,NaN,pick,-0.760,-0.760,-0.760,0.000,0.000,0.000
1605217634887291904,10.0.1.143,64,pick,-0.760,-0.760,-0.760,0.000,0.000,0.000
1605217636824732928,10.0.1.143,NaN,pick,-0.780,-0.780,-0.780,0.000,0.000,0.000
1605217636869483008,10.0.1.143,44,pick,-0.780,-0.780,-0.780,0.000,0.000,0.000
1605217637903611904,10.0.1.143,74,pick,-0.790,-0.790,-0.790,0.000,0.000,0.000
1605217638875212800,10.0.1.143,44,pick,-0.800,-0.800,-0.800,0.000,0.000,0.000
1605217639876081920,10.0.1.143,44,pick,-0.810,-0.810,-0.810,0.000,0.000,0.000
1605217640912992000,10.0.1.143,69,pick,-0.820,-0.820,-0.820,0.000,0.000,0.000
1605217641890204928,10.0.1.143,44,pick,-0.830,-0.830,-0.830,0.000,0.000,0.000
1605217643543438080,10.0.1.143,691,move_up,-0.810,-0.810,-0.810,0.000,0.000,0.000
1605217645723789056,10.0.1.143,711,move_up,-0.790,-0.790,-0.790,0.000,0.000,0.000
1605217647906753024,10.0.1.143,1139,move_up,-0.770,-0.770,-0.770,0.000,0.000,0.000
1605217649634366976,10.0.1.143,597,move_up,-0.750,-0.750,-0.750,0.000,0.000,0.000
1605217651792169216,10.0.1.143,864,move_up,-0.730,-0.730,-0.730,0.000,0.000,0.000
1605217653421799936,10.0.1.143,591,move_up,-0.710,-0.710,-0.710,0.000,0.000,0.000
1605217655234738944,10.0.1.143,707,move_up,-0.690,-0.690,-0.690,0.000,0.000,0.000
1605217657004630016,10.0.1.143,713,move_up,-0.670,-0.670,-0.670,0.000,0.000,0.000
1605217658870817792,10.0.1.143,769,move_up,-0.650,-0.650,-0.650,0.000,0.000,0.000
1605217660535046144,10.0.1.143,627,move_up,-0.630,-0.630,-0.630,0.000,0.000,0.000
1605217662564049920,10.0.1.143,948,move_up,-0.610,-0.610,-0.610,0.000,0.000,0.000
1605217664279417088,10.0.1.143,640,move_up,-0.590,-0.590,-0.590,0.000,0.000,0.000
1605217666620155136,10.0.1.143,1177,move_up,-0.570,-0.570,-0.570,0.000,0.000,0.000
1605217668243220992,10.0.1.143,592,move_up,-0.550,-0.550,-0.550,0.000,0.000,0.000
1605217670004098816,10.0.1.143,724,move_up,-0.530,-0.530,-0.530,0.000,0.000,0.000
1605217671803934208,10.0.1.143,630,move_up,-0.510,-0.510,-0.510,0.000,0.000,0.000
1605217673823054080,10.0.1.143,927,move_up,-0.490,-0.490,-0.490,0.000,0.000,0.000
1605217675568377856,10.0.1.143,643,move_up,-0.470,-0.470,-0.470,0.000,0.000,0.000
1605217677314920960,10.0.1.143,654,move_up,-0.450,-0.450,-0.450,0.000,0.000,0.000
1605217679527196928,10.0.1.143,968,move_up,-0.430,-0.430,-0.430,0.000,0.000,0.000
1605217681855741952,10.0.1.143,1107,move_up,-0.410,-0.410,-0.410,0.000,0.000,0.000
1605217684680967168,10.0.1.143,1755,move_up,-0.390,-0.390,-0.390,0.000,0.000,0.000
1605217686590277888,10.0.1.143,838,move_up,-0.370,-0.370,-0.370,0.000,0.000,0.000
1605217688558558976,10.0.1.143,712,move_up,-0.350,-0.350,-0.350,0.000,0.000,0.000
1605217690295855104,10.0.1.143,691,move_up,-0.330,-0.330,-0.330,0.000,0.000,0.000
1605217692115873024,10.0.1.143,750,move_up,-0.310,-0.310,-0.310,0.000,0.000,0.000
1605217694295828992,10.0.1.143,750,move_up,-0.290,-0.290,-0.290,0.000,0.000,0.000
1605217696367051008,10.0.1.143,978,move_up,-0.270,-0.270,-0.270,0.000,0.000,0.000
1605217698151664896,10.0.1.143,662,move_up,-0.250,-0.250,-0.250,0.000,0.000,0.000
1605217699324701952,10.0.1.143,81,place,-0.240,-0.240,-0.240,0.000,0.000,0.000
1605217700288839168,10.0.1.143,44,place,-0.230,-0.230,-0.230,0.000,0.000,0.000
1605217702247250176,10.0.1.143,NaN,place,-0.210,-0.210,-0.210,0.000,0.000,0.000
1605217702289571072,10.0.1.143,42,place,-0.210,-0.210,-0.210,0.000,0.000,0.000
1605217703291838976,10.0.1.143,42,place,-0.200,-0.200,-0.200,0.000,0.000,0.000
1605217704282022912,10.0.1.143,31,place,-0.190,-0.190,-0.190,0.000,0.000,0.000
1605217705311139072,10.0.1.143,58,place,-0.180,-0.180,-0.180,0.000,0.000,0.000
1605217706293779968,10.0.1.143,39,place,-0.170,-0.170,-0.170,0.000,0.000,0.000
1605217708258029824,10.0.1.143,NaN,place,-0.150,-0.150,-0.150,0.000,0.000,0.000
1605217708307169792,10.0.1.143,49,place,-0.150,-0.150,-0.150,0.000,0.000,0.000
1605217709307616000,10.0.1.143,47,place,-0.140,-0.140,-0.140,0.000,0.000,0.000
1605217711266880000,10.0.1.143,NaN,place,-0.120,-0.120,-0.120,0.000,0.000,0.000
1605217711346669824,10.0.1.143,79,place,-0.120,-0.120,-0.120,0.000,0.000,0.000
1605217713283750144,10.0.1.143,NaN,place,-0.100,-0.100,-0.100,0.000,0.000,0.000
1605217713346568192,10.0.1.143,62,place,-0.100,-0.100,-0.100,0.000,0.000,0.000
1605217714324547072,10.0.1.143,37,place,-0.090,-0.090,-0.090,0.000,0.000,0.000
1605217715327958016,10.0.1.143,39,place,-0.080,-0.080,-0.080,0.000,0.000,0.000
1605217717290301952,10.0.1.143,NaN,place,-0.060,-0.060,-0.060,0.000,0.000,0.000
1605217717348980992,10.0.1.143,58,place,-0.060,-0.060,-0.060,0.000,0.000,0.000
1605217719049794048,10.0.1.143,758,move_down,-0.080,-0.080,-0.080,0.000,0.000,0.000
1605217720974644992,10.0.1.143,839,move_down,-0.100,-0.100,-0.100,0.000,0.000,0.000
1605217723466462976,10.0.1.143,805,move_down,-0.120,-0.120,-0.120,0.000,0.000,0.000
1605217725450648064,10.0.1.143,909,move_down,-0.140,-0.140,-0.140,0.000,0.000,0.000
1605217727273768960,10.0.1.143,758,move_down,-0.160,-0.160,-0.160,0.000,0.000,0.000
1605217729307473920,10.0.1.143,960,move_down,-0.180,-0.180,-0.180,0.000,0.000,0.000
1605217730993732864,10.0.1.143,623,move_down,-0.200,-0.200,-0.200,0.000,0.000,0.000
1605217732712224000,10.0.1.143,663,move_down,-0.220,-0.220,-0.220,0.000,0.000,0.000
1605217735229403904,10.0.1.143,1395,move_down,-0.240,-0.240,-0.240,0.000,0.000,0.000
1605217737030021888,10.0.1.143,626,move_down,-0.260,-0.260,-0.260,0.000,0.000,0.000
1605217738689768960,10.0.1.143,517,move_down,-0.280,-0.280,-0.280,0.000,0.000,0.000
1605217740677930240,10.0.1.143,904,move_down,-0.300,-0.300,-0.300,0.000,0.000,0.000
1605217742279269888,10.0.1.143,509,move_down,-0.320,-0.320,-0.320,0.000,0.000,0.000
1605217743840587008,10.0.1.143,531,move_down,-0.340,-0.340,-0.340,0.000,0.000,0.000
1605217745969579008,10.0.1.143,1020,move_down,-0.360,-0.360,-0.360,0.000,0.000,0.000
1605217747908901888,10.0.1.143,881,move_down,-0.380,-0.380,-0.380,0.000,0.000,0.000
1605217749700326912,10.0.1.143,707,move_down,-0.400,-0.400,-0.400,0.000,0.000,0.000
1605217751223833088,10.0.1.143,468,move_down,-0.420,-0.420,-0.420,0.000,0.000,0.000
1605217753161266176,10.0.1.143,832,move_down,-0.440,-0.440,-0.440,0.000,0.000,0.000
1605217755221901056,10.0.1.143,1000,move_down,-0.460,-0.460,-0.460,0.000,0.000,0.000
1605217756869505792,10.0.1.143,521,move_down,-0.480,-0.480,-0.480,0.000,0.000,0.000
1605217758914540032,10.0.1.143,715,move_down,-0.500,-0.500,-0.500,0.000,0.000,0.000
1605217761315363840,10.0.1.143,1273,move_down,-0.520,-0.520,-0.520,0.000,0.000,0.000
1605217762985188864,10.0.1.143,540,move_down,-0.540,-0.540,-0.540,0.000,0.000,0.000
1605217764698148864,10.0.1.143,608,move_down,-0.560,-0.560,-0.560,0.000,0.000,0.000
1605217766924758784,10.0.1.143,1109,move_down,-0.580,-0.580,-0.580,0.000,0.000,0.000
1605217768821114112,10.0.1.143,745,move_down,-0.600,-0.600,-0.600,0.000,0.000,0.000
1605217770699110144,10.0.1.143,793,move_down,-0.620,-0.620,-0.620,0.000,0.000,0.000
1605217772459110912,10.0.1.143,655,move_down,-0.640,-0.640,-0.640,0.000,0.000,0.000
1605217773591692800,10.0.1.143,109,pick,-0.650,-0.650,-0.650,0.000,0.000,0.000
1605217774539136768,10.0.1.143,51,pick,-0.660,-0.660,-0.660,0.000,0.000,0.000
1605217775554397184,10.0.1.143,65,pick,-0.670,-0.670,-0.670,0.000,0.000,0.000
1605217776557598976,10.0.1.143,58,pick,-0.680,-0.680,-0.680,0.000,0.000,0.000
1605217777542928896,10.0.1.143,43,pick,-0.690,-0.690,-0.690,0.000,0.000,0.000
1605217778561299200,10.0.1.143,50,pick,-0.700,-0.700,-0.700,0.000,0.000,0.000
1605217779550000896,10.0.1.143,38,pick,-0.710,-0.710,-0.710,0.000,0.000,0.000
1605217780552454912,10.0.1.143,39,pick,-0.720,-0.720,-0.720,0.000,0.000,0.000
1605217782514978816,10.0.1.143,NaN,pick,-0.740,-0.740,-0.740,0.000,0.000,0.000
1605217782546631168,10.0.1.143,31,pick,-0.740,-0.740,-0.740,0.000,0.000,0.000
1605217783594307072,10.0.1.143,68,pick,-0.750,-0.750,-0.750,0.000,0.000,0.000
1605217784584816896,10.0.1.143,52,pick,-0.760,-0.760,-0.760,0.000,0.000,0.000
1605217785568731136,10.0.1.143,35,pick,-0.770,-0.770,-0.770,0.000,0.000,0.000
1605217786586419968,10.0.1.143,52,pick,-0.780,-0.780,-0.780,0.000,0.000,0.000
1605217787582200064,10.0.1.143,46,pick,-0.790,-0.790,-0.790,0.000,0.000,0.000
1605217788568028928,10.0.1.143,31,pick,-0.800,-0.800,-0.800,0.000,0.000,0.000
1605217790538372096,10.0.1.143,NaN,pick,-0.820,-0.820,-0.820,0.000,0.000,0.000
1605217790595886080,10.0.1.143,57,pick,-0.820,-0.820,-0.820,0.000,0.000,0.000
1605217791585940992,10.0.1.143,40,pick,-0.830,-0.830,-0.830,0.000,0.000,0.000
1605217793158292992,10.0.1.143,611,move_up,-0.810,-0.810,-0.810,0.000,0.000,0.000
1605217795313658112,10.0.1.143,1025,move_up,-0.790,-0.790,-0.790,0.000,0.000,0.000
1605217797171177984,10.0.1.143,580,move_up,-0.770,-0.770,-0.770,0.000,0.000,0.000
1605217799304040960,10.0.1.143,1053,move_up,-0.750,-0.750,-0.750,0.000,0.000,0.000
1605217801536112896,10.0.1.143,1130,move_up,-0.730,-0.730,-0.730,0.000,0.000,0.000
1605217803422009856,10.0.1.143,789,move_up,-0.710,-0.710,-0.710,0.000,0.000,0.000
1605217805241761024,10.0.1.143,731,move_up,-0.690,-0.690,-0.690,0.000,0.000,0.000
1605217807552093952,10.0.1.143,1229,move_up,-0.670,-0.670,-0.670,0.000,0.000,0.000
1605217809684824832,10.0.1.143,802,move_up,-0.650,-0.650,-0.650,0.000,0.000,0.000
1605217811523439872,10.0.1.143,748,move_up,-0.630,-0.630,-0.630,0.000,0.000,0.000
1605217813331777024,10.0.1.143,704,move_up,-0.610,-0.610,-0.610,0.000,0.000,0.000
1605217815382129920,10.0.1.143,593,move_up,-0.590,-0.590,-0.590,0.000,0.000,0.000
1605217817750973952,10.0.1.143,798,move_up,-0.570,-0.570,-0.570,0.000,0.000,0.000
1605217819779975936,10.0.1.143,1074,move_up,-0.550,-0.550,-0.550,0.000,0.000,0.000
1605217821806288896,10.0.1.143,922,move_up,-0.530,-0.530,-0.530,0.000,0.000,0.000
1605217823555202048,10.0.1.143,581,move_up,-0.510,-0.510,-0.510,0.000,0.000,0.000
1605217825183741952,10.0.1.143,636,move_up,-0.490,-0.490,-0.490,0.000,0.000,0.000
1605217826999422976,10.0.1.143,753,move_up,-0.470,-0.470,-0.470,0.000,0.000,0.000
1605217828847735040,10.0.1.143,662,move_up,-0.450,-0.450,-0.450,0.000,0.000,0.000
1605217830614859008,10.0.1.143,609,move_up,-0.430,-0.430,-0.430,0.000,0.000,0.000
1605217832310776832,10.0.1.143,554,move_up,-0.410,-0.410,-0.410,0.000,0.000,0.000
1605217834036120064,10.0.1.143,690,move_up,-0.390,-0.390,-0.390,0.000,0.000,0.000
1605217835946181120,10.0.1.143,815,move_up,-0.370,-0.370,-0.370,0.000,0.000,0.000
1605217838141228032,10.0.1.143,1056,move_up,-0.350,-0.350,-0.350,0.000,0.000,0.000
1605217840187405056,10.0.1.143,882,move_up,-0.330,-0.330,-0.330,0.000,0.000,0.000
1605217841831751168,10.0.1.143,580,move_up,-0.310,-0.310,-0.310,0.000,0.000,0.000
1605217844229620992,10.0.1.143,1201,move_up,-0.290,-0.290,-0.290,0.000,0.000,0.000
1605217846681121024,10.0.1.143,1156,move_up,-0.270,-0.270,-0.270,0.000,0.000,0.000
1605217848436744960,10.0.1.143,549,move_up,-0.250,-0.250,-0.250,0.000,0.000,0.000
1605217849647003904,10.0.1.143,62,place,-0.240,-0.240,-0.240,0.000,0.000,0.000
1605217850655975936,10.0.1.143,69,place,-0.230,-0.230,-0.230,0.000,0.000,0.000
1605217851650876160,10.0.1.143,62,place,-0.220,-0.220,-0.220,0.000,0.000,0.000
1605217852641196032,10.0.1.143,48,place,-0.210,-0.210,-0.210,0.000,0.000,0.000
1605217854595550976,10.0.1.143,NaN,place,-0.190,-0.190,-0.190,0.000,0.000,0.000
1605217855596898048,10.0.1.143,NaN,place,-0.180,-0.180,-0.180,0.000,0.000,0.000
1605217856598205184,10.0.1.143,NaN,place,-0.170,-0.170,-0.170,0.000,0.000,0.000
1605217856643443200,10.0.1.143,45,place,-0.170,-0.170,-0.170,0.000,0.000,0.000
1605217857648216064,10.0.1.143,48,place,-0.160,-0.160,-0.160,0.000,0.000,0.000
1605217858651105024,10.0.1.143,50,place,-0.150,-0.150,-0.150,0.000,0.000,0.000
1605217860602257920,10.0.1.143,NaN,place,-0.130,-0.130,-0.130,0.000,0.000,0.000
1605217860657441024,10.0.1.143,55,place,-0.130,-0.130,-0.130,0.000,0.000,0.000
1605217861663708928,10.0.1.143,54,place,-0.120,-0.120,-0.120,0.000,0.000,0.000
1605217862666577152,10.0.1.143,56,place,-0.110,-0.110,-0.110,0.000,0.000,0.000
1605217863658757888,10.0.1.143,47,place,-0.100,-0.100,-0.100,0.000,0.000,0.000
1605217864657459968,10.0.1.143,36,place,-0.090,-0.090,-0.090,0.000,0.000,0.000
1605217865679438080,10.0.1.143,56,place,-0.080,-0.080,-0.080,0.000,0.000,0.000
1605217866663801856,10.0.1.143,40,place,-0.070,-0.070,-0.070,0.000,0.000,0.000
1605217867662745856,10.0.1.143,37,place,-0.060,-0.060,-0.060,0.000,0.000,0.000
1605217869523780096,10.0.1.143,897,move_down,-0.080,-0.080,-0.080,0.000,0.000,0.000
1605217871514686208,10.0.1.143,912,move_down,-0.100,-0.100,-0.100,0.000,0.000,0.000
1605217873158564096,10.0.1.143,574,move_down,-0.120,-0.120,-0.120,0.000,0.000,0.000
1605217875410814976,10.0.1.143,1144,move_down,-0.140,-0.140,-0.140,0.000,0.000,0.000
1605217877066976000,10.0.1.143,592,move_down,-0.160,-0.160,-0.160,0.000,0.000,0.000
1605217879108922112,10.0.1.143,941,move_down,-0.180,-0.180,-0.180,0.000,0.000,0.000
1605217881037359872,10.0.1.143,817,move_down,-0.200,-0.200,-0.200,0.000,0.000,0.000
1605217882913451008,10.0.1.143,755,move_down,-0.220,-0.220,-0.220,0.000,0.000,0.000
1605217884760366848,10.0.1.143,720,move_down,-0.240,-0.240,-0.240,0.000,0.000,0.000
1605217886820188160,10.0.1.143,680,move_down,-0.260,-0.260,-0.260,0.000,0.000,0.000
1605217888949312000,10.0.1.143,929,move_down,-0.280,-0.280,-0.280,0.000,0.000,0.000
1605217890706105088,10.0.1.143,713,move_down,-0.300,-0.300,-0.300,0.000,0.000,0.000
1605217892463219968,10.0.1.143,718,move_down,-0.320,-0.320,-0.320,0.000,0.000,0.000
1605217894611804928,10.0.1.143,828,move_down,-0.340,-0.340,-0.340,0.000,0.000,0.000
1605217896658386944,10.0.1.143,916,move_down,-0.360,-0.360,-0.360,0.000,0.000,0.000
1605217898685620992,10.0.1.143,960,move_down,-0.380,-0.380,-0.380,0.000,0.000,0.000
1605217900619390976,10.0.1.143,903,move_down,-0.400,-0.400,-0.400,0.000,0.000,0.000
1605217902626434048,10.0.1.143,736,move_down,-0.420,-0.420,-0.420,0.000,0.000,0.000
1605217904327030784,10.0.1.143,646,move_down,-0.440,-0.440,-0.440,0.000,0.000,0.000
1605217906249245952,10.0.1.143,895,move_down,-0.460,-0.460,-0.460,0.000,0.000,0.000
1605217908010694912,10.0.1.143,690,move_down,-0.480,-0.480,-0.480,0.000,0.000,0.000
1605217910700603136,10.0.1.143,1639,move_down,-0.500,-0.500,-0.500,0.000,0.000,0.000
1605217912529380096,10.0.1.143,690,move_down,-0.520,-0.520,-0.520,0.000,0.000,0.000
1605217914427043840,10.0.1.143,841,move_down,-0.540,-0.540,-0.540,0.000,0.000,0.000
1605217916622263040,10.0.1.143,1182,move_down,-0.560,-0.560,-0.560,0.000,0.000,0.000
1605217918198039040,10.0.1.143,484,move_down,-0.580,-0.580,-0.580,0.000,0.000,0.000
1605217920515655936,10.0.1.143,712,move_down,-0.600,-0.600,-0.600,0.000,0.000,0.000
1605217923165107968,10.0.1.143,713,move_down,-0.620,-0.620,-0.620,0.000,0.000,0.000
1605217924986011904,10.0.1.143,746,move_down,-0.640,-0.640,-0.640,0.000,0.000,0.000
1605217926112515072,10.0.1.143,67,pick,-0.650,-0.650,-0.650,0.000,0.000,0.000
1605217927092335104,10.0.1.143,46,pick,-0.660,-0.660,-0.660,0.000,0.000,0.000
1605217928096452096,10.0.1.143,48,pick,-0.670,-0.670,-0.670,0.000,0.000,0.000
1605217929089016832,10.0.1.143,39,pick,-0.680,-0.680,-0.680,0.000,0.000,0.000
1605217931058808064,10.0.1.143,NaN,pick,-0.700,-0.700,-0.700,0.000,0.000,0.000
1605217931105003008,10.0.1.143,46,pick,-0.700,-0.700,-0.700,0.000,0.000,0.000
1605217932110985984,10.0.1.143,50,pick,-0.710,-0.710,-0.710,0.000,0.000,0.000
1605217933116285952,10.0.1.143,54,pick,-0.720,-0.720,-0.720,0.000,0.000,0.000
1605217934142983936,10.0.1.143,78,pick,-0.730,-0.730,-0.730,0.000,0.000,0.000
1605217935108052992,10.0.1.143,42,pick,-0.740,-0.740,-0.740,0.000,0.000,0.000
1605217936107280128,10.0.1.143,30,pick,-0.750,-0.750,-0.750,0.000,0.000,0.000
1605217937139828992,10.0.1.143,61,pick,-0.760,-0.760,-0.760,0.000,0.000,0.000
1605217938139034112,10.0.1.143,59,pick,-0.770,-0.770,-0.770,0.000,0.000,0.000
1605217940097395968,10.0.1.143,NaN,pick,-0.790,-0.790,-0.790,0.000,0.000,0.000
1605217940206146048,10.0.1.143,108,pick,-0.790,-0.790,-0.790,0.000,0.000,0.000
1605217941129026816,10.0.1.143,30,pick,-0.800,-0.800,-0.800,0.000,0.000,0.000
1605217942165950976,10.0.1.143,66,pick,-0.810,-0.810,-0.810,0.000,0.000,0.000
1605217943167493120,10.0.1.143,58,pick,-0.820,-0.820,-0.820,0.000,0.000,0.000
1605217944148046848,10.0.1.143,37,pick,-0.830,-0.830,-0.830,0.000,0.000,0.000
1605217945736329984,10.0.1.143,623,move_up,-0.810,-0.810,-0.810,0.000,0.000,0.000
1605217947665402880,10.0.1.143,880,move_up,-0.790,-0.790,-0.790,0.000,0.000,0.000
1605217949381025024,10.0.1.143,607,move_up,-0.770,-0.770,-0.770,0.000,0.000,0.000
1605217951507841024,10.0.1.143,845,move_up,-0.750,-0.750,-0.750,0.000,0.000,0.000
1605217953200004096,10.0.1.143,637,move_up,-0.730,-0.730,-0.730,0.000,0.000,0.000
1605217954928658944,10.0.1.143,677,move_up,-0.710,-0.710,-0.710,0.000,0.000,0.000
1605217956655569920,10.0.1.143,618,move_up,-0.690,-0.690,-0.690,0.000,0.000,0.000
1605217958549283072,10.0.1.143,642,move_up,-0.670,-0.670,-0.670,0.000,0.000,0.000
1605217960395801088,10.0.1.143,762,move_up,-0.650,-0.650,-0.650,0.000,0.000,0.000
1605217962630706176,10.0.1.143,1103,move_up,-0.630,-0.630,-0.630,0.000,0.000,0.000
1605217964668793856,10.0.1.143,866,move_up,-0.610,-0.610,-0.610,0.000,0.000,0.000
1605217966565753088,10.0.1.143,755,move_up,-0.590,-0.590,-0.590,0.000,0.000,0.000
1605217968337157120,10.0.1.143,721,move_up,-0.570,-0.570,-0.570,0.000,0.000,0.000
1605217970171580928,10.0.1.143,716,move_up,-0.550,-0.550,-0.550,0.000,0.000,0.000
1605217972552056064,10.0.1.143,1299,move_up,-0.530,-0.530,-0.530,0.000,0.000,0.000
1605217974258194944,10.0.1.143,630,move_up,-0.510,-0.510,-0.510,0.000,0.000,0.000
1605217976014909952,10.0.1.143,828,move_up,-0.490,-0.490,-0.490,0.000,0.000,0.000
1605217978030603776,10.0.1.143,911,move_up,-0.470,-0.470,-0.470,0.000,0.000,0.000
1605217979911662080,10.0.1.143,733,move_up,-0.450,-0.450,-0.450,0.000,0.000,0.000
1605217981863683072,10.0.1.143,782,move_up,-0.430,-0.430,-0.430,0.000,0.000,0.000
1605217984028451840,10.0.1.143,993,move_up,-0.410,-0.410,-0.410,0.000,0.000,0.000
1605217986299104000,10.0.1.143,999,move_up,-0.390,-0.390,-0.390,0.000,0.000,0.000
1605217988462076928,10.0.1.143,1120,move_up,-0.370,-0.370,-0.370,0.000,0.000,0.000
1605217990569804032,10.0.1.143,955,move_up,-0.350,-0.350,-0.350,0.000,0.000,0.000
1605217992493308928,10.0.1.143,886,move_up,-0.330,-0.330,-0.330,0.000,0.000,0.000
1605217994264643840,10.0.1.143,686,move_up,-0.310,-0.310,-0.310,0.000,0.000,0.000
1605217996364998144,10.0.1.143,760,move_up,-0.290,-0.290,-0.290,0.000,0.000,0.000
1605217998334209792,10.0.1.143,899,move_up,-0.270,-0.270,-0.270,0.000,0.000,0.000
1605218000524514816,10.0.1.143,970,move_up,-0.250,-0.250,-0.250,0.000,0.000,0.000
1605218001681058816,10.0.1.143,77,place,-0.240,-0.240,-0.240,0.000,0.000,0.000
1605218002658819072,10.0.1.143,51,place,-0.230,-0.230,-0.230,0.000,0.000,0.000
1605218004612632064,10.0.1.143,NaN,place,-0.210,-0.210,-0.210,0.000,0.000,0.000
1605218004693430784,10.0.1.143,80,place,-0.210,-0.210,-0.210,0.000,0.000,0.000
1605218005673203968,10.0.1.143,57,place,-0.200,-0.200,-0.200,0.000,0.000,0.000
1605218007618478080,10.0.1.143,NaN,place,-0.180,-0.180,-0.180,0.000,0.000,0.000
1605218007675692032,10.0.1.143,57,place,-0.180,-0.180,-0.180,0.000,0.000,0.000
1605218008666297856,10.0.1.143,45,place,-0.170,-0.170,-0.170,0.000,0.000,0.000
1605218009681613824,10.0.1.143,59,place,-0.160,-0.160,-0.160,0.000,0.000,0.000
1605218011631566080,10.0.1.143,NaN,place,-0.140,-0.140,-0.140,0.000,0.000,0.000
1605218011687571968,10.0.1.143,55,place,-0.140,-0.140,-0.140,0.000,0.000,0.000
1605218012676670976,10.0.1.143,43,place,-0.130,-0.130,-0.130,0.000,0.000,0.000
1605218013690281984,10.0.1.143,54,place,-0.120,-0.120,-0.120,0.000,0.000,0.000
1605218014696192000,10.0.1.143,52,place,-0.110,-0.110,-0.110,0.000,0.000,0.000
1605218015712363008,10.0.1.143,66,place,-0.100,-0.100,-0.100,0.000,0.000,0.000
1605218016694833920,10.0.1.143,46,place,-0.090,-0.090,-0.090,0.000,0.000,0.000
1605218018686109184,10.0.1.143,NaN,place,-0.070,-0.070,-0.070,0.000,0.000,0.000
1605218019699048960,10.0.1.143,NaN,place,-0.060,-0.060,-0.060,0.000,0.000,0.000
1605218019761709824,10.0.1.143,62,place,-0.060,-0.060,-0.060,0.000,0.000,0.000
1605218021322344960,10.0.1.143,622,move_down,-0.080,-0.080,-0.080,0.000,0.000,0.000
1605218023223272960,10.0.1.143,573,move_down,-0.100,-0.100,-0.100,0.000,0.000,0.000
1605218025153134080,10.0.1.143,838,move_down,-0.120,-0.120,-0.120,0.000,0.000,0.000
1605218027480505856,10.0.1.143,1266,move_down,-0.140,-0.140,-0.140,0.000,0.000,0.000
1605218029347294976,10.0.1.143,731,move_down,-0.160,-0.160,-0.160,0.000,0.000,0.000
1605218031923930880,10.0.1.143,1458,move_down,-0.180,-0.180,-0.180,0.000,0.000,0.000
1605218033919745024,10.0.1.143,719,move_down,-0.200,-0.200,-0.200,0.000,0.000,0.000
1605218035951751936,10.0.1.143,666,move_down,-0.220,-0.220,-0.220,0.000,0.000,0.000
1605218037545347840,10.0.1.143,562,move_down,-0.240,-0.240,-0.240,0.000,0.000,0.000
1605218039823746048,10.0.1.143,856,move_down,-0.260,-0.260,-0.260,0.000,0.000,0.000
1605218042111438080,10.0.1.143,933,move_down,-0.280,-0.280,-0.280,0.000,0.000,0.000
1605218044069327104,10.0.1.143,727,move_down,-0.300,-0.300,-0.300,0.000,0.000,0.000
1605218045851201024,10.0.1.143,682,move_down,-0.320,-0.320,-0.320,0.000,0.000,0.000
1605218047614063104,10.0.1.143,629,move_down,-0.340,-0.340,-0.340,0.000,0.000,0.000
1605218049321324032,10.0.1.143,617,move_down,-0.360,-0.360,-0.360,0.000,0.000,0.000
1605218051139286016,10.0.1.143,587,move_down,-0.380,-0.380,-0.380,0.000,0.000,0.000
1605218052977620992,10.0.1.143,753,move_down,-0.400,-0.400,-0.400,0.000,0.000,0.000
1605218054906958080,10.0.1.143,714,move_down,-0.420,-0.420,-0.420,0.000,0.000,0.000
1605218056851897088,10.0.1.143,762,move_down,-0.440,-0.440,-0.440,0.000,0.000,0.000
1605218058969505024,10.0.1.143,981,move_down,-0.460,-0.460,-0.460,0.000,0.000,0.000
1605218061100689920,10.0.1.143,931,move_down,-0.480,-0.480,-0.480,0.000,0.000,0.000
1605218062869344000,10.0.1.143,679,move_down,-0.500,-0.500,-0.500,0.000,0.000,0.000
1605218064643753984,10.0.1.143,694,move_down,-0.520,-0.520,-0.520,0.000,0.000,0.000
1605218066633837824,10.0.1.143,943,move_down,-0.540,-0.540,-0.540,0.000,0.000,0.000
1605218068716393984,10.0.1.143,886,move_down,-0.560,-0.560,-0.560,0.000,0.000,0.000
1605218070814120960,10.0.1.143,1023,move_down,-0.580,-0.580,-0.580,0.000,0.000,0.000
1605218073325918976,10.0.1.143,1116,move_down,-0.600,-0.600,-0.600,0.000,0.000,0.000
1605218075353178112,10.0.1.143,973,move_down,-0.620,-0.620,-0.620,0.000,0.000,0.000
1605218077347877120,10.0.1.143,879,move_down,-0.640,-0.640,-0.640,0.000,0.000,0.000
1605218078549168128,10.0.1.143,71,pick,-0.650,-0.650,-0.650,0.000,0.000,0.000
1605218079527599104,10.0.1.143,48,pick,-0.660,-0.660,-0.660,0.000,0.000,0.000
1605218080538584832,10.0.1.143,58,pick,-0.670,-0.670,-0.670,0.000,0.000,0.000
1605218081538567936,10.0.1.143,57,pick,-0.680,-0.680,-0.680,0.000,0.000,0.000
1605218082531014912,10.0.1.143,48,pick,-0.690,-0.690,-0.690,0.000,0.000,0.000
1605218083546044160,10.0.1.143,62,pick,-0.700,-0.700,-0.700,0.000,0.000,0.000
1605218085490693120,10.0.1.143,NaN,pick,-0.720,-0.720,-0.720,0.000,0.000,0.000
1605218085541690112,10.0.1.143,50,pick,-0.720,-0.720,-0.720,0.000,0.000,0.000
1605218086531849984,10.0.1.143,40,pick,-0.730,-0.730,-0.730,0.000,0.000,0.000
1605218087596427008,10.0.1.143,103,pick,-0.740,-0.740,-0.740,0.000,0.000,0.000
1605218088550724864,10.0.1.143,57,pick,-0.750,-0.750,-0.750,0.000,0.000,0.000
1605218089566060032,10.0.1.143,71,pick,-0.760,-0.760,-0.760,0.000,0.000,0.000
1605218090568752896,10.0.1.143,67,pick,-0.770,-0.770,-0.770,0.000,0.000,0.000
1605218091545916928,10.0.1.143,43,pick,-0.780,-0.780,-0.780,0.000,0.000,0.000
1605218092582978048,10.0.1.143,70,pick,-0.790,-0.790,-0.790,0.000,0.000,0.000
1605218093567899904,10.0.1.143,50,pick,-0.800,-0.800,-0.800,0.000,0.000,0.000
1605218094580604160,10.0.1.143,49,pick,-0.810,-0.810,-0.810,0.000,0.000,0.000
1605218095611810816,10.0.1.143,70,pick,-0.820,-0.820,-0.820,0.000,0.000,0.000
1605218096598967040,10.0.1.143,56,pick,-0.830,-0.830,-0.830,0.000,0.000,0.000
1605218098370640128,10.0.1.143,827,move_up,-0.810,-0.810,-0.810,0.000,0.000,0.000
1605218100030868992,10.0.1.143,659,move_up,-0.790,-0.790,-0.790,0.000,0.000,0.000
1605218101725984000,10.0.1.143,533,move_up,-0.770,-0.770,-0.770,0.000,0.000,0.000
1605218103573821184,10.0.1.143,806,move_up,-0.750,-0.750,-0.750,0.000,0.000,0.000
1605218105474577920,10.0.1.143,757,move_up,-0.730,-0.730,-0.730,0.000,0.000,0.000
1605218107161032960,10.0.1.143,617,move_up,-0.710,-0.710,-0.710,0.000,0.000,0.000
1605218109404589824,10.0.1.143,869,move_up,-0.690,-0.690,-0.690,0.000,0.000,0.000
1605218111488976896,10.0.1.143,938,move_up,-0.670,-0.670,-0.670,0.000,0.000,0.000
1605218113378736896,10.0.1.143,847,move_up,-0.650,-0.650,-0.650,0.000,0.000,0.000
1605218115150561024,10.0.1.143,653,move_up,-0.630,-0.630,-0.630,0.000,0.000,0.000
1605218117267671040,10.0.1.143,1060,move_up,-0.610,-0.610,-0.610,0.000,0.000,0.000
1605218119363473920,10.0.1.143,705,move_up,-0.590,-0.590,-0.590,0.000,0.000,0.000
1605218121313937920,10.0.1.143,858,move_up,-0.570,-0.570,-0.570,0.000,0.000,0.000
1605218123018373888,10.0.1.143,614,move_up,-0.550,-0.550,-0.550,0.000,0.000,0.000
1605218124694230016,10.0.1.143,507,move_up,-0.530,-0.530,-0.530,0.000,0.000,0.000
1605218126691584000,10.0.1.143,937,move_up,-0.510,-0.510,-0.510,0.000,0.000,0.000
1605218128333515008,10.0.1.143,499,move_up,-0.490,-0.490,-0.490,0.000,0.000,0.000
1605218129988240128,10.0.1.143,583,move_up,-0.470,-0.470,-0.470,0.000,0.000,0.000
1605218131828448000,10.0.1.143,549,move_up,-0.450,-0.450,-0.450,0.000,0.000,0.000
1605218133631834112,10.0.1.143,785,move_up,-0.430,-0.430,-0.430,0.000,0.000,0.000
1605218135432167936,10.0.1.143,734,move_up,-0.410,-0.410,-0.410,0.000,0.000,0.000
1605218137646477824,10.0.1.143,903,move_up,-0.390,-0.390,-0.390,0.000,0.000,0.000
1605218139594245888,10.0.1.143,824,move_up,-0.370,-0.370,-0.370,0.000,0.000,0.000
1605218141477235200,10.0.1.143,775,move_up,-0.350,-0.350,-0.350,0.000,0.000,0.000
1605218143611164928,10.0.1.143,834,move_up,-0.330,-0.330,-0.330,0.000,0.000,0.000
1605218145480196096,10.0.1.143,751,move_up,-0.310,-0.310,-0.310,0.000,0.000,0.000
1605218147340122112,10.0.1.143,701,move_up,-0.290,-0.290,-0.290,0.000,0.000,0.000
1605218149181304064,10.0.1.143,640,move_up,-0.270,-0.270,-0.270,0.000,0.000,0.000
1605218151116174080,10.0.1.143,903,move_up,-0.250,-0.250,-0.250,0.000,0.000,0.000
1605218152250923008,10.0.1.143,40,place,-0.240,-0.240,-0.240,0.000,0.000,0.000
1605218153284753152,10.0.1.143,60,place,-0.230,-0.230,-0.230,0.000,0.000,0.000
1605218154312267008,10.0.1.143,86,place,-0.220,-0.220,-0.220,0.000,0.000,0.000
1605218155284292096,10.0.1.143,55,place,-0.210,-0.210,-0.210,0.000,0.000,0.000
1605218156300307968,10.0.1.143,70,place,-0.200,-0.200,-0.200,0.000,0.000,0.000
1605218157278093056,10.0.1.143,42,place,-0.190,-0.190,-0.190,0.000,0.000,0.000
1605218158293380096,10.0.1.143,56,place,-0.180,-0.180,-0.180,0.000,0.000,0.000
1605218160239111936,10.0.1.143,NaN,place,-0.160,-0.160,-0.160,0.000,0.000,0.000
1605218160293235968,10.0.1.143,54,place,-0.160,-0.160,-0.160,0.000,0.000,0.000
1605218161365422080,10.0.1.143,122,place,-0.150,-0.150,-0.150,0.000,0.000,0.000
1605218162296396032,10.0.1.143,52,place,-0.140,-0.140,-0.140,0.000,0.000,0.000
1605218163327752192,10.0.1.143,82,place,-0.130,-0.130,-0.130,0.000,0.000,0.000
1605218164307219968,10.0.1.143,56,place,-0.120,-0.120,-0.120,0.000,0.000,0.000
1605218165320135168,10.0.1.143,68,place,-0.110,-0.110,-0.110,0.000,0.000,0.000
1605218166345193984,10.0.1.143,87,place,-0.100,-0.100,-0.100,0.000,0.000,0.000
1605218167311801856,10.0.1.143,52,place,-0.090,-0.090,-0.090,0.000,0.000,0.000
1605218168326941952,10.0.1.143,58,place,-0.080,-0.080,-0.080,0.000,0.000,0.000
1605218169310419200,10.0.1.143,38,place,-0.070,-0.070,-0.070,0.000,0.000,0.000
1605218170350800128,10.0.1.143,78,place,-0.060,-0.060,-0.060,0.000,0.000,0.000
1605218172034769152,10.0.1.143,761,move_down,-0.080,-0.080,-0.080,0.000,0.000,0.000
1605218173944411136,10.0.1.143,732,move_down,-0.100,-0.100,-0.100,0.000,0.000,0.000
1605218176447752960,10.0.1.143,768,move_down,-0.120,-0.120,-0.120,0.000,0.000,0.000
1605218178315895040,10.0.1.143,741,move_down,-0.140,-0.140,-0.140,0.000,0.000,0.000
1605218180340168960,10.0.1.143,946,move_down,-0.160,-0.160,-0.160,0.000,0.000,0.000
1605218181966188800,10.0.1.143,533,move_down,-0.180,-0.180,-0.180,0.000,0.000,0.000
1605218183811672064,10.0.1.143,684,move_down,-0.200,-0.200,-0.200,0.000,0.000,0.000
1605218185740140032,10.0.1.143,842,move_down,-0.220,-0.220,-0.220,0.000,0.000,0.000
1605218187649856000,10.0.1.143,790,move_down,-0.240,-0.240,-0.240,0.000,0.000,0.000
1605218189291460096,10.0.1.143,576,move_down,-0.260,-0.260,-0.260,0.000,0.000,0.000
1605218191438141952,10.0.1.143,967,move_down,-0.280,-0.280,-0.280,0.000,0.000,0.000
1605218193784070912,10.0.1.143,1220,move_down,-0.300,-0.300,-0.300,0.000,0.000,0.000
1605218195650998016,10.0.1.143,677,move_down,-0.320,-0.320,-0.320,0.000,0.000,0.000
1605218197385458944,10.0.1.143,536,move_down,-0.340,-0.340,-0.340,0.000,0.000,0.000
1605218199250534144,10.0.1.143,734,move_down,-0.360,-0.360,-0.360,0.000,0.000,0.000
1605218201032064000,10.0.1.143,701,move_down,-0.380,-0.380,-0.380,0.000,0.000,0.000
1605218202765221120,10.0.1.143,581,move_down,-0.400,-0.400,-0.400,0.000,0.000,0.000
1605218204831977984,10.0.1.143,740,move_down,-0.420,-0.420,-0.420,0.000,0.000,0.000
1605218206511172096,10.0.1.143,568,move_down,-0.440,-0.440,-0.440,0.000,0.000,0.000
1605218208738712064,10.0.1.143,1131,move_down,-0.460,-0.460,-0.460,0.000,0.000,0.000
1605218210982763008,10.0.1.143,854,move_down,-0.480,-0.480,-0.480,0.000,0.000,0.000
1605218213041257984,10.0.1.143,949,move_down,-0.500,-0.500,-0.500,0.000,0.000,0.000
1605218215140989184,10.0.1.143,849,move_down,-0.520,-0.520,-0.520,0.000,0.000,0.000
1605218217069705984,10.0.1.143,635,move_down,-0.540,-0.540,-0.540,0.000,0.000,0.000
1605218219022712832,10.0.1.143,735,move_down,-0.560,-0.560,-0.560,0.000,0.000,0.000
1605218220964615168,10.0.1.143,823,move_down,-0.580,-0.580,-0.580,0.000,0.000,0.000
1605218222599081984,10.0.1.143,539,move_down,-0.600,-0.600,-0.600,0.000,0.000,0.000
1605218224521206016,10.0.1.143,781,move_down,-0.620,-0.620,-0.620,0.000,0.000,0.000
1605218226921649920,10.0.1.143,1296,move_down,-0.640,-0.640,-0.640,0.000,0.000,0.000
1605218229016340992,10.0.1.143,NaN,pick,-0.660,-0.660,-0.660,0.000,0.000,0.000
1605218229103806976,10.0.1.143,87,pick,-0.660,-0.660,-0.660,0.000,0.000,0.000
1605218230081201152,10.0.1.143,63,pick,-0.670,-0.670,-0.670,0.000,0.000,0.000
1605218231081038848,10.0.1.143,62,pick,-0.680,-0.680,-0.680,0.000,0.000,0.000
1605218232097709056,10.0.1.143,77,pick,-0.690,-0.690,-0.690,0.000,0.000,0.000
1605218233066892032,10.0.1.143,41,pick,-0.700,-0.700,-0.700,0.000,0.000,0.000
1605218234083684864,10.0.1.143,56,pick,-0.710,-0.710,-0.710,0.000,0.000,0.000
1605218235068815872,10.0.1.143,41,pick,-0.720,-0.720,-0.720,0.000,0.000,0.000
1605218236094782208,10.0.1.143,64,pick,-0.730,-0.730,-0.730,0.000,0.000,0.000
1605218237087565056,10.0.1.143,53,pick,-0.740,-0.740,-0.740,0.000,0.000,0.000
1605218238093598976,10.0.1.143,58,pick,-0.750,-0.750,-0.750,0.000,0.000,0.000
1605218239101622016,10.0.1.143,64,pick,-0.760,-0.760,-0.760,0.000,0.000,0.000
1605218240121634048,10.0.1.143,67,pick,-0.770,-0.770,-0.770,0.000,0.000,0.000
1605218241116775936,10.0.1.143,48,pick,-0.780,-0.780,-0.780,0.000,0.000,0.000
1605218242156552960,10.0.1.143,82,pick,-0.790,-0.790,-0.790,0.000,0.000,0.000
1605218243143635968,10.0.1.143,59,pick,-0.800,-0.800,-0.800,0.000,0.000,0.000
1605218244129025024,10.0.1.143,43,pick,-0.810,-0.810,-0.810,0.000,0.000,0.000
1605218246095545088,10.0.1.143,NaN,pick,-0.830,-0.830,-0.830,0.000,0.000,0.000
1605218246180493056,10.0.1.143,84,pick,-0.830,-0.830,-0.830,0.000,0.000,0.000
1605218247637016064,10.0.1.143,536,move_up,-0.810,-0.810,-0.810,0.000,0.000,0.000
1605218249502615040,10.0.1.143,754,move_up,-0.790,-0.790,-0.790,0.000,0.000,0.000
1605218251367454976,10.0.1.143,785,move_up,-0.770,-0.770,-0.770,0.000,0.000,0.000
1605218253142176000,10.0.1.143,697,move_up,-0.750,-0.750,-0.750,0.000,0.000,0.000
1605218255109467136,10.0.1.143,731,move_up,-0.730,-0.730,-0.730,0.000,0.000,0.000
1605218256870460160,10.0.1.143,657,move_up,-0.710,-0.710,-0.710,0.000,0.000,0.000
1605218259721568000,10.0.1.143,1409,move_up,-0.690,-0.690,-0.690,0.000,0.000,0.000
1605218261410889984,10.0.1.143,566,move_up,-0.670,-0.670,-0.670,0.000,0.000,0.000
1605218263427336960,10.0.1.143,921,move_up,-0.650,-0.650,-0.650,0.000,0.000,0.000
1605218265060790016,10.0.1.143,543,move_up,-0.630,-0.630,-0.630,0.000,0.000,0.000
1605218266879396864,10.0.1.143,664,move_up,-0.610,-0.610,-0.610,0.000,0.000,0.000
1605218268798459904,10.0.1.143,795,move_up,-0.590,-0.590,-0.590,0.000,0.000,0.000
1605218270659235840,10.0.1.143,743,move_up,-0.570,-0.570,-0.570,0.000,0.000,0.000
1605218273049037824,10.0.1.143,1213,move_up,-0.550,-0.550,-0.550,0.000,0.000,0.000
1605218274715408128,10.0.1.143,557,move_up,-0.530,-0.530,-0.530,0.000,0.000,0.000
1605218276823283968,10.0.1.143,868,move_up,-0.510,-0.510,-0.510,0.000,0.000,0.000
1605218278614955008,10.0.1.143,629,move_up,-0.490,-0.490,-0.490,0.000,0.000,0.000
1605218280326312960,10.0.1.143,710,move_up,-0.470,-0.470,-0.470,0.000,0.000,0.000
1605218281899419136,10.0.1.143,537,move_up,-0.450,-0.450,-0.450,0.000,0.000,0.000
1605218283921741056,10.0.1.143,878,move_up,-0.430,-0.430,-0.430,0.000,0.000,0.000
1605218285497474048,10.0.1.143,542,move_up,-0.410,-0.410,-0.410,0.000,0.000,0.000
1605218287598483968,10.0.1.143,922,move_up,-0.390,-0.390,-0.390,0.000,0.000,0.000
1605218289707240960,10.0.1.143,992,move_up,-0.370,-0.370,-0.370,0.000,0.000,0.000
1605218291620995072,10.0.1.143,NaN,move_down,-0.370,-0.370,-0.370,0.000,0.000,0.000
1605218291633699840,10.0.1.143,12,move_down,-0.370,-0.370,-0.370,0.000,0.000,0.000
1605218293939540992,10.0.1.143,637,move_down,-0.390,-0.390,-0.390,0.000,0.000,0.000
1605218296292721152,10.0.1.143,968,move_down,-0.410,-0.410,-0.410,0.000,0.000,0.000
1605218298703268096,10.0.1.143,1111,move_down,-0.430,-0.430,-0.430,0.000,0.000,0.000
1605218300623724032,10.0.1.143,800,move_down,-0.450,-0.450,-0.450,0.000,0.000,0.000
1605218302576961024,10.0.1.143,873,move_down,-0.470,-0.470,-0.470,0.000,0.000,0.000
1605218304845140992,10.0.1.143,992,move_down,-0.490,-0.490,-0.490,0.000,0.000,0.000
1605218306540973056,10.0.1.143,662,move_down,-0.510,-0.510,-0.510,0.000,0.000,0.000
1605218308732070912,10.0.1.143,1144,move_down,-0.530,-0.530,-0.530,0.000,0.000,0.000
1605218310704164864,10.0.1.143,919,move_down,-0.550,-0.550,-0.550,0.000,0.000,0.000
1605218312770731008,10.0.1.143,827,move_down,-0.570,-0.570,-0.570,0.000,0.000,0.000
1605218314595074816,10.0.1.143,642,move_down,-0.590,-0.590,-0.590,0.000,0.000,0.000
1605218316186974976,10.0.1.143,559,move_down,-0.610,-0.610,-0.610,0.000,0.000,0.000
1605218318013961984,10.0.1.143,634,move_down,-0.630,-0.630,-0.630,0.000,0.000,0.000
1605218320039869952,10.0.1.143,859,move_down,-0.650,-0.650,-0.650,0.000,0.000,0.000
1605218322264380928,10.0.1.143,1129,move_down,-0.670,-0.670,-0.670,0.000,0.000,0.000
1605218324369229056,10.0.1.143,935,move_down,-0.690,-0.690,-0.690,0.000,0.000,0.000
1605218326235915008,10.0.1.143,593,move_down,-0.710,-0.710,-0.710,0.000,0.000,0.000
1605218327868168960,10.0.1.143,574,move_down,-0.730,-0.730,-0.730,0.000,0.000,0.000
1605218329827152128,10.0.1.143,825,move_down,-0.750,-0.750,-0.750,0.000,0.000,0.000
1605218331677560064,10.0.1.143,493,move_down,-0.770,-0.770,-0.770,0.000,0.000,0.000
1605218333401092096,10.0.1.143,675,move_down,-0.790,-0.790,-0.790,0.000,0.000,0.000
1605218335152206848,10.0.1.143,614,move_down,-0.810,-0.810,-0.810,0.000,0.000,0.000
1605218337183949824,10.0.1.143,976,move_down,-0.830,-0.830,-0.830,0.000,0.000,0.000
1605218339003207936,10.0.1.143,647,move_down,-0.850,-0.850,-0.850,0.000,0.000,0.000
1605218340734839040,10.0.1.143,692,move_down,-0.870,-0.870,-0.870,0.000,0.000,0.000
1605218342555706880,10.0.1.143,644,move_down,-0.890,-0.890,-0.890,0.000,0.000,0.000
1605218344591846912,10.0.1.143,958,move_down,-0.910,-0.910,-0.910,0.000,0.000,0.000
1605218346266809088,10.0.1.143,597,move_down,-0.930,-0.930,-0.930,0.000,0.000,0.000
1605218347391923968,10.0.1.143,63,pick,-0.940,-0.940,-0.940,0.000,0.000,0.000
1605218348443540992,10.0.1.143,114,pick,-0.950,-0.950,-0.950,0.000,0.000,0.000
1605218349366192128,10.0.1.143,32,pick,-0.960,-0.960,-0.960,0.000,0.000,0.000
1605218351355060992,10.0.1.143,NaN,pick,-0.980,-0.980,-0.980,0.000,0.000,0.000
1605218352358396160,10.0.1.143,NaN,pick,-0.990,-0.990,-0.990,0.000,0.000,0.000
1605218352422452992,10.0.1.143,63,pick,-0.990,-0.990,-0.990,0.000,0.000,0.000
1605218354380850176,10.0.1.143,NaN,pick,-1.010,-1.010,-1.010,0.000,0.000,0.000
1605218354438823936,10.0.1.143,57,pick,-1.010,-1.010,-1.010,0.000,0.000,0.000
1605218356386092032,10.0.1.143,NaN,pick,-1.030,-1.030,-1.030,0.000,0.000,0.000
1605218356428958976,10.0.1.143,42,pick,-1.030,-1.030,-1.030,0.000,0.000,0.000
1605218357432701184,10.0.1.143,45,pick,-1.040,-1.040,-1.040,0.000,0.000,0.000
1605218358439611904,10.0.1.143,49,pick,-1.050,-1.050,-1.050,0.000,0.000,0.000
1605218359437805056,10.0.1.143,46,pick,-1.060,-1.060,-1.060,0.000,0.000,0.000
1605218360437187840,10.0.1.143,44,pick,-1.070,-1.070,-1.070,0.000,0.000,0.000
1605218362396275968,10.0.1.143,NaN,pick,-1.090,-1.090,-1.090,0.000,0.000,0.000
1605218362448654848,10.0.1.143,52,pick,-1.090,-1.090,-1.090,0.000,0.000,0.000
1605218363467521024,10.0.1.143,69,pick,-1.100,-1.100,-1.100,0.000,0.000,0.000
1605218365418096128,10.0.1.143,NaN,pick,-1.120,-1.120,-1.120,0.000,0.000,0.000
1605218365477586944,10.0.1.143,59,pick,-1.120,-1.120,-1.120,0.000,0.000,0.000
1605218367197244928,10.0.1.143,NaN,move_down,-1.120,-1.120,-1.120,0.000,0.000,0.000
1605218367237425920,10.0.1.143,40,move_down,-1.120,-1.120,-1.120,0.000,0.000,0.000
1605218367951014912,10.0.1.143,NaN,move_down,-1.160,-1.160,-1.160,0.000,0.000,0.000
1605218368773344000,10.0.1.143,NaN,move_down,-1.180,-1.180,-1.180,0.000,0.000,0.000
1605218369073837056,10.0.1.143,NaN,move_down,-1.200,-1.200,-1.200,0.000,0.000,0.000
1605218369314531072,10.0.1.143,NaN,move_down,-1.220,-1.220,-1.220,0.000,0.000,0.000
1605218369996121856,10.0.1.143,NaN,move_down,-1.240,-1.240,-1.240,0.000,0.000,0.000
1605218370931052032,10.0.1.143,NaN,move_down,-1.260,-1.260,-1.260,0.000,0.000,0.000
1605218371425046016,10.0.1.143,NaN,move_down,-1.280,-1.280,-1.280,0.000,0.000,0.000
1605218371890140928,10.0.1.143,NaN,move_down,-1.300,-1.300,-1.300,0.000,0.000,0.000
1605218372333950976,10.0.1.143,NaN,move_down,-1.320,-1.320,-1.320,0.000,0.000,0.000
1605218372601655040,10.0.1.143,NaN,move_down,-1.340,-1.340,-1.340,0.000,0.000,0.000
1605218373583201024,10.0.1.143,NaN,move_down,-1.360,-1.360,-1.360,0.000,0.000,0.000
1605218373977390080,10.0.1.143,NaN,move_down,-1.380,-1.380,-1.380,0.000,0.000,0.000
1605218374176493056,10.0.1.143,NaN,move_down,-1.400,-1.400,-1.400,0.000,0.000,0.000
1605218374475568896,10.0.1.143,NaN,move_down,-1.420,-1.420,-1.420,0.000,0.000,0.000
1605218374657958144,10.0.1.143,NaN,move_down,-1.440,-1.440,-1.440,0.000,0.000,0.000
1605218374869594112,10.0.1.143,NaN,move_down,-1.460,-1.460,-1.460,0.000,0.000,0.000
1605218375073762048,10.0.1.143,NaN,move_down,-1.480,-1.480,-1.480,0.000,0.000,0.000
1605218375197807104,10.0.1.143,NaN,move_down,-1.500,-1.500,-1.500,0.000,0.000,0.000
1605218375515322880,10.0.1.143,NaN,move_down,-1.520,-1.520,-1.520,0.000,0.000,0.000
1605218375840903168,10.0.1.143,NaN,move_down,-1.540,-1.540,-1.540,0.000,0.000,0.000
1605218376266866944,10.0.1.143,NaN,move_down,-1.560,-1.560,-1.560,0.000,0.000,0.000
1605218376388331776,10.0.1.143,NaN,move_down,-1.580,-1.580,-1.580,0.000,0.000,0.000
1605218376826951936,10.0.1.143,NaN,move_down,-1.600,-1.600,-1.600,0.000,0.000,0.000
1605218377049772032,10.0.1.143,NaN,move_down,-1.620,-1.620,-1.620,0.000,0.000,0.000
1605218377286147072,10.0.1.143,NaN,move_down,-1.640,-1.640,-1.640,0.000,0.000,0.000
1605218377430418944,10.0.1.143,NaN,move_down,-1.660,-1.660,-1.660,0.000,0.000,0.000
1605218377636652032,10.0.1.143,NaN,move_down,-1.680,-1.680,-1.680,0.000,0.000,0.000
1605218377735454208,10.0.1.143,NaN,move_down,-1.700,-1.700,-1.700,0.000,0.000,0.000
1605218377863234048,10.0.1.143,NaN,move_down,-1.720,-1.720,-1.720,0.000,0.000,0.000
1605218378151864064,10.0.1.143,NaN,move_down,-1.740,-1.740,-1.740,0.000,0.000,0.000
1605218378320976896,10.0.1.143,NaN,move_down,-1.760,-1.760,-1.760,0.000,0.000,0.000
1605218378457440000,10.0.1.143,NaN,move_down,-1.780,-1.780,-1.780,0.000,0.000,0.000
1605218378645721856,10.0.1.143,NaN,move_down,-1.800,-1.800,-1.800,0.000,0.000,0.000
1605218378999942144,10.0.1.143,NaN,move_down,-1.820,-1.820,-1.820,0.000,0.000,0.000
1605218379225105920,10.0.1.143,NaN,move_down,-1.840,-1.840,-1.840,0.000,0.000,0.000
1605218379487860992,10.0.1.143,NaN,move_down,-1.860,-1.860,-1.860,0.000,0.000,0.000
1605218379721626112,10.0.1.143,NaN,move_down,-1.880,-1.880,-1.880,0.000,0.000,0.000
1605218380068315904,10.0.1.143,NaN,move_down,-1.900,-1.900,-1.900,0.000,0.000,0.000
1605218380377643008,10.0.1.143,NaN,move_down,-1.920,-1.920,-1.920,0.000,0.000,0.000
1605218380606771968,10.0.1.143,NaN,move_down,-1.940,-1.940,-1.940,0.000,0.000,0.000
1605218380947325952,10.0.1.143,NaN,move_down,-1.960,-1.960,-1.960,0.000,0.000,0.000
1605218381164032000,10.0.1.143,NaN,move_down,-1.980,-1.980,-1.980,0.000,0.000,0.000
1605218381867439872,10.0.1.143,NaN,move_down,-2.000,-2.000,-2.000,0.000,0.000,0.000
1605218382271332864,10.0.1.143,NaN,move_down,-2.020,-2.020,-2.020,0.000,0.000,0.000
1605218382525932032,10.0.1.143,NaN,move_down,-2.040,-2.040,-2.040,0.000,0.000,0.000
1605218382662526976,10.0.1.143,NaN,move_down,-2.060,-2.060,-2.060,0.000,0.000,0.000
1605218382758644992,10.0.1.143,NaN,move_down,-2.080,-2.080,-2.080,0.000,0.000,0.000
1605218382902516992,10.0.1.143,NaN,move_down,-2.100,-2.100,-2.100,0.000,0.000,0.000
1605218383178896896,10.0.1.143,NaN,move_down,-2.120,-2.120,-2.120,0.000,0.000,0.000
1605218383446407936,10.0.1.143,NaN,move_down,-2.140,-2.140,-2.140,0.000,0.000,0.000
1605218383649581824,10.0.1.143,NaN,move_down,-2.160,-2.160,-2.160,0.000,0.000,0.000
1605218384102093824,10.0.1.143,NaN,move_down,-2.180,-2.180,-2.180,0.000,0.000,0.000
1605218384484438784,10.0.1.143,NaN,move_down,-2.200,-2.200,-2.200,0.000,0.000,0.000
1605218384836751872,10.0.1.143,NaN,move_down,-2.220,-2.220,-2.220,0.000,0.000,0.000
1605218385023469056,10.0.1.143,NaN,move_down,-2.240,-2.240,-2.240,0.000,0.000,0.000
1605218385206224896,10.0.1.143,NaN,move_down,-2.260,-2.260,-2.260,0.000,0.000,0.000
1605218385350562048,10.0.1.143,NaN,move_down,-2.280,-2.280,-2.280,0.000,0.000,0.000
1605218385527666176,10.0.1.143,NaN,move_down,-2.300,-2.300,-2.300,0.000,0.000,0.000
1605218385789395968,10.0.1.143,NaN,move_down,-2.320,-2.320,-2.320,0.000,0.000,0.000
1605218386002242048,10.0.1.143,NaN,move_down,-2.340,-2.340,-2.340,0.000,0.000,0.000
1605218386308664064,10.0.1.143,NaN,move_down,-2.360,-2.360,-2.360,0.000,0.000,0.000
1605218386501728000,10.0.1.143,NaN,move_down,-2.380,-2.380,-2.380,0.000,0.000,0.000
1605218386730135040,10.0.1.143,NaN,move_down,-2.400,-2.400,-2.400,0.000,0.000,0.000
1605218386891768064,10.0.1.143,NaN,move_down,-2.420,-2.420,-2.420,0.000,0.000,0.000
1605218387185445120,10.0.1.143,NaN,move_down,-2.440,-2.440,-2.440,0.000,0.000,0.000
1605218387461199872,10.0.1.143,NaN,move_down,-2.460,-2.460,-2.460,0.000,0.000,0.000
1605218388293509888,10.0.1.143,NaN,move_down,-2.480,-2.480,-2.480,0.000,0.000,0.000
1605218388589708032,10.0.1.143,NaN,move_down,-2.500,-2.500,-2.500,0.000,0.000,0.000
1605218388674398976,10.0.1.143,NaN,move_down,-2.520,-2.520,-2.520,0.000,0.000,0.000
1605218388840730880,10.0.1.143,NaN,move_down,-2.540,-2.540,-2.540,0.000,0.000,0.000
1605218389043555072,10.0.1.143,NaN,move_down,-2.560,-2.560,-2.560,0.000,0.000,0.000
1605218389419183872,10.0.1.143,NaN,move_down,-2.580,-2.580,-2.580,0.000,0.000,0.000
1605218389687752960,10.0.1.143,NaN,move_down,-2.600,-2.600,-2.600,0.000,0.000,0.000
1605218389865565952,10.0.1.143,NaN,move_down,-2.620,-2.620,-2.620,0.000,0.000,0.000
1605218390023055104,10.0.1.143,NaN,move_down,-2.640,-2.640,-2.640,0.000,0.000,0.000
1605218390125741056,10.0.1.143,NaN,move_down,-2.660,-2.660,-2.660,0.000,0.000,0.000
1605218390754514944,10.0.1.143,NaN,move_down,-2.680,-2.680,-2.680,0.000,0.000,0.000
1605218391153979136,10.0.1.143,NaN,move_down,-2.700,-2.700,-2.700,0.000,0.000,0.000
1605218391626755072,10.0.1.143,NaN,move_down,-2.720,-2.720,-2.720,0.000,0.000,0.000
1605218391924856832,10.0.1.143,NaN,move_down,-2.740,-2.740,-2.740,0.000,0.000,0.000
1605218392023891968,10.0.1.143,NaN,move_down,-2.760,-2.760,-2.760,0.000,0.000,0.000
1605218392548513024,10.0.1.143,NaN,move_down,-2.780,-2.780,-2.780,0.000,0.000,0.000
1605218392687803904,10.0.1.143,NaN,move_down,-2.800,-2.800,-2.800,0.000,0.000,0.000
1605218392840307968,10.0.1.143,NaN,move_down,-2.820,-2.820,-2.820,0.000,0.000,0.000
1605218392893934080,10.0.1.143,NaN,move_down,-2.840,-2.840,-2.840,0.000,0.000,0.000
1605218393095536896,10.0.1.143,NaN,move_down,-2.860,-2.860,-2.860,0.000,0.000,0.000
1605218393280680960,10.0.1.143,NaN,move_down,-2.880,-2.880,-2.880,0.000,0.000,0.000
1605218393521719808,10.0.1.143,NaN,move_down,-2.900,-2.900,-2.900,0.000,0.000,0.000
1605218393901457920,10.0.1.143,NaN,move_down,-2.920,-2.920,-2.920,0.000,0.000,0.000
1605218394210460928,10.0.1.143,NaN,move_down,-2.940,-2.940,-2.940,0.000,0.000,0.000
1605218394423549952,10.0.1.143,NaN,move_down,-2.960,-2.960,-2.960,0.000,0.000,0.000
1605218394692960000,10.0.1.143,NaN,move_down,-2.980,-2.980,-2.980,0.000,0.000,0.000
1605218394839913984,10.0.1.143,NaN,move_down,-3.000,-3.000,-3.000,0.000,0.000,0.000
1605218394957444864,10.0.1.143,NaN,move_down,-3.020,-3.020,-3.020,0.000,0.000,0.000
1605218395105623040,10.0.1.143,NaN,move_down,-3.040,-3.040,-3.040,0.000,0.000,0.000
1605218395236412928,10.0.1.143,NaN,move_down,-3.060,-3.060,-3.060,0.000,0.000,0.000
1605218395543629824,10.0.1.143,NaN,move_down,-3.080,-3.080,-3.080,0.000,0.000,0.000
1605218395639233024,10.0.1.143,NaN,move_down,-3.100,-3.100,-3.100,0.000,0.000,0.000
1605218395797413120,10.0.1.143,NaN,move_down,-3.120,-3.120,-3.120,0.000,0.000,0.000
1605218395960669952,10.0.1.143,NaN,move_down,-3.140,-3.140,-3.140,0.000,0.000,0.000
1605218396195548928,10.0.1.143,NaN,move_down,-3.160,-3.160,-3.160,0.000,0.000,0.000
1605218396287929088,10.0.1.143,NaN,move_down,-3.180,-3.180,-3.180,0.000,0.000,0.000
1605218396409523968,10.0.1.143,NaN,move_down,-3.200,-3.200,-3.200,0.000,0.000,0.000
1605218396612539904,10.0.1.143,NaN,move_down,-3.220,-3.220,-3.220,0.000,0.000,0.000
1605218396759746048,10.0.1.143,NaN,move_down,-3.240,-3.240,-3.240,0.000,0.000,0.000
1605218396887298048,10.0.1.143,NaN,move_down,-3.260,-3.260,-3.260,0.000,0.000,0.000
1605218397060477952,10.0.1.143,NaN,move_down,-3.280,-3.280,-3.280,0.000,0.000,0.000
1605218397240174080,10.0.1.143,NaN,move_down,-3.300,-3.300,-3.300,0.000,0.000,0.000
1605218397419755008,10.0.1.143,NaN,move_down,-3.320,-3.320,-3.320,0.000,0.000,0.000
1605218397583424000,10.0.1.143,NaN,move_down,-3.340,-3.340,-3.340,0.000,0.000,0.000
1605218397726789120,10.0.1.143,NaN,move_down,-3.360,-3.360,-3.360,0.000,0.000,0.000
1605218397887758080,10.0.1.143,NaN,move_down,-3.380,-3.380,-3.380,0.000,0.000,0.000
1605218398171909120,10.0.1.143,NaN,move_down,-3.400,-3.400,-3.400,0.000,0.000,0.000
1605218398408464896,10.0.1.143,NaN,move_down,-3.420,-3.420,-3.420,0.000,0.000,0.000
1605218398681540096,10.0.1.143,NaN,move_down,-3.440,-3.440,-3.440,0.000,0.000,0.000
1605218398796027904,10.0.1.143,NaN,move_down,-3.460,-3.460,-3.460,0.000,0.000,0.000
1605218399031860992,10.0.1.143,NaN,move_down,-3.480,-3.480,-3.480,0.000,0.000,0.000
1605218399186508032,10.0.1.143,NaN,move_down,-3.500,-3.500,-3.500,0.000,0.000,0.000
1605218399595732992,10.0.1.143,NaN,move_down,-3.520,-3.520,-3.520,0.000,0.000,0.000
1605218399745836032,10.0.1.143,NaN,move_down,-3.540,-3.540,-3.540,0.000,0.000,0.000
1605218399909197056,10.0.1.143,NaN,move_down,-3.560,-3.560,-3.560,0.000,0.000,0.000
1605218400009982976,10.0.1.143,NaN,move_down,-3.580,-3.580,-3.580,0.000,0.000,0.000
1605218400457037824,10.0.1.143,NaN,move_down,-3.600,-3.600,-3.600,0.000,0.000,0.000
1605218401020229120,10.0.1.143,NaN,move_down,-3.620,-3.620,-3.620,0.000,0.000,0.000
1605218401636982016,10.0.1.143,NaN,move_down,-3.640,-3.640,-3.640,0.000,0.000,0.000
1605218402106646016,10.0.1.143,NaN,move_down,-3.660,-3.660,-3.660,0.000,0.000,0.000
1605218402527084032,10.0.1.143,NaN,move_down,-3.680,-3.680,-3.680,0.000,0.000,0.000
1605218402661693184,10.0.1.143,NaN,move_down,-3.700,-3.700,-3.700,0.000,0.000,0.000
1605218402906248192,10.0.1.143,NaN,move_down,-3.720,-3.720,-3.720,0.000,0.000,0.000
1605218403053510912,10.0.1.143,NaN,move_down,-3.740,-3.740,-3.740,0.000,0.000,0.000
1605218403210490880,10.0.1.143,NaN,move_down,-3.760,-3.760,-3.760,0.000,0.000,0.000
1605218403337580032,10.0.1.143,NaN,move_down,-3.780,-3.780,-3.780,0.000,0.000,0.000
1605218403483536128,10.0.1.143,NaN,move_down,-3.800,-3.800,-3.800,0.000,0.000,0.000
1605218403641927936,10.0.1.143,NaN,move_down,-3.820,-3.820,-3.820,0.000,0.000,0.000
1605218403941762816,10.0.1.143,NaN,move_down,-3.840,-3.840,-3.840,0.000,0.000,0.000
1605218404373678848,10.0.1.143,NaN,move_down,-3.860,-3.860,-3.860,0.000,0.000,0.000
1605218404731921920,10.0.1.143,NaN,move_down,-3.880,-3.880,-3.880,0.000,0.000,0.000
1605218405080153088,10.0.1.143,NaN,move_down,-3.900,-3.900,-3.900,0.000,0.000,0.000
1605218405319554048,10.0.1.143,NaN,move_down,-3.920,-3.920,-3.920,0.000,0.000,0.000
1605218405785018880,10.0.1.143,NaN,move_down,-3.940,-3.940,-3.940,0.000,0.000,0.000
1605218406175020032,10.0.1.143,NaN,move_down,-3.960,-3.960,-3.960,0.000,0.000,0.000
1605218406254023936,10.0.1.143,NaN,move_down,-3.980,-3.980,-3.980,0.000,0.000,0.000
1605218406537182208,10.0.1.143,NaN,move_down,-4.000,-4.000,-4.000,0.000,0.000,0.000
1605218406876252928,10.0.1.143,NaN,move_down,-4.020,-4.020,-4.020,0.000,0.000,0.000
1605218406982352128,10.0.1.143,NaN,move_down,-4.040,-4.040,-4.040,0.000,0.000,0.000
1605218407095753984,10.0.1.143,NaN,move_down,-4.060,-4.060,-4.060,0.000,0.000,0.000
1605218407216141824,10.0.1.143,NaN,move_down,-4.080,-4.080,-4.080,0.000,0.000,0.000
1605218407730073856,10.0.1.143,NaN,move_down,-4.100,-4.100,-4.100,0.000,0.000,0.000
1605218407894025984,10.0.1.143,NaN,move_down,-4.120,-4.120,-4.120,0.000,0.000,0.000
1605218408244836096,10.0.1.143,NaN,move_down,-4.140,-4.140,-4.140,0.000,0.000,0.000
1605218408459533824,10.0.1.143,NaN,move_down,-4.160,-4.160,-4.160,0.000,0.000,0.000
1605218408717959936,10.0.1.143,NaN,move_down,-4.180,-4.180,-4.180,0.000,0.000,0.000
1605218408903997952,10.0.1.143,NaN,move_down,-4.200,-4.200,-4.200,0.000,0.000,0.000
1605218409039449088,10.0.1.143,NaN,move_down,-4.220,-4.220,-4.220,0.000,0.000,0.000
1605218409321250048,10.0.1.143,NaN,move_down,-4.240,-4.240,-4.240,0.000,0.000,0.000
1605218409481410048,10.0.1.143,NaN,move_down,-4.260,-4.260,-4.260,0.000,0.000,0.000
1605218409639597056,10.0.1.143,NaN,move_down,-4.280,-4.280,-4.280,0.000,0.000,0.000
1605218409714006016,10.0.1.143,NaN,move_down,-4.300,-4.300,-4.300,0.000,0.000,0.000
1605218410214793984,10.0.1.143,NaN,move_down,-4.320,-4.320,-4.320,0.000,0.000,0.000
1605218410441214208,10.0.1.143,NaN,move_down,-4.340,-4.340,-4.340,0.000,0.000,0.000
1605218410596369152,10.0.1.143,NaN,move_down,-4.360,-4.360,-4.360,0.000,0.000,0.000
1605218410856997120,10.0.1.143,NaN,move_down,-4.380,-4.380,-4.380,0.000,0.000,0.000
1605218411043316992,10.0.1.143,NaN,move_down,-4.400,-4.400,-4.400,0.000,0.000,0.000
1605218411276087040,10.0.1.143,NaN,move_down,-4.420,-4.420,-4.420,0.000,0.000,0.000
1605218411429435136,10.0.1.143,NaN,move_down,-4.440,-4.440,-4.440,0.000,0.000,0.000
1605218411618520064,10.0.1.143,NaN,move_down,-4.460,-4.460,-4.460,0.000,0.000,0.000
1605218411728351232,10.0.1.143,NaN,move_down,-4.480,-4.480,-4.480,0.000,0.000,0.000
1605218412121787136,10.0.1.143,NaN,move_down,-4.500,-4.500,-4.500,0.000,0.000,0.000
1605218412343944192,10.0.1.143,NaN,move_down,-4.520,-4.520,-4.520,0.000,0.000,0.000
1605218412656147968,10.0.1.143,NaN,move_down,-4.540,-4.540,-4.540,0.000,0.000,0.000
1605218412929131008,10.0.1.143,NaN,move_down,-4.560,-4.560,-4.560,0.000,0.000,0.000
1605218413537779200,10.0.1.143,NaN,move_down,-4.580,-4.580,-4.580,0.000,0.000,0.000
1605218413707485952,10.0.1.143,NaN,move_down,-4.600,-4.600,-4.600,0.000,0.000,0.000
1605218414428240128,10.0.1.143,NaN,move_down,-4.620,-4.620,-4.620,0.000,0.000,0.000
1605218414595110912,10.0.1.143,NaN,move_down,-4.640,-4.640,-4.640,0.000,0.000,0.000
1605218414666234880,10.0.1.143,NaN,move_down,-4.660,-4.660,-4.660,0.000,0.000,0.000
1605218414802413824,10.0.1.143,NaN,move_down,-4.680,-4.680,-4.680,0.000,0.000,0.000
1605218414949368832,10.0.1.143,NaN,move_down,-4.700,-4.700,-4.700,0.000,0.000,0.000
1605218415286490880,10.0.1.143,NaN,move_down,-4.720,-4.720,-4.720,0.000,0.000,0.000
1605218415533225984,10.0.1.143,NaN,move_down,-4.740,-4.740,-4.740,0.000,0.000,0.000
1605218415703279104,10.0.1.143,NaN,move_down,-4.760,-4.760,-4.760,0.000,0.000,0.000
1605218415821185024,10.0.1.143,NaN,move_down,-4.780,-4.780,-4.780,0.000,0.000,0.000
1605218416018135040,10.0.1.143,NaN,move_down,-4.800,-4.800,-4.800,0.000,0.000,0.000
1605218416347346944,10.0.1.143,NaN,move_down,-4.820,-4.820,-4.820,0.000,0.000,0.000
1605218416575237120,10.0.1.143,NaN,move_down,-4.840,-4.840,-4.840,0.000,0.000,0.000
1605218416688172032,10.0.1.143,NaN,move_down,-4.860,-4.860,-4.860,0.000,0.000,0.000
1605218417020422912,10.0.1.143,NaN,move_down,-4.880,-4.880,-4.880,0.000,0.000,0.000
1605218417291884800,10.0.1.143,NaN,move_down,-4.900,-4.900,-4.900,0.000,0.000,0.000
1605218417726802176,10.0.1.143,NaN,move_down,-4.920,-4.920,-4.920,0.000,0.000,0.000
1605218418134522880,10.0.1.143,NaN,move_down,-4.940,-4.940,-4.940,0.000,0.000,0.000
1605218418297496064,10.0.1.143,NaN,move_down,-4.960,-4.960,-4.960,0.000,0.000,0.000
1605218418902380032,10.0.1.143,NaN,move_down,-4.980,-4.980,-4.980,0.000,0.000,0.000
1605218419063616000,10.0.1.143,NaN,move_down,-5.000,-5.000,-5.000,0.000,0.000,0.000
1605218419271294976,10.0.1.143,NaN,move_down,-5.020,-5.020,-5.020,0.000,0.000,0.000
1605218419428081152,10.0.1.143,NaN,move_down,-5.040,-5.040,-5.040,0.000,0.000,0.000
1605218420045886976,10.0.1.143,NaN,move_down,-5.060,-5.060,-5.060,0.000,0.000,0.000
1605218420245830144,10.0.1.143,NaN,move_down,-5.080,-5.080,-5.080,0.000,0.000,0.000
1605218420475271936,10.0.1.143,NaN,move_down,-5.100,-5.100,-5.100,0.000,0.000,0.000
1605218420701068032,10.0.1.143,NaN,move_down,-5.120,-5.120,-5.120,0.000,0.000,0.000
1605218420972211968,10.0.1.143,NaN,move_down,-5.140,-5.140,-5.140,0.000,0.000,0.000
1605218421176359936,10.0.1.143,NaN,move_down,-5.160,-5.160,-5.160,0.000,0.000,0.000
1605218421490310912,10.0.1.143,NaN,move_down,-5.180,-5.180,-5.180,0.000,0.000,0.000
1605218421943293952,10.0.1.143,NaN,move_down,-5.200,-5.200,-5.200,0.000,0.000,0.000
1605218422128281088,10.0.1.143,NaN,move_down,-5.220,-5.220,-5.220,0.000,0.000,0.000
1605218422391325952,10.0.1.143,NaN,move_down,-5.240,-5.240,-5.240,0.000,0.000,0.000
1605218422531804928,10.0.1.143,NaN,move_down,-5.260,-5.260,-5.260,0.000,0.000,0.000
1605218422635560960,10.0.1.143,NaN,move_down,-5.280,-5.280,-5.280,0.000,0.000,0.000
1605218423004907008,10.0.1.143,NaN,move_down,-5.300,-5.300,-5.300,0.000,0.000,0.000
1605218423182696960,10.0.1.143,NaN,move_down,-5.320,-5.320,-5.320,0.000,0.000,0.000
1605218423256422144,10.0.1.143,NaN,move_down,-5.340,-5.340,-5.340,0.000,0.000,0.000
1605218423421148928,10.0.1.143,NaN,move_down,-5.360,-5.360,-5.360,0.000,0.000,0.000
1605218423652990976,10.0.1.143,NaN,move_down,-5.380,-5.380,-5.380,0.000,0.000,0.000
1605218424033734144,10.0.1.143,NaN,move_down,-5.400,-5.400,-5.400,0.000,0.000,0.000
1605218424287448832,10.0.1.143,NaN,move_down,-5.420,-5.420,-5.420,0.000,0.000,0.000
1605218424655091968,10.0.1.143,NaN,move_down,-5.440,-5.440,-5.440,0.000,0.000,0.000
1605218424874306048,10.0.1.143,NaN,move_down,-5.460,-5.460,-5.460,0.000,0.000,0.000
1605218424998873088,10.0.1.143,NaN,move_down,-5.480,-5.480,-5.480,0.000,0.000,0.000
1605218425156784128,10.0.1.143,NaN,move_down,-5.500,-5.500,-5.500,0.000,0.000,0.000
1605218425247008000,10.0.1.143,NaN,move_down,-5.520,-5.520,-5.520,0.000,0.000,0.000
1605218425348604928,10.0.1.143,NaN,move_down,-5.540,-5.540,-5.540,0.000,0.000,0.000
1605218425488420864,10.0.1.143,NaN,move_down,-5.560,-5.560,-5.560,0.000,0.000,0.000
1605218425695740928,10.0.1.143,NaN,move_down,-5.580,-5.580,-5.580,0.000,0.000,0.000
1605218425858792192,10.0.1.143,NaN,move_down,-5.600,-5.600,-5.600,0.000,0.000,0.000
1605218426319691008,10.0.1.143,NaN,move_down,-5.620,-5.620,-5.620,0.000,0.000,0.000
1605218426543104768,10.0.1.143,NaN,move_down,-5.640,-5.640,-5.640,0.000,0.000,0.000
1605218426752425984,10.0.1.143,NaN,move_down,-5.660,-5.660,-5.660,0.000,0.000,0.000
1605218427024997888,10.0.1.143,NaN,move_down,-5.680,-5.680,-5.680,0.000,0.000,0.000
1605218427297945088,10.0.1.143,NaN,move_down,-5.700,-5.700,-5.700,0.000,0.000,0.000
1605218427456372992,10.0.1.143,NaN,move_down,-5.720,-5.720,-5.720,0.000,0.000,0.000
1605218427606118912,10.0.1.143,NaN,move_down,-5.740,-5.740,-5.740,0.000,0.000,0.000
1605218427847551232,10.0.1.143,NaN,move_down,-5.760,-5.760,-5.760,0.000,0.000,0.000
1605218428192201984,10.0.1.143,NaN,move_down,-5.780,-5.780,-5.780,0.000,0.000,0.000
1605218428483867904,10.0.1.143,NaN,move_down,-5.800,-5.800,-5.800,0.000,0.000,0.000
1605218428880214016,10.0.1.143,NaN,move_down,-5.820,-5.820,-5.820,0.000,0.000,0.000
1605218429120536064,10.0.1.143,NaN,move_down,-5.840,-5.840,-5.840,0.000,0.000,0.000
1605218429208600064,10.0.1.143,NaN,move_down,-5.860,-5.860,-5.860,0.000,0.000,0.000
1605218429466968064,10.0.1.143,NaN,move_down,-5.880,-5.880,-5.880,0.000,0.000,0.000
1605218429688230912,10.0.1.143,NaN,move_down,-5.900,-5.900,-5.900,0.000,0.000,0.000
1605218429916472832,10.0.1.143,NaN,move_down,-5.920,-5.920,-5.920,0.000,0.000,0.000
1605218430106334976,10.0.1.143,NaN,move_down,-5.940,-5.940,-5.940,0.000,0.000,0.000
1605218430315979008,10.0.1.143,NaN,move_down,-5.960,-5.960,-5.960,0.000,0.000,0.000
1605218430416923136,10.0.1.143,NaN,move_down,-5.980,-5.980,-5.980,0.000,0.000,0.000
1605218430665387008,10.0.1.143,NaN,move_down,-6.000,-6.000,-6.000,0.000,0.000,0.000
1605218430825115904,10.0.1.143,NaN,move_down,-6.020,-6.020,-6.020,0.000,0.000,0.000
1605218430986315008,10.0.1.143,NaN,move_down,-6.040,-6.040,-6.040,0.000,0.000,0.000
1605218431083826944,10.0.1.143,NaN,move_down,-6.060,-6.060,-6.060,0.000,0.000,0.000
1605218431287137024,10.0.1.143,NaN,move_down,-6.080,-6.080,-6.080,0.000,0.000,0.000
1605218431660517888,10.0.1.143,NaN,move_down,-6.100,-6.100,-6.100,0.000,0.000,0.000
1605218431821049088,10.0.1.143,NaN,move_down,-6.120,-6.120,-6.120,0.000,0.000,0.000
1605218432109029888,10.0.1.143,NaN,move_down,-6.140,-6.140,-6.140,0.000,0.000,0.000
1605218432320466944,10.0.1.143,NaN,move_down,-6.160,-6.160,-6.160,0.000,0.000,0.000
1605218432550231808,10.0.1.143,NaN,move_down,-6.180,-6.180,-6.180,0.000,0.000,0.000
1605218432841993984,10.0.1.143,NaN,move_down,-6.200,-6.200,-6.200,0.000,0.000,0.000
1605218432987848960,10.0.1.143,NaN,move_down,-6.220,-6.220,-6.220,0.000,0.000,0.000
1605218433088235008,10.0.1.143,NaN,move_down,-6.240,-6.240,-6.240,0.000,0.000,0.000
1605218433198795008,10.0.1.143,NaN,move_down,-6.260,-6.260,-6.260,0.000,0.000,0.000
1605218433355534080,10.0.1.143,NaN,move_down,-6.280,-6.280,-6.280,0.000,0.000,0.000
1605218433497335040,10.0.1.143,NaN,move_down,-6.300,-6.300,-6.300,0.000,0.000,0.000
1605218433654012928,10.0.1.143,NaN,move_down,-6.320,-6.320,-6.320,0.000,0.000,0.000
1605218434060326144,10.0.1.143,NaN,move_down,-6.340,-6.340,-6.340,0.000,0.000,0.000
1605218434322603008,10.0.1.143,NaN,move_down,-6.360,-6.360,-6.360,0.000,0.000,0.000
1605218434708931840,10.0.1.143,NaN,move_down,-6.380,-6.380,-6.380,0.000,0.000,0.000
1605218434898631936,10.0.1.143,NaN,move_down,-6.400,-6.400,-6.400,0.000,0.000,0.000
1605218435074457856,10.0.1.143,NaN,move_down,-6.420,-6.420,-6.420,0.000,0.000,0.000
1605218435162179072,10.0.1.143,NaN,move_down,-6.440,-6.440,-6.440,0.000,0.000,0.000
1605218435385690880,10.0.1.143,NaN,move_down,-6.460,-6.460,-6.460,0.000,0.000,0.000
1605218435509140992,10.0.1.143,NaN,move_down,-6.480,-6.480,-6.480,0.000,0.000,0.000
1605218435658576128,10.0.1.143,NaN,move_down,-6.500,-6.500,-6.500,0.000,0.000,0.000
1605218435983532032,10.0.1.143,NaN,move_down,-6.520,-6.520,-6.520,0.000,0.000,0.000
1605218436221682176,10.0.1.143,NaN,move_down,-6.540,-6.540,-6.540,0.000,0.000,0.000
1605218436749927168,10.0.1.143,NaN,move_down,-6.560,-6.560,-6.560,0.000,0.000,0.000
1605218437160598016,10.0.1.143,NaN,move_down,-6.580,-6.580,-6.580,0.000,0.000,0.000
1605218437344185088,10.0.1.143,NaN,move_down,-6.600,-6.600,-6.600,0.000,0.000,0.000
1605218437617153024,10.0.1.143,NaN,move_down,-6.620,-6.620,-6.620,0.000,0.000,0.000
1605218437832839936,10.0.1.143,NaN,move_down,-6.640,-6.640,-6.640,0.000,0.000,0.000
1605218438044209920,10.0.1.143,NaN,move_down,-6.660,-6.660,-6.660,0.000,0.000,0.000
1605218438310944000,10.0.1.143,NaN,move_down,-6.680,-6.680,-6.680,0.000,0.000,0.000
1605218438426163968,10.0.1.143,NaN,move_down,-6.700,-6.700,-6.700,0.000,0.000,0.000
1605218438607336960,10.0.1.143,NaN,move_down,-6.720,-6.720,-6.720,0.000,0.000,0.000
1605218438801286912,10.0.1.143,NaN,move_down,-6.740,-6.740,-6.740,0.000,0.000,0.000
1605218439202999040,10.0.1.143,NaN,move_down,-6.760,-6.760,-6.760,0.000,0.000,0.000
1605218439658716928,10.0.1.143,NaN,move_down,-6.780,-6.780,-6.780,0.000,0.000,0.000
1605218439999366144,10.0.1.143,NaN,move_down,-6.800,-6.800,-6.800,0.000,0.000,0.000
1605218440782509056,10.0.1.143,NaN,move_down,-6.820,-6.820,-6.820,0.000,0.000,0.000
1605218441341788928,10.0.1.143,NaN,move_down,-6.840,-6.840,-6.840,0.000,0.000,0.000
1605218441909431040,10.0.1.143,NaN,move_down,-6.860,-6.860,-6.860,0.000,0.000,0.000
1605218442203864064,10.0.1.143,NaN,move_down,-6.880,-6.880,-6.880,0.000,0.000,0.000
1605218442370487040,10.0.1.143,NaN,move_down,-6.900,-6.900,-6.900,0.000,0.000,0.000
1605218442543976960,10.0.1.143,NaN,move_down,-6.920,-6.920,-6.920,0.000,0.000,0.000
1605218442677242112,10.0.1.143,NaN,move_down,-6.940,-6.940,-6.940,0.000,0.000,0.000
1605218443051088128,10.0.1.143,NaN,move_down,-6.960,-6.960,-6.960,0.000,0.000,0.000
1605218443465665024,10.0.1.143,NaN,move_down,-6.980,-6.980,-6.980,0.000,0.000,0.000
1605218443569159936,10.0.1.143,NaN,move_down,-7.000,-7.000,-7.000,0.000,0.000,0.000
1605218444031469056,10.0.1.143,NaN,move_down,-7.020,-7.020,-7.020,0.000,0.000,0.000
1605218444254141184,10.0.1.143,NaN,move_down,-7.040,-7.040,-7.040,0.000,0.000,0.000
1605218444467021824,10.0.1.143,NaN,move_down,-7.060,-7.060,-7.060,0.000,0.000,0.000
1605218444556369152,10.0.1.143,NaN,move_down,-7.080,-7.080,-7.080,0.000,0.000,0.000
1605218444794086912,10.0.1.143,NaN,move_down,-7.100,-7.100,-7.100,0.000,0.000,0.000
1605218444873869824,10.0.1.143,NaN,move_down,-7.120,-7.120,-7.120,0.000,0.000,0.000
1605218445103526144,10.0.1.143,NaN,move_down,-7.140,-7.140,-7.140,0.000,0.000,0.000
1605218445321882880,10.0.1.143,NaN,move_down,-7.160,-7.160,-7.160,0.000,0.000,0.000
1605218445492290048,10.0.1.143,NaN,move_down,-7.180,-7.180,-7.180,0.000,0.000,0.000
1605218445801078016,10.0.1.143,NaN,move_down,-7.200,-7.200,-7.200,0.000,0.000,0.000
1605218446147171072,10.0.1.143,NaN,move_down,-7.220,-7.220,-7.220,0.000,0.000,0.000
1605218446313526016,10.0.1.143,NaN,move_down,-7.240,-7.240,-7.240,0.000,0.000,0.000
1605218446553132032,10.0.1.143,NaN,move_down,-7.260,-7.260,-7.260,0.000,0.000,0.000
1605218446841764096,10.0.1.143,NaN,move_down,-7.280,-7.280,-7.280,0.000,0.000,0.000
1605218447009795072,10.0.1.143,NaN,move_down,-7.300,-7.300,-7.300,0.000,0.000,0.000
1605218447089632000,10.0.1.143,NaN,move_down,-7.320,-7.320,-7.320,0.000,0.000,0.000
1605218447244261120,10.0.1.143,NaN,move_down,-7.340,-7.340,-7.340,0.000,0.000,0.000
1605218447393469952,10.0.1.143,NaN,move_down,-7.360,-7.360,-7.360,0.000,0.000,0.000
1605218447570185984,10.0.1.143,NaN,move_down,-7.380,-7.380,-7.380,0.000,0.000,0.000
1605218447846981888,10.0.1.143,NaN,move_down,-7.400,-7.400,-7.400,0.000,0.000,0.000
1605218448186212096,10.0.1.143,NaN,move_down,-7.420,-7.420,-7.420,0.000,0.000,0.000
1605218448264257792,10.0.1.143,NaN,move_down,-7.440,-7.440,-7.440,0.000,0.000,0.000
1605218448563937792,10.0.1.143,NaN,move_down,-7.460,-7.460,-7.460,0.000,0.000,0.000
1605218448786138112,10.0.1.143,NaN,move_down,-7.480,-7.480,-7.480,0.000,0.000,0.000
1605218448892960000,10.0.1.143,NaN,move_down,-7.500,-7.500,-7.500,0.000,0.000,0.000
1605218449036499968,10.0.1.143,NaN,move_down,-7.520,-7.520,-7.520,0.000,0.000,0.000
1605218449178873088,10.0.1.143,NaN,move_down,-7.540,-7.540,-7.540,0.000,0.000,0.000
1605218449256194048,10.0.1.143,NaN,move_down,-7.560,-7.560,-7.560,0.000,0.000,0.000
1605218449468894976,10.0.1.143,NaN,move_down,-7.580,-7.580,-7.580,0.000,0.000,0.000
1605218449715742976,10.0.1.143,NaN,move_down,-7.600,-7.600,-7.600,0.000,0.000,0.000
1605218449910195200,10.0.1.143,NaN,move_down,-7.620,-7.620,-7.620,0.000,0.000,0.000
1605218450407051008,10.0.1.143,NaN,move_down,-7.640,-7.640,-7.640,0.000,0.000,0.000
1605218450742008064,10.0.1.143,NaN,move_down,-7.660,-7.660,-7.660,0.000,0.000,0.000
1605218450939136000,10.0.1.143,NaN,move_down,-7.680,-7.680,-7.680,0.000,0.000,0.000
1605218451194216960,10.0.1.143,NaN,move_down,-7.700,-7.700,-7.700,0.000,0.000,0.000
1605218451344158976,10.0.1.143,NaN,move_down,-7.720,-7.720,-7.720,0.000,0.000,0.000
1605218451473818112,10.0.1.143,NaN,move_down,-7.740,-7.740,-7.740,0.000,0.000,0.000
1605218451684158976,10.0.1.143,NaN,move_down,-7.760,-7.760,-7.760,0.000,0.000,0.000
1605218451849299968,10.0.1.143,NaN,move_down,-7.780,-7.780,-7.780,0.000,0.000,0.000
1605218452102031872,10.0.1.143,NaN,move_down,-7.800,-7.800,-7.800,0.000,0.000,0.000
1605218452547102976,10.0.1.143,NaN,move_down,-7.820,-7.820,-7.820,0.000,0.000,0.000
1605218452729601024,10.0.1.143,NaN,move_down,-7.840,-7.840,-7.840,0.000,0.000,0.000
1605218453055005184,10.0.1.143,NaN,move_down,-7.860,-7.860,-7.860,0.000,0.000,0.000
1605218453235760896,10.0.1.143,NaN,move_down,-7.880,-7.880,-7.880,0.000,0.000,0.000
1605218453676073984,10.0.1.143,NaN,move_down,-7.900,-7.900,-7.900,0.000,0.000,0.000
1605218454207379968,10.0.1.143,NaN,move_down,-7.920,-7.920,-7.920,0.000,0.000,0.000
1605218454460908032,10.0.1.143,NaN,move_down,-7.940,-7.940,-7.940,0.000,0.000,0.000
1605218454651723008,10.0.1.143,NaN,move_down,-7.960,-7.960,-7.960,0.000,0.000,0.000
1605218454851023872,10.0.1.143,NaN,move_down,-7.980,-7.980,-7.980,0.000,0.000,0.000
1605218455108418048,10.0.1.143,NaN,move_down,-8.000,-8.000,-8.000,0.000,0.000,0.000
1605218455441128960,10.0.1.143,NaN,move_down,-8.020,-8.020,-8.020,0.000,0.000,0.000
1605218455572448000,10.0.1.143,NaN,move_down,-8.040,-8.040,-8.040,0.000,0.000,0.000
1605218455649504000,10.0.1.143,NaN,move_down,-8.060,-8.060,-8.060,0.000,0.000,0.000
1605218455964265216,10.0.1.143,NaN,move_down,-8.080,-8.080,-8.080,0.000,0.000,0.000
1605218456137003008,10.0.1.143,NaN,move_down,-8.100,-8.100,-8.100,0.000,0.000,0.000
1605218456293142016,10.0.1.143,NaN,move_down,-8.120,-8.120,-8.120,0.000,0.000,0.000
1605218456592233984,10.0.1.143,NaN,move_down,-8.140,-8.140,-8.140,0.000,0.000,0.000
1605218456926976000,10.0.1.143,NaN,move_down,-8.160,-8.160,-8.160,0.000,0.000,0.000
1605218457078053120,10.0.1.143,NaN,move_down,-8.180,-8.180,-8.180,0.000,0.000,0.000
1605218457361300992,10.0.1.143,NaN,move_down,-8.200,-8.200,-8.200,0.000,0.000,0.000
1605218457616257024,10.0.1.143,NaN,move_down,-8.220,-8.220,-8.220,0.000,0.000,0.000
1605218457864305920,10.0.1.143,NaN,move_down,-8.240,-8.240,-8.240,0.000,0.000,0.000
1605218458087589120,10.0.1.143,NaN,move_down,-8.260,-8.260,-8.260,0.000,0.000,0.000
1605218458285118976,10.0.1.143,NaN,move_down,-8.280,-8.280,-8.280,0.000,0.000,0.000
1605218458612289792,10.0.1.143,NaN,move_down,-8.300,-8.300,-8.300,0.000,0.000,0.000
1605218458726994944,10.0.1.143,NaN,move_down,-8.320,-8.320,-8.320,0.000,0.000,0.000
1605218458964950016,10.0.1.143,NaN,move_down,-8.340,-8.340,-8.340,0.000,0.000,0.000
1605218459168334080,10.0.1.143,NaN,move_down,-8.360,-8.360,-8.360,0.000,0.000,0.000
1605218459496289024,10.0.1.143,NaN,move_down,-8.380,-8.380,-8.380,0.000,0.000,0.000
1605218459643395840,10.0.1.143,NaN,move_down,-8.400,-8.400,-8.400,0.000,0.000,0.000
1605218459754290176,10.0.1.143,NaN,move_down,-8.420,-8.420,-8.420,0.000,0.000,0.000
1605218459879748096,10.0.1.143,NaN,move_down,-8.440,-8.440,-8.440,0.000,0.000,0.000
1605218460225959168,10.0.1.143,NaN,move_down,-8.460,-8.460,-8.460,0.000,0.000,0.000
1605218460415702016,10.0.1.143,NaN,move_down,-8.480,-8.480,-8.480,0.000,0.000,0.000
1605218460832654080,10.0.1.143,NaN,move_down,-8.500,-8.500,-8.500,0.000,0.000,0.000
1605218461050755072,10.0.1.143,NaN,move_down,-8.520,-8.520,-8.520,0.000,0.000,0.000
1605218461346147072,10.0.1.143,NaN,move_down,-8.540,-8.540,-8.540,0.000,0.000,0.000
1605218461460068864,10.0.1.143,NaN,move_down,-8.560,-8.560,-8.560,0.000,0.000,0.000
1605218461601208832,10.0.1.143,NaN,move_down,-8.580,-8.580,-8.580,0.000,0.000,0.000
1605218461751779072,10.0.1.143,NaN,move_down,-8.600,-8.600,-8.600,0.000,0.000,0.000
1605218461905908992,10.0.1.143,NaN,move_down,-8.620,-8.620,-8.620,0.000,0.000,0.000
1605218461979911168,10.0.1.143,NaN,move_down,-8.640,-8.640,-8.640,0.000,0.000,0.000
1605218462235284992,10.0.1.143,NaN,move_down,-8.660,-8.660,-8.660,0.000,0.000,0.000
1605218462384051200,10.0.1.143,NaN,move_down,-8.680,-8.680,-8.680,0.000,0.000,0.000
1605218462471951104,10.0.1.143,NaN,move_down,-8.700,-8.700,-8.700,0.000,0.000,0.000
1605218462621272064,10.0.1.143,NaN,move_down,-8.720,-8.720,-8.720,0.000,0.000,0.000
1605218463013330944,10.0.1.143,NaN,move_down,-8.740,-8.740,-8.740,0.000,0.000,0.000
1605218463267855872,10.0.1.143,NaN,move_down,-8.760,-8.760,-8.760,0.000,0.000,0.000
1605218463451833856,10.0.1.143,NaN,move_down,-8.780,-8.780,-8.780,0.000,0.000,0.000
1605218463953875968,10.0.1.143,NaN,move_down,-8.800,-8.800,-8.800,0.000,0.000,0.000
1605218464166033920,10.0.1.143,NaN,move_down,-8.820,-8.820,-8.820,0.000,0.000,0.000
1605218464469175040,10.0.1.143,NaN,move_down,-8.840,-8.840,-8.840,0.000,0.000,0.000
1605218464704019968,10.0.1.143,NaN,move_down,-8.860,-8.860,-8.860,0.000,0.000,0.000
1605218465117351936,10.0.1.143,NaN,move_down,-8.880,-8.880,-8.880,0.000,0.000,0.000
1605218465342961152,10.0.1.143,NaN,move_down,-8.900,-8.900,-8.900,0.000,0.000,0.000
1605218465659549952,10.0.1.143,NaN,move_down,-8.920,-8.920,-8.920,0.000,0.000,0.000
1605218466191080192,10.0.1.143,NaN,move_down,-8.940,-8.940,-8.940,0.000,0.000,0.000
1605218466284347904,10.0.1.143,NaN,move_down,-8.960,-8.960,-8.960,0.000,0.000,0.000
1605218466518768128,10.0.1.143,NaN,move_down,-8.980,-8.980,-8.980,0.000,0.000,0.000
1605218466836792832,10.0.1.143,NaN,move_down,-9.000,-9.000,-9.000,0.000,0.000,0.000
1605218467157170944,10.0.1.143,NaN,move_down,-9.020,-9.020,-9.020,0.000,0.000,0.000
1605218467314524928,10.0.1.143,NaN,move_down,-9.040,-9.040,-9.040,0.000,0.000,0.000
1605218467475931904,10.0.1.143,NaN,move_down,-9.060,-9.060,-9.060,0.000,0.000,0.000
1605218467920155904,10.0.1.143,NaN,move_down,-9.080,-9.080,-9.080,0.000,0.000,0.000
1605218468243779072,10.0.1.143,NaN,move_down,-9.100,-9.100,-9.100,0.000,0.000,0.000
1605218468491433984,10.0.1.143,NaN,move_down,-9.120,-9.120,-9.120,0.000,0.000,0.000
1605218468843334912,10.0.1.143,NaN,move_down,-9.140,-9.140,-9.140,0.000,0.000,0.000
1605218469029968896,10.0.1.143,NaN,move_down,-9.160,-9.160,-9.160,0.000,0.000,0.000
1605218469231315968,10.0.1.143,NaN,move_down,-9.180,-9.180,-9.180,0.000,0.000,0.000
1605218469512648960,10.0.1.143,NaN,move_down,-9.200,-9.200,-9.200,0.000,0.000,0.000
1605218469889056000,10.0.1.143,NaN,move_down,-9.220,-9.220,-9.220,0.000,0.000,0.000
1605218470192340992,10.0.1.143,NaN,move_down,-9.240,-9.240,-9.240,0.000,0.000,0.000
1605218470412045056,10.0.1.143,NaN,move_down,-9.260,-9.260,-9.260,0.000,0.000,0.000
1605218470661690880,10.0.1.143,NaN,move_down,-9.280,-9.280,-9.280,0.000,0.000,0.000
1605218470849064192,10.0.1.143,NaN,move_down,-9.300,-9.300,-9.300,0.000,0.000,0.000
1605218471329731072,10.0.1.143,NaN,move_down,-9.320,-9.320,-9.320,0.000,0.000,0.000
1605218471752923136,10.0.1.143,NaN,move_down,-9.340,-9.340,-9.340,0.000,0.000,0.000
1605218472087762944,10.0.1.143,NaN,move_down,-9.360,-9.360,-9.360,0.000,0.000,0.000
1605218472243980032,10.0.1.143,NaN,move_down,-9.380,-9.380,-9.380,0.000,0.000,0.000
1605218472403677952,10.0.1.143,NaN,move_down,-9.400,-9.400,-9.400,0.000,0.000,0.000
1605218472584343040,10.0.1.143,NaN,move_down,-9.420,-9.420,-9.420,0.000,0.000,0.000
1605218472739974144,10.0.1.143,NaN,move_down,-9.440,-9.440,-9.440,0.000,0.000,0.000
1605218472883151104,10.0.1.143,NaN,move_down,-9.460,-9.460,-9.460,0.000,0.000,0.000
1605218473134246144,10.0.1.143,NaN,move_down,-9.480,-9.480,-9.480,0.000,0.000,0.000
1605218473317620992,10.0.1.143,NaN,move_down,-9.500,-9.500,-9.500,0.000,0.000,0.000
1605218473416652800,10.0.1.143,NaN,move_down,-9.520,-9.520,-9.520,0.000,0.000,0.000
1605218473624086016,10.0.1.143,NaN,move_down,-9.540,-9.540,-9.540,0.000,0.000,0.000
1605218473707296000,10.0.1.143,NaN,move_down,-9.560,-9.560,-9.560,0.000,0.000,0.000
1605218474018980864,10.0.1.143,NaN,move_down,-9.580,-9.580,-9.580,0.000,0.000,0.000
1605218474285059840,10.0.1.143,NaN,move_down,-9.600,-9.600,-9.600,0.000,0.000,0.000
1605218474516165888,10.0.1.143,NaN,move_down,-9.620,-9.620,-9.620,0.000,0.000,0.000
1605218474720556032,10.0.1.143,NaN,move_down,-9.640,-9.640,-9.640,0.000,0.000,0.000
1605218475495260928,10.0.1.143,NaN,move_down,-9.660,-9.660,-9.660,0.000,0.000,0.000
1605218475864259840,10.0.1.143,NaN,move_down,-9.680,-9.680,-9.680,0.000,0.000,0.000
1605218476302473984,10.0.1.143,NaN,move_down,-9.700,-9.700,-9.700,0.000,0.000,0.000
1605218476461043968,10.0.1.143,NaN,move_down,-9.720,-9.720,-9.720,0.000,0.000,0.000
1605218476879729920,10.0.1.143,NaN,move_down,-9.740,-9.740,-9.740,0.000,0.000,0.000
1605218477164130048,10.0.1.143,NaN,move_down,-9.760,-9.760,-9.760,0.000,0.000,0.000
1605218477899110912,10.0.1.143,NaN,move_down,-9.780,-9.780,-9.780,0.000,0.000,0.000
1605218478126472960,10.0.1.143,NaN,move_down,-9.800,-9.800,-9.800,0.000,0.000,0.000
1605218478412859904,10.0.1.143,NaN,move_down,-9.820,-9.820,-9.820,0.000,0.000,0.000
1605218478593730816,10.0.1.143,NaN,move_down,-9.840,-9.840,-9.840,0.000,0.000,0.000
1605218478816850944,10.0.1.143,NaN,move_down,-9.860,-9.860,-9.860,0.000,0.000,0.000
1605218478995791872,10.0.1.143,NaN,move_down,-9.880,-9.880,-9.880,0.000,0.000,0.000
1605218479246806016,10.0.1.143,NaN,move_down,-9.900,-9.900,-9.900,0.000,0.000,0.000
1605218479609106944,10.0.1.143,NaN,move_down,-9.920,-9.920,-9.920,0.000,0.000,0.000
1605218479799959808,10.0.1.143,NaN,move_down,-9.940,-9.940,-9.940,0.000,0.000,0.000
1605218480718652928,10.0.1.143,NaN,move_down,-9.960,-9.960,-9.960,0.000,0.000,0.000
1605218480926014976,10.0.1.143,NaN,move_down,-9.980,-9.980,-9.980,0.000,0.000,0.000
1605218481127314944,10.0.1.143,NaN,move_down,-10.000,-10.000,-10.000,0.000,0.000,0.000
1605218481311572992,10.0.1.143,NaN,move_down,-10.020,-10.020,-10.020,0.000,0.000,0.000
1605218481446676992,10.0.1.143,NaN,move_down,-10.040,-10.040,-10.040,0.000,0.000,0.000
1605218481655028224,10.0.1.143,NaN,move_down,-10.060,-10.060,-10.060,0.000,0.000,0.000
1605218481813120000,10.0.1.143,NaN,move_down,-10.080,-10.080,-10.080,0.000,0.000,0.000
1605218482108596992,10.0.1.143,NaN,move_down,-10.100,-10.100,-10.100,0.000,0.000,0.000
1605218482332637952,10.0.1.143,NaN,move_down,-10.120,-10.120,-10.120,0.000,0.000,0.000
1605218482623763968,10.0.1.143,NaN,move_down,-10.140,-10.140,-10.140,0.000,0.000,0.000
1605218482807619072,10.0.1.143,NaN,move_down,-10.160,-10.160,-10.160,0.000,0.000,0.000
1605218483239568896,10.0.1.143,NaN,move_down,-10.180,-10.180,-10.180,0.000,0.000,0.000
1605218483454541824,10.0.1.143,NaN,move_down,-10.200,-10.200,-10.200,0.000,0.000,0.000
1605218483676675072,10.0.1.143,NaN,move_down,-10.220,-10.220,-10.220,0.000,0.000,0.000
1605218483854740992,10.0.1.143,NaN,move_down,-10.240,-10.240,-10.240,0.000,0.000,0.000
1605218484143089152,10.0.1.143,NaN,move_down,-10.260,-10.260,-10.260,0.000,0.000,0.000
1605218484219335936,10.0.1.143,NaN,move_down,-10.280,-10.280,-10.280,0.000,0.000,0.000
1605218484444062976,10.0.1.143,NaN,move_down,-10.300,-10.300,-10.300,0.000,0.000,0.000
1605218484747181824,10.0.1.143,NaN,move_down,-10.320,-10.320,-10.320,0.000,0.000,0.000
1605218484862152960,10.0.1.143,NaN,move_down,-10.340,-10.340,-10.340,0.000,0.000,0.000
1605218484971116032,10.0.1.143,NaN,move_down,-10.360,-10.360,-10.360,0.000,0.000,0.000
1605218485661679104,10.0.1.143,NaN,move_down,-10.380,-10.380,-10.380,0.000,0.000,0.000
1605218485825270016,10.0.1.143,NaN,move_down,-10.400,-10.400,-10.400,0.000,0.000,0.000
1605218486532192000,10.0.1.143,NaN,move_down,-10.420,-10.420,-10.420,0.000,0.000,0.000
1605218486987095040,10.0.1.143,NaN,move_down,-10.440,-10.440,-10.440,0.000,0.000,0.000
1605218487147779072,10.0.1.143,NaN,move_down,-10.460,-10.460,-10.460,0.000,0.000,0.000
1605218487311758080,10.0.1.143,NaN,move_down,-10.480,-10.480,-10.480,0.000,0.000,0.000
1605218487408145920,10.0.1.143,NaN,move_down,-10.500,-10.500,-10.500,0.000,0.000,0.000
1605218487528968192,10.0.1.143,NaN,move_down,-10.520,-10.520,-10.520,0.000,0.000,0.000
1605218487898808064,10.0.1.143,NaN,move_down,-10.540,-10.540,-10.540,0.000,0.000,0.000
1605218488121007872,10.0.1.143,NaN,move_down,-10.560,-10.560,-10.560,0.000,0.000,0.000
1605218488584932096,10.0.1.143,NaN,move_down,-10.580,-10.580,-10.580,0.000,0.000,0.000
1605218489056894976,10.0.1.143,NaN,move_down,-10.600,-10.600,-10.600,0.000,0.000,0.000
1605218489320104960,10.0.1.143,NaN,move_down,-10.620,-10.620,-10.620,0.000,0.000,0.000
1605218489542587136,10.0.1.143,NaN,move_down,-10.640,-10.640,-10.640,0.000,0.000,0.000
1605218489975194880,10.0.1.143,NaN,move_down,-10.660,-10.660,-10.660,0.000,0.000,0.000
1605218490197850880,10.0.1.143,NaN,move_down,-10.680,-10.680,-10.680,0.000,0.000,0.000
1605218490406994944,10.0.1.143,NaN,move_down,-10.700,-10.700,-10.700,0.000,0.000,0.000
1605218490757842944,10.0.1.143,NaN,move_down,-10.720,-10.720,-10.720,0.000,0.000,0.000
1605218491064291840,10.0.1.143,NaN,move_down,-10.740,-10.740,-10.740,0.000,0.000,0.000
1605218491423762176,10.0.1.143,NaN,move_down,-10.760,-10.760,-10.760,0.000,0.000,0.000
1605218491840951040,10.0.1.143,NaN,move_down,-10.780,-10.780,-10.780,0.000,0.000,0.000
1605218492072974080,10.0.1.143,NaN,move_down,-10.800,-10.800,-10.800,0.000,0.000,0.000
1605218492353414912,10.0.1.143,NaN,move_down,-10.820,-10.820,-10.820,0.000,0.000,0.000
1605218492543570944,10.0.1.143,NaN,move_down,-10.840,-10.840,-10.840,0.000,0.000,0.000
1605218492915427840,10.0.1.143,NaN,move_down,-10.860,-10.860,-10.860,0.000,0.000,0.000
1605218493200057856,10.0.1.143,NaN,move_down,-10.880,-10.880,-10.880,0.000,0.000,0.000
1605218493610182912,10.0.1.143,NaN,move_down,-10.900,-10.900,-10.900,0.000,0.000,0.000
1605218493838639104,10.0.1.143,NaN,move_down,-10.920,-10.920,-10.920,0.000,0.000,0.000
1605218494021657088,10.0.1.143,NaN,move_down,-10.940,-10.940,-10.940,0.000,0.000,0.000
1605218494279678976,10.0.1.143,NaN,move_down,-10.960,-10.960,-10.960,0.000,0.000,0.000
