milangroshev/digital-twin-scalability/logs/run5-3600s-nan/10.0.1.131.csv
timestamp,node,latency,action,joint_1,joint_2,joint_3,joint_4,joint_5,joint_6
1605202530046072064,10.0.1.131,NaN,,0.000,0.000,0.000,0.000,0.000,0.000
1605202532063640064,10.0.1.131,2017,,0.000,0.000,0.000,0.000,0.000,0.000
1605202534712815872,10.0.1.131,661,move_down,-0.020,-0.020,-0.020,0.000,0.000,0.000
1605202536204284928,10.0.1.131,400,move_down,-0.040,-0.040,-0.040,0.000,0.000,0.000
1605202537696404992,10.0.1.131,402,move_down,-0.060,-0.060,-0.060,0.000,0.000,0.000
1605202539174578944,10.0.1.131,403,move_down,-0.080,-0.080,-0.080,0.000,0.000,0.000
1605202540674736128,10.0.1.131,390,move_down,-0.100,-0.100,-0.100,0.000,0.000,0.000
1605202542126543104,10.0.1.131,378,move_down,-0.120,-0.120,-0.120,0.000,0.000,0.000
1605202543554029056,10.0.1.131,372,move_down,-0.140,-0.140,-0.140,0.000,0.000,0.000
1605202545016556032,10.0.1.131,389,move_down,-0.160,-0.160,-0.160,0.000,0.000,0.000
1605202546518192128,10.0.1.131,438,move_down,-0.180,-0.180,-0.180,0.000,0.000,0.000
1605202548018508032,10.0.1.131,434,move_down,-0.200,-0.200,-0.200,0.000,0.000,0.000
1605202549541784064,10.0.1.131,439,move_down,-0.220,-0.220,-0.220,0.000,0.000,0.000
1605202551065309952,10.0.1.131,475,move_down,-0.240,-0.240,-0.240,0.000,0.000,0.000
1605202552552858112,10.0.1.131,449,move_down,-0.260,-0.260,-0.260,0.000,0.000,0.000
1605202554079853056,10.0.1.131,454,move_down,-0.280,-0.280,-0.280,0.000,0.000,0.000
1605202555572762112,10.0.1.131,414,move_down,-0.300,-0.300,-0.300,0.000,0.000,0.000
1605202557059314944,10.0.1.131,423,move_down,-0.320,-0.320,-0.320,0.000,0.000,0.000
1605202558553689856,10.0.1.131,410,move_down,-0.340,-0.340,-0.340,0.000,0.000,0.000
1605202560039148032,10.0.1.131,415,move_down,-0.360,-0.360,-0.360,0.000,0.000,0.000
1605202561563623936,10.0.1.131,474,move_down,-0.380,-0.380,-0.380,0.000,0.000,0.000
1605202563071044864,10.0.1.131,431,move_down,-0.400,-0.400,-0.400,0.000,0.000,0.000
1605202564572137216,10.0.1.131,431,move_down,-0.420,-0.420,-0.420,0.000,0.000,0.000
1605202566043335936,10.0.1.131,414,move_down,-0.440,-0.440,-0.440,0.000,0.000,0.000
1605202567488470016,10.0.1.131,399,move_down,-0.460,-0.460,-0.460,0.000,0.000,0.000
1605202569052450816,10.0.1.131,427,move_down,-0.480,-0.480,-0.480,0.000,0.000,0.000
1605202570611408896,10.0.1.131,441,move_down,-0.500,-0.500,-0.500,0.000,0.000,0.000
1605202572154819840,10.0.1.131,466,move_down,-0.520,-0.520,-0.520,0.000,0.000,0.000
1605202573658051072,10.0.1.131,434,move_down,-0.540,-0.540,-0.540,0.000,0.000,0.000
1605202575103032064,10.0.1.131,384,move_down,-0.560,-0.560,-0.560,0.000,0.000,0.000
1605202576543921920,10.0.1.131,389,move_down,-0.580,-0.580,-0.580,0.000,0.000,0.000
1605202577682514944,10.0.1.131,50,pick,-0.590,-0.590,-0.590,0.000,0.000,0.000
1605202578681703936,10.0.1.131,48,pick,-0.600,-0.600,-0.600,0.000,0.000,0.000
1605202579685158912,10.0.1.131,48,pick,-0.610,-0.610,-0.610,0.000,0.000,0.000
1605202580683247104,10.0.1.131,45,pick,-0.620,-0.620,-0.620,0.000,0.000,0.000
1605202581691922944,10.0.1.131,43,pick,-0.630,-0.630,-0.630,0.000,0.000,0.000
1605202582684685056,10.0.1.131,35,pick,-0.640,-0.640,-0.640,0.000,0.000,0.000
1605202583691571968,10.0.1.131,41,pick,-0.650,-0.650,-0.650,0.000,0.000,0.000
1605202584714554112,10.0.1.131,62,pick,-0.660,-0.660,-0.660,0.000,0.000,0.000
1605202585706016000,10.0.1.131,52,pick,-0.670,-0.670,-0.670,0.000,0.000,0.000
1605202586737117952,10.0.1.131,82,pick,-0.680,-0.680,-0.680,0.000,0.000,0.000
1605202587722352128,10.0.1.131,66,pick,-0.690,-0.690,-0.690,0.000,0.000,0.000
1605202588707482112,10.0.1.131,50,pick,-0.700,-0.700,-0.700,0.000,0.000,0.000
1605202589701088000,10.0.1.131,43,pick,-0.710,-0.710,-0.710,0.000,0.000,0.000
1605202590722605824,10.0.1.131,64,pick,-0.720,-0.720,-0.720,0.000,0.000,0.000
1605202591701968896,10.0.1.131,42,pick,-0.730,-0.730,-0.730,0.000,0.000,0.000
1605202592706259968,10.0.1.131,46,pick,-0.740,-0.740,-0.740,0.000,0.000,0.000
1605202593701714944,10.0.1.131,40,pick,-0.750,-0.750,-0.750,0.000,0.000,0.000
1605202594712434176,10.0.1.131,48,pick,-0.760,-0.760,-0.760,0.000,0.000,0.000
1605202595701711872,10.0.1.131,36,pick,-0.770,-0.770,-0.770,0.000,0.000,0.000
1605202597073949184,10.0.1.131,408,move_up,-0.750,-0.750,-0.750,0.000,0.000,0.000
1605202598520144896,10.0.1.131,372,move_up,-0.730,-0.730,-0.730,0.000,0.000,0.000
1605202600000003072,10.0.1.131,406,move_up,-0.710,-0.710,-0.710,0.000,0.000,0.000
1605202601467566848,10.0.1.131,395,move_up,-0.690,-0.690,-0.690,0.000,0.000,0.000
1605202602910970880,10.0.1.131,393,move_up,-0.670,-0.670,-0.670,0.000,0.000,0.000
1605202604399065856,10.0.1.131,431,move_up,-0.650,-0.650,-0.650,0.000,0.000,0.000
1605202605969885952,10.0.1.131,471,move_up,-0.630,-0.630,-0.630,0.000,0.000,0.000
1605202607524593152,10.0.1.131,419,move_up,-0.610,-0.610,-0.610,0.000,0.000,0.000
1605202609022155008,10.0.1.131,426,move_up,-0.590,-0.590,-0.590,0.000,0.000,0.000
1605202610537487872,10.0.1.131,441,move_up,-0.570,-0.570,-0.570,0.000,0.000,0.000
1605202612093216000,10.0.1.131,463,move_up,-0.550,-0.550,-0.550,0.000,0.000,0.000
1605202613616185856,10.0.1.131,447,move_up,-0.530,-0.530,-0.530,0.000,0.000,0.000
1605202615110445056,10.0.1.131,426,move_up,-0.510,-0.510,-0.510,0.000,0.000,0.000
1605202616612741120,10.0.1.131,429,move_up,-0.490,-0.490,-0.490,0.000,0.000,0.000
1605202618107923968,10.0.1.131,428,move_up,-0.470,-0.470,-0.470,0.000,0.000,0.000
1605202619623399936,10.0.1.131,426,move_up,-0.450,-0.450,-0.450,0.000,0.000,0.000
1605202621130183936,10.0.1.131,407,move_up,-0.430,-0.430,-0.430,0.000,0.000,0.000
1605202622573997056,10.0.1.131,417,move_up,-0.410,-0.410,-0.410,0.000,0.000,0.000
1605202624062676992,10.0.1.131,420,move_up,-0.390,-0.390,-0.390,0.000,0.000,0.000
1605202625525543936,10.0.1.131,414,move_up,-0.370,-0.370,-0.370,0.000,0.000,0.000
1605202627032143104,10.0.1.131,380,move_up,-0.350,-0.350,-0.350,0.000,0.000,0.000
1605202628490685952,10.0.1.131,407,move_up,-0.330,-0.330,-0.330,0.000,0.000,0.000
1605202630019213056,10.0.1.131,443,move_up,-0.310,-0.310,-0.310,0.000,0.000,0.000
1605202631542614016,10.0.1.131,468,move_up,-0.290,-0.290,-0.290,0.000,0.000,0.000
1605202633053519872,10.0.1.131,453,move_up,-0.270,-0.270,-0.270,0.000,0.000,0.000
1605202634553720832,10.0.1.131,424,move_up,-0.250,-0.250,-0.250,0.000,0.000,0.000
1605202636024410880,10.0.1.131,396,move_up,-0.230,-0.230,-0.230,0.000,0.000,0.000
1605202637536495872,10.0.1.131,427,move_up,-0.210,-0.210,-0.210,0.000,0.000,0.000
1605202639038475008,10.0.1.131,426,move_up,-0.190,-0.190,-0.190,0.000,0.000,0.000
1605202640204158976,10.0.1.131,56,place,-0.180,-0.180,-0.180,0.000,0.000,0.000
1605202641195764992,10.0.1.131,46,place,-0.170,-0.170,-0.170,0.000,0.000,0.000
1605202642195640064,10.0.1.131,44,place,-0.160,-0.160,-0.160,0.000,0.000,0.000
1605202643194930944,10.0.1.131,42,place,-0.150,-0.150,-0.150,0.000,0.000,0.000
1605202644193957120,10.0.1.131,40,place,-0.140,-0.140,-0.140,0.000,0.000,0.000
1605202645189452032,10.0.1.131,34,place,-0.130,-0.130,-0.130,0.000,0.000,0.000
1605202646189014784,10.0.1.131,32,place,-0.120,-0.120,-0.120,0.000,0.000,0.000
1605202647219320064,10.0.1.131,61,place,-0.110,-0.110,-0.110,0.000,0.000,0.000
1605202648210358016,10.0.1.131,50,place,-0.100,-0.100,-0.100,0.000,0.000,0.000
1605202649214638848,10.0.1.131,53,place,-0.090,-0.090,-0.090,0.000,0.000,0.000
1605202650218252032,10.0.1.131,55,place,-0.080,-0.080,-0.080,0.000,0.000,0.000
1605202651213201920,10.0.1.131,49,place,-0.070,-0.070,-0.070,0.000,0.000,0.000
1605202652213255936,10.0.1.131,47,place,-0.060,-0.060,-0.060,0.000,0.000,0.000
1605202653212608000,10.0.1.131,46,place,-0.050,-0.050,-0.050,0.000,0.000,0.000
1605202654219471104,10.0.1.131,51,place,-0.040,-0.040,-0.040,0.000,0.000,0.000
1605202655218960896,10.0.1.131,50,place,-0.030,-0.030,-0.030,0.000,0.000,0.000
1605202656215747072,10.0.1.131,45,place,-0.020,-0.020,-0.020,0.000,0.000,0.000
1605202657212482816,10.0.1.131,41,place,-0.010,-0.010,-0.010,0.000,0.000,0.000
1605202658213472000,10.0.1.131,40,place,0.000,0.000,0.000,0.000,0.000,0.000
1605202659571855104,10.0.1.131,397,move_down,-0.020,-0.020,-0.020,0.000,0.000,0.000
1605202661067450880,10.0.1.131,409,move_down,-0.040,-0.040,-0.040,0.000,0.000,0.000
1605202662536390144,10.0.1.131,396,move_down,-0.060,-0.060,-0.060,0.000,0.000,0.000
1605202664001488896,10.0.1.131,424,move_down,-0.080,-0.080,-0.080,0.000,0.000,0.000
1605202665519315968,10.0.1.131,425,move_down,-0.100,-0.100,-0.100,0.000,0.000,0.000
1605202667016216064,10.0.1.131,411,move_down,-0.120,-0.120,-0.120,0.000,0.000,0.000
1605202668515783168,10.0.1.131,413,move_down,-0.140,-0.140,-0.140,0.000,0.000,0.000
1605202669969106944,10.0.1.131,410,move_down,-0.160,-0.160,-0.160,0.000,0.000,0.000
1605202671456020992,10.0.1.131,385,move_down,-0.180,-0.180,-0.180,0.000,0.000,0.000
1605202673017805056,10.0.1.131,468,move_down,-0.200,-0.200,-0.200,0.000,0.000,0.000
1605202674476955904,10.0.1.131,408,move_down,-0.220,-0.220,-0.220,0.000,0.000,0.000
1605202675945049088,10.0.1.131,433,move_down,-0.240,-0.240,-0.240,0.000,0.000,0.000
1605202677445126912,10.0.1.131,428,move_down,-0.260,-0.260,-0.260,0.000,0.000,0.000
1605202678909768192,10.0.1.131,432,move_down,-0.280,-0.280,-0.280,0.000,0.000,0.000
1605202680396370944,10.0.1.131,403,move_down,-0.300,-0.300,-0.300,0.000,0.000,0.000
1605202681977051904,10.0.1.131,461,move_down,-0.320,-0.320,-0.320,0.000,0.000,0.000
1605202683477380096,10.0.1.131,418,move_down,-0.340,-0.340,-0.340,0.000,0.000,0.000
1605202684934722048,10.0.1.131,385,move_down,-0.360,-0.360,-0.360,0.000,0.000,0.000
1605202686401526016,10.0.1.131,395,move_down,-0.380,-0.380,-0.380,0.000,0.000,0.000
1605202687913168896,10.0.1.131,456,move_down,-0.400,-0.400,-0.400,0.000,0.000,0.000
1605202689411554048,10.0.1.131,450,move_down,-0.420,-0.420,-0.420,0.000,0.000,0.000
1605202690995063040,10.0.1.131,490,move_down,-0.440,-0.440,-0.440,0.000,0.000,0.000
1605202692598712064,10.0.1.131,480,move_down,-0.460,-0.460,-0.460,0.000,0.000,0.000
1605202694060001024,10.0.1.131,425,move_down,-0.480,-0.480,-0.480,0.000,0.000,0.000
1605202695569997056,10.0.1.131,414,move_down,-0.500,-0.500,-0.500,0.000,0.000,0.000
1605202697052000000,10.0.1.131,410,move_down,-0.520,-0.520,-0.520,0.000,0.000,0.000
1605202698555994880,10.0.1.131,436,move_down,-0.540,-0.540,-0.540,0.000,0.000,0.000
1605202700109700864,10.0.1.131,436,move_down,-0.560,-0.560,-0.560,0.000,0.000,0.000
1605202701620274944,10.0.1.131,436,move_down,-0.580,-0.580,-0.580,0.000,0.000,0.000
1605202702717839104,10.0.1.131,54,pick,-0.590,-0.590,-0.590,0.000,0.000,0.000
1605202703711981056,10.0.1.131,42,pick,-0.600,-0.600,-0.600,0.000,0.000,0.000
1605202704710563840,10.0.1.131,39,pick,-0.610,-0.610,-0.610,0.000,0.000,0.000
1605202705725153024,10.0.1.131,52,pick,-0.620,-0.620,-0.620,0.000,0.000,0.000
1605202706713838080,10.0.1.131,39,pick,-0.630,-0.630,-0.630,0.000,0.000,0.000
1605202707737335040,10.0.1.131,61,pick,-0.640,-0.640,-0.640,0.000,0.000,0.000
1605202708724918016,10.0.1.131,47,pick,-0.650,-0.650,-0.650,0.000,0.000,0.000
1605202709725494016,10.0.1.131,47,pick,-0.660,-0.660,-0.660,0.000,0.000,0.000
1605202710737766912,10.0.1.131,58,pick,-0.670,-0.670,-0.670,0.000,0.000,0.000
1605202711727864064,10.0.1.131,46,pick,-0.680,-0.680,-0.680,0.000,0.000,0.000
1605202712726697984,10.0.1.131,44,pick,-0.690,-0.690,-0.690,0.000,0.000,0.000
1605202713725899008,10.0.1.131,38,pick,-0.700,-0.700,-0.700,0.000,0.000,0.000
1605202715689984000,10.0.1.131,NaN,pick,-0.720,-0.720,-0.720,0.000,0.000,0.000
1605202715725876992,10.0.1.131,35,pick,-0.720,-0.720,-0.720,0.000,0.000,0.000
1605202716723040000,10.0.1.131,31,pick,-0.730,-0.730,-0.730,0.000,0.000,0.000
1605202717730650880,10.0.1.131,37,pick,-0.740,-0.740,-0.740,0.000,0.000,0.000
1605202718737459968,10.0.1.131,43,pick,-0.750,-0.750,-0.750,0.000,0.000,0.000
1605202719751169792,10.0.1.131,52,pick,-0.760,-0.760,-0.760,0.000,0.000,0.000
1605202720747969024,10.0.1.131,48,pick,-0.770,-0.770,-0.770,0.000,0.000,0.000
1605202722123044096,10.0.1.131,422,move_up,-0.750,-0.750,-0.750,0.000,0.000,0.000
1605202723603662848,10.0.1.131,399,move_up,-0.730,-0.730,-0.730,0.000,0.000,0.000
1605202725164332032,10.0.1.131,464,move_up,-0.710,-0.710,-0.710,0.000,0.000,0.000
1605202726656191232,10.0.1.131,447,move_up,-0.690,-0.690,-0.690,0.000,0.000,0.000
1605202728152694016,10.0.1.131,433,move_up,-0.670,-0.670,-0.670,0.000,0.000,0.000
1605202729633888000,10.0.1.131,434,move_up,-0.650,-0.650,-0.650,0.000,0.000,0.000
1605202731104281856,10.0.1.131,411,move_up,-0.630,-0.630,-0.630,0.000,0.000,0.000
1605202732524288000,10.0.1.131,368,move_up,-0.610,-0.610,-0.610,0.000,0.000,0.000
1605202733983910912,10.0.1.131,403,move_up,-0.590,-0.590,-0.590,0.000,0.000,0.000
1605202735495440896,10.0.1.131,422,move_up,-0.570,-0.570,-0.570,0.000,0.000,0.000
1605202736924793088,10.0.1.131,390,move_up,-0.550,-0.550,-0.550,0.000,0.000,0.000
1605202738390889984,10.0.1.131,433,move_up,-0.530,-0.530,-0.530,0.000,0.000,0.000
1605202739918093824,10.0.1.131,447,move_up,-0.510,-0.510,-0.510,0.000,0.000,0.000
1605202741425808896,10.0.1.131,415,move_up,-0.490,-0.490,-0.490,0.000,0.000,0.000
1605202742963565056,10.0.1.131,461,move_up,-0.470,-0.470,-0.470,0.000,0.000,0.000
1605202744504604928,10.0.1.131,490,move_up,-0.450,-0.450,-0.450,0.000,0.000,0.000
1605202746071398912,10.0.1.131,481,move_up,-0.430,-0.430,-0.430,0.000,0.000,0.000
1605202747576934144,10.0.1.131,413,move_up,-0.410,-0.410,-0.410,0.000,0.000,0.000
1605202749056616960,10.0.1.131,407,move_up,-0.390,-0.390,-0.390,0.000,0.000,0.000
1605202750572916992,10.0.1.131,406,move_up,-0.370,-0.370,-0.370,0.000,0.000,0.000
1605202752053364992,10.0.1.131,407,move_up,-0.350,-0.350,-0.350,0.000,0.000,0.000
1605202753578216960,10.0.1.131,442,move_up,-0.330,-0.330,-0.330,0.000,0.000,0.000
1605202755014368000,10.0.1.131,427,move_up,-0.310,-0.310,-0.310,0.000,0.000,0.000
1605202756573328128,10.0.1.131,453,move_up,-0.290,-0.290,-0.290,0.000,0.000,0.000
1605202758053608960,10.0.1.131,400,move_up,-0.270,-0.270,-0.270,0.000,0.000,0.000
1605202759543672064,10.0.1.131,410,move_up,-0.250,-0.250,-0.250,0.000,0.000,0.000
1605202761055613952,10.0.1.131,387,move_up,-0.230,-0.230,-0.230,0.000,0.000,0.000
1605202762593519872,10.0.1.131,418,move_up,-0.210,-0.210,-0.210,0.000,0.000,0.000
1605202764045736192,10.0.1.131,384,move_up,-0.190,-0.190,-0.190,0.000,0.000,0.000
1605202765163290880,10.0.1.131,50,place,-0.180,-0.180,-0.180,0.000,0.000,0.000
1605202766164284928,10.0.1.131,50,place,-0.170,-0.170,-0.170,0.000,0.000,0.000
1605202767163998976,10.0.1.131,48,place,-0.160,-0.160,-0.160,0.000,0.000,0.000
1605202769118385920,10.0.1.131,NaN,place,-0.140,-0.140,-0.140,0.000,0.000,0.000
1605202769163877888,10.0.1.131,45,place,-0.140,-0.140,-0.140,0.000,0.000,0.000
1605202770168929024,10.0.1.131,48,place,-0.130,-0.130,-0.130,0.000,0.000,0.000
1605202771165682176,10.0.1.131,44,place,-0.120,-0.120,-0.120,0.000,0.000,0.000
1605202772165419008,10.0.1.131,42,place,-0.110,-0.110,-0.110,0.000,0.000,0.000
1605202773169435136,10.0.1.131,45,place,-0.100,-0.100,-0.100,0.000,0.000,0.000
1605202774163286016,10.0.1.131,38,place,-0.090,-0.090,-0.090,0.000,0.000,0.000
1605202775166862080,10.0.1.131,40,place,-0.080,-0.080,-0.080,0.000,0.000,0.000
1605202776166747136,10.0.1.131,35,place,-0.070,-0.070,-0.070,0.000,0.000,0.000
1605202777184591104,10.0.1.131,51,place,-0.060,-0.060,-0.060,0.000,0.000,0.000
1605202778188126208,10.0.1.131,54,place,-0.050,-0.050,-0.050,0.000,0.000,0.000
1605202779185693952,10.0.1.131,49,place,-0.040,-0.040,-0.040,0.000,0.000,0.000
1605202780184338176,10.0.1.131,47,place,-0.030,-0.030,-0.030,0.000,0.000,0.000
1605202781184601088,10.0.1.131,46,place,-0.020,-0.020,-0.020,0.000,0.000,0.000
1605202782183819008,10.0.1.131,44,place,-0.010,-0.010,-0.010,0.000,0.000,0.000
1605202783187742976,10.0.1.131,46,place,0.000,0.000,0.000,0.000,0.000,0.000
1605202784572827136,10.0.1.131,430,move_down,-0.020,-0.020,-0.020,0.000,0.000,0.000
1605202786003456000,10.0.1.131,377,move_down,-0.040,-0.040,-0.040,0.000,0.000,0.000
1605202787463785984,10.0.1.131,420,move_down,-0.060,-0.060,-0.060,0.000,0.000,0.000
1605202788943396096,10.0.1.131,410,move_down,-0.080,-0.080,-0.080,0.000,0.000,0.000
1605202790449094912,10.0.1.131,425,move_down,-0.100,-0.100,-0.100,0.000,0.000,0.000
1605202791943494144,10.0.1.131,439,move_down,-0.120,-0.120,-0.120,0.000,0.000,0.000
1605202793353383168,10.0.1.131,377,move_down,-0.140,-0.140,-0.140,0.000,0.000,0.000
1605202794813673984,10.0.1.131,425,move_down,-0.160,-0.160,-0.160,0.000,0.000,0.000
1605202796318429952,10.0.1.131,417,move_down,-0.180,-0.180,-0.180,0.000,0.000,0.000
1605202797815789824,10.0.1.131,413,move_down,-0.200,-0.200,-0.200,0.000,0.000,0.000
1605202799281039872,10.0.1.131,396,move_down,-0.220,-0.220,-0.220,0.000,0.000,0.000
1605202800736617984,10.0.1.131,402,move_down,-0.240,-0.240,-0.240,0.000,0.000,0.000
1605202802143937024,10.0.1.131,384,move_down,-0.260,-0.260,-0.260,0.000,0.000,0.000
1605202803654748928,10.0.1.131,419,move_down,-0.280,-0.280,-0.280,0.000,0.000,0.000
1605202805143471104,10.0.1.131,412,move_down,-0.300,-0.300,-0.300,0.000,0.000,0.000
1605202806642631168,10.0.1.131,432,move_down,-0.320,-0.320,-0.320,0.000,0.000,0.000
1605202808098953984,10.0.1.131,413,move_down,-0.340,-0.340,-0.340,0.000,0.000,0.000
1605202809604118016,10.0.1.131,422,move_down,-0.360,-0.360,-0.360,0.000,0.000,0.000
1605202811155931904,10.0.1.131,493,move_down,-0.380,-0.380,-0.380,0.000,0.000,0.000
1605202812776922880,10.0.1.131,495,move_down,-0.400,-0.400,-0.400,0.000,0.000,0.000
1605202814215187968,10.0.1.131,382,move_down,-0.420,-0.420,-0.420,0.000,0.000,0.000
1605202815726270976,10.0.1.131,410,move_down,-0.440,-0.440,-0.440,0.000,0.000,0.000
1605202817196809984,10.0.1.131,413,move_down,-0.460,-0.460,-0.460,0.000,0.000,0.000
1605202818674258944,10.0.1.131,455,move_down,-0.480,-0.480,-0.480,0.000,0.000,0.000
1605202820154590976,10.0.1.131,405,move_down,-0.500,-0.500,-0.500,0.000,0.000,0.000
1605202821665579008,10.0.1.131,435,move_down,-0.520,-0.520,-0.520,0.000,0.000,0.000
1605202823153780992,10.0.1.131,423,move_down,-0.540,-0.540,-0.540,0.000,0.000,0.000
1605202824643544064,10.0.1.131,420,move_down,-0.560,-0.560,-0.560,0.000,0.000,0.000
1605202826166198016,10.0.1.131,431,move_down,-0.580,-0.580,-0.580,0.000,0.000,0.000
1605202827309436160,10.0.1.131,47,pick,-0.590,-0.590,-0.590,0.000,0.000,0.000
1605202828311655168,10.0.1.131,47,pick,-0.600,-0.600,-0.600,0.000,0.000,0.000
1605202829304603136,10.0.1.131,39,pick,-0.610,-0.610,-0.610,0.000,0.000,0.000
1605202830310396928,10.0.1.131,43,pick,-0.620,-0.620,-0.620,0.000,0.000,0.000
1605202831317033984,10.0.1.131,49,pick,-0.630,-0.630,-0.630,0.000,0.000,0.000
1605202832307241984,10.0.1.131,38,pick,-0.640,-0.640,-0.640,0.000,0.000,0.000
1605202833313033984,10.0.1.131,42,pick,-0.650,-0.650,-0.650,0.000,0.000,0.000
1605202834310094080,10.0.1.131,38,pick,-0.660,-0.660,-0.660,0.000,0.000,0.000
1605202835308226048,10.0.1.131,35,pick,-0.670,-0.670,-0.670,0.000,0.000,0.000
1605202836307284224,10.0.1.131,32,pick,-0.680,-0.680,-0.680,0.000,0.000,0.000
1605202837331476992,10.0.1.131,55,pick,-0.690,-0.690,-0.690,0.000,0.000,0.000
1605202838326287872,10.0.1.131,49,pick,-0.700,-0.700,-0.700,0.000,0.000,0.000
1605202839325097984,10.0.1.131,46,pick,-0.710,-0.710,-0.710,0.000,0.000,0.000
1605202840330598144,10.0.1.131,49,pick,-0.720,-0.720,-0.720,0.000,0.000,0.000
1605202841326409216,10.0.1.131,44,pick,-0.730,-0.730,-0.730,0.000,0.000,0.000
1605202842333337088,10.0.1.131,49,pick,-0.740,-0.740,-0.740,0.000,0.000,0.000
1605202844286534144,10.0.1.131,NaN,pick,-0.760,-0.760,-0.760,0.000,0.000,0.000
1605202844327478016,10.0.1.131,40,pick,-0.760,-0.760,-0.760,0.000,0.000,0.000
1605202845328059904,10.0.1.131,40,pick,-0.770,-0.770,-0.770,0.000,0.000,0.000
1605202846726746112,10.0.1.131,437,move_up,-0.750,-0.750,-0.750,0.000,0.000,0.000
1605202848221571840,10.0.1.131,403,move_up,-0.730,-0.730,-0.730,0.000,0.000,0.000
1605202849756710912,10.0.1.131,417,move_up,-0.710,-0.710,-0.710,0.000,0.000,0.000
1605202851205836032,10.0.1.131,383,move_up,-0.690,-0.690,-0.690,0.000,0.000,0.000
1605202852755484160,10.0.1.131,453,move_up,-0.670,-0.670,-0.670,0.000,0.000,0.000
1605202854244008192,10.0.1.131,449,move_up,-0.650,-0.650,-0.650,0.000,0.000,0.000
1605202855766429952,10.0.1.131,472,move_up,-0.630,-0.630,-0.630,0.000,0.000,0.000
1605202857262573056,10.0.1.131,391,move_up,-0.610,-0.610,-0.610,0.000,0.000,0.000
1605202858741149952,10.0.1.131,389,move_up,-0.590,-0.590,-0.590,0.000,0.000,0.000
1605202860213655040,10.0.1.131,386,move_up,-0.570,-0.570,-0.570,0.000,0.000,0.000
1605202861699367168,10.0.1.131,389,move_up,-0.550,-0.550,-0.550,0.000,0.000,0.000
1605202863220877056,10.0.1.131,431,move_up,-0.530,-0.530,-0.530,0.000,0.000,0.000
1605202864695371008,10.0.1.131,388,move_up,-0.510,-0.510,-0.510,0.000,0.000,0.000
1605202866140719872,10.0.1.131,404,move_up,-0.490,-0.490,-0.490,0.000,0.000,0.000
1605202867623928064,10.0.1.131,428,move_up,-0.470,-0.470,-0.470,0.000,0.000,0.000
1605202869091404800,10.0.1.131,398,move_up,-0.450,-0.450,-0.450,0.000,0.000,0.000
1605202870586745856,10.0.1.131,403,move_up,-0.430,-0.430,-0.430,0.000,0.000,0.000
1605202872024691968,10.0.1.131,398,move_up,-0.410,-0.410,-0.410,0.000,0.000,0.000
1605202873508790016,10.0.1.131,389,move_up,-0.390,-0.390,-0.390,0.000,0.000,0.000
1605202874952378880,10.0.1.131,412,move_up,-0.370,-0.370,-0.370,0.000,0.000,0.000
1605202876535821824,10.0.1.131,505,move_up,-0.350,-0.350,-0.350,0.000,0.000,0.000
1605202878038995968,10.0.1.131,445,move_up,-0.330,-0.330,-0.330,0.000,0.000,0.000
1605202879554110976,10.0.1.131,448,move_up,-0.310,-0.310,-0.310,0.000,0.000,0.000
1605202881042681856,10.0.1.131,408,move_up,-0.290,-0.290,-0.290,0.000,0.000,0.000
1605202882548294912,10.0.1.131,421,move_up,-0.270,-0.270,-0.270,0.000,0.000,0.000
1605202884067277824,10.0.1.131,439,move_up,-0.250,-0.250,-0.250,0.000,0.000,0.000
1605202885497899008,10.0.1.131,431,move_up,-0.230,-0.230,-0.230,0.000,0.000,0.000
1605202887060182016,10.0.1.131,478,move_up,-0.210,-0.210,-0.210,0.000,0.000,0.000
1605202888518279168,10.0.1.131,421,move_up,-0.190,-0.190,-0.190,0.000,0.000,0.000
1605202889630338816,10.0.1.131,47,place,-0.180,-0.180,-0.180,0.000,0.000,0.000
1605202890630210048,10.0.1.131,45,place,-0.170,-0.170,-0.170,0.000,0.000,0.000
1605202891630916096,10.0.1.131,45,place,-0.160,-0.160,-0.160,0.000,0.000,0.000
1605202892634637056,10.0.1.131,47,place,-0.150,-0.150,-0.150,0.000,0.000,0.000
1605202893636915968,10.0.1.131,49,place,-0.140,-0.140,-0.140,0.000,0.000,0.000
1605202894635688192,10.0.1.131,46,place,-0.130,-0.130,-0.130,0.000,0.000,0.000
1605202895634836992,10.0.1.131,44,place,-0.120,-0.120,-0.120,0.000,0.000,0.000
1605202896644082944,10.0.1.131,49,place,-0.110,-0.110,-0.110,0.000,0.000,0.000
1605202897635165952,10.0.1.131,39,place,-0.100,-0.100,-0.100,0.000,0.000,0.000
1605202898635979008,10.0.1.131,39,place,-0.090,-0.090,-0.090,0.000,0.000,0.000
1605202899637413888,10.0.1.131,38,place,-0.080,-0.080,-0.080,0.000,0.000,0.000
1605202900642959104,10.0.1.131,42,place,-0.070,-0.070,-0.070,0.000,0.000,0.000
1605202901644141056,10.0.1.131,42,place,-0.060,-0.060,-0.060,0.000,0.000,0.000
1605202902662861056,10.0.1.131,60,place,-0.050,-0.050,-0.050,0.000,0.000,0.000
1605202903641506816,10.0.1.131,37,place,-0.040,-0.040,-0.040,0.000,0.000,0.000
1605202904654059776,10.0.1.131,48,place,-0.030,-0.030,-0.030,0.000,0.000,0.000
1605202905655405056,10.0.1.131,48,place,-0.020,-0.020,-0.020,0.000,0.000,0.000
1605202906654419968,10.0.1.131,41,place,-0.010,-0.010,-0.010,0.000,0.000,0.000
1605202907654444032,10.0.1.131,40,place,0.000,0.000,0.000,0.000,0.000,0.000
1605202909104417024,10.0.1.131,484,move_down,-0.020,-0.020,-0.020,0.000,0.000,0.000
1605202910568073984,10.0.1.131,429,move_down,-0.040,-0.040,-0.040,0.000,0.000,0.000
1605202912021116928,10.0.1.131,422,move_down,-0.060,-0.060,-0.060,0.000,0.000,0.000
1605202913520606976,10.0.1.131,424,move_down,-0.080,-0.080,-0.080,0.000,0.000,0.000
1605202915062227968,10.0.1.131,439,move_down,-0.100,-0.100,-0.100,0.000,0.000,0.000
1605202916506871040,10.0.1.131,387,move_down,-0.120,-0.120,-0.120,0.000,0.000,0.000
1605202918103554048,10.0.1.131,493,move_down,-0.140,-0.140,-0.140,0.000,0.000,0.000
1605202919663845888,10.0.1.131,481,move_down,-0.160,-0.160,-0.160,0.000,0.000,0.000
1605202921153795840,10.0.1.131,410,move_down,-0.180,-0.180,-0.180,0.000,0.000,0.000
1605202922731976960,10.0.1.131,461,move_down,-0.200,-0.200,-0.200,0.000,0.000,0.000
1605202924215467008,10.0.1.131,424,move_down,-0.220,-0.220,-0.220,0.000,0.000,0.000
1605202925740182016,10.0.1.131,430,move_down,-0.240,-0.240,-0.240,0.000,0.000,0.000
1605202927228674816,10.0.1.131,430,move_down,-0.260,-0.260,-0.260,0.000,0.000,0.000
1605202928755223040,10.0.1.131,456,move_down,-0.280,-0.280,-0.280,0.000,0.000,0.000
1605202930279145984,10.0.1.131,456,move_down,-0.300,-0.300,-0.300,0.000,0.000,0.000
1605202931784322048,10.0.1.131,444,move_down,-0.320,-0.320,-0.320,0.000,0.000,0.000
1605202933252552960,10.0.1.131,408,move_down,-0.340,-0.340,-0.340,0.000,0.000,0.000
1605202934765053952,10.0.1.131,423,move_down,-0.360,-0.360,-0.360,0.000,0.000,0.000
1605202936267236864,10.0.1.131,417,move_down,-0.380,-0.380,-0.380,0.000,0.000,0.000
1605202937785323008,10.0.1.131,433,move_down,-0.400,-0.400,-0.400,0.000,0.000,0.000
1605202939304899072,10.0.1.131,433,move_down,-0.420,-0.420,-0.420,0.000,0.000,0.000
1605202940804487936,10.0.1.131,387,move_down,-0.440,-0.440,-0.440,0.000,0.000,0.000
1605202942298841088,10.0.1.131,438,move_down,-0.460,-0.460,-0.460,0.000,0.000,0.000
1605202943781742080,10.0.1.131,426,move_down,-0.480,-0.480,-0.480,0.000,0.000,0.000
1605202945340576000,10.0.1.131,461,move_down,-0.500,-0.500,-0.500,0.000,0.000,0.000
1605202946867389952,10.0.1.131,441,move_down,-0.520,-0.520,-0.520,0.000,0.000,0.000
1605202948368856064,10.0.1.131,451,move_down,-0.540,-0.540,-0.540,0.000,0.000,0.000
1605202949856372224,10.0.1.131,429,move_down,-0.560,-0.560,-0.560,0.000,0.000,0.000
1605202951365203968,10.0.1.131,419,move_down,-0.580,-0.580,-0.580,0.000,0.000,0.000
1605202952520059136,10.0.1.131,51,pick,-0.590,-0.590,-0.590,0.000,0.000,0.000
1605202953523705856,10.0.1.131,53,pick,-0.600,-0.600,-0.600,0.000,0.000,0.000
1605202954530761984,10.0.1.131,59,pick,-0.610,-0.610,-0.610,0.000,0.000,0.000
1605202955512846848,10.0.1.131,40,pick,-0.620,-0.620,-0.620,0.000,0.000,0.000
1605202956528443136,10.0.1.131,54,pick,-0.630,-0.630,-0.630,0.000,0.000,0.000
1605202957513884160,10.0.1.131,37,pick,-0.640,-0.640,-0.640,0.000,0.000,0.000
1605202958520350976,10.0.1.131,43,pick,-0.650,-0.650,-0.650,0.000,0.000,0.000
1605202959539040000,10.0.1.131,60,pick,-0.660,-0.660,-0.660,0.000,0.000,0.000
1605202960518896128,10.0.1.131,38,pick,-0.670,-0.670,-0.670,0.000,0.000,0.000
1605202961521146112,10.0.1.131,39,pick,-0.680,-0.680,-0.680,0.000,0.000,0.000
1605202962539910912,10.0.1.131,54,pick,-0.690,-0.690,-0.690,0.000,0.000,0.000
1605202963523302144,10.0.1.131,36,pick,-0.700,-0.700,-0.700,0.000,0.000,0.000
1605202964568470016,10.0.1.131,71,pick,-0.710,-0.710,-0.710,0.000,0.000,0.000
1605202965538294016,10.0.1.131,38,pick,-0.720,-0.720,-0.720,0.000,0.000,0.000
1605202966533829888,10.0.1.131,32,pick,-0.730,-0.730,-0.730,0.000,0.000,0.000
1605202967553827072,10.0.1.131,50,pick,-0.740,-0.740,-0.740,0.000,0.000,0.000
1605202968534648832,10.0.1.131,31,pick,-0.750,-0.750,-0.750,0.000,0.000,0.000
1605202969563150848,10.0.1.131,56,pick,-0.760,-0.760,-0.760,0.000,0.000,0.000
1605202970557640960,10.0.1.131,50,pick,-0.770,-0.770,-0.770,0.000,0.000,0.000
1605202971946482944,10.0.1.131,437,move_up,-0.750,-0.750,-0.750,0.000,0.000,0.000
1605202973417059840,10.0.1.131,416,move_up,-0.730,-0.730,-0.730,0.000,0.000,0.000
1605202974928761088,10.0.1.131,442,move_up,-0.710,-0.710,-0.710,0.000,0.000,0.000
1605202976395299072,10.0.1.131,408,move_up,-0.690,-0.690,-0.690,0.000,0.000,0.000
1605202977914904064,10.0.1.131,441,move_up,-0.670,-0.670,-0.670,0.000,0.000,0.000
1605202979400098048,10.0.1.131,451,move_up,-0.650,-0.650,-0.650,0.000,0.000,0.000
1605202980922252800,10.0.1.131,438,move_up,-0.630,-0.630,-0.630,0.000,0.000,0.000
1605202982450737920,10.0.1.131,428,move_up,-0.610,-0.610,-0.610,0.000,0.000,0.000
1605202983966171904,10.0.1.131,406,move_up,-0.590,-0.590,-0.590,0.000,0.000,0.000
1605202985516214016,10.0.1.131,459,move_up,-0.570,-0.570,-0.570,0.000,0.000,0.000
1605202987077603072,10.0.1.131,458,move_up,-0.550,-0.550,-0.550,0.000,0.000,0.000
1605202988544574976,10.0.1.131,383,move_up,-0.530,-0.530,-0.530,0.000,0.000,0.000
1605202989984870912,10.0.1.131,407,move_up,-0.510,-0.510,-0.510,0.000,0.000,0.000
1605202991485975040,10.0.1.131,426,move_up,-0.490,-0.490,-0.490,0.000,0.000,0.000
1605202993031933952,10.0.1.131,434,move_up,-0.470,-0.470,-0.470,0.000,0.000,0.000
1605202994529660928,10.0.1.131,389,move_up,-0.450,-0.450,-0.450,0.000,0.000,0.000
1605202995978317056,10.0.1.131,418,move_up,-0.430,-0.430,-0.430,0.000,0.000,0.000
1605202997378288128,10.0.1.131,394,move_up,-0.410,-0.410,-0.410,0.000,0.000,0.000
1605202998853724928,10.0.1.131,418,move_up,-0.390,-0.390,-0.390,0.000,0.000,0.000
1605203000355140864,10.0.1.131,431,move_up,-0.370,-0.370,-0.370,0.000,0.000,0.000
1605203001899833088,10.0.1.131,444,move_up,-0.350,-0.350,-0.350,0.000,0.000,0.000
1605203003431197952,10.0.1.131,428,move_up,-0.330,-0.330,-0.330,0.000,0.000,0.000
1605203004899069184,10.0.1.131,414,move_up,-0.310,-0.310,-0.310,0.000,0.000,0.000
1605203006328248064,10.0.1.131,400,move_up,-0.290,-0.290,-0.290,0.000,0.000,0.000
1605203007801284096,10.0.1.131,425,move_up,-0.270,-0.270,-0.270,0.000,0.000,0.000
1605203009235415040,10.0.1.131,421,move_up,-0.250,-0.250,-0.250,0.000,0.000,0.000
1605203010711736064,10.0.1.131,394,move_up,-0.230,-0.230,-0.230,0.000,0.000,0.000
1605203012170867968,10.0.1.131,395,move_up,-0.210,-0.210,-0.210,0.000,0.000,0.000
1605203013659246080,10.0.1.131,474,move_up,-0.190,-0.190,-0.190,0.000,0.000,0.000
1605203014787805952,10.0.1.131,34,place,-0.180,-0.180,-0.180,0.000,0.000,0.000
1605203015788602112,10.0.1.131,33,place,-0.170,-0.170,-0.170,0.000,0.000,0.000
1605203016808623104,10.0.1.131,52,place,-0.160,-0.160,-0.160,0.000,0.000,0.000
1605203017829955072,10.0.1.131,72,place,-0.150,-0.150,-0.150,0.000,0.000,0.000
1605203018807857152,10.0.1.131,49,place,-0.140,-0.140,-0.140,0.000,0.000,0.000
1605203019814568960,10.0.1.131,54,place,-0.130,-0.130,-0.130,0.000,0.000,0.000
1605203020811115008,10.0.1.131,49,place,-0.120,-0.120,-0.120,0.000,0.000,0.000
1605203021822125056,10.0.1.131,58,place,-0.110,-0.110,-0.110,0.000,0.000,0.000
1605203022815582976,10.0.1.131,51,place,-0.100,-0.100,-0.100,0.000,0.000,0.000
1605203023816121088,10.0.1.131,50,place,-0.090,-0.090,-0.090,0.000,0.000,0.000
1605203024807864832,10.0.1.131,41,place,-0.080,-0.080,-0.080,0.000,0.000,0.000
1605203025818586112,10.0.1.131,50,place,-0.070,-0.070,-0.070,0.000,0.000,0.000
1605203026816025088,10.0.1.131,44,place,-0.060,-0.060,-0.060,0.000,0.000,0.000
1605203027811074048,10.0.1.131,38,place,-0.050,-0.050,-0.050,0.000,0.000,0.000
1605203028808526080,10.0.1.131,34,place,-0.040,-0.040,-0.040,0.000,0.000,0.000
1605203029819705856,10.0.1.131,44,place,-0.030,-0.030,-0.030,0.000,0.000,0.000
1605203030829339136,10.0.1.131,52,place,-0.020,-0.020,-0.020,0.000,0.000,0.000
1605203031827949056,10.0.1.131,49,place,-0.010,-0.010,-0.010,0.000,0.000,0.000
1605203032828102144,10.0.1.131,47,place,0.000,0.000,0.000,0.000,0.000,0.000
1605203034228899840,10.0.1.131,440,move_down,-0.020,-0.020,-0.020,0.000,0.000,0.000
1605203035788048896,10.0.1.131,468,move_down,-0.040,-0.040,-0.040,0.000,0.000,0.000
1605203037293582848,10.0.1.131,480,move_down,-0.060,-0.060,-0.060,0.000,0.000,0.000
1605203038760952832,10.0.1.131,402,move_down,-0.080,-0.080,-0.080,0.000,0.000,0.000
1605203040278989056,10.0.1.131,427,move_down,-0.100,-0.100,-0.100,0.000,0.000,0.000
1605203041827390976,10.0.1.131,470,move_down,-0.120,-0.120,-0.120,0.000,0.000,0.000
1605203043290723072,10.0.1.131,413,move_down,-0.140,-0.140,-0.140,0.000,0.000,0.000
1605203044847820032,10.0.1.131,450,move_down,-0.160,-0.160,-0.160,0.000,0.000,0.000
1605203046353017088,10.0.1.131,410,move_down,-0.180,-0.180,-0.180,0.000,0.000,0.000
1605203047787607040,10.0.1.131,389,move_down,-0.200,-0.200,-0.200,0.000,0.000,0.000
1605203049313489920,10.0.1.131,419,move_down,-0.220,-0.220,-0.220,0.000,0.000,0.000
1605203050838233856,10.0.1.131,412,move_down,-0.240,-0.240,-0.240,0.000,0.000,0.000
1605203052256858112,10.0.1.131,391,move_down,-0.260,-0.260,-0.260,0.000,0.000,0.000
1605203053738923008,10.0.1.131,458,move_down,-0.280,-0.280,-0.280,0.000,0.000,0.000
1605203055203421952,10.0.1.131,409,move_down,-0.300,-0.300,-0.300,0.000,0.000,0.000
1605203056744770048,10.0.1.131,449,move_down,-0.320,-0.320,-0.320,0.000,0.000,0.000
1605203058167247104,10.0.1.131,373,move_down,-0.340,-0.340,-0.340,0.000,0.000,0.000
1605203059711307008,10.0.1.131,460,move_down,-0.360,-0.360,-0.360,0.000,0.000,0.000
1605203061217190144,10.0.1.131,417,move_down,-0.380,-0.380,-0.380,0.000,0.000,0.000
1605203062728077824,10.0.1.131,442,move_down,-0.400,-0.400,-0.400,0.000,0.000,0.000
1605203064240658944,10.0.1.131,450,move_down,-0.420,-0.420,-0.420,0.000,0.000,0.000
1605203065740314880,10.0.1.131,417,move_down,-0.440,-0.440,-0.440,0.000,0.000,0.000
1605203067218991104,10.0.1.131,373,move_down,-0.460,-0.460,-0.460,0.000,0.000,0.000
1605203068742064896,10.0.1.131,413,move_down,-0.480,-0.480,-0.480,0.000,0.000,0.000
1605203070243225088,10.0.1.131,431,move_down,-0.500,-0.500,-0.500,0.000,0.000,0.000
1605203071709849088,10.0.1.131,411,move_down,-0.520,-0.520,-0.520,0.000,0.000,0.000
1605203073200795904,10.0.1.131,412,move_down,-0.540,-0.540,-0.540,0.000,0.000,0.000
1605203074643588096,10.0.1.131,408,move_down,-0.560,-0.560,-0.560,0.000,0.000,0.000
1605203076120743936,10.0.1.131,403,move_down,-0.580,-0.580,-0.580,0.000,0.000,0.000
1605203077258338816,10.0.1.131,51,pick,-0.590,-0.590,-0.590,0.000,0.000,0.000
1605203078260143872,10.0.1.131,51,pick,-0.600,-0.600,-0.600,0.000,0.000,0.000
1605203079264333056,10.0.1.131,54,pick,-0.610,-0.610,-0.610,0.000,0.000,0.000
1605203080267403008,10.0.1.131,56,pick,-0.620,-0.620,-0.620,0.000,0.000,0.000
1605203081258196992,10.0.1.131,40,pick,-0.630,-0.630,-0.630,0.000,0.000,0.000
1605203082263068928,10.0.1.131,44,pick,-0.640,-0.640,-0.640,0.000,0.000,0.000
1605203083261595904,10.0.1.131,41,pick,-0.650,-0.650,-0.650,0.000,0.000,0.000
1605203084268155136,10.0.1.131,43,pick,-0.660,-0.660,-0.660,0.000,0.000,0.000
1605203085264198144,10.0.1.131,38,pick,-0.670,-0.670,-0.670,0.000,0.000,0.000
1605203086262448128,10.0.1.131,35,pick,-0.680,-0.680,-0.680,0.000,0.000,0.000
1605203088228788992,10.0.1.131,NaN,pick,-0.700,-0.700,-0.700,0.000,0.000,0.000
1605203088262840064,10.0.1.131,33,pick,-0.700,-0.700,-0.700,0.000,0.000,0.000
1605203089277385984,10.0.1.131,47,pick,-0.710,-0.710,-0.710,0.000,0.000,0.000
1605203090282080000,10.0.1.131,50,pick,-0.720,-0.720,-0.720,0.000,0.000,0.000
1605203091284033024,10.0.1.131,51,pick,-0.730,-0.730,-0.730,0.000,0.000,0.000
1605203092282778112,10.0.1.131,49,pick,-0.740,-0.740,-0.740,0.000,0.000,0.000
1605203093287650048,10.0.1.131,52,pick,-0.750,-0.750,-0.750,0.000,0.000,0.000
1605203094282263040,10.0.1.131,46,pick,-0.760,-0.760,-0.760,0.000,0.000,0.000
1605203095281543936,10.0.1.131,44,pick,-0.770,-0.770,-0.770,0.000,0.000,0.000
1605203096735683072,10.0.1.131,494,move_up,-0.750,-0.750,-0.750,0.000,0.000,0.000
1605203098227602944,10.0.1.131,458,move_up,-0.730,-0.730,-0.730,0.000,0.000,0.000
1605203099742289152,10.0.1.131,440,move_up,-0.710,-0.710,-0.710,0.000,0.000,0.000
1605203101189143808,10.0.1.131,434,move_up,-0.690,-0.690,-0.690,0.000,0.000,0.000
1605203102720113920,10.0.1.131,454,move_up,-0.670,-0.670,-0.670,0.000,0.000,0.000
1605203104228642048,10.0.1.131,437,move_up,-0.650,-0.650,-0.650,0.000,0.000,0.000
1605203105742813952,10.0.1.131,490,move_up,-0.630,-0.630,-0.630,0.000,0.000,0.000
1605203107202662912,10.0.1.131,443,move_up,-0.610,-0.610,-0.610,0.000,0.000,0.000
1605203108727403008,10.0.1.131,473,move_up,-0.590,-0.590,-0.590,0.000,0.000,0.000
1605203110204507136,10.0.1.131,435,move_up,-0.570,-0.570,-0.570,0.000,0.000,0.000
1605203111672259072,10.0.1.131,402,move_up,-0.550,-0.550,-0.550,0.000,0.000,0.000
1605203113152171008,10.0.1.131,405,move_up,-0.530,-0.530,-0.530,0.000,0.000,0.000
1605203114688755968,10.0.1.131,428,move_up,-0.510,-0.510,-0.510,0.000,0.000,0.000
1605203116145838080,10.0.1.131,450,move_up,-0.490,-0.490,-0.490,0.000,0.000,0.000
1605203117625462016,10.0.1.131,400,move_up,-0.470,-0.470,-0.470,0.000,0.000,0.000
1605203119143238912,10.0.1.131,426,move_up,-0.450,-0.450,-0.450,0.000,0.000,0.000
1605203120650473216,10.0.1.131,441,move_up,-0.430,-0.430,-0.430,0.000,0.000,0.000
1605203122142927872,10.0.1.131,434,move_up,-0.410,-0.410,-0.410,0.000,0.000,0.000
1605203123610732032,10.0.1.131,395,move_up,-0.390,-0.390,-0.390,0.000,0.000,0.000
1605203125111841024,10.0.1.131,408,move_up,-0.370,-0.370,-0.370,0.000,0.000,0.000
1605203126639045120,10.0.1.131,412,move_up,-0.350,-0.350,-0.350,0.000,0.000,0.000
1605203128130853888,10.0.1.131,409,move_up,-0.330,-0.330,-0.330,0.000,0.000,0.000
1605203129552704000,10.0.1.131,404,move_up,-0.310,-0.310,-0.310,0.000,0.000,0.000
1605203131044132864,10.0.1.131,415,move_up,-0.290,-0.290,-0.290,0.000,0.000,0.000
1605203132561124096,10.0.1.131,445,move_up,-0.270,-0.270,-0.270,0.000,0.000,0.000
1605203134120460032,10.0.1.131,480,move_up,-0.250,-0.250,-0.250,0.000,0.000,0.000
1605203135684111104,10.0.1.131,505,move_up,-0.230,-0.230,-0.230,0.000,0.000,0.000
1605203137157815040,10.0.1.131,436,move_up,-0.210,-0.210,-0.210,0.000,0.000,0.000
1605203138692588032,10.0.1.131,479,move_up,-0.190,-0.190,-0.190,0.000,0.000,0.000
1605203139827361024,10.0.1.131,49,place,-0.180,-0.180,-0.180,0.000,0.000,0.000
1605203140825293056,10.0.1.131,46,place,-0.170,-0.170,-0.170,0.000,0.000,0.000
1605203141828293120,10.0.1.131,48,place,-0.160,-0.160,-0.160,0.000,0.000,0.000
1605203142830343936,10.0.1.131,49,place,-0.150,-0.150,-0.150,0.000,0.000,0.000
1605203143825146880,10.0.1.131,43,place,-0.140,-0.140,-0.140,0.000,0.000,0.000
1605203144847008000,10.0.1.131,63,place,-0.130,-0.130,-0.130,0.000,0.000,0.000
1605203145830304000,10.0.1.131,45,place,-0.120,-0.120,-0.120,0.000,0.000,0.000
1605203146826780160,10.0.1.131,41,place,-0.110,-0.110,-0.110,0.000,0.000,0.000
1605203147830279168,10.0.1.131,43,place,-0.100,-0.100,-0.100,0.000,0.000,0.000
1605203148841411072,10.0.1.131,51,place,-0.090,-0.090,-0.090,0.000,0.000,0.000
1605203149824871168,10.0.1.131,33,place,-0.080,-0.080,-0.080,0.000,0.000,0.000
1605203150851063040,10.0.1.131,55,place,-0.070,-0.070,-0.070,0.000,0.000,0.000
1605203151846231040,10.0.1.131,50,place,-0.060,-0.060,-0.060,0.000,0.000,0.000
1605203152846595072,10.0.1.131,49,place,-0.050,-0.050,-0.050,0.000,0.000,0.000
1605203153850283008,10.0.1.131,52,place,-0.040,-0.040,-0.040,0.000,0.000,0.000
1605203154846808064,10.0.1.131,46,place,-0.030,-0.030,-0.030,0.000,0.000,0.000
1605203155849936128,10.0.1.131,48,place,-0.020,-0.020,-0.020,0.000,0.000,0.000
1605203156846786048,10.0.1.131,44,place,-0.010,-0.010,-0.010,0.000,0.000,0.000
1605203157855698176,10.0.1.131,51,place,0.000,0.000,0.000,0.000,0.000,0.000
1605203159247394048,10.0.1.131,440,move_down,-0.020,-0.020,-0.020,0.000,0.000,0.000
1605203160835727104,10.0.1.131,472,move_down,-0.040,-0.040,-0.040,0.000,0.000,0.000
1605203162356079104,10.0.1.131,433,move_down,-0.060,-0.060,-0.060,0.000,0.000,0.000
1605203163879652096,10.0.1.131,453,move_down,-0.080,-0.080,-0.080,0.000,0.000,0.000
1605203165357136128,10.0.1.131,431,move_down,-0.100,-0.100,-0.100,0.000,0.000,0.000
1605203166843670016,10.0.1.131,390,move_down,-0.120,-0.120,-0.120,0.000,0.000,0.000
1605203168336456960,10.0.1.131,411,move_down,-0.140,-0.140,-0.140,0.000,0.000,0.000
1605203169855922944,10.0.1.131,447,move_down,-0.160,-0.160,-0.160,0.000,0.000,0.000
1605203171394753024,10.0.1.131,472,move_down,-0.180,-0.180,-0.180,0.000,0.000,0.000
1605203172924592128,10.0.1.131,454,move_down,-0.200,-0.200,-0.200,0.000,0.000,0.000
1605203174456556032,10.0.1.131,441,move_down,-0.220,-0.220,-0.220,0.000,0.000,0.000
1605203176026802176,10.0.1.131,515,move_down,-0.240,-0.240,-0.240,0.000,0.000,0.000
1605203177541232128,10.0.1.131,394,move_down,-0.260,-0.260,-0.260,0.000,0.000,0.000
1605203179090776832,10.0.1.131,469,move_down,-0.280,-0.280,-0.280,0.000,0.000,0.000
1605203180594432000,10.0.1.131,421,move_down,-0.300,-0.300,-0.300,0.000,0.000,0.000
1605203182135997952,10.0.1.131,487,move_down,-0.320,-0.320,-0.320,0.000,0.000,0.000
1605203183615705088,10.0.1.131,415,move_down,-0.340,-0.340,-0.340,0.000,0.000,0.000
1605203185165689856,10.0.1.131,447,move_down,-0.360,-0.360,-0.360,0.000,0.000,0.000
1605203186685453824,10.0.1.131,445,move_down,-0.380,-0.380,-0.380,0.000,0.000,0.000
1605203188213504000,10.0.1.131,425,move_down,-0.400,-0.400,-0.400,0.000,0.000,0.000
1605203189744973056,10.0.1.131,456,move_down,-0.420,-0.420,-0.420,0.000,0.000,0.000
1605203191230964992,10.0.1.131,437,move_down,-0.440,-0.440,-0.440,0.000,0.000,0.000
1605203192708337152,10.0.1.131,434,move_down,-0.460,-0.460,-0.460,0.000,0.000,0.000
1605203194257420032,10.0.1.131,477,move_down,-0.480,-0.480,-0.480,0.000,0.000,0.000
1605203195755238912,10.0.1.131,396,move_down,-0.500,-0.500,-0.500,0.000,0.000,0.000
1605203197249171968,10.0.1.131,409,move_down,-0.520,-0.520,-0.520,0.000,0.000,0.000
1605203198765875200,10.0.1.131,430,move_down,-0.540,-0.540,-0.540,0.000,0.000,0.000
1605203200235708928,10.0.1.131,420,move_down,-0.560,-0.560,-0.560,0.000,0.000,0.000
1605203201774318848,10.0.1.131,435,move_down,-0.580,-0.580,-0.580,0.000,0.000,0.000
1605203202918398976,10.0.1.131,51,pick,-0.590,-0.590,-0.590,0.000,0.000,0.000
1605203203915848960,10.0.1.131,48,pick,-0.600,-0.600,-0.600,0.000,0.000,0.000
1605203204925579008,10.0.1.131,56,pick,-0.610,-0.610,-0.610,0.000,0.000,0.000
1605203205919641088,10.0.1.131,49,pick,-0.620,-0.620,-0.620,0.000,0.000,0.000
1605203206922219008,10.0.1.131,50,pick,-0.630,-0.630,-0.630,0.000,0.000,0.000
1605203207916670976,10.0.1.131,40,pick,-0.640,-0.640,-0.640,0.000,0.000,0.000
1605203208918893056,10.0.1.131,41,pick,-0.650,-0.650,-0.650,0.000,0.000,0.000
1605203209917676800,10.0.1.131,38,pick,-0.660,-0.660,-0.660,0.000,0.000,0.000
1605203210944371968,10.0.1.131,64,pick,-0.670,-0.670,-0.670,0.000,0.000,0.000
1605203211920433920,10.0.1.131,39,pick,-0.680,-0.680,-0.680,0.000,0.000,0.000
1605203212920164096,10.0.1.131,38,pick,-0.690,-0.690,-0.690,0.000,0.000,0.000
1605203213917530112,10.0.1.131,31,pick,-0.700,-0.700,-0.700,0.000,0.000,0.000
1605203214937926144,10.0.1.131,50,pick,-0.710,-0.710,-0.710,0.000,0.000,0.000
1605203215936968192,10.0.1.131,48,pick,-0.720,-0.720,-0.720,0.000,0.000,0.000
1605203216948077824,10.0.1.131,58,pick,-0.730,-0.730,-0.730,0.000,0.000,0.000
1605203217937492992,10.0.1.131,46,pick,-0.740,-0.740,-0.740,0.000,0.000,0.000
1605203218937673984,10.0.1.131,45,pick,-0.750,-0.750,-0.750,0.000,0.000,0.000
1605203219941885952,10.0.1.131,48,pick,-0.760,-0.760,-0.760,0.000,0.000,0.000
1605203220941451008,10.0.1.131,45,pick,-0.770,-0.770,-0.770,0.000,0.000,0.000
1605203222338674944,10.0.1.131,442,move_up,-0.750,-0.750,-0.750,0.000,0.000,0.000
1605203223868726016,10.0.1.131,445,move_up,-0.730,-0.730,-0.730,0.000,0.000,0.000
1605203225357655040,10.0.1.131,422,move_up,-0.710,-0.710,-0.710,0.000,0.000,0.000
1605203226858658048,10.0.1.131,401,move_up,-0.690,-0.690,-0.690,0.000,0.000,0.000
1605203228402740992,10.0.1.131,452,move_up,-0.670,-0.670,-0.670,0.000,0.000,0.000
1605203229930665984,10.0.1.131,435,move_up,-0.650,-0.650,-0.650,0.000,0.000,0.000
1605203231469601024,10.0.1.131,418,move_up,-0.630,-0.630,-0.630,0.000,0.000,0.000
1605203232939384832,10.0.1.131,428,move_up,-0.610,-0.610,-0.610,0.000,0.000,0.000
1605203234459172096,10.0.1.131,455,move_up,-0.590,-0.590,-0.590,0.000,0.000,0.000
1605203235963464960,10.0.1.131,424,move_up,-0.570,-0.570,-0.570,0.000,0.000,0.000
1605203237432585984,10.0.1.131,436,move_up,-0.550,-0.550,-0.550,0.000,0.000,0.000
1605203238890577152,10.0.1.131,451,move_up,-0.530,-0.530,-0.530,0.000,0.000,0.000
1605203240463447040,10.0.1.131,456,move_up,-0.510,-0.510,-0.510,0.000,0.000,0.000
1605203241961868032,10.0.1.131,420,move_up,-0.490,-0.490,-0.490,0.000,0.000,0.000
1605203243555843072,10.0.1.131,527,move_up,-0.470,-0.470,-0.470,0.000,0.000,0.000
1605203245107724032,10.0.1.131,492,move_up,-0.450,-0.450,-0.450,0.000,0.000,0.000
1605203246598618880,10.0.1.131,432,move_up,-0.430,-0.430,-0.430,0.000,0.000,0.000
1605203248121253888,10.0.1.131,441,move_up,-0.410,-0.410,-0.410,0.000,0.000,0.000
1605203249633256960,10.0.1.131,442,move_up,-0.390,-0.390,-0.390,0.000,0.000,0.000
1605203251133195008,10.0.1.131,423,move_up,-0.370,-0.370,-0.370,0.000,0.000,0.000
1605203252605995776,10.0.1.131,406,move_up,-0.350,-0.350,-0.350,0.000,0.000,0.000
1605203254098225152,10.0.1.131,409,move_up,-0.330,-0.330,-0.330,0.000,0.000,0.000
1605203255537957888,10.0.1.131,416,move_up,-0.310,-0.310,-0.310,0.000,0.000,0.000
1605203257046377984,10.0.1.131,430,move_up,-0.290,-0.290,-0.290,0.000,0.000,0.000
1605203258538112000,10.0.1.131,426,move_up,-0.270,-0.270,-0.270,0.000,0.000,0.000
1605203260020504064,10.0.1.131,422,move_up,-0.250,-0.250,-0.250,0.000,0.000,0.000
1605203261523927808,10.0.1.131,419,move_up,-0.230,-0.230,-0.230,0.000,0.000,0.000
1605203263032002048,10.0.1.131,433,move_up,-0.210,-0.210,-0.210,0.000,0.000,0.000
1605203264463865088,10.0.1.131,419,move_up,-0.190,-0.190,-0.190,0.000,0.000,0.000
1605203265557666048,10.0.1.131,29,place,-0.180,-0.180,-0.180,0.000,0.000,0.000
1605203266578066944,10.0.1.131,49,place,-0.170,-0.170,-0.170,0.000,0.000,0.000
1605203267577872128,10.0.1.131,47,place,-0.160,-0.160,-0.160,0.000,0.000,0.000
1605203268577385984,10.0.1.131,45,place,-0.150,-0.150,-0.150,0.000,0.000,0.000
1605203269578269952,10.0.1.131,45,place,-0.140,-0.140,-0.140,0.000,0.000,0.000
1605203270579416064,10.0.1.131,45,place,-0.130,-0.130,-0.130,0.000,0.000,0.000
1605203271577987840,10.0.1.131,42,place,-0.120,-0.120,-0.120,0.000,0.000,0.000
1605203272579026944,10.0.1.131,42,place,-0.110,-0.110,-0.110,0.000,0.000,0.000
1605203273580253952,10.0.1.131,42,place,-0.100,-0.100,-0.100,0.000,0.000,0.000
1605203274584642816,10.0.1.131,45,place,-0.090,-0.090,-0.090,0.000,0.000,0.000
1605203275581957120,10.0.1.131,41,place,-0.080,-0.080,-0.080,0.000,0.000,0.000
1605203276584358912,10.0.1.131,42,place,-0.070,-0.070,-0.070,0.000,0.000,0.000
1605203277593314048,10.0.1.131,49,place,-0.060,-0.060,-0.060,0.000,0.000,0.000
1605203278616590080,10.0.1.131,62,place,-0.050,-0.050,-0.050,0.000,0.000,0.000
1605203279619378176,10.0.1.131,63,place,-0.040,-0.040,-0.040,0.000,0.000,0.000
1605203280607981056,10.0.1.131,44,place,-0.030,-0.030,-0.030,0.000,0.000,0.000
1605203281604214784,10.0.1.131,40,place,-0.020,-0.020,-0.020,0.000,0.000,0.000
1605203282604320000,10.0.1.131,39,place,-0.010,-0.010,-0.010,0.000,0.000,0.000
1605203283604627968,10.0.1.131,38,place,0.000,0.000,0.000,0.000,0.000,0.000
1605203285034248960,10.0.1.131,456,move_down,-0.020,-0.020,-0.020,0.000,0.000,0.000
1605203286511895040,10.0.1.131,408,move_down,-0.040,-0.040,-0.040,0.000,0.000,0.000
1605203288003374080,10.0.1.131,392,move_down,-0.060,-0.060,-0.060,0.000,0.000,0.000
1605203289513894144,10.0.1.131,446,move_down,-0.080,-0.080,-0.080,0.000,0.000,0.000
1605203291077261824,10.0.1.131,477,move_down,-0.100,-0.100,-0.100,0.000,0.000,0.000
1605203292645825024,10.0.1.131,468,move_down,-0.120,-0.120,-0.120,0.000,0.000,0.000
1605203294067622912,10.0.1.131,426,move_down,-0.140,-0.140,-0.140,0.000,0.000,0.000
1605203295622419968,10.0.1.131,484,move_down,-0.160,-0.160,-0.160,0.000,0.000,0.000
1605203297203440896,10.0.1.131,511,move_down,-0.180,-0.180,-0.180,0.000,0.000,0.000
1605203298877296896,10.0.1.131,540,move_down,-0.200,-0.200,-0.200,0.000,0.000,0.000
1605203300365858048,10.0.1.131,413,move_down,-0.220,-0.220,-0.220,0.000,0.000,0.000
1605203301877244928,10.0.1.131,437,move_down,-0.240,-0.240,-0.240,0.000,0.000,0.000
1605203303358341888,10.0.1.131,393,move_down,-0.260,-0.260,-0.260,0.000,0.000,0.000
1605203304884462080,10.0.1.131,437,move_down,-0.280,-0.280,-0.280,0.000,0.000,0.000
1605203306430665984,10.0.1.131,467,move_down,-0.300,-0.300,-0.300,0.000,0.000,0.000
1605203307936340992,10.0.1.131,433,move_down,-0.320,-0.320,-0.320,0.000,0.000,0.000
1605203309475259136,10.0.1.131,486,move_down,-0.340,-0.340,-0.340,0.000,0.000,0.000
1605203310933332992,10.0.1.131,390,move_down,-0.360,-0.360,-0.360,0.000,0.000,0.000
1605203312416684032,10.0.1.131,454,move_down,-0.380,-0.380,-0.380,0.000,0.000,0.000
1605203313965744128,10.0.1.131,475,move_down,-0.400,-0.400,-0.400,0.000,0.000,0.000
1605203315551110144,10.0.1.131,502,move_down,-0.420,-0.420,-0.420,0.000,0.000,0.000
1605203317005484032,10.0.1.131,409,move_down,-0.440,-0.440,-0.440,0.000,0.000,0.000
1605203318540546048,10.0.1.131,453,move_down,-0.460,-0.460,-0.460,0.000,0.000,0.000
1605203320062052864,10.0.1.131,420,move_down,-0.480,-0.480,-0.480,0.000,0.000,0.000
1605203321543245056,10.0.1.131,419,move_down,-0.500,-0.500,-0.500,0.000,0.000,0.000
1605203323066589952,10.0.1.131,453,move_down,-0.520,-0.520,-0.520,0.000,0.000,0.000
1605203324507934976,10.0.1.131,422,move_down,-0.540,-0.540,-0.540,0.000,0.000,0.000
1605203326056595200,10.0.1.131,467,move_down,-0.560,-0.560,-0.560,0.000,0.000,0.000
1605203327540124928,10.0.1.131,410,move_down,-0.580,-0.580,-0.580,0.000,0.000,0.000
1605203329649061888,10.0.1.131,NaN,pick,-0.600,-0.600,-0.600,0.000,0.000,0.000
1605203329694963968,10.0.1.131,45,pick,-0.600,-0.600,-0.600,0.000,0.000,0.000
1605203330699318016,10.0.1.131,48,pick,-0.610,-0.610,-0.610,0.000,0.000,0.000
1605203331701178112,10.0.1.131,49,pick,-0.620,-0.620,-0.620,0.000,0.000,0.000
1605203332695489792,10.0.1.131,39,pick,-0.630,-0.630,-0.630,0.000,0.000,0.000
1605203333702326016,10.0.1.131,44,pick,-0.640,-0.640,-0.640,0.000,0.000,0.000
1605203334703480832,10.0.1.131,43,pick,-0.650,-0.650,-0.650,0.000,0.000,0.000
1605203335695259136,10.0.1.131,33,pick,-0.660,-0.660,-0.660,0.000,0.000,0.000
1605203336722914048,10.0.1.131,59,pick,-0.670,-0.670,-0.670,0.000,0.000,0.000
1605203337722584064,10.0.1.131,56,pick,-0.680,-0.680,-0.680,0.000,0.000,0.000
1605203338718368000,10.0.1.131,50,pick,-0.690,-0.690,-0.690,0.000,0.000,0.000
1605203339725609984,10.0.1.131,56,pick,-0.700,-0.700,-0.700,0.000,0.000,0.000
1605203340714822912,10.0.1.131,44,pick,-0.710,-0.710,-0.710,0.000,0.000,0.000
1605203341706515200,10.0.1.131,34,pick,-0.720,-0.720,-0.720,0.000,0.000,0.000
1605203342711091968,10.0.1.131,37,pick,-0.730,-0.730,-0.730,0.000,0.000,0.000
1605203343713031936,10.0.1.131,38,pick,-0.740,-0.740,-0.740,0.000,0.000,0.000
1605203344718051072,10.0.1.131,42,pick,-0.750,-0.750,-0.750,0.000,0.000,0.000
1605203345734528000,10.0.1.131,57,pick,-0.760,-0.760,-0.760,0.000,0.000,0.000
1605203346739065856,10.0.1.131,60,pick,-0.770,-0.770,-0.770,0.000,0.000,0.000
1605203348178950912,10.0.1.131,495,move_up,-0.750,-0.750,-0.750,0.000,0.000,0.000
1605203349749236224,10.0.1.131,455,move_up,-0.730,-0.730,-0.730,0.000,0.000,0.000
1605203351230811136,10.0.1.131,393,move_up,-0.710,-0.710,-0.710,0.000,0.000,0.000
1605203352746371072,10.0.1.131,410,move_up,-0.690,-0.690,-0.690,0.000,0.000,0.000
1605203354292567040,10.0.1.131,448,move_up,-0.670,-0.670,-0.670,0.000,0.000,0.000
1605203355872680960,10.0.1.131,476,move_up,-0.650,-0.650,-0.650,0.000,0.000,0.000
1605203357401756160,10.0.1.131,455,move_up,-0.630,-0.630,-0.630,0.000,0.000,0.000
1605203358929803008,10.0.1.131,435,move_up,-0.610,-0.610,-0.610,0.000,0.000,0.000
1605203360453692928,10.0.1.131,460,move_up,-0.590,-0.590,-0.590,0.000,0.000,0.000
1605203361935722240,10.0.1.131,410,move_up,-0.570,-0.570,-0.570,0.000,0.000,0.000
1605203363402784000,10.0.1.131,419,move_up,-0.550,-0.550,-0.550,0.000,0.000,0.000
1605203364893079040,10.0.1.131,425,move_up,-0.530,-0.530,-0.530,0.000,0.000,0.000
1605203366323753216,10.0.1.131,401,move_up,-0.510,-0.510,-0.510,0.000,0.000,0.000
1605203367854366976,10.0.1.131,451,move_up,-0.490,-0.490,-0.490,0.000,0.000,0.000
1605203369317614080,10.0.1.131,407,move_up,-0.470,-0.470,-0.470,0.000,0.000,0.000
1605203370837882880,10.0.1.131,438,move_up,-0.450,-0.450,-0.450,0.000,0.000,0.000
1605203372346116096,10.0.1.131,440,move_up,-0.430,-0.430,-0.430,0.000,0.000,0.000
1605203373845325824,10.0.1.131,432,move_up,-0.410,-0.410,-0.410,0.000,0.000,0.000
1605203375312011008,10.0.1.131,395,move_up,-0.390,-0.390,-0.390,0.000,0.000,0.000
1605203376800962816,10.0.1.131,431,move_up,-0.370,-0.370,-0.370,0.000,0.000,0.000
1605203378371350016,10.0.1.131,493,move_up,-0.350,-0.350,-0.350,0.000,0.000,0.000
1605203379900011008,10.0.1.131,445,move_up,-0.330,-0.330,-0.330,0.000,0.000,0.000
1605203381393044992,10.0.1.131,411,move_up,-0.310,-0.310,-0.310,0.000,0.000,0.000
1605203382877937920,10.0.1.131,413,move_up,-0.290,-0.290,-0.290,0.000,0.000,0.000
1605203384350478848,10.0.1.131,431,move_up,-0.270,-0.270,-0.270,0.000,0.000,0.000
1605203385852269824,10.0.1.131,421,move_up,-0.250,-0.250,-0.250,0.000,0.000,0.000
1605203387310977024,10.0.1.131,403,move_up,-0.230,-0.230,-0.230,0.000,0.000,0.000
1605203388851470848,10.0.1.131,426,move_up,-0.210,-0.210,-0.210,0.000,0.000,0.000
1605203390362104064,10.0.1.131,435,move_up,-0.190,-0.190,-0.190,0.000,0.000,0.000
1605203391465687040,10.0.1.131,47,place,-0.180,-0.180,-0.180,0.000,0.000,0.000
1605203392466233856,10.0.1.131,46,place,-0.170,-0.170,-0.170,0.000,0.000,0.000
1605203393466609920,10.0.1.131,45,place,-0.160,-0.160,-0.160,0.000,0.000,0.000
1605203394467698176,10.0.1.131,45,place,-0.150,-0.150,-0.150,0.000,0.000,0.000
1605203395463956992,10.0.1.131,40,place,-0.140,-0.140,-0.140,0.000,0.000,0.000
1605203396462433024,10.0.1.131,32,place,-0.130,-0.130,-0.130,0.000,0.000,0.000
1605203397467021056,10.0.1.131,35,place,-0.120,-0.120,-0.120,0.000,0.000,0.000
1605203398484164096,10.0.1.131,51,place,-0.110,-0.110,-0.110,0.000,0.000,0.000
1605203399491750912,10.0.1.131,57,place,-0.100,-0.100,-0.100,0.000,0.000,0.000
1605203400481627904,10.0.1.131,45,place,-0.090,-0.090,-0.090,0.000,0.000,0.000
1605203401485728000,10.0.1.131,48,place,-0.080,-0.080,-0.080,0.000,0.000,0.000
1605203402480716032,10.0.1.131,41,place,-0.070,-0.070,-0.070,0.000,0.000,0.000
1605203403484065024,10.0.1.131,44,place,-0.060,-0.060,-0.060,0.000,0.000,0.000
1605203404490531840,10.0.1.131,50,place,-0.050,-0.050,-0.050,0.000,0.000,0.000
1605203405482814976,10.0.1.131,40,place,-0.040,-0.040,-0.040,0.000,0.000,0.000
1605203406482705152,10.0.1.131,39,place,-0.030,-0.030,-0.030,0.000,0.000,0.000
1605203407504809984,10.0.1.131,54,place,-0.020,-0.020,-0.020,0.000,0.000,0.000
1605203408503813120,10.0.1.131,51,place,-0.010,-0.010,-0.010,0.000,0.000,0.000
1605203409502322944,10.0.1.131,49,place,0.000,0.000,0.000,0.000,0.000,0.000
1605203410906345984,10.0.1.131,451,move_down,-0.020,-0.020,-0.020,0.000,0.000,0.000
1605203412408061952,10.0.1.131,426,move_down,-0.040,-0.040,-0.040,0.000,0.000,0.000
1605203413841708800,10.0.1.131,434,move_down,-0.060,-0.060,-0.060,0.000,0.000,0.000
1605203415380628992,10.0.1.131,464,move_down,-0.080,-0.080,-0.080,0.000,0.000,0.000
1605203416878680064,10.0.1.131,421,move_down,-0.100,-0.100,-0.100,0.000,0.000,0.000
1605203418390844160,10.0.1.131,440,move_down,-0.120,-0.120,-0.120,0.000,0.000,0.000
1605203419895304960,10.0.1.131,450,move_down,-0.140,-0.140,-0.140,0.000,0.000,0.000
1605203421511286016,10.0.1.131,511,move_down,-0.160,-0.160,-0.160,0.000,0.000,0.000
1605203422991979008,10.0.1.131,414,move_down,-0.180,-0.180,-0.180,0.000,0.000,0.000
1605203424474484992,10.0.1.131,409,move_down,-0.200,-0.200,-0.200,0.000,0.000,0.000
1605203425943186944,10.0.1.131,386,move_down,-0.220,-0.220,-0.220,0.000,0.000,0.000
1605203427444325888,10.0.1.131,460,move_down,-0.240,-0.240,-0.240,0.000,0.000,0.000
1605203428981499904,10.0.1.131,468,move_down,-0.260,-0.260,-0.260,0.000,0.000,0.000
1605203430462508800,10.0.1.131,418,move_down,-0.280,-0.280,-0.280,0.000,0.000,0.000
1605203432060726016,10.0.1.131,497,move_down,-0.300,-0.300,-0.300,0.000,0.000,0.000
1605203433544073984,10.0.1.131,395,move_down,-0.320,-0.320,-0.320,0.000,0.000,0.000
1605203435056563968,10.0.1.131,433,move_down,-0.340,-0.340,-0.340,0.000,0.000,0.000
1605203436577516032,10.0.1.131,424,move_down,-0.360,-0.360,-0.360,0.000,0.000,0.000
1605203438168935936,10.0.1.131,500,move_down,-0.380,-0.380,-0.380,0.000,0.000,0.000
1605203439731604224,10.0.1.131,489,move_down,-0.400,-0.400,-0.400,0.000,0.000,0.000
1605203441145582080,10.0.1.131,394,move_down,-0.420,-0.420,-0.420,0.000,0.000,0.000
1605203442642919936,10.0.1.131,439,move_down,-0.440,-0.440,-0.440,0.000,0.000,0.000
1605203444152761856,10.0.1.131,426,move_down,-0.460,-0.460,-0.460,0.000,0.000,0.000
1605203445633889024,10.0.1.131,413,move_down,-0.480,-0.480,-0.480,0.000,0.000,0.000
1605203447133527040,10.0.1.131,408,move_down,-0.500,-0.500,-0.500,0.000,0.000,0.000
1605203448609968896,10.0.1.131,399,move_down,-0.520,-0.520,-0.520,0.000,0.000,0.000
1605203450144356864,10.0.1.131,413,move_down,-0.540,-0.540,-0.540,0.000,0.000,0.000
1605203451663646976,10.0.1.131,413,move_down,-0.560,-0.560,-0.560,0.000,0.000,0.000
1605203453145170944,10.0.1.131,412,move_down,-0.580,-0.580,-0.580,0.000,0.000,0.000
1605203454282552832,10.0.1.131,36,pick,-0.590,-0.590,-0.590,0.000,0.000,0.000
1605203455286871808,10.0.1.131,39,pick,-0.600,-0.600,-0.600,0.000,0.000,0.000
1605203456305260032,10.0.1.131,54,pick,-0.610,-0.610,-0.610,0.000,0.000,0.000
1605203457313754112,10.0.1.131,61,pick,-0.620,-0.620,-0.620,0.000,0.000,0.000
1605203458317324032,10.0.1.131,63,pick,-0.630,-0.630,-0.630,0.000,0.000,0.000
1605203459310187008,10.0.1.131,55,pick,-0.640,-0.640,-0.640,0.000,0.000,0.000
1605203460312481024,10.0.1.131,52,pick,-0.650,-0.650,-0.650,0.000,0.000,0.000
1605203461308902912,10.0.1.131,45,pick,-0.660,-0.660,-0.660,0.000,0.000,0.000
1605203462310144000,10.0.1.131,44,pick,-0.670,-0.670,-0.670,0.000,0.000,0.000
1605203463314333952,10.0.1.131,47,pick,-0.680,-0.680,-0.680,0.000,0.000,0.000
1605203464308094976,10.0.1.131,39,pick,-0.690,-0.690,-0.690,0.000,0.000,0.000
1605203465322737920,10.0.1.131,52,pick,-0.700,-0.700,-0.700,0.000,0.000,0.000
1605203466325778944,10.0.1.131,54,pick,-0.710,-0.710,-0.710,0.000,0.000,0.000
1605203467326193152,10.0.1.131,48,pick,-0.720,-0.720,-0.720,0.000,0.000,0.000
1605203468323062784,10.0.1.131,43,pick,-0.730,-0.730,-0.730,0.000,0.000,0.000
1605203469325309952,10.0.1.131,45,pick,-0.740,-0.740,-0.740,0.000,0.000,0.000
1605203470324420864,10.0.1.131,42,pick,-0.750,-0.750,-0.750,0.000,0.000,0.000
1605203471337306880,10.0.1.131,51,pick,-0.760,-0.760,-0.760,0.000,0.000,0.000
1605203472322736128,10.0.1.131,35,pick,-0.770,-0.770,-0.770,0.000,0.000,0.000
1605203473744724992,10.0.1.131,454,move_up,-0.750,-0.750,-0.750,0.000,0.000,0.000
1605203475223043072,10.0.1.131,423,move_up,-0.730,-0.730,-0.730,0.000,0.000,0.000
1605203476744755968,10.0.1.131,425,move_up,-0.710,-0.710,-0.710,0.000,0.000,0.000
1605203478245549824,10.0.1.131,397,move_up,-0.690,-0.690,-0.690,0.000,0.000,0.000
1605203479797686016,10.0.1.131,463,move_up,-0.670,-0.670,-0.670,0.000,0.000,0.000
1605203481370616064,10.0.1.131,506,move_up,-0.650,-0.650,-0.650,0.000,0.000,0.000
1605203482836876032,10.0.1.131,400,move_up,-0.630,-0.630,-0.630,0.000,0.000,0.000
1605203484348967168,10.0.1.131,431,move_up,-0.610,-0.610,-0.610,0.000,0.000,0.000
1605203485890486016,10.0.1.131,432,move_up,-0.590,-0.590,-0.590,0.000,0.000,0.000
1605203487416408064,10.0.1.131,461,move_up,-0.570,-0.570,-0.570,0.000,0.000,0.000
1605203489025598976,10.0.1.131,537,move_up,-0.550,-0.550,-0.550,0.000,0.000,0.000
1605203490578845952,10.0.1.131,456,move_up,-0.530,-0.530,-0.530,0.000,0.000,0.000
1605203492082454016,10.0.1.131,424,move_up,-0.510,-0.510,-0.510,0.000,0.000,0.000
1605203493535962112,10.0.1.131,442,move_up,-0.490,-0.490,-0.490,0.000,0.000,0.000
1605203495026802944,10.0.1.131,424,move_up,-0.470,-0.470,-0.470,0.000,0.000,0.000
1605203496619632128,10.0.1.131,501,move_up,-0.450,-0.450,-0.450,0.000,0.000,0.000
1605203498066302976,10.0.1.131,399,move_up,-0.430,-0.430,-0.430,0.000,0.000,0.000
1605203499575361024,10.0.1.131,412,move_up,-0.410,-0.410,-0.410,0.000,0.000,0.000
1605203501133936896,10.0.1.131,453,move_up,-0.390,-0.390,-0.390,0.000,0.000,0.000
1605203502655757056,10.0.1.131,443,move_up,-0.370,-0.370,-0.370,0.000,0.000,0.000
1605203504157007872,10.0.1.131,397,move_up,-0.350,-0.350,-0.350,0.000,0.000,0.000
1605203505656585984,10.0.1.131,408,move_up,-0.330,-0.330,-0.330,0.000,0.000,0.000
1605203507194739968,10.0.1.131,446,move_up,-0.310,-0.310,-0.310,0.000,0.000,0.000
1605203508678486016,10.0.1.131,428,move_up,-0.290,-0.290,-0.290,0.000,0.000,0.000
1605203510178992896,10.0.1.131,405,move_up,-0.270,-0.270,-0.270,0.000,0.000,0.000
1605203511735971072,10.0.1.131,428,move_up,-0.250,-0.250,-0.250,0.000,0.000,0.000
1605203513321057024,10.0.1.131,408,move_up,-0.230,-0.230,-0.230,0.000,0.000,0.000
1605203514912964096,10.0.1.131,461,move_up,-0.210,-0.210,-0.210,0.000,0.000,0.000
1605203516412242944,10.0.1.131,417,move_up,-0.190,-0.190,-0.190,0.000,0.000,0.000
1605203517535621888,10.0.1.131,56,place,-0.180,-0.180,-0.180,0.000,0.000,0.000
1605203518531113984,10.0.1.131,50,place,-0.170,-0.170,-0.170,0.000,0.000,0.000
1605203519524951040,10.0.1.131,42,place,-0.160,-0.160,-0.160,0.000,0.000,0.000
1605203520528190976,10.0.1.131,44,place,-0.150,-0.150,-0.150,0.000,0.000,0.000
1605203521522243072,10.0.1.131,37,place,-0.140,-0.140,-0.140,0.000,0.000,0.000
1605203522528269056,10.0.1.131,41,place,-0.130,-0.130,-0.130,0.000,0.000,0.000
1605203523550038016,10.0.1.131,50,place,-0.120,-0.120,-0.120,0.000,0.000,0.000
1605203524547318016,10.0.1.131,45,place,-0.110,-0.110,-0.110,0.000,0.000,0.000
1605203525547663872,10.0.1.131,44,place,-0.100,-0.100,-0.100,0.000,0.000,0.000
1605203526548419072,10.0.1.131,44,place,-0.090,-0.090,-0.090,0.000,0.000,0.000
1605203527549694976,10.0.1.131,44,place,-0.080,-0.080,-0.080,0.000,0.000,0.000
1605203528547552000,10.0.1.131,36,place,-0.070,-0.070,-0.070,0.000,0.000,0.000
1605203529552980992,10.0.1.131,38,place,-0.060,-0.060,-0.060,0.000,0.000,0.000
1605203530549036032,10.0.1.131,32,place,-0.050,-0.050,-0.050,0.000,0.000,0.000
1605203531567758080,10.0.1.131,50,place,-0.040,-0.040,-0.040,0.000,0.000,0.000
1605203532568037888,10.0.1.131,49,place,-0.030,-0.030,-0.030,0.000,0.000,0.000
1605203533568700160,10.0.1.131,48,place,-0.020,-0.020,-0.020,0.000,0.000,0.000
1605203534572057856,10.0.1.131,50,place,-0.010,-0.010,-0.010,0.000,0.000,0.000
1605203535565694976,10.0.1.131,42,place,0.000,0.000,0.000,0.000,0.000,0.000
1605203536930332928,10.0.1.131,406,move_down,-0.020,-0.020,-0.020,0.000,0.000,0.000
1605203538496448000,10.0.1.131,449,move_down,-0.040,-0.040,-0.040,0.000,0.000,0.000
1605203539967094784,10.0.1.131,425,move_down,-0.060,-0.060,-0.060,0.000,0.000,0.000
1605203541514002176,10.0.1.131,475,move_down,-0.080,-0.080,-0.080,0.000,0.000,0.000
1605203543071592960,10.0.1.131,456,move_down,-0.100,-0.100,-0.100,0.000,0.000,0.000
1605203544592539904,10.0.1.131,452,move_down,-0.120,-0.120,-0.120,0.000,0.000,0.000
1605203546001764096,10.0.1.131,415,move_down,-0.140,-0.140,-0.140,0.000,0.000,0.000
1605203547565910016,10.0.1.131,465,move_down,-0.160,-0.160,-0.160,0.000,0.000,0.000
1605203549059163136,10.0.1.131,450,move_down,-0.180,-0.180,-0.180,0.000,0.000,0.000
1605203550566150912,10.0.1.131,466,move_down,-0.200,-0.200,-0.200,0.000,0.000,0.000
1605203552197137152,10.0.1.131,579,move_down,-0.220,-0.220,-0.220,0.000,0.000,0.000
1605203553681443840,10.0.1.131,433,move_down,-0.240,-0.240,-0.240,0.000,0.000,0.000
1605203555186048000,10.0.1.131,450,move_down,-0.260,-0.260,-0.260,0.000,0.000,0.000
1605203556649787904,10.0.1.131,410,move_down,-0.280,-0.280,-0.280,0.000,0.000,0.000
1605203558140256000,10.0.1.131,387,move_down,-0.300,-0.300,-0.300,0.000,0.000,0.000
1605203559632545024,10.0.1.131,464,move_down,-0.320,-0.320,-0.320,0.000,0.000,0.000
1605203561179943168,10.0.1.131,477,move_down,-0.340,-0.340,-0.340,0.000,0.000,0.000
1605203562700478976,10.0.1.131,409,move_down,-0.360,-0.360,-0.360,0.000,0.000,0.000
1605203564256742912,10.0.1.131,465,move_down,-0.380,-0.380,-0.380,0.000,0.000,0.000
1605203565745643008,10.0.1.131,474,move_down,-0.400,-0.400,-0.400,0.000,0.000,0.000
1605203567192023040,10.0.1.131,418,move_down,-0.420,-0.420,-0.420,0.000,0.000,0.000
1605203568668003072,10.0.1.131,404,move_down,-0.440,-0.440,-0.440,0.000,0.000,0.000
1605203570242281984,10.0.1.131,457,move_down,-0.460,-0.460,-0.460,0.000,0.000,0.000
1605203571789999104,10.0.1.131,480,move_down,-0.480,-0.480,-0.480,0.000,0.000,0.000
1605203573313428992,10.0.1.131,469,move_down,-0.500,-0.500,-0.500,0.000,0.000,0.000
1605203574831873792,10.0.1.131,450,move_down,-0.520,-0.520,-0.520,0.000,0.000,0.000
1605203576330415104,10.0.1.131,431,move_down,-0.540,-0.540,-0.540,0.000,0.000,0.000
1605203577853886976,10.0.1.131,454,move_down,-0.560,-0.560,-0.560,0.000,0.000,0.000
1605203579348215040,10.0.1.131,444,move_down,-0.580,-0.580,-0.580,0.000,0.000,0.000
1605203580495878912,10.0.1.131,47,pick,-0.590,-0.590,-0.590,0.000,0.000,0.000
1605203581489932032,10.0.1.131,40,pick,-0.600,-0.600,-0.600,0.000,0.000,0.000
1605203582489682944,10.0.1.131,38,pick,-0.610,-0.610,-0.610,0.000,0.000,0.000
1605203583490402048,10.0.1.131,38,pick,-0.620,-0.620,-0.620,0.000,0.000,0.000
1605203584500000000,10.0.1.131,44,pick,-0.630,-0.630,-0.630,0.000,0.000,0.000
1605203585491463936,10.0.1.131,34,pick,-0.640,-0.640,-0.640,0.000,0.000,0.000
1605203586496413952,10.0.1.131,38,pick,-0.650,-0.650,-0.650,0.000,0.000,0.000
1605203587518416896,10.0.1.131,58,pick,-0.660,-0.660,-0.660,0.000,0.000,0.000
1605203588511969024,10.0.1.131,44,pick,-0.670,-0.670,-0.670,0.000,0.000,0.000
1605203589510379008,10.0.1.131,39,pick,-0.680,-0.680,-0.680,0.000,0.000,0.000
1605203590512915968,10.0.1.131,40,pick,-0.690,-0.690,-0.690,0.000,0.000,0.000
1605203591510245120,10.0.1.131,36,pick,-0.700,-0.700,-0.700,0.000,0.000,0.000
1605203592508603136,10.0.1.131,33,pick,-0.710,-0.710,-0.710,0.000,0.000,0.000
1605203593515873792,10.0.1.131,38,pick,-0.720,-0.720,-0.720,0.000,0.000,0.000
1605203594511809024,10.0.1.131,33,pick,-0.730,-0.730,-0.730,0.000,0.000,0.000
1605203596480846848,10.0.1.131,NaN,pick,-0.750,-0.750,-0.750,0.000,0.000,0.000
1605203596535471872,10.0.1.131,54,pick,-0.750,-0.750,-0.750,0.000,0.000,0.000
1605203597554151936,10.0.1.131,61,pick,-0.760,-0.760,-0.760,0.000,0.000,0.000
1605203598532210944,10.0.1.131,37,pick,-0.770,-0.770,-0.770,0.000,0.000,0.000
1605203599941332992,10.0.1.131,445,move_up,-0.750,-0.750,-0.750,0.000,0.000,0.000
1605203601444130048,10.0.1.131,426,move_up,-0.730,-0.730,-0.730,0.000,0.000,0.000
1605203602921518080,10.0.1.131,402,move_up,-0.710,-0.710,-0.710,0.000,0.000,0.000
1605203604450242048,10.0.1.131,443,move_up,-0.690,-0.690,-0.690,0.000,0.000,0.000
1605203605940517888,10.0.1.131,421,move_up,-0.670,-0.670,-0.670,0.000,0.000,0.000
1605203607431109888,10.0.1.131,429,move_up,-0.650,-0.650,-0.650,0.000,0.000,0.000
1605203608969601024,10.0.1.131,404,move_up,-0.630,-0.630,-0.630,0.000,0.000,0.000
1605203610449248000,10.0.1.131,404,move_up,-0.610,-0.610,-0.610,0.000,0.000,0.000
1605203611989543936,10.0.1.131,454,move_up,-0.590,-0.590,-0.590,0.000,0.000,0.000
1605203613534019072,10.0.1.131,483,move_up,-0.570,-0.570,-0.570,0.000,0.000,0.000
1605203615003308032,10.0.1.131,399,move_up,-0.550,-0.550,-0.550,0.000,0.000,0.000
1605203616639209984,10.0.1.131,541,move_up,-0.530,-0.530,-0.530,0.000,0.000,0.000
1605203618112803072,10.0.1.131,428,move_up,-0.510,-0.510,-0.510,0.000,0.000,0.000
1605203619579377920,10.0.1.131,391,move_up,-0.490,-0.490,-0.490,0.000,0.000,0.000
1605203621081082112,10.0.1.131,456,move_up,-0.470,-0.470,-0.470,0.000,0.000,0.000
1605203622599473920,10.0.1.131,441,move_up,-0.450,-0.450,-0.450,0.000,0.000,0.000
1605203624105134848,10.0.1.131,408,move_up,-0.430,-0.430,-0.430,0.000,0.000,0.000
1605203625580785152,10.0.1.131,394,move_up,-0.410,-0.410,-0.410,0.000,0.000,0.000
1605203627190397952,10.0.1.131,462,move_up,-0.390,-0.390,-0.390,0.000,0.000,0.000
1605203628698028032,10.0.1.131,443,move_up,-0.370,-0.370,-0.370,0.000,0.000,0.000
1605203630131049984,10.0.1.131,371,move_up,-0.350,-0.350,-0.350,0.000,0.000,0.000
1605203631691890944,10.0.1.131,451,move_up,-0.330,-0.330,-0.330,0.000,0.000,0.000
1605203633243494912,10.0.1.131,491,move_up,-0.310,-0.310,-0.310,0.000,0.000,0.000
1605203634812361984,10.0.1.131,511,move_up,-0.290,-0.290,-0.290,0.000,0.000,0.000
1605203636313515008,10.0.1.131,468,move_up,-0.270,-0.270,-0.270,0.000,0.000,0.000
1605203637892570112,10.0.1.131,466,move_up,-0.250,-0.250,-0.250,0.000,0.000,0.000
1605203639360109056,10.0.1.131,432,move_up,-0.230,-0.230,-0.230,0.000,0.000,0.000
1605203640881356032,10.0.1.131,447,move_up,-0.210,-0.210,-0.210,0.000,0.000,0.000
1605203642364875008,10.0.1.131,389,move_up,-0.190,-0.190,-0.190,0.000,0.000,0.000
1605203643515712000,10.0.1.131,55,place,-0.180,-0.180,-0.180,0.000,0.000,0.000
1605203644507399168,10.0.1.131,45,place,-0.170,-0.170,-0.170,0.000,0.000,0.000
1605203645516009984,10.0.1.131,52,place,-0.160,-0.160,-0.160,0.000,0.000,0.000
1605203646510034944,10.0.1.131,43,place,-0.150,-0.150,-0.150,0.000,0.000,0.000
1605203647520572928,10.0.1.131,52,place,-0.140,-0.140,-0.140,0.000,0.000,0.000
1605203648529431040,10.0.1.131,60,place,-0.130,-0.130,-0.130,0.000,0.000,0.000
1605203650471565056,10.0.1.131,NaN,place,-0.110,-0.110,-0.110,0.000,0.000,0.000
1605203650532151040,10.0.1.131,60,place,-0.110,-0.110,-0.110,0.000,0.000,0.000
1605203651517981952,10.0.1.131,45,place,-0.100,-0.100,-0.100,0.000,0.000,0.000
1605203652511246080,10.0.1.131,37,place,-0.090,-0.090,-0.090,0.000,0.000,0.000
1605203653527211008,10.0.1.131,52,place,-0.080,-0.080,-0.080,0.000,0.000,0.000
1605203654518148864,10.0.1.131,42,place,-0.070,-0.070,-0.070,0.000,0.000,0.000
1605203655516566016,10.0.1.131,39,place,-0.060,-0.060,-0.060,0.000,0.000,0.000
1605203656514828800,10.0.1.131,36,place,-0.050,-0.050,-0.050,0.000,0.000,0.000
1605203657512179968,10.0.1.131,32,place,-0.040,-0.040,-0.040,0.000,0.000,0.000
1605203658538269952,10.0.1.131,57,place,-0.030,-0.030,-0.030,0.000,0.000,0.000
1605203659536792064,10.0.1.131,53,place,-0.020,-0.020,-0.020,0.000,0.000,0.000
1605203660533690880,10.0.1.131,47,place,-0.010,-0.010,-0.010,0.000,0.000,0.000
1605203661538702080,10.0.1.131,51,place,0.000,0.000,0.000,0.000,0.000,0.000
1605203662916552960,10.0.1.131,422,move_down,-0.020,-0.020,-0.020,0.000,0.000,0.000
1605203664435795968,10.0.1.131,434,move_down,-0.040,-0.040,-0.040,0.000,0.000,0.000
1605203665865658112,10.0.1.131,429,move_down,-0.060,-0.060,-0.060,0.000,0.000,0.000
1605203667382425088,10.0.1.131,437,move_down,-0.080,-0.080,-0.080,0.000,0.000,0.000
1605203668911612160,10.0.1.131,463,move_down,-0.100,-0.100,-0.100,0.000,0.000,0.000
1605203670398208000,10.0.1.131,413,move_down,-0.120,-0.120,-0.120,0.000,0.000,0.000
1605203672038466048,10.0.1.131,535,move_down,-0.140,-0.140,-0.140,0.000,0.000,0.000
1605203673589137152,10.0.1.131,461,move_down,-0.160,-0.160,-0.160,0.000,0.000,0.000
1605203675068200960,10.0.1.131,447,move_down,-0.180,-0.180,-0.180,0.000,0.000,0.000
1605203676534632960,10.0.1.131,451,move_down,-0.200,-0.200,-0.200,0.000,0.000,0.000
1605203678055887104,10.0.1.131,436,move_down,-0.220,-0.220,-0.220,0.000,0.000,0.000
1605203679574644992,10.0.1.131,438,move_down,-0.240,-0.240,-0.240,0.000,0.000,0.000
1605203681097063168,10.0.1.131,449,move_down,-0.260,-0.260,-0.260,0.000,0.000,0.000
1605203682613748992,10.0.1.131,448,move_down,-0.280,-0.280,-0.280,0.000,0.000,0.000
1605203684167301888,10.0.1.131,445,move_down,-0.300,-0.300,-0.300,0.000,0.000,0.000
1605203685691735040,10.0.1.131,472,move_down,-0.320,-0.320,-0.320,0.000,0.000,0.000
1605203687216734976,10.0.1.131,465,move_down,-0.340,-0.340,-0.340,0.000,0.000,0.000
1605203688780879104,10.0.1.131,460,move_down,-0.360,-0.360,-0.360,0.000,0.000,0.000
1605203690313022976,10.0.1.131,465,move_down,-0.380,-0.380,-0.380,0.000,0.000,0.000
1605203691774614016,10.0.1.131,407,move_down,-0.400,-0.400,-0.400,0.000,0.000,0.000
1605203693303781120,10.0.1.131,447,move_down,-0.420,-0.420,-0.420,0.000,0.000,0.000
1605203694736813056,10.0.1.131,425,move_down,-0.440,-0.440,-0.440,0.000,0.000,0.000
1605203696179634176,10.0.1.131,441,move_down,-0.460,-0.460,-0.460,0.000,0.000,0.000
1605203697696125952,10.0.1.131,431,move_down,-0.480,-0.480,-0.480,0.000,0.000,0.000
1605203699154135040,10.0.1.131,386,move_down,-0.500,-0.500,-0.500,0.000,0.000,0.000
1605203700691651072,10.0.1.131,425,move_down,-0.520,-0.520,-0.520,0.000,0.000,0.000
1605203702223744000,10.0.1.131,442,move_down,-0.540,-0.540,-0.540,0.000,0.000,0.000
1605203703703252992,10.0.1.131,418,move_down,-0.560,-0.560,-0.560,0.000,0.000,0.000
1605203705173125888,10.0.1.131,424,move_down,-0.580,-0.580,-0.580,0.000,0.000,0.000
1605203706306243840,10.0.1.131,31,pick,-0.590,-0.590,-0.590,0.000,0.000,0.000
1605203707337836032,10.0.1.131,61,pick,-0.600,-0.600,-0.600,0.000,0.000,0.000
1605203708325544192,10.0.1.131,43,pick,-0.610,-0.610,-0.610,0.000,0.000,0.000
1605203709330003968,10.0.1.131,46,pick,-0.620,-0.620,-0.620,0.000,0.000,0.000
1605203710326225920,10.0.1.131,41,pick,-0.630,-0.630,-0.630,0.000,0.000,0.000
1605203711326919936,10.0.1.131,40,pick,-0.640,-0.640,-0.640,0.000,0.000,0.000
1605203712341427200,10.0.1.131,52,pick,-0.650,-0.650,-0.650,0.000,0.000,0.000
1605203713327301120,10.0.1.131,33,pick,-0.660,-0.660,-0.660,0.000,0.000,0.000
1605203714352692992,10.0.1.131,57,pick,-0.670,-0.670,-0.670,0.000,0.000,0.000
1605203715375109888,10.0.1.131,59,pick,-0.680,-0.680,-0.680,0.000,0.000,0.000
1605203716367597056,10.0.1.131,48,pick,-0.690,-0.690,-0.690,0.000,0.000,0.000
1605203717366902016,10.0.1.131,46,pick,-0.700,-0.700,-0.700,0.000,0.000,0.000
1605203718367299072,10.0.1.131,45,pick,-0.710,-0.710,-0.710,0.000,0.000,0.000
1605203719366605056,10.0.1.131,43,pick,-0.720,-0.720,-0.720,0.000,0.000,0.000
1605203720349561088,10.0.1.131,25,pick,-0.730,-0.730,-0.730,0.000,0.000,0.000
1605203721367079936,10.0.1.131,42,pick,-0.740,-0.740,-0.740,0.000,0.000,0.000
1605203723330393088,10.0.1.131,NaN,pick,-0.760,-0.760,-0.760,0.000,0.000,0.000
1605203723376401920,10.0.1.131,45,pick,-0.760,-0.760,-0.760,0.000,0.000,0.000
1605203724373548032,10.0.1.131,36,pick,-0.770,-0.770,-0.770,0.000,0.000,0.000
1605203725733325056,10.0.1.131,394,move_up,-0.750,-0.750,-0.750,0.000,0.000,0.000
1605203727314753024,10.0.1.131,437,move_up,-0.730,-0.730,-0.730,0.000,0.000,0.000
1605203728870475008,10.0.1.131,478,move_up,-0.710,-0.710,-0.710,0.000,0.000,0.000
1605203730352591104,10.0.1.131,406,move_up,-0.690,-0.690,-0.690,0.000,0.000,0.000
1605203731866345984,10.0.1.131,438,move_up,-0.670,-0.670,-0.670,0.000,0.000,0.000
1605203733380009984,10.0.1.131,440,move_up,-0.650,-0.650,-0.650,0.000,0.000,0.000
1605203734931266048,10.0.1.131,443,move_up,-0.630,-0.630,-0.630,0.000,0.000,0.000
1605203736409698048,10.0.1.131,422,move_up,-0.610,-0.610,-0.610,0.000,0.000,0.000
1605203737930160128,10.0.1.131,417,move_up,-0.590,-0.590,-0.590,0.000,0.000,0.000
1605203739464776960,10.0.1.131,469,move_up,-0.570,-0.570,-0.570,0.000,0.000,0.000
1605203740986738944,10.0.1.131,439,move_up,-0.550,-0.550,-0.550,0.000,0.000,0.000
1605203742526433024,10.0.1.131,486,move_up,-0.530,-0.530,-0.530,0.000,0.000,0.000
1605203743998477056,10.0.1.131,412,move_up,-0.510,-0.510,-0.510,0.000,0.000,0.000
1605203745519303936,10.0.1.131,446,move_up,-0.490,-0.490,-0.490,0.000,0.000,0.000
1605203746993006848,10.0.1.131,402,move_up,-0.470,-0.470,-0.470,0.000,0.000,0.000
1605203748558499072,10.0.1.131,436,move_up,-0.450,-0.450,-0.450,0.000,0.000,0.000
1605203750071588096,10.0.1.131,435,move_up,-0.430,-0.430,-0.430,0.000,0.000,0.000
1605203751638215936,10.0.1.131,407,move_up,-0.410,-0.410,-0.410,0.000,0.000,0.000
1605203753138322176,10.0.1.131,390,move_up,-0.390,-0.390,-0.390,0.000,0.000,0.000
1605203754642533120,10.0.1.131,439,move_up,-0.370,-0.370,-0.370,0.000,0.000,0.000
1605203756119796992,10.0.1.131,385,move_up,-0.350,-0.350,-0.350,0.000,0.000,0.000
1605203757751062016,10.0.1.131,515,move_up,-0.330,-0.330,-0.330,0.000,0.000,0.000
1605203759254554880,10.0.1.131,456,move_up,-0.310,-0.310,-0.310,0.000,0.000,0.000
1605203760760790016,10.0.1.131,449,move_up,-0.290,-0.290,-0.290,0.000,0.000,0.000
1605203762227559936,10.0.1.131,438,move_up,-0.270,-0.270,-0.270,0.000,0.000,0.000
1605203763768537088,10.0.1.131,470,move_up,-0.250,-0.250,-0.250,0.000,0.000,0.000
1605203765223937024,10.0.1.131,424,move_up,-0.230,-0.230,-0.230,0.000,0.000,0.000
1605203766692871936,10.0.1.131,368,move_up,-0.210,-0.210,-0.210,0.000,0.000,0.000
1605203768274077952,10.0.1.131,459,move_up,-0.190,-0.190,-0.190,0.000,0.000,0.000
1605203769394132992,10.0.1.131,42,place,-0.180,-0.180,-0.180,0.000,0.000,0.000
1605203770393531136,10.0.1.131,40,place,-0.170,-0.170,-0.170,0.000,0.000,0.000
1605203771394543872,10.0.1.131,39,place,-0.160,-0.160,-0.160,0.000,0.000,0.000
1605203772394066944,10.0.1.131,37,place,-0.150,-0.150,-0.150,0.000,0.000,0.000
1605203773401241088,10.0.1.131,43,place,-0.140,-0.140,-0.140,0.000,0.000,0.000
1605203774421169152,10.0.1.131,62,place,-0.130,-0.130,-0.130,0.000,0.000,0.000
1605203775410896128,10.0.1.131,50,place,-0.120,-0.120,-0.120,0.000,0.000,0.000
1605203776412070144,10.0.1.131,50,place,-0.110,-0.110,-0.110,0.000,0.000,0.000
1605203777422189824,10.0.1.131,59,place,-0.100,-0.100,-0.100,0.000,0.000,0.000
1605203778420110080,10.0.1.131,55,place,-0.090,-0.090,-0.090,0.000,0.000,0.000
1605203779412056832,10.0.1.131,46,place,-0.080,-0.080,-0.080,0.000,0.000,0.000
1605203780410796032,10.0.1.131,43,place,-0.070,-0.070,-0.070,0.000,0.000,0.000
1605203781414266112,10.0.1.131,46,place,-0.060,-0.060,-0.060,0.000,0.000,0.000
1605203782409463808,10.0.1.131,32,place,-0.050,-0.050,-0.050,0.000,0.000,0.000
1605203783429145088,10.0.1.131,51,place,-0.040,-0.040,-0.040,0.000,0.000,0.000
1605203784427976960,10.0.1.131,48,place,-0.030,-0.030,-0.030,0.000,0.000,0.000
1605203785428418048,10.0.1.131,48,place,-0.020,-0.020,-0.020,0.000,0.000,0.000
1605203786434693120,10.0.1.131,53,place,-0.010,-0.010,-0.010,0.000,0.000,0.000
1605203787442064128,10.0.1.131,59,place,0.000,0.000,0.000,0.000,0.000,0.000
1605203788801415936,10.0.1.131,417,move_down,-0.020,-0.020,-0.020,0.000,0.000,0.000
1605203790419863040,10.0.1.131,528,move_down,-0.040,-0.040,-0.040,0.000,0.000,0.000
1605203791923233024,10.0.1.131,437,move_down,-0.060,-0.060,-0.060,0.000,0.000,0.000
1605203793435916800,10.0.1.131,444,move_down,-0.080,-0.080,-0.080,0.000,0.000,0.000
1605203794872265984,10.0.1.131,411,move_down,-0.100,-0.100,-0.100,0.000,0.000,0.000
1605203796374043904,10.0.1.131,427,move_down,-0.120,-0.120,-0.120,0.000,0.000,0.000
1605203798013345024,10.0.1.131,510,move_down,-0.140,-0.140,-0.140,0.000,0.000,0.000
1605203799520530944,10.0.1.131,461,move_down,-0.160,-0.160,-0.160,0.000,0.000,0.000
1605203801002612224,10.0.1.131,416,move_down,-0.180,-0.180,-0.180,0.000,0.000,0.000
1605203802471792896,10.0.1.131,450,move_down,-0.200,-0.200,-0.200,0.000,0.000,0.000
1605203804005860096,10.0.1.131,457,move_down,-0.220,-0.220,-0.220,0.000,0.000,0.000
1605203805506499072,10.0.1.131,428,move_down,-0.240,-0.240,-0.240,0.000,0.000,0.000
1605203807148734208,10.0.1.131,454,move_down,-0.260,-0.260,-0.260,0.000,0.000,0.000
1605203808638169088,10.0.1.131,431,move_down,-0.280,-0.280,-0.280,0.000,0.000,0.000
1605203810143764992,10.0.1.131,393,move_down,-0.300,-0.300,-0.300,0.000,0.000,0.000
1605203811641590016,10.0.1.131,440,move_down,-0.320,-0.320,-0.320,0.000,0.000,0.000
1605203813115462912,10.0.1.131,430,move_down,-0.340,-0.340,-0.340,0.000,0.000,0.000
1605203814583890944,10.0.1.131,401,move_down,-0.360,-0.360,-0.360,0.000,0.000,0.000
1605203816090540032,10.0.1.131,429,move_down,-0.380,-0.380,-0.380,0.000,0.000,0.000
1605203817585055232,10.0.1.131,447,move_down,-0.400,-0.400,-0.400,0.000,0.000,0.000
1605203819125713152,10.0.1.131,488,move_down,-0.420,-0.420,-0.420,0.000,0.000,0.000
1605203820574871040,10.0.1.131,388,move_down,-0.440,-0.440,-0.440,0.000,0.000,0.000
1605203822068542976,10.0.1.131,453,move_down,-0.460,-0.460,-0.460,0.000,0.000,0.000
1605203823546531840,10.0.1.131,390,move_down,-0.480,-0.480,-0.480,0.000,0.000,0.000
1605203825052283136,10.0.1.131,440,move_down,-0.500,-0.500,-0.500,0.000,0.000,0.000
1605203826522615040,10.0.1.131,381,move_down,-0.520,-0.520,-0.520,0.000,0.000,0.000
1605203828008162048,10.0.1.131,412,move_down,-0.540,-0.540,-0.540,0.000,0.000,0.000
1605203829545206016,10.0.1.131,448,move_down,-0.560,-0.560,-0.560,0.000,0.000,0.000
1605203831083287040,10.0.1.131,463,move_down,-0.580,-0.580,-0.580,0.000,0.000,0.000
1605203832226358016,10.0.1.131,44,pick,-0.590,-0.590,-0.590,0.000,0.000,0.000
1605203833226624000,10.0.1.131,43,pick,-0.600,-0.600,-0.600,0.000,0.000,0.000
1605203834221121024,10.0.1.131,36,pick,-0.610,-0.610,-0.610,0.000,0.000,0.000
1605203835224132096,10.0.1.131,38,pick,-0.620,-0.620,-0.620,0.000,0.000,0.000
1605203836221494016,10.0.1.131,34,pick,-0.630,-0.630,-0.630,0.000,0.000,0.000
1605203837244273920,10.0.1.131,55,pick,-0.640,-0.640,-0.640,0.000,0.000,0.000
1605203838242063872,10.0.1.131,52,pick,-0.650,-0.650,-0.650,0.000,0.000,0.000
1605203839245624064,10.0.1.131,54,pick,-0.660,-0.660,-0.660,0.000,0.000,0.000
1605203840253025024,10.0.1.131,60,pick,-0.670,-0.670,-0.670,0.000,0.000,0.000
1605203841239446016,10.0.1.131,46,pick,-0.680,-0.680,-0.680,0.000,0.000,0.000
1605203842238397952,10.0.1.131,43,pick,-0.690,-0.690,-0.690,0.000,0.000,0.000
1605203843239037952,10.0.1.131,43,pick,-0.700,-0.700,-0.700,0.000,0.000,0.000
1605203844252049920,10.0.1.131,54,pick,-0.710,-0.710,-0.710,0.000,0.000,0.000
1605203845243590144,10.0.1.131,43,pick,-0.720,-0.720,-0.720,0.000,0.000,0.000
1605203846244619008,10.0.1.131,43,pick,-0.730,-0.730,-0.730,0.000,0.000,0.000
1605203847248498944,10.0.1.131,45,pick,-0.740,-0.740,-0.740,0.000,0.000,0.000
1605203848240988928,10.0.1.131,36,pick,-0.750,-0.750,-0.750,0.000,0.000,0.000
1605203849243844096,10.0.1.131,37,pick,-0.760,-0.760,-0.760,0.000,0.000,0.000
1605203850240974848,10.0.1.131,34,pick,-0.770,-0.770,-0.770,0.000,0.000,0.000
1605203851653259008,10.0.1.131,446,move_up,-0.750,-0.750,-0.750,0.000,0.000,0.000
1605203853151768832,10.0.1.131,420,move_up,-0.730,-0.730,-0.730,0.000,0.000,0.000
1605203854698259968,10.0.1.131,500,move_up,-0.710,-0.710,-0.710,0.000,0.000,0.000
1605203856273328128,10.0.1.131,452,move_up,-0.690,-0.690,-0.690,0.000,0.000,0.000
1605203857823198208,10.0.1.131,455,move_up,-0.670,-0.670,-0.670,0.000,0.000,0.000
1605203859366714112,10.0.1.131,465,move_up,-0.650,-0.650,-0.650,0.000,0.000,0.000
1605203860883464960,10.0.1.131,436,move_up,-0.630,-0.630,-0.630,0.000,0.000,0.000
1605203862427877888,10.0.1.131,444,move_up,-0.610,-0.610,-0.610,0.000,0.000,0.000
1605203863962707968,10.0.1.131,444,move_up,-0.590,-0.590,-0.590,0.000,0.000,0.000
1605203865485518080,10.0.1.131,464,move_up,-0.570,-0.570,-0.570,0.000,0.000,0.000
1605203867045933056,10.0.1.131,481,move_up,-0.550,-0.550,-0.550,0.000,0.000,0.000
1605203868624756992,10.0.1.131,489,move_up,-0.530,-0.530,-0.530,0.000,0.000,0.000
1605203870143360000,10.0.1.131,416,move_up,-0.510,-0.510,-0.510,0.000,0.000,0.000
1605203871663806976,10.0.1.131,402,move_up,-0.490,-0.490,-0.490,0.000,0.000,0.000
1605203873216780800,10.0.1.131,463,move_up,-0.470,-0.470,-0.470,0.000,0.000,0.000
1605203874792357888,10.0.1.131,460,move_up,-0.450,-0.450,-0.450,0.000,0.000,0.000
1605203876323951104,10.0.1.131,433,move_up,-0.430,-0.430,-0.430,0.000,0.000,0.000
1605203878070245888,10.0.1.131,555,move_up,-0.410,-0.410,-0.410,0.000,0.000,0.000
1605203879717011968,10.0.1.131,515,move_up,-0.390,-0.390,-0.390,0.000,0.000,0.000
1605203881245320192,10.0.1.131,468,move_up,-0.370,-0.370,-0.370,0.000,0.000,0.000
1605203882768079104,10.0.1.131,432,move_up,-0.350,-0.350,-0.350,0.000,0.000,0.000
1605203884296472064,10.0.1.131,425,move_up,-0.330,-0.330,-0.330,0.000,0.000,0.000
1605203885891341824,10.0.1.131,472,move_up,-0.310,-0.310,-0.310,0.000,0.000,0.000
1605203887385466112,10.0.1.131,419,move_up,-0.290,-0.290,-0.290,0.000,0.000,0.000
1605203888903784960,10.0.1.131,414,move_up,-0.270,-0.270,-0.270,0.000,0.000,0.000
1605203890467046144,10.0.1.131,491,move_up,-0.250,-0.250,-0.250,0.000,0.000,0.000
1605203891974756864,10.0.1.131,470,move_up,-0.230,-0.230,-0.230,0.000,0.000,0.000
1605203893528440064,10.0.1.131,459,move_up,-0.210,-0.210,-0.210,0.000,0.000,0.000
1605203895054379008,10.0.1.131,450,move_up,-0.190,-0.190,-0.190,0.000,0.000,0.000
1605203896178699008,10.0.1.131,41,place,-0.180,-0.180,-0.180,0.000,0.000,0.000
1605203897173120000,10.0.1.131,35,place,-0.170,-0.170,-0.170,0.000,0.000,0.000
1605203898172910080,10.0.1.131,33,place,-0.160,-0.160,-0.160,0.000,0.000,0.000
1605203899173875200,10.0.1.131,34,place,-0.150,-0.150,-0.150,0.000,0.000,0.000
1605203900180670976,10.0.1.131,39,place,-0.140,-0.140,-0.140,0.000,0.000,0.000
1605203901181648896,10.0.1.131,39,place,-0.130,-0.130,-0.130,0.000,0.000,0.000
1605203902179181056,10.0.1.131,35,place,-0.120,-0.120,-0.120,0.000,0.000,0.000
1605203903183186176,10.0.1.131,39,place,-0.110,-0.110,-0.110,0.000,0.000,0.000
1605203904180275968,10.0.1.131,35,place,-0.100,-0.100,-0.100,0.000,0.000,0.000
1605203905178593024,10.0.1.131,32,place,-0.090,-0.090,-0.090,0.000,0.000,0.000
1605203906178489856,10.0.1.131,30,place,-0.080,-0.080,-0.080,0.000,0.000,0.000
1605203907198388992,10.0.1.131,48,place,-0.070,-0.070,-0.070,0.000,0.000,0.000
1605203908201427968,10.0.1.131,50,place,-0.060,-0.060,-0.060,0.000,0.000,0.000
1605203909192174848,10.0.1.131,40,place,-0.050,-0.050,-0.050,0.000,0.000,0.000
1605203910192809216,10.0.1.131,39,place,-0.040,-0.040,-0.040,0.000,0.000,0.000
1605203911196099072,10.0.1.131,41,place,-0.030,-0.030,-0.030,0.000,0.000,0.000
1605203912202800128,10.0.1.131,47,place,-0.020,-0.020,-0.020,0.000,0.000,0.000
1605203913195790080,10.0.1.131,38,place,-0.010,-0.010,-0.010,0.000,0.000,0.000
1605203914194731008,10.0.1.131,36,place,0.000,0.000,0.000,0.000,0.000,0.000
1605203915611041024,10.0.1.131,451,move_down,-0.020,-0.020,-0.020,0.000,0.000,0.000
1605203917152716032,10.0.1.131,413,move_down,-0.040,-0.040,-0.040,0.000,0.000,0.000
1605203918678850048,10.0.1.131,424,move_down,-0.060,-0.060,-0.060,0.000,0.000,0.000
1605203920237700096,10.0.1.131,477,move_down,-0.080,-0.080,-0.080,0.000,0.000,0.000
1605203921674899200,10.0.1.131,376,move_down,-0.100,-0.100,-0.100,0.000,0.000,0.000
1605203923172761088,10.0.1.131,386,move_down,-0.120,-0.120,-0.120,0.000,0.000,0.000
1605203924823902976,10.0.1.131,516,move_down,-0.140,-0.140,-0.140,0.000,0.000,0.000
1605203926352500992,10.0.1.131,469,move_down,-0.160,-0.160,-0.160,0.000,0.000,0.000
1605203927897699072,10.0.1.131,446,move_down,-0.180,-0.180,-0.180,0.000,0.000,0.000
1605203929469821952,10.0.1.131,468,move_down,-0.200,-0.200,-0.200,0.000,0.000,0.000
1605203931075443968,10.0.1.131,515,move_down,-0.220,-0.220,-0.220,0.000,0.000,0.000
1605203932624090880,10.0.1.131,464,move_down,-0.240,-0.240,-0.240,0.000,0.000,0.000
1605203934111491072,10.0.1.131,433,move_down,-0.260,-0.260,-0.260,0.000,0.000,0.000
1605203935585377024,10.0.1.131,413,move_down,-0.280,-0.280,-0.280,0.000,0.000,0.000
1605203937080758016,10.0.1.131,426,move_down,-0.300,-0.300,-0.300,0.000,0.000,0.000
1605203938619302912,10.0.1.131,434,move_down,-0.320,-0.320,-0.320,0.000,0.000,0.000
1605203940201003008,10.0.1.131,486,move_down,-0.340,-0.340,-0.340,0.000,0.000,0.000
1605203941692979200,10.0.1.131,408,move_down,-0.360,-0.360,-0.360,0.000,0.000,0.000
1605203943221188096,10.0.1.131,426,move_down,-0.380,-0.380,-0.380,0.000,0.000,0.000
1605203944711683072,10.0.1.131,431,move_down,-0.400,-0.400,-0.400,0.000,0.000,0.000
1605203946193059840,10.0.1.131,389,move_down,-0.420,-0.420,-0.420,0.000,0.000,0.000
1605203947710949888,10.0.1.131,444,move_down,-0.440,-0.440,-0.440,0.000,0.000,0.000
1605203949255898112,10.0.1.131,500,move_down,-0.460,-0.460,-0.460,0.000,0.000,0.000
1605203950776786944,10.0.1.131,467,move_down,-0.480,-0.480,-0.480,0.000,0.000,0.000
1605203952267951104,10.0.1.131,414,move_down,-0.500,-0.500,-0.500,0.000,0.000,0.000
1605203953741319936,10.0.1.131,396,move_down,-0.520,-0.520,-0.520,0.000,0.000,0.000
1605203955187757056,10.0.1.131,425,move_down,-0.540,-0.540,-0.540,0.000,0.000,0.000
1605203956747333888,10.0.1.131,437,move_down,-0.560,-0.560,-0.560,0.000,0.000,0.000
1605203958154227968,10.0.1.131,374,move_down,-0.580,-0.580,-0.580,0.000,0.000,0.000
1605203959234091008,10.0.1.131,43,pick,-0.590,-0.590,-0.590,0.000,0.000,0.000
1605203960235759104,10.0.1.131,43,pick,-0.600,-0.600,-0.600,0.000,0.000,0.000
1605203961233152000,10.0.1.131,40,pick,-0.610,-0.610,-0.610,0.000,0.000,0.000
1605203962237259008,10.0.1.131,43,pick,-0.620,-0.620,-0.620,0.000,0.000,0.000
1605203963237171968,10.0.1.131,41,pick,-0.630,-0.630,-0.630,0.000,0.000,0.000
1605203964248750848,10.0.1.131,51,pick,-0.640,-0.640,-0.640,0.000,0.000,0.000
1605203965238435072,10.0.1.131,39,pick,-0.650,-0.650,-0.650,0.000,0.000,0.000
1605203966237669888,10.0.1.131,36,pick,-0.660,-0.660,-0.660,0.000,0.000,0.000
1605203967240919040,10.0.1.131,38,pick,-0.670,-0.670,-0.670,0.000,0.000,0.000
1605203968245459968,10.0.1.131,41,pick,-0.680,-0.680,-0.680,0.000,0.000,0.000
1605203969259911168,10.0.1.131,53,pick,-0.690,-0.690,-0.690,0.000,0.000,0.000
1605203970257414144,10.0.1.131,38,pick,-0.700,-0.700,-0.700,0.000,0.000,0.000
1605203971258003968,10.0.1.131,38,pick,-0.710,-0.710,-0.710,0.000,0.000,0.000
1605203972259305984,10.0.1.131,38,pick,-0.720,-0.720,-0.720,0.000,0.000,0.000
1605203973262465024,10.0.1.131,40,pick,-0.730,-0.730,-0.730,0.000,0.000,0.000
1605203974258553088,10.0.1.131,33,pick,-0.740,-0.740,-0.740,0.000,0.000,0.000
1605203975257926912,10.0.1.131,31,pick,-0.750,-0.750,-0.750,0.000,0.000,0.000
1605203976279335936,10.0.1.131,51,pick,-0.760,-0.760,-0.760,0.000,0.000,0.000
1605203977284715776,10.0.1.131,55,pick,-0.770,-0.770,-0.770,0.000,0.000,0.000
1605203978692214016,10.0.1.131,461,move_up,-0.750,-0.750,-0.750,0.000,0.000,0.000
1605203980175614208,10.0.1.131,411,move_up,-0.730,-0.730,-0.730,0.000,0.000,0.000
1605203981719901952,10.0.1.131,478,move_up,-0.710,-0.710,-0.710,0.000,0.000,0.000
1605203983185568000,10.0.1.131,397,move_up,-0.690,-0.690,-0.690,0.000,0.000,0.000
1605203984730540032,10.0.1.131,456,move_up,-0.670,-0.670,-0.670,0.000,0.000,0.000
1605203986296702976,10.0.1.131,459,move_up,-0.650,-0.650,-0.650,0.000,0.000,0.000
1605203987926616064,10.0.1.131,528,move_up,-0.630,-0.630,-0.630,0.000,0.000,0.000
1605203989358458880,10.0.1.131,400,move_up,-0.610,-0.610,-0.610,0.000,0.000,0.000
1605203990849441024,10.0.1.131,456,move_up,-0.590,-0.590,-0.590,0.000,0.000,0.000
1605203992350738176,10.0.1.131,434,move_up,-0.570,-0.570,-0.570,0.000,0.000,0.000
1605203993866179072,10.0.1.131,422,move_up,-0.550,-0.550,-0.550,0.000,0.000,0.000
1605203995296397824,10.0.1.131,406,move_up,-0.530,-0.530,-0.530,0.000,0.000,0.000
1605203996815825920,10.0.1.131,428,move_up,-0.510,-0.510,-0.510,0.000,0.000,0.000
1605203998332788992,10.0.1.131,452,move_up,-0.490,-0.490,-0.490,0.000,0.000,0.000
1605203999852400128,10.0.1.131,462,move_up,-0.470,-0.470,-0.470,0.000,0.000,0.000
1605204001462418944,10.0.1.131,513,move_up,-0.450,-0.450,-0.450,0.000,0.000,0.000
1605204003111314944,10.0.1.131,465,move_up,-0.430,-0.430,-0.430,0.000,0.000,0.000
1605204004654866944,10.0.1.131,459,move_up,-0.410,-0.410,-0.410,0.000,0.000,0.000
1605204006168462080,10.0.1.131,458,move_up,-0.390,-0.390,-0.390,0.000,0.000,0.000
1605204007669362944,10.0.1.131,404,move_up,-0.370,-0.370,-0.370,0.000,0.000,0.000
1605204009221470976,10.0.1.131,483,move_up,-0.350,-0.350,-0.350,0.000,0.000,0.000
1605204010778067200,10.0.1.131,433,move_up,-0.330,-0.330,-0.330,0.000,0.000,0.000
1605204012344697856,10.0.1.131,454,move_up,-0.310,-0.310,-0.310,0.000,0.000,0.000
1605204013782920960,10.0.1.131,408,move_up,-0.290,-0.290,-0.290,0.000,0.000,0.000
1605204015335203840,10.0.1.131,456,move_up,-0.270,-0.270,-0.270,0.000,0.000,0.000
1605204016843833088,10.0.1.131,421,move_up,-0.250,-0.250,-0.250,0.000,0.000,0.000
1605204018356164096,10.0.1.131,423,move_up,-0.230,-0.230,-0.230,0.000,0.000,0.000
1605204019917479936,10.0.1.131,452,move_up,-0.210,-0.210,-0.210,0.000,0.000,0.000
1605204021542272000,10.0.1.131,422,move_up,-0.190,-0.190,-0.190,0.000,0.000,0.000
1605204022669608960,10.0.1.131,51,place,-0.180,-0.180,-0.180,0.000,0.000,0.000
1605204023662110208,10.0.1.131,42,place,-0.170,-0.170,-0.170,0.000,0.000,0.000
1605204024673944832,10.0.1.131,52,place,-0.160,-0.160,-0.160,0.000,0.000,0.000
1605204025659223040,10.0.1.131,36,place,-0.150,-0.150,-0.150,0.000,0.000,0.000
1605204026658940928,10.0.1.131,35,place,-0.140,-0.140,-0.140,0.000,0.000,0.000
1605204027659326976,10.0.1.131,34,place,-0.130,-0.130,-0.130,0.000,0.000,0.000
1605204028671202816,10.0.1.131,45,place,-0.120,-0.120,-0.120,0.000,0.000,0.000
1605204029680033024,10.0.1.131,52,place,-0.110,-0.110,-0.110,0.000,0.000,0.000
1605204030676166912,10.0.1.131,47,place,-0.100,-0.100,-0.100,0.000,0.000,0.000
1605204031680666880,10.0.1.131,50,place,-0.090,-0.090,-0.090,0.000,0.000,0.000
1605204032679200768,10.0.1.131,47,place,-0.080,-0.080,-0.080,0.000,0.000,0.000
1605204033679207168,10.0.1.131,47,place,-0.070,-0.070,-0.070,0.000,0.000,0.000
1605204034682835968,10.0.1.131,49,place,-0.060,-0.060,-0.060,0.000,0.000,0.000
1605204035678256896,10.0.1.131,44,place,-0.050,-0.050,-0.050,0.000,0.000,0.000
1605204036679076864,10.0.1.131,43,place,-0.040,-0.040,-0.040,0.000,0.000,0.000
1605204037678572800,10.0.1.131,42,place,-0.030,-0.030,-0.030,0.000,0.000,0.000
1605204038681248000,10.0.1.131,44,place,-0.020,-0.020,-0.020,0.000,0.000,0.000
1605204039678556928,10.0.1.131,40,place,-0.010,-0.010,-0.010,0.000,0.000,0.000
1605204040678823936,10.0.1.131,39,place,0.000,0.000,0.000,0.000,0.000,0.000
1605204042098481920,10.0.1.131,456,move_down,-0.020,-0.020,-0.020,0.000,0.000,0.000
1605204043592972032,10.0.1.131,413,move_down,-0.040,-0.040,-0.040,0.000,0.000,0.000
1605204045201818112,10.0.1.131,503,move_down,-0.060,-0.060,-0.060,0.000,0.000,0.000
1605204046696326144,10.0.1.131,422,move_down,-0.080,-0.080,-0.080,0.000,0.000,0.000
1605204048302800896,10.0.1.131,510,move_down,-0.100,-0.100,-0.100,0.000,0.000,0.000
1605204049772187904,10.0.1.131,386,move_down,-0.120,-0.120,-0.120,0.000,0.000,0.000
1605204051260366848,10.0.1.131,456,move_down,-0.140,-0.140,-0.140,0.000,0.000,0.000
1605204052772267008,10.0.1.131,435,move_down,-0.160,-0.160,-0.160,0.000,0.000,0.000
1605204054311481088,10.0.1.131,463,move_down,-0.180,-0.180,-0.180,0.000,0.000,0.000
1605204055841617152,10.0.1.131,450,move_down,-0.200,-0.200,-0.200,0.000,0.000,0.000
1605204057347448064,10.0.1.131,420,move_down,-0.220,-0.220,-0.220,0.000,0.000,0.000
1605204058818576128,10.0.1.131,375,move_down,-0.240,-0.240,-0.240,0.000,0.000,0.000
1605204060331911168,10.0.1.131,404,move_down,-0.260,-0.260,-0.260,0.000,0.000,0.000
1605204061850814976,10.0.1.131,436,move_down,-0.280,-0.280,-0.280,0.000,0.000,0.000
1605204063356929024,10.0.1.131,408,move_down,-0.300,-0.300,-0.300,0.000,0.000,0.000
1605204064887233024,10.0.1.131,443,move_down,-0.320,-0.320,-0.320,0.000,0.000,0.000
1605204066425884928,10.0.1.131,434,move_down,-0.340,-0.340,-0.340,0.000,0.000,0.000
1605204067910322944,10.0.1.131,419,move_down,-0.360,-0.360,-0.360,0.000,0.000,0.000
1605204069380681984,10.0.1.131,425,move_down,-0.380,-0.380,-0.380,0.000,0.000,0.000
1605204070964071936,10.0.1.131,452,move_down,-0.400,-0.400,-0.400,0.000,0.000,0.000
1605204072607905024,10.0.1.131,528,move_down,-0.420,-0.420,-0.420,0.000,0.000,0.000
1605204074176371968,10.0.1.131,435,move_down,-0.440,-0.440,-0.440,0.000,0.000,0.000
1605204075683191040,10.0.1.131,467,move_down,-0.460,-0.460,-0.460,0.000,0.000,0.000
1605204077162294016,10.0.1.131,407,move_down,-0.480,-0.480,-0.480,0.000,0.000,0.000
1605204078583604992,10.0.1.131,416,move_down,-0.500,-0.500,-0.500,0.000,0.000,0.000
1605204080205084928,10.0.1.131,481,move_down,-0.520,-0.520,-0.520,0.000,0.000,0.000
1605204081701012992,10.0.1.131,437,move_down,-0.540,-0.540,-0.540,0.000,0.000,0.000
1605204083222050816,10.0.1.131,390,move_down,-0.560,-0.560,-0.560,0.000,0.000,0.000
1605204084712732928,10.0.1.131,401,move_down,-0.580,-0.580,-0.580,0.000,0.000,0.000
1605204085874372096,10.0.1.131,62,pick,-0.590,-0.590,-0.590,0.000,0.000,0.000
1605204086879326208,10.0.1.131,64,pick,-0.600,-0.600,-0.600,0.000,0.000,0.000
1605204087869918208,10.0.1.131,55,pick,-0.610,-0.610,-0.610,0.000,0.000,0.000
1605204088858339072,10.0.1.131,42,pick,-0.620,-0.620,-0.620,0.000,0.000,0.000
1605204089874924032,10.0.1.131,51,pick,-0.630,-0.630,-0.630,0.000,0.000,0.000
1605204090866849024,10.0.1.131,41,pick,-0.640,-0.640,-0.640,0.000,0.000,0.000
1605204091875056128,10.0.1.131,48,pick,-0.650,-0.650,-0.650,0.000,0.000,0.000
1605204092869862144,10.0.1.131,42,pick,-0.660,-0.660,-0.660,0.000,0.000,0.000
1605204093876499968,10.0.1.131,47,pick,-0.670,-0.670,-0.670,0.000,0.000,0.000
1605204094880896000,10.0.1.131,50,pick,-0.680,-0.680,-0.680,0.000,0.000,0.000
1605204095874983168,10.0.1.131,43,pick,-0.690,-0.690,-0.690,0.000,0.000,0.000
1605204096875083008,10.0.1.131,41,pick,-0.700,-0.700,-0.700,0.000,0.000,0.000
1605204097874373888,10.0.1.131,39,pick,-0.710,-0.710,-0.710,0.000,0.000,0.000
1605204098879441920,10.0.1.131,44,pick,-0.720,-0.720,-0.720,0.000,0.000,0.000
1605204099896108032,10.0.1.131,59,pick,-0.730,-0.730,-0.730,0.000,0.000,0.000
1605204100876941056,10.0.1.131,38,pick,-0.740,-0.740,-0.740,0.000,0.000,0.000
1605204101894612992,10.0.1.131,53,pick,-0.750,-0.750,-0.750,0.000,0.000,0.000
1605204102896044032,10.0.1.131,50,pick,-0.760,-0.760,-0.760,0.000,0.000,0.000
1605204103895973888,10.0.1.131,49,pick,-0.770,-0.770,-0.770,0.000,0.000,0.000
1605204105266839040,10.0.1.131,418,move_up,-0.750,-0.750,-0.750,0.000,0.000,0.000
1605204106746700032,10.0.1.131,442,move_up,-0.730,-0.730,-0.730,0.000,0.000,0.000
1605204108301302016,10.0.1.131,477,move_up,-0.710,-0.710,-0.710,0.000,0.000,0.000
1605204109849585920,10.0.1.131,458,move_up,-0.690,-0.690,-0.690,0.000,0.000,0.000
1605204111307742976,10.0.1.131,448,move_up,-0.670,-0.670,-0.670,0.000,0.000,0.000
1605204112842547968,10.0.1.131,462,move_up,-0.650,-0.650,-0.650,0.000,0.000,0.000
1605204114330684928,10.0.1.131,431,move_up,-0.630,-0.630,-0.630,0.000,0.000,0.000
1605204115878123008,10.0.1.131,448,move_up,-0.610,-0.610,-0.610,0.000,0.000,0.000
1605204117356489984,10.0.1.131,406,move_up,-0.590,-0.590,-0.590,0.000,0.000,0.000
1605204118938488064,10.0.1.131,476,move_up,-0.570,-0.570,-0.570,0.000,0.000,0.000
1605204120409306112,10.0.1.131,406,move_up,-0.550,-0.550,-0.550,0.000,0.000,0.000
1605204121997838080,10.0.1.131,505,move_up,-0.530,-0.530,-0.530,0.000,0.000,0.000
1605204123537236992,10.0.1.131,458,move_up,-0.510,-0.510,-0.510,0.000,0.000,0.000
