milangroshev/digital-twin-scalability/logs/run5-3600s-nan/10.0.1.140.csv
timestamp,node,latency,action,joint_1,joint_2,joint_3,joint_4,joint_5,joint_6
1605213566160985088,10.0.1.140,NaN,,0.000,0.000,0.000,0.000,0.000,0.000
1605213570179577088,10.0.1.140,NaN,move_down,-0.020,-0.020,-0.020,0.000,0.000,0.000
1605213573769573888,10.0.1.140,3589,move_down,-0.020,-0.020,-0.020,0.000,0.000,0.000
1605213575432248064,10.0.1.140,603,move_down,-0.040,-0.040,-0.040,0.000,0.000,0.000
1605213577311646976,10.0.1.140,825,move_down,-0.060,-0.060,-0.060,0.000,0.000,0.000
1605213579005517056,10.0.1.140,619,move_down,-0.080,-0.080,-0.080,0.000,0.000,0.000
1605213580729935872,10.0.1.140,637,move_down,-0.100,-0.100,-0.100,0.000,0.000,0.000
1605213582480588032,10.0.1.140,674,move_down,-0.120,-0.120,-0.120,0.000,0.000,0.000
1605213584130519040,10.0.1.140,597,move_down,-0.140,-0.140,-0.140,0.000,0.000,0.000
1605213585736894976,10.0.1.140,530,move_down,-0.160,-0.160,-0.160,0.000,0.000,0.000
1605213587437926912,10.0.1.140,603,move_down,-0.180,-0.180,-0.180,0.000,0.000,0.000
1605213589958903040,10.0.1.140,1156,move_down,-0.200,-0.200,-0.200,0.000,0.000,0.000
1605213591802615808,10.0.1.140,669,move_down,-0.220,-0.220,-0.220,0.000,0.000,0.000
1605213593520340992,10.0.1.140,596,move_down,-0.240,-0.240,-0.240,0.000,0.000,0.000
1605213595196027904,10.0.1.140,592,move_down,-0.260,-0.260,-0.260,0.000,0.000,0.000
1605213597103544832,10.0.1.140,793,move_down,-0.280,-0.280,-0.280,0.000,0.000,0.000
1605213598930610944,10.0.1.140,779,move_down,-0.300,-0.300,-0.300,0.000,0.000,0.000
1605213600615879168,10.0.1.140,580,move_down,-0.320,-0.320,-0.320,0.000,0.000,0.000
1605213602468574976,10.0.1.140,741,move_down,-0.340,-0.340,-0.340,0.000,0.000,0.000
1605213604259883008,10.0.1.140,733,move_down,-0.360,-0.360,-0.360,0.000,0.000,0.000
1605213606101366016,10.0.1.140,742,move_down,-0.380,-0.380,-0.380,0.000,0.000,0.000
1605213608111553024,10.0.1.140,874,move_down,-0.400,-0.400,-0.400,0.000,0.000,0.000
1605213609847696128,10.0.1.140,558,move_down,-0.420,-0.420,-0.420,0.000,0.000,0.000
1605213611474662912,10.0.1.140,535,move_down,-0.440,-0.440,-0.440,0.000,0.000,0.000
1605213613169321984,10.0.1.140,525,move_down,-0.460,-0.460,-0.460,0.000,0.000,0.000
1605213614816361984,10.0.1.140,584,move_down,-0.480,-0.480,-0.480,0.000,0.000,0.000
1605213616595595008,10.0.1.140,708,move_down,-0.500,-0.500,-0.500,0.000,0.000,0.000
1605213618630233088,10.0.1.140,813,move_down,-0.520,-0.520,-0.520,0.000,0.000,0.000
1605213620389198080,10.0.1.140,663,move_down,-0.540,-0.540,-0.540,0.000,0.000,0.000
1605213622217359104,10.0.1.140,682,move_down,-0.560,-0.560,-0.560,0.000,0.000,0.000
1605213624510305792,10.0.1.140,1084,move_down,-0.580,-0.580,-0.580,0.000,0.000,0.000
1605213626659595008,10.0.1.140,NaN,pick,-0.600,-0.600,-0.600,0.000,0.000,0.000
1605213626706223872,10.0.1.140,46,pick,-0.600,-0.600,-0.600,0.000,0.000,0.000
1605213627722554880,10.0.1.140,53,pick,-0.610,-0.610,-0.610,0.000,0.000,0.000
1605213628720987136,10.0.1.140,50,pick,-0.620,-0.620,-0.620,0.000,0.000,0.000
1605213629796361984,10.0.1.140,119,pick,-0.630,-0.630,-0.630,0.000,0.000,0.000
1605213631678561024,10.0.1.140,NaN,pick,-0.650,-0.650,-0.650,0.000,0.000,0.000
1605213631713937152,10.0.1.140,35,pick,-0.650,-0.650,-0.650,0.000,0.000,0.000
1605213632758136064,10.0.1.140,75,pick,-0.660,-0.660,-0.660,0.000,0.000,0.000
1605213634684856832,10.0.1.140,NaN,pick,-0.680,-0.680,-0.680,0.000,0.000,0.000
1605213635712037120,10.0.1.140,NaN,pick,-0.690,-0.690,-0.690,0.000,0.000,0.000
1605213635779778048,10.0.1.140,67,pick,-0.690,-0.690,-0.690,0.000,0.000,0.000
1605213636759668224,10.0.1.140,45,pick,-0.700,-0.700,-0.700,0.000,0.000,0.000
1605213638719106816,10.0.1.140,NaN,pick,-0.720,-0.720,-0.720,0.000,0.000,0.000
1605213638773933056,10.0.1.140,54,pick,-0.720,-0.720,-0.720,0.000,0.000,0.000
1605213639769253120,10.0.1.140,48,pick,-0.730,-0.730,-0.730,0.000,0.000,0.000
1605213641733001984,10.0.1.140,NaN,pick,-0.750,-0.750,-0.750,0.000,0.000,0.000
1605213641790502144,10.0.1.140,57,pick,-0.750,-0.750,-0.750,0.000,0.000,0.000
1605213642829381888,10.0.1.140,95,pick,-0.760,-0.760,-0.760,0.000,0.000,0.000
1605213643820311040,10.0.1.140,78,pick,-0.770,-0.770,-0.770,0.000,0.000,0.000
1605213645317307904,10.0.1.140,566,move_up,-0.750,-0.750,-0.750,0.000,0.000,0.000
1605213647057435904,10.0.1.140,580,move_up,-0.730,-0.730,-0.730,0.000,0.000,0.000
1605213648738637056,10.0.1.140,632,move_up,-0.710,-0.710,-0.710,0.000,0.000,0.000
1605213650617229824,10.0.1.140,692,move_up,-0.690,-0.690,-0.690,0.000,0.000,0.000
1605213652329379072,10.0.1.140,696,move_up,-0.670,-0.670,-0.670,0.000,0.000,0.000
1605213654371161856,10.0.1.140,933,move_up,-0.650,-0.650,-0.650,0.000,0.000,0.000
1605213656095238912,10.0.1.140,599,move_up,-0.630,-0.630,-0.630,0.000,0.000,0.000
1605213657837287936,10.0.1.140,646,move_up,-0.610,-0.610,-0.610,0.000,0.000,0.000
1605213659552508160,10.0.1.140,652,move_up,-0.590,-0.590,-0.590,0.000,0.000,0.000
1605213661479418112,10.0.1.140,878,move_up,-0.570,-0.570,-0.570,0.000,0.000,0.000
1605213663629231872,10.0.1.140,1033,move_up,-0.550,-0.550,-0.550,0.000,0.000,0.000
1605213665548003072,10.0.1.140,741,move_up,-0.530,-0.530,-0.530,0.000,0.000,0.000
1605213667249078016,10.0.1.140,648,move_up,-0.510,-0.510,-0.510,0.000,0.000,0.000
1605213669315954944,10.0.1.140,1032,move_up,-0.490,-0.490,-0.490,0.000,0.000,0.000
1605213671391247104,10.0.1.140,985,move_up,-0.470,-0.470,-0.470,0.000,0.000,0.000
1605213672988630016,10.0.1.140,573,move_up,-0.450,-0.450,-0.450,0.000,0.000,0.000
1605213674655749120,10.0.1.140,588,move_up,-0.430,-0.430,-0.430,0.000,0.000,0.000
1605213676271219968,10.0.1.140,541,move_up,-0.410,-0.410,-0.410,0.000,0.000,0.000
1605213678205460992,10.0.1.140,753,move_up,-0.390,-0.390,-0.390,0.000,0.000,0.000
1605213679867995136,10.0.1.140,563,move_up,-0.370,-0.370,-0.370,0.000,0.000,0.000
1605213681608488192,10.0.1.140,638,move_up,-0.350,-0.350,-0.350,0.000,0.000,0.000
1605213683391049984,10.0.1.140,628,move_up,-0.330,-0.330,-0.330,0.000,0.000,0.000
1605213685056839936,10.0.1.140,549,move_up,-0.310,-0.310,-0.310,0.000,0.000,0.000
1605213686971997952,10.0.1.140,692,move_up,-0.290,-0.290,-0.290,0.000,0.000,0.000
1605213688781104128,10.0.1.140,725,move_up,-0.270,-0.270,-0.270,0.000,0.000,0.000
1605213690612163072,10.0.1.140,599,move_up,-0.250,-0.250,-0.250,0.000,0.000,0.000
1605213692145533184,10.0.1.140,516,move_up,-0.230,-0.230,-0.230,0.000,0.000,0.000
1605213693979231232,10.0.1.140,769,move_up,-0.210,-0.210,-0.210,0.000,0.000,0.000
1605213695583256832,10.0.1.140,489,move_up,-0.190,-0.190,-0.190,0.000,0.000,0.000
1605213697763022848,10.0.1.140,NaN,place,-0.170,-0.170,-0.170,0.000,0.000,0.000
1605213697803254016,10.0.1.140,40,place,-0.170,-0.170,-0.170,0.000,0.000,0.000
1605213698840337152,10.0.1.140,76,place,-0.160,-0.160,-0.160,0.000,0.000,0.000
1605213699840059904,10.0.1.140,68,place,-0.150,-0.150,-0.150,0.000,0.000,0.000
1605213700825534208,10.0.1.140,46,place,-0.140,-0.140,-0.140,0.000,0.000,0.000
1605213701817714944,10.0.1.140,34,place,-0.130,-0.130,-0.130,0.000,0.000,0.000
1605213703799376896,10.0.1.140,NaN,place,-0.110,-0.110,-0.110,0.000,0.000,0.000
1605213703837073152,10.0.1.140,37,place,-0.110,-0.110,-0.110,0.000,0.000,0.000
1605213704844929024,10.0.1.140,44,place,-0.100,-0.100,-0.100,0.000,0.000,0.000
1605213705841892864,10.0.1.140,33,place,-0.090,-0.090,-0.090,0.000,0.000,0.000
1605213706859947008,10.0.1.140,50,place,-0.080,-0.080,-0.080,0.000,0.000,0.000
1605213707867964928,10.0.1.140,57,place,-0.070,-0.070,-0.070,0.000,0.000,0.000
1605213708880965888,10.0.1.140,69,place,-0.060,-0.060,-0.060,0.000,0.000,0.000
1605213709865359104,10.0.1.140,52,place,-0.050,-0.050,-0.050,0.000,0.000,0.000
1605213710858614016,10.0.1.140,44,place,-0.040,-0.040,-0.040,0.000,0.000,0.000
1605213712816668160,10.0.1.140,NaN,place,-0.020,-0.020,-0.020,0.000,0.000,0.000
1605213712870663936,10.0.1.140,53,place,-0.020,-0.020,-0.020,0.000,0.000,0.000
1605213713872869888,10.0.1.140,54,place,-0.010,-0.010,-0.010,0.000,0.000,0.000
1605213715827572992,10.0.1.140,NaN,move_down,-0.020,-0.020,-0.020,0.000,0.000,0.000
1605213716393086976,10.0.1.140,565,move_down,-0.020,-0.020,-0.020,0.000,0.000,0.000
1605213718095040000,10.0.1.140,611,move_down,-0.040,-0.040,-0.040,0.000,0.000,0.000
1605213719824019968,10.0.1.140,652,move_down,-0.060,-0.060,-0.060,0.000,0.000,0.000
1605213721771847936,10.0.1.140,757,move_down,-0.080,-0.080,-0.080,0.000,0.000,0.000
1605213723639312896,10.0.1.140,805,move_down,-0.100,-0.100,-0.100,0.000,0.000,0.000
1605213725223735040,10.0.1.140,526,move_down,-0.120,-0.120,-0.120,0.000,0.000,0.000
1605213727092911104,10.0.1.140,825,move_down,-0.140,-0.140,-0.140,0.000,0.000,0.000
1605213728714883072,10.0.1.140,610,move_down,-0.160,-0.160,-0.160,0.000,0.000,0.000
1605213730533943040,10.0.1.140,794,move_down,-0.180,-0.180,-0.180,0.000,0.000,0.000
1605213732192768000,10.0.1.140,587,move_down,-0.200,-0.200,-0.200,0.000,0.000,0.000
1605213734601928960,10.0.1.140,1127,move_down,-0.220,-0.220,-0.220,0.000,0.000,0.000
1605213736316123904,10.0.1.140,644,move_down,-0.240,-0.240,-0.240,0.000,0.000,0.000
1605213737949913856,10.0.1.140,554,move_down,-0.260,-0.260,-0.260,0.000,0.000,0.000
1605213739624752128,10.0.1.140,643,move_down,-0.280,-0.280,-0.280,0.000,0.000,0.000
1605213741285479168,10.0.1.140,637,move_down,-0.300,-0.300,-0.300,0.000,0.000,0.000
1605213743155915008,10.0.1.140,809,move_down,-0.320,-0.320,-0.320,0.000,0.000,0.000
1605213744744546048,10.0.1.140,539,move_down,-0.340,-0.340,-0.340,0.000,0.000,0.000
1605213746822770176,10.0.1.140,530,move_down,-0.360,-0.360,-0.360,0.000,0.000,0.000
1605213748524624128,10.0.1.140,557,move_down,-0.380,-0.380,-0.380,0.000,0.000,0.000
1605213750473670912,10.0.1.140,769,move_down,-0.400,-0.400,-0.400,0.000,0.000,0.000
1605213752302870016,10.0.1.140,644,move_down,-0.420,-0.420,-0.420,0.000,0.000,0.000
1605213754108869120,10.0.1.140,598,move_down,-0.440,-0.440,-0.440,0.000,0.000,0.000
1605213755899090176,10.0.1.140,742,move_down,-0.460,-0.460,-0.460,0.000,0.000,0.000
1605213757539758080,10.0.1.140,542,move_down,-0.480,-0.480,-0.480,0.000,0.000,0.000
1605213759451678976,10.0.1.140,800,move_down,-0.500,-0.500,-0.500,0.000,0.000,0.000
1605213761257710848,10.0.1.140,701,move_down,-0.520,-0.520,-0.520,0.000,0.000,0.000
1605213762899741952,10.0.1.140,548,move_down,-0.540,-0.540,-0.540,0.000,0.000,0.000
1605213764529784064,10.0.1.140,553,move_down,-0.560,-0.560,-0.560,0.000,0.000,0.000
1605213766247703040,10.0.1.140,695,move_down,-0.580,-0.580,-0.580,0.000,0.000,0.000
1605213768512847872,10.0.1.140,NaN,pick,-0.600,-0.600,-0.600,0.000,0.000,0.000
1605213769524401920,10.0.1.140,NaN,pick,-0.610,-0.610,-0.610,0.000,0.000,0.000
1605213769615911936,10.0.1.140,91,pick,-0.610,-0.610,-0.610,0.000,0.000,0.000
1605213770580601088,10.0.1.140,54,pick,-0.620,-0.620,-0.620,0.000,0.000,0.000
1605213771587646976,10.0.1.140,56,pick,-0.630,-0.630,-0.630,0.000,0.000,0.000
1605213773544610048,10.0.1.140,NaN,pick,-0.650,-0.650,-0.650,0.000,0.000,0.000
1605213774546402048,10.0.1.140,NaN,pick,-0.660,-0.660,-0.660,0.000,0.000,0.000
1605213774607439872,10.0.1.140,60,pick,-0.660,-0.660,-0.660,0.000,0.000,0.000
1605213776548921088,10.0.1.140,NaN,pick,-0.680,-0.680,-0.680,0.000,0.000,0.000
1605213776595597056,10.0.1.140,46,pick,-0.680,-0.680,-0.680,0.000,0.000,0.000
1605213777585811968,10.0.1.140,36,pick,-0.690,-0.690,-0.690,0.000,0.000,0.000
1605213779564368128,10.0.1.140,NaN,pick,-0.710,-0.710,-0.710,0.000,0.000,0.000
1605213779620104960,10.0.1.140,55,pick,-0.710,-0.710,-0.710,0.000,0.000,0.000
1605213780649279232,10.0.1.140,83,pick,-0.720,-0.720,-0.720,0.000,0.000,0.000
1605213781615518976,10.0.1.140,43,pick,-0.730,-0.730,-0.730,0.000,0.000,0.000
1605213782640264960,10.0.1.140,70,pick,-0.740,-0.740,-0.740,0.000,0.000,0.000
1605213783632301056,10.0.1.140,61,pick,-0.750,-0.750,-0.750,0.000,0.000,0.000
1605213784607176192,10.0.1.140,34,pick,-0.760,-0.760,-0.760,0.000,0.000,0.000
1605213785631598080,10.0.1.140,57,pick,-0.770,-0.770,-0.770,0.000,0.000,0.000
1605213787129651968,10.0.1.140,545,move_up,-0.750,-0.750,-0.750,0.000,0.000,0.000
1605213788880353024,10.0.1.140,672,move_up,-0.730,-0.730,-0.730,0.000,0.000,0.000
1605213790550770944,10.0.1.140,649,move_up,-0.710,-0.710,-0.710,0.000,0.000,0.000
1605213792354562048,10.0.1.140,772,move_up,-0.690,-0.690,-0.690,0.000,0.000,0.000
1605213793939568896,10.0.1.140,547,move_up,-0.670,-0.670,-0.670,0.000,0.000,0.000
1605213795894571008,10.0.1.140,816,move_up,-0.650,-0.650,-0.650,0.000,0.000,0.000
1605213797573942016,10.0.1.140,544,move_up,-0.630,-0.630,-0.630,0.000,0.000,0.000
1605213799563678976,10.0.1.140,849,move_up,-0.610,-0.610,-0.610,0.000,0.000,0.000
1605213801327749888,10.0.1.140,638,move_up,-0.590,-0.590,-0.590,0.000,0.000,0.000
1605213803109735936,10.0.1.140,530,move_up,-0.570,-0.570,-0.570,0.000,0.000,0.000
1605213805188942080,10.0.1.140,995,move_up,-0.550,-0.550,-0.550,0.000,0.000,0.000
1605213806888881920,10.0.1.140,593,move_up,-0.530,-0.530,-0.530,0.000,0.000,0.000
1605213808704694016,10.0.1.140,777,move_up,-0.510,-0.510,-0.510,0.000,0.000,0.000
1605213810519682816,10.0.1.140,782,move_up,-0.490,-0.490,-0.490,0.000,0.000,0.000
1605213813038539776,10.0.1.140,1408,move_up,-0.470,-0.470,-0.470,0.000,0.000,0.000
1605213814586360064,10.0.1.140,477,move_up,-0.450,-0.450,-0.450,0.000,0.000,0.000
1605213816665661952,10.0.1.140,974,move_up,-0.430,-0.430,-0.430,0.000,0.000,0.000
1605213818256814848,10.0.1.140,575,move_up,-0.410,-0.410,-0.410,0.000,0.000,0.000
1605213820096654848,10.0.1.140,766,move_up,-0.390,-0.390,-0.390,0.000,0.000,0.000
1605213821730819072,10.0.1.140,605,move_up,-0.370,-0.370,-0.370,0.000,0.000,0.000
1605213824050179840,10.0.1.140,1258,move_up,-0.350,-0.350,-0.350,0.000,0.000,0.000
1605213825733443072,10.0.1.140,610,move_up,-0.330,-0.330,-0.330,0.000,0.000,0.000
1605213827505698816,10.0.1.140,527,move_up,-0.310,-0.310,-0.310,0.000,0.000,0.000
1605213829277348096,10.0.1.140,706,move_up,-0.290,-0.290,-0.290,0.000,0.000,0.000
1605213831606683904,10.0.1.140,1254,move_up,-0.270,-0.270,-0.270,0.000,0.000,0.000
1605213833337888000,10.0.1.140,634,move_up,-0.250,-0.250,-0.250,0.000,0.000,0.000
1605213835266660096,10.0.1.140,867,move_up,-0.230,-0.230,-0.230,0.000,0.000,0.000
1605213837272048896,10.0.1.140,933,move_up,-0.210,-0.210,-0.210,0.000,0.000,0.000
1605213838892769024,10.0.1.140,509,move_up,-0.190,-0.190,-0.190,0.000,0.000,0.000
1605213840007288832,10.0.1.140,74,place,-0.180,-0.180,-0.180,0.000,0.000,0.000
1605213841935539968,10.0.1.140,NaN,place,-0.160,-0.160,-0.160,0.000,0.000,0.000
1605213841990253056,10.0.1.140,54,place,-0.160,-0.160,-0.160,0.000,0.000,0.000
1605213843003590144,10.0.1.140,66,place,-0.150,-0.150,-0.150,0.000,0.000,0.000
1605213844939376128,10.0.1.140,NaN,place,-0.130,-0.130,-0.130,0.000,0.000,0.000
1605213845002718976,10.0.1.140,63,place,-0.130,-0.130,-0.130,0.000,0.000,0.000
1605213846942977024,10.0.1.140,NaN,place,-0.110,-0.110,-0.110,0.000,0.000,0.000
1605213846995577088,10.0.1.140,52,place,-0.110,-0.110,-0.110,0.000,0.000,0.000
1605213848957070080,10.0.1.140,NaN,place,-0.090,-0.090,-0.090,0.000,0.000,0.000
1605213848999335936,10.0.1.140,42,place,-0.090,-0.090,-0.090,0.000,0.000,0.000
1605213850968102912,10.0.1.140,NaN,place,-0.070,-0.070,-0.070,0.000,0.000,0.000
1605213851024361984,10.0.1.140,56,place,-0.070,-0.070,-0.070,0.000,0.000,0.000
1605213852969914880,10.0.1.140,NaN,place,-0.050,-0.050,-0.050,0.000,0.000,0.000
1605213853022279936,10.0.1.140,52,place,-0.050,-0.050,-0.050,0.000,0.000,0.000
1605213854015420928,10.0.1.140,44,place,-0.040,-0.040,-0.040,0.000,0.000,0.000
1605213855033632000,10.0.1.140,62,place,-0.030,-0.030,-0.030,0.000,0.000,0.000
1605213856018307840,10.0.1.140,45,place,-0.020,-0.020,-0.020,0.000,0.000,0.000
1605213857980487168,10.0.1.140,NaN,place,0.000,0.000,0.000,0.000,0.000,0.000
1605213858029735168,10.0.1.140,49,place,0.000,0.000,0.000,0.000,0.000,0.000
1605213859971781888,10.0.1.140,985,move_down,-0.020,-0.020,-0.020,0.000,0.000,0.000
1605213861665402880,10.0.1.140,614,move_down,-0.040,-0.040,-0.040,0.000,0.000,0.000
1605213863646245888,10.0.1.140,875,move_down,-0.060,-0.060,-0.060,0.000,0.000,0.000
1605213865301240832,10.0.1.140,421,move_down,-0.080,-0.080,-0.080,0.000,0.000,0.000
1605213866910002944,10.0.1.140,493,move_down,-0.100,-0.100,-0.100,0.000,0.000,0.000
1605213868672365824,10.0.1.140,601,move_down,-0.120,-0.120,-0.120,0.000,0.000,0.000
1605213870540571904,10.0.1.140,761,move_down,-0.140,-0.140,-0.140,0.000,0.000,0.000
1605213872127764992,10.0.1.140,490,move_down,-0.160,-0.160,-0.160,0.000,0.000,0.000
1605213877263708160,10.0.1.140,584,move_down,-0.180,-0.180,-0.180,0.000,0.000,0.000
1605213879025389824,10.0.1.140,742,move_down,-0.200,-0.200,-0.200,0.000,0.000,0.000
1605213880887113984,10.0.1.140,762,move_down,-0.220,-0.220,-0.220,0.000,0.000,0.000
1605213882923495936,10.0.1.140,744,move_down,-0.240,-0.240,-0.240,0.000,0.000,0.000
1605213884535116032,10.0.1.140,519,move_down,-0.260,-0.260,-0.260,0.000,0.000,0.000
1605213886195968000,10.0.1.140,602,move_down,-0.280,-0.280,-0.280,0.000,0.000,0.000
1605213887945122048,10.0.1.140,593,move_down,-0.300,-0.300,-0.300,0.000,0.000,0.000
1605213889543087104,10.0.1.140,497,move_down,-0.320,-0.320,-0.320,0.000,0.000,0.000
1605213891132294912,10.0.1.140,484,move_down,-0.340,-0.340,-0.340,0.000,0.000,0.000
1605213893139131904,10.0.1.140,783,move_down,-0.360,-0.360,-0.360,0.000,0.000,0.000
1605213894783298048,10.0.1.140,502,move_down,-0.380,-0.380,-0.380,0.000,0.000,0.000
1605213896755158784,10.0.1.140,761,move_down,-0.400,-0.400,-0.400,0.000,0.000,0.000
1605213898840645120,10.0.1.140,802,move_down,-0.420,-0.420,-0.420,0.000,0.000,0.000
1605213900555963136,10.0.1.140,626,move_down,-0.440,-0.440,-0.440,0.000,0.000,0.000
1605213902593065984,10.0.1.140,894,move_down,-0.460,-0.460,-0.460,0.000,0.000,0.000
1605213904448492032,10.0.1.140,727,move_down,-0.480,-0.480,-0.480,0.000,0.000,0.000
1605213906150268928,10.0.1.140,634,move_down,-0.500,-0.500,-0.500,0.000,0.000,0.000
1605213907711901952,10.0.1.140,495,move_down,-0.520,-0.520,-0.520,0.000,0.000,0.000
1605213909315661824,10.0.1.140,590,move_down,-0.540,-0.540,-0.540,0.000,0.000,0.000
1605213911061744896,10.0.1.140,663,move_down,-0.560,-0.560,-0.560,0.000,0.000,0.000
1605213912902211072,10.0.1.140,580,move_down,-0.580,-0.580,-0.580,0.000,0.000,0.000
1605213913993846016,10.0.1.140,75,pick,-0.590,-0.590,-0.590,0.000,0.000,0.000
1605213914973532928,10.0.1.140,53,pick,-0.600,-0.600,-0.600,0.000,0.000,0.000
1605213915980956928,10.0.1.140,58,pick,-0.610,-0.610,-0.610,0.000,0.000,0.000
1605213916972865024,10.0.1.140,43,pick,-0.620,-0.620,-0.620,0.000,0.000,0.000
1605213917981465088,10.0.1.140,42,pick,-0.630,-0.630,-0.630,0.000,0.000,0.000
1605213918993075968,10.0.1.140,53,pick,-0.640,-0.640,-0.640,0.000,0.000,0.000
1605213920943883008,10.0.1.140,NaN,pick,-0.660,-0.660,-0.660,0.000,0.000,0.000
1605213920997257984,10.0.1.140,53,pick,-0.660,-0.660,-0.660,0.000,0.000,0.000
1605213922948787968,10.0.1.140,NaN,pick,-0.680,-0.680,-0.680,0.000,0.000,0.000
1605213922991090944,10.0.1.140,42,pick,-0.680,-0.680,-0.680,0.000,0.000,0.000
1605213924003298048,10.0.1.140,51,pick,-0.690,-0.690,-0.690,0.000,0.000,0.000
1605213925014355968,10.0.1.140,54,pick,-0.700,-0.700,-0.700,0.000,0.000,0.000
1605213926010405120,10.0.1.140,46,pick,-0.710,-0.710,-0.710,0.000,0.000,0.000
1605213927041136128,10.0.1.140,65,pick,-0.720,-0.720,-0.720,0.000,0.000,0.000
1605213928036350976,10.0.1.140,56,pick,-0.730,-0.730,-0.730,0.000,0.000,0.000
1605213929987544064,10.0.1.140,NaN,pick,-0.750,-0.750,-0.750,0.000,0.000,0.000
1605213930029871872,10.0.1.140,42,pick,-0.750,-0.750,-0.750,0.000,0.000,0.000
1605213931046961152,10.0.1.140,55,pick,-0.760,-0.760,-0.760,0.000,0.000,0.000
1605213932032164096,10.0.1.140,36,pick,-0.770,-0.770,-0.770,0.000,0.000,0.000
1605213933572704000,10.0.1.140,573,move_up,-0.750,-0.750,-0.750,0.000,0.000,0.000
1605213935403294208,10.0.1.140,676,move_up,-0.730,-0.730,-0.730,0.000,0.000,0.000
1605213937187126016,10.0.1.140,534,move_up,-0.710,-0.710,-0.710,0.000,0.000,0.000
1605213938828109056,10.0.1.140,554,move_up,-0.690,-0.690,-0.690,0.000,0.000,0.000
1605213940737890048,10.0.1.140,854,move_up,-0.670,-0.670,-0.670,0.000,0.000,0.000
1605213942328993024,10.0.1.140,487,move_up,-0.650,-0.650,-0.650,0.000,0.000,0.000
1605213944024424192,10.0.1.140,580,move_up,-0.630,-0.630,-0.630,0.000,0.000,0.000
1605213945680308992,10.0.1.140,548,move_up,-0.610,-0.610,-0.610,0.000,0.000,0.000
1605213947268841984,10.0.1.140,545,move_up,-0.590,-0.590,-0.590,0.000,0.000,0.000
1605213948924716032,10.0.1.140,526,move_up,-0.570,-0.570,-0.570,0.000,0.000,0.000
1605213950693993216,10.0.1.140,716,move_up,-0.550,-0.550,-0.550,0.000,0.000,0.000
1605213952459780864,10.0.1.140,688,move_up,-0.530,-0.530,-0.530,0.000,0.000,0.000
1605213954171974912,10.0.1.140,660,move_up,-0.510,-0.510,-0.510,0.000,0.000,0.000
1605213955807173888,10.0.1.140,578,move_up,-0.490,-0.490,-0.490,0.000,0.000,0.000
1605213957609849856,10.0.1.140,694,move_up,-0.470,-0.470,-0.470,0.000,0.000,0.000
1605213959472225024,10.0.1.140,646,move_up,-0.450,-0.450,-0.450,0.000,0.000,0.000
1605213961232108032,10.0.1.140,650,move_up,-0.430,-0.430,-0.430,0.000,0.000,0.000
1605213962929827840,10.0.1.140,560,move_up,-0.410,-0.410,-0.410,0.000,0.000,0.000
1605213964828944896,10.0.1.140,711,move_up,-0.390,-0.390,-0.390,0.000,0.000,0.000
1605213966643652864,10.0.1.140,728,move_up,-0.370,-0.370,-0.370,0.000,0.000,0.000
1605213968462816000,10.0.1.140,711,move_up,-0.350,-0.350,-0.350,0.000,0.000,0.000
1605213970237783808,10.0.1.140,754,move_up,-0.330,-0.330,-0.330,0.000,0.000,0.000
1605213972075817216,10.0.1.140,524,move_up,-0.310,-0.310,-0.310,0.000,0.000,0.000
1605213973718652928,10.0.1.140,521,move_up,-0.290,-0.290,-0.290,0.000,0.000,0.000
1605213975627032064,10.0.1.140,860,move_up,-0.270,-0.270,-0.270,0.000,0.000,0.000
1605213977400013056,10.0.1.140,544,move_up,-0.250,-0.250,-0.250,0.000,0.000,0.000
1605213979242636032,10.0.1.140,611,move_up,-0.230,-0.230,-0.230,0.000,0.000,0.000
1605213980970326016,10.0.1.140,508,move_up,-0.210,-0.210,-0.210,0.000,0.000,0.000
1605213982590848000,10.0.1.140,613,move_up,-0.190,-0.190,-0.190,0.000,0.000,0.000
1605213983714225152,10.0.1.140,70,place,-0.180,-0.180,-0.180,0.000,0.000,0.000
1605213985648307968,10.0.1.140,NaN,place,-0.160,-0.160,-0.160,0.000,0.000,0.000
1605213986649501184,10.0.1.140,NaN,place,-0.150,-0.150,-0.150,0.000,0.000,0.000
1605213986686351104,10.0.1.140,36,place,-0.150,-0.150,-0.150,0.000,0.000,0.000
1605213987716936192,10.0.1.140,66,place,-0.140,-0.140,-0.140,0.000,0.000,0.000
1605213989652806144,10.0.1.140,NaN,place,-0.120,-0.120,-0.120,0.000,0.000,0.000
1605213989694981120,10.0.1.140,42,place,-0.120,-0.120,-0.120,0.000,0.000,0.000
1605213990704796160,10.0.1.140,50,place,-0.110,-0.110,-0.110,0.000,0.000,0.000
1605213991698903040,10.0.1.140,40,place,-0.100,-0.100,-0.100,0.000,0.000,0.000
1605213992750658048,10.0.1.140,59,place,-0.090,-0.090,-0.090,0.000,0.000,0.000
1605213993748867072,10.0.1.140,56,place,-0.080,-0.080,-0.080,0.000,0.000,0.000
1605213994745806080,10.0.1.140,52,place,-0.070,-0.070,-0.070,0.000,0.000,0.000
1605213995747576832,10.0.1.140,48,place,-0.060,-0.060,-0.060,0.000,0.000,0.000
1605213996761626112,10.0.1.140,60,place,-0.050,-0.050,-0.050,0.000,0.000,0.000
1605213998703237120,10.0.1.140,NaN,place,-0.030,-0.030,-0.030,0.000,0.000,0.000
1605213998757140992,10.0.1.140,53,place,-0.030,-0.030,-0.030,0.000,0.000,0.000
1605213999738992896,10.0.1.140,34,place,-0.020,-0.020,-0.020,0.000,0.000,0.000
1605214000753103104,10.0.1.140,47,place,-0.010,-0.010,-0.010,0.000,0.000,0.000
1605214001767792896,10.0.1.140,60,place,0.000,0.000,0.000,0.000,0.000,0.000
1605214003286992128,10.0.1.140,579,move_down,-0.020,-0.020,-0.020,0.000,0.000,0.000
1605214004860156160,10.0.1.140,538,move_down,-0.040,-0.040,-0.040,0.000,0.000,0.000
1605214006829291008,10.0.1.140,843,move_down,-0.060,-0.060,-0.060,0.000,0.000,0.000
1605214008612831232,10.0.1.140,601,move_down,-0.080,-0.080,-0.080,0.000,0.000,0.000
1605214010374064896,10.0.1.140,712,move_down,-0.100,-0.100,-0.100,0.000,0.000,0.000
1605214011970838016,10.0.1.140,500,move_down,-0.120,-0.120,-0.120,0.000,0.000,0.000
1605214014077804032,10.0.1.140,924,move_down,-0.140,-0.140,-0.140,0.000,0.000,0.000
1605214015787753984,10.0.1.140,692,move_down,-0.160,-0.160,-0.160,0.000,0.000,0.000
1605214017446208000,10.0.1.140,540,move_down,-0.180,-0.180,-0.180,0.000,0.000,0.000
1605214019048110848,10.0.1.140,481,move_down,-0.200,-0.200,-0.200,0.000,0.000,0.000
1605214020724967936,10.0.1.140,607,move_down,-0.220,-0.220,-0.220,0.000,0.000,0.000
1605214022387411200,10.0.1.140,621,move_down,-0.240,-0.240,-0.240,0.000,0.000,0.000
1605214024363666176,10.0.1.140,888,move_down,-0.260,-0.260,-0.260,0.000,0.000,0.000
1605214026297414144,10.0.1.140,892,move_down,-0.280,-0.280,-0.280,0.000,0.000,0.000
1605214028165736960,10.0.1.140,739,move_down,-0.300,-0.300,-0.300,0.000,0.000,0.000
1605214029870932992,10.0.1.140,664,move_down,-0.320,-0.320,-0.320,0.000,0.000,0.000
1605214031654320896,10.0.1.140,677,move_down,-0.340,-0.340,-0.340,0.000,0.000,0.000
1605214033275684096,10.0.1.140,551,move_down,-0.360,-0.360,-0.360,0.000,0.000,0.000
1605214034962505984,10.0.1.140,614,move_down,-0.380,-0.380,-0.380,0.000,0.000,0.000
1605214036537646080,10.0.1.140,486,move_down,-0.400,-0.400,-0.400,0.000,0.000,0.000
1605214038224225024,10.0.1.140,568,move_down,-0.420,-0.420,-0.420,0.000,0.000,0.000
1605214040210562048,10.0.1.140,921,move_down,-0.440,-0.440,-0.440,0.000,0.000,0.000
1605214041853724928,10.0.1.140,592,move_down,-0.460,-0.460,-0.460,0.000,0.000,0.000
1605214043273519104,10.0.1.140,436,move_down,-0.480,-0.480,-0.480,0.000,0.000,0.000
1605214045088525056,10.0.1.140,592,move_down,-0.500,-0.500,-0.500,0.000,0.000,0.000
1605214046895881984,10.0.1.140,596,move_down,-0.520,-0.520,-0.520,0.000,0.000,0.000
1605214048666790912,10.0.1.140,607,move_down,-0.540,-0.540,-0.540,0.000,0.000,0.000
1605214050296265984,10.0.1.140,604,move_down,-0.560,-0.560,-0.560,0.000,0.000,0.000
1605214052143620864,10.0.1.140,713,move_down,-0.580,-0.580,-0.580,0.000,0.000,0.000
1605214053268645888,10.0.1.140,62,pick,-0.590,-0.590,-0.590,0.000,0.000,0.000
1605214054261483008,10.0.1.140,54,pick,-0.600,-0.600,-0.600,0.000,0.000,0.000
1605214055255729920,10.0.1.140,48,pick,-0.610,-0.610,-0.610,0.000,0.000,0.000
1605214056261456128,10.0.1.140,52,pick,-0.620,-0.620,-0.620,0.000,0.000,0.000
1605214058232034816,10.0.1.140,NaN,pick,-0.640,-0.640,-0.640,0.000,0.000,0.000
1605214059233335040,10.0.1.140,NaN,pick,-0.650,-0.650,-0.650,0.000,0.000,0.000
1605214059296847104,10.0.1.140,63,pick,-0.650,-0.650,-0.650,0.000,0.000,0.000
1605214060298419968,10.0.1.140,64,pick,-0.660,-0.660,-0.660,0.000,0.000,0.000
1605214061299251968,10.0.1.140,64,pick,-0.670,-0.670,-0.670,0.000,0.000,0.000
1605214062300412928,10.0.1.140,64,pick,-0.680,-0.680,-0.680,0.000,0.000,0.000
1605214063298176000,10.0.1.140,60,pick,-0.690,-0.690,-0.690,0.000,0.000,0.000
1605214064291249152,10.0.1.140,52,pick,-0.700,-0.700,-0.700,0.000,0.000,0.000
1605214065323933952,10.0.1.140,84,pick,-0.710,-0.710,-0.710,0.000,0.000,0.000
1605214067241424128,10.0.1.140,NaN,pick,-0.730,-0.730,-0.730,0.000,0.000,0.000
1605214067298263040,10.0.1.140,56,pick,-0.730,-0.730,-0.730,0.000,0.000,0.000
1605214068319600128,10.0.1.140,72,pick,-0.740,-0.740,-0.740,0.000,0.000,0.000
1605214070255556096,10.0.1.140,NaN,pick,-0.760,-0.760,-0.760,0.000,0.000,0.000
1605214070314355968,10.0.1.140,58,pick,-0.760,-0.760,-0.760,0.000,0.000,0.000
1605214072267038208,10.0.1.140,NaN,move_up,-0.750,-0.750,-0.750,0.000,0.000,0.000
1605214073031693056,10.0.1.140,764,move_up,-0.750,-0.750,-0.750,0.000,0.000,0.000
1605214074782569984,10.0.1.140,718,move_up,-0.730,-0.730,-0.730,0.000,0.000,0.000
1605214076389980928,10.0.1.140,487,move_up,-0.710,-0.710,-0.710,0.000,0.000,0.000
1605214078129534976,10.0.1.140,602,move_up,-0.690,-0.690,-0.690,0.000,0.000,0.000
1605214079894277120,10.0.1.140,666,move_up,-0.670,-0.670,-0.670,0.000,0.000,0.000
1605214081698319872,10.0.1.140,754,move_up,-0.650,-0.650,-0.650,0.000,0.000,0.000
1605214083367707904,10.0.1.140,632,move_up,-0.630,-0.630,-0.630,0.000,0.000,0.000
1605214085089467904,10.0.1.140,723,move_up,-0.610,-0.610,-0.610,0.000,0.000,0.000
1605214086738429952,10.0.1.140,552,move_up,-0.590,-0.590,-0.590,0.000,0.000,0.000
1605214088464025856,10.0.1.140,669,move_up,-0.570,-0.570,-0.570,0.000,0.000,0.000
1605214090283181056,10.0.1.140,706,move_up,-0.550,-0.550,-0.550,0.000,0.000,0.000
1605214092007365888,10.0.1.140,596,move_up,-0.530,-0.530,-0.530,0.000,0.000,0.000
1605214093831671040,10.0.1.140,729,move_up,-0.510,-0.510,-0.510,0.000,0.000,0.000
1605214095762173952,10.0.1.140,773,move_up,-0.490,-0.490,-0.490,0.000,0.000,0.000
1605214097428355840,10.0.1.140,503,move_up,-0.470,-0.470,-0.470,0.000,0.000,0.000
1605214099239538944,10.0.1.140,719,move_up,-0.450,-0.450,-0.450,0.000,0.000,0.000
1605214100980794880,10.0.1.140,689,move_up,-0.430,-0.430,-0.430,0.000,0.000,0.000
1605214102725300992,10.0.1.140,615,move_up,-0.410,-0.410,-0.410,0.000,0.000,0.000
1605214104589394944,10.0.1.140,728,move_up,-0.390,-0.390,-0.390,0.000,0.000,0.000
1605214106326443008,10.0.1.140,629,move_up,-0.370,-0.370,-0.370,0.000,0.000,0.000
1605214107879393024,10.0.1.140,487,move_up,-0.350,-0.350,-0.350,0.000,0.000,0.000
1605214109698617856,10.0.1.140,504,move_up,-0.330,-0.330,-0.330,0.000,0.000,0.000
1605214111369779968,10.0.1.140,600,move_up,-0.310,-0.310,-0.310,0.000,0.000,0.000
1605214113065058048,10.0.1.140,595,move_up,-0.290,-0.290,-0.290,0.000,0.000,0.000
1605214114581038848,10.0.1.140,441,move_up,-0.270,-0.270,-0.270,0.000,0.000,0.000
1605214116227111936,10.0.1.140,541,move_up,-0.250,-0.250,-0.250,0.000,0.000,0.000
1605214118113518848,10.0.1.140,867,move_up,-0.230,-0.230,-0.230,0.000,0.000,0.000
1605214119951774976,10.0.1.140,776,move_up,-0.210,-0.210,-0.210,0.000,0.000,0.000
1605214121969058048,10.0.1.140,629,move_up,-0.190,-0.190,-0.190,0.000,0.000,0.000
1605214123134201088,10.0.1.140,80,place,-0.180,-0.180,-0.180,0.000,0.000,0.000
1605214125059546880,10.0.1.140,NaN,place,-0.160,-0.160,-0.160,0.000,0.000,0.000
1605214126060865024,10.0.1.140,NaN,place,-0.150,-0.150,-0.150,0.000,0.000,0.000
1605214126123848960,10.0.1.140,62,place,-0.150,-0.150,-0.150,0.000,0.000,0.000
1605214127132131072,10.0.1.140,59,place,-0.140,-0.140,-0.140,0.000,0.000,0.000
1605214129078830080,10.0.1.140,NaN,place,-0.120,-0.120,-0.120,0.000,0.000,0.000
1605214129148665856,10.0.1.140,69,place,-0.120,-0.120,-0.120,0.000,0.000,0.000
1605214130163841024,10.0.1.140,84,place,-0.110,-0.110,-0.110,0.000,0.000,0.000
1605214131109774080,10.0.1.140,28,place,-0.100,-0.100,-0.100,0.000,0.000,0.000
1605214132129018112,10.0.1.140,46,place,-0.090,-0.090,-0.090,0.000,0.000,0.000
1605214133145462016,10.0.1.140,61,place,-0.080,-0.080,-0.080,0.000,0.000,0.000
1605214134132897024,10.0.1.140,47,place,-0.070,-0.070,-0.070,0.000,0.000,0.000
1605214135143106048,10.0.1.140,54,place,-0.060,-0.060,-0.060,0.000,0.000,0.000
1605214136138174976,10.0.1.140,48,place,-0.050,-0.050,-0.050,0.000,0.000,0.000
1605214137169636096,10.0.1.140,78,place,-0.040,-0.040,-0.040,0.000,0.000,0.000
1605214138139158016,10.0.1.140,47,place,-0.030,-0.030,-0.030,0.000,0.000,0.000
1605214139158370048,10.0.1.140,62,place,-0.020,-0.020,-0.020,0.000,0.000,0.000
1605214140151928064,10.0.1.140,48,place,-0.010,-0.010,-0.010,0.000,0.000,0.000
1605214141168105984,10.0.1.140,64,place,0.000,0.000,0.000,0.000,0.000,0.000
1605214142754010880,10.0.1.140,648,move_down,-0.020,-0.020,-0.020,0.000,0.000,0.000
1605214144391955968,10.0.1.140,578,move_down,-0.040,-0.040,-0.040,0.000,0.000,0.000
1605214146477134080,10.0.1.140,850,move_down,-0.060,-0.060,-0.060,0.000,0.000,0.000
1605214148296150016,10.0.1.140,664,move_down,-0.080,-0.080,-0.080,0.000,0.000,0.000
1605214149991808000,10.0.1.140,607,move_down,-0.100,-0.100,-0.100,0.000,0.000,0.000
1605214151777178880,10.0.1.140,698,move_down,-0.120,-0.120,-0.120,0.000,0.000,0.000
1605214153338612992,10.0.1.140,491,move_down,-0.140,-0.140,-0.140,0.000,0.000,0.000
1605214155037246976,10.0.1.140,555,move_down,-0.160,-0.160,-0.160,0.000,0.000,0.000
1605214156839127040,10.0.1.140,715,move_down,-0.180,-0.180,-0.180,0.000,0.000,0.000
1605214158576824064,10.0.1.140,630,move_down,-0.200,-0.200,-0.200,0.000,0.000,0.000
1605214160462968064,10.0.1.140,720,move_down,-0.220,-0.220,-0.220,0.000,0.000,0.000
1605214162734742016,10.0.1.140,678,move_down,-0.240,-0.240,-0.240,0.000,0.000,0.000
1605214164604270848,10.0.1.140,794,move_down,-0.260,-0.260,-0.260,0.000,0.000,0.000
1605214166442755840,10.0.1.140,727,move_down,-0.280,-0.280,-0.280,0.000,0.000,0.000
1605214168142992896,10.0.1.140,680,move_down,-0.300,-0.300,-0.300,0.000,0.000,0.000
1605214169948428032,10.0.1.140,724,move_down,-0.320,-0.320,-0.320,0.000,0.000,0.000
1605214171637854208,10.0.1.140,590,move_down,-0.340,-0.340,-0.340,0.000,0.000,0.000
1605214173577891072,10.0.1.140,763,move_down,-0.360,-0.360,-0.360,0.000,0.000,0.000
1605214175446127872,10.0.1.140,812,move_down,-0.380,-0.380,-0.380,0.000,0.000,0.000
1605214177164796160,10.0.1.140,624,move_down,-0.400,-0.400,-0.400,0.000,0.000,0.000
1605214179001789952,10.0.1.140,674,move_down,-0.420,-0.420,-0.420,0.000,0.000,0.000
1605214181131936000,10.0.1.140,956,move_down,-0.440,-0.440,-0.440,0.000,0.000,0.000
1605214182937805056,10.0.1.140,690,move_down,-0.460,-0.460,-0.460,0.000,0.000,0.000
1605214184763806208,10.0.1.140,786,move_down,-0.480,-0.480,-0.480,0.000,0.000,0.000
1605214186295954944,10.0.1.140,522,move_down,-0.500,-0.500,-0.500,0.000,0.000,0.000
1605214188243865856,10.0.1.140,826,move_down,-0.520,-0.520,-0.520,0.000,0.000,0.000
1605214190179068160,10.0.1.140,804,move_down,-0.540,-0.540,-0.540,0.000,0.000,0.000
1605214192023802112,10.0.1.140,737,move_down,-0.560,-0.560,-0.560,0.000,0.000,0.000
1605214193771718144,10.0.1.140,661,move_down,-0.580,-0.580,-0.580,0.000,0.000,0.000
1605214194907723776,10.0.1.140,49,pick,-0.590,-0.590,-0.590,0.000,0.000,0.000
1605214196860916992,10.0.1.140,NaN,pick,-0.610,-0.610,-0.610,0.000,0.000,0.000
1605214197862241024,10.0.1.140,NaN,pick,-0.620,-0.620,-0.620,0.000,0.000,0.000
1605214197907891968,10.0.1.140,45,pick,-0.620,-0.620,-0.620,0.000,0.000,0.000
1605214198921945088,10.0.1.140,50,pick,-0.630,-0.630,-0.630,0.000,0.000,0.000
1605214200874100992,10.0.1.140,NaN,pick,-0.650,-0.650,-0.650,0.000,0.000,0.000
1605214201875751936,10.0.1.140,NaN,pick,-0.660,-0.660,-0.660,0.000,0.000,0.000
1605214202877024000,10.0.1.140,NaN,pick,-0.670,-0.670,-0.670,0.000,0.000,0.000
1605214202925446912,10.0.1.140,48,pick,-0.670,-0.670,-0.670,0.000,0.000,0.000
1605214203906094080,10.0.1.140,27,pick,-0.680,-0.680,-0.680,0.000,0.000,0.000
1605214205880814080,10.0.1.140,NaN,pick,-0.700,-0.700,-0.700,0.000,0.000,0.000
1605214206882117888,10.0.1.140,NaN,pick,-0.710,-0.710,-0.710,0.000,0.000,0.000
1605214206929344768,10.0.1.140,47,pick,-0.710,-0.710,-0.710,0.000,0.000,0.000
1605214207930870016,10.0.1.140,47,pick,-0.720,-0.720,-0.720,0.000,0.000,0.000
1605214209894449920,10.0.1.140,NaN,pick,-0.740,-0.740,-0.740,0.000,0.000,0.000
1605214209956596992,10.0.1.140,62,pick,-0.740,-0.740,-0.740,0.000,0.000,0.000
1605214211906799104,10.0.1.140,NaN,pick,-0.760,-0.760,-0.760,0.000,0.000,0.000
1605214211961790976,10.0.1.140,54,pick,-0.760,-0.760,-0.760,0.000,0.000,0.000
1605214212960564992,10.0.1.140,51,pick,-0.770,-0.770,-0.770,0.000,0.000,0.000
1605214214400534016,10.0.1.140,491,move_up,-0.750,-0.750,-0.750,0.000,0.000,0.000
1605214216258620928,10.0.1.140,757,move_up,-0.730,-0.730,-0.730,0.000,0.000,0.000
1605214217798063104,10.0.1.140,506,move_up,-0.710,-0.710,-0.710,0.000,0.000,0.000
1605214219681147136,10.0.1.140,828,move_up,-0.690,-0.690,-0.690,0.000,0.000,0.000
1605214221455513856,10.0.1.140,586,move_up,-0.670,-0.670,-0.670,0.000,0.000,0.000
1605214223186695168,10.0.1.140,583,move_up,-0.650,-0.650,-0.650,0.000,0.000,0.000
1605214224957030912,10.0.1.140,644,move_up,-0.630,-0.630,-0.630,0.000,0.000,0.000
1605214227259483136,10.0.1.140,1095,move_up,-0.610,-0.610,-0.610,0.000,0.000,0.000
1605214229213619968,10.0.1.140,851,move_up,-0.590,-0.590,-0.590,0.000,0.000,0.000
1605214231001699840,10.0.1.140,693,move_up,-0.570,-0.570,-0.570,0.000,0.000,0.000
1605214232762254848,10.0.1.140,588,move_up,-0.550,-0.550,-0.550,0.000,0.000,0.000
1605214234651936000,10.0.1.140,757,move_up,-0.530,-0.530,-0.530,0.000,0.000,0.000
1605214236202996992,10.0.1.140,525,move_up,-0.510,-0.510,-0.510,0.000,0.000,0.000
1605214237938592000,10.0.1.140,605,move_up,-0.490,-0.490,-0.490,0.000,0.000,0.000
1605214239684040960,10.0.1.140,583,move_up,-0.470,-0.470,-0.470,0.000,0.000,0.000
1605214241466039808,10.0.1.140,642,move_up,-0.450,-0.450,-0.450,0.000,0.000,0.000
1605214243457519104,10.0.1.140,908,move_up,-0.430,-0.430,-0.430,0.000,0.000,0.000
1605214245071599872,10.0.1.140,521,move_up,-0.410,-0.410,-0.410,0.000,0.000,0.000
1605214246847917056,10.0.1.140,607,move_up,-0.390,-0.390,-0.390,0.000,0.000,0.000
1605214248836451072,10.0.1.140,675,move_up,-0.370,-0.370,-0.370,0.000,0.000,0.000
1605214250869468928,10.0.1.140,935,move_up,-0.350,-0.350,-0.350,0.000,0.000,0.000
1605214252479404032,10.0.1.140,554,move_up,-0.330,-0.330,-0.330,0.000,0.000,0.000
1605214254549426944,10.0.1.140,700,move_up,-0.310,-0.310,-0.310,0.000,0.000,0.000
1605214256701479936,10.0.1.140,631,move_up,-0.290,-0.290,-0.290,0.000,0.000,0.000
1605214258265249024,10.0.1.140,499,move_up,-0.270,-0.270,-0.270,0.000,0.000,0.000
1605214260018650112,10.0.1.140,572,move_up,-0.250,-0.250,-0.250,0.000,0.000,0.000
1605214262032443136,10.0.1.140,777,move_up,-0.230,-0.230,-0.230,0.000,0.000,0.000
1605214264241149952,10.0.1.140,1151,move_up,-0.210,-0.210,-0.210,0.000,0.000,0.000
1605214266122523904,10.0.1.140,739,move_up,-0.190,-0.190,-0.190,0.000,0.000,0.000
1605214267178797056,10.0.1.140,44,place,-0.180,-0.180,-0.180,0.000,0.000,0.000
1605214268196912896,10.0.1.140,56,place,-0.170,-0.170,-0.170,0.000,0.000,0.000
1605214269192235008,10.0.1.140,47,place,-0.160,-0.160,-0.160,0.000,0.000,0.000
1605214270202375936,10.0.1.140,53,place,-0.150,-0.150,-0.150,0.000,0.000,0.000
1605214271201602816,10.0.1.140,50,place,-0.140,-0.140,-0.140,0.000,0.000,0.000
1605214273152755968,10.0.1.140,NaN,place,-0.120,-0.120,-0.120,0.000,0.000,0.000
1605214273197766912,10.0.1.140,44,place,-0.120,-0.120,-0.120,0.000,0.000,0.000
1605214274220113920,10.0.1.140,66,place,-0.110,-0.110,-0.110,0.000,0.000,0.000
1605214276171072000,10.0.1.140,NaN,place,-0.090,-0.090,-0.090,0.000,0.000,0.000
1605214276230347008,10.0.1.140,59,place,-0.090,-0.090,-0.090,0.000,0.000,0.000
1605214277247662080,10.0.1.140,73,place,-0.080,-0.080,-0.080,0.000,0.000,0.000
1605214278228358144,10.0.1.140,52,place,-0.070,-0.070,-0.070,0.000,0.000,0.000
1605214279245299200,10.0.1.140,68,place,-0.060,-0.060,-0.060,0.000,0.000,0.000
1605214280221872128,10.0.1.140,39,place,-0.050,-0.050,-0.050,0.000,0.000,0.000
1605214281235284992,10.0.1.140,50,place,-0.040,-0.040,-0.040,0.000,0.000,0.000
1605214282228548096,10.0.1.140,42,place,-0.030,-0.030,-0.030,0.000,0.000,0.000
1605214283261213952,10.0.1.140,66,place,-0.020,-0.020,-0.020,0.000,0.000,0.000
1605214284249878016,10.0.1.140,54,place,-0.010,-0.010,-0.010,0.000,0.000,0.000
1605214285257179904,10.0.1.140,53,place,0.000,0.000,0.000,0.000,0.000,0.000
1605214286742980864,10.0.1.140,538,move_down,-0.020,-0.020,-0.020,0.000,0.000,0.000
1605214288481515776,10.0.1.140,683,move_down,-0.040,-0.040,-0.040,0.000,0.000,0.000
1605214290155191808,10.0.1.140,575,move_down,-0.060,-0.060,-0.060,0.000,0.000,0.000
1605214291641249792,10.0.1.140,444,move_down,-0.080,-0.080,-0.080,0.000,0.000,0.000
1605214293492404992,10.0.1.140,761,move_down,-0.100,-0.100,-0.100,0.000,0.000,0.000
1605214295168171008,10.0.1.140,552,move_down,-0.120,-0.120,-0.120,0.000,0.000,0.000
1605214297030025984,10.0.1.140,764,move_down,-0.140,-0.140,-0.140,0.000,0.000,0.000
1605214298864272128,10.0.1.140,740,move_down,-0.160,-0.160,-0.160,0.000,0.000,0.000
1605214300611043840,10.0.1.140,723,move_down,-0.180,-0.180,-0.180,0.000,0.000,0.000
1605214302434184960,10.0.1.140,713,move_down,-0.200,-0.200,-0.200,0.000,0.000,0.000
1605214304149736960,10.0.1.140,564,move_down,-0.220,-0.220,-0.220,0.000,0.000,0.000
1605214305745448192,10.0.1.140,535,move_down,-0.240,-0.240,-0.240,0.000,0.000,0.000
1605214307504483840,10.0.1.140,731,move_down,-0.260,-0.260,-0.260,0.000,0.000,0.000
1605214309384226048,10.0.1.140,756,move_down,-0.280,-0.280,-0.280,0.000,0.000,0.000
1605214311136687872,10.0.1.140,663,move_down,-0.300,-0.300,-0.300,0.000,0.000,0.000
1605214312992350976,10.0.1.140,748,move_down,-0.320,-0.320,-0.320,0.000,0.000,0.000
1605214314623593984,10.0.1.140,586,move_down,-0.340,-0.340,-0.340,0.000,0.000,0.000
1605214316631303168,10.0.1.140,650,move_down,-0.360,-0.360,-0.360,0.000,0.000,0.000
1605214318480263936,10.0.1.140,690,move_down,-0.380,-0.380,-0.380,0.000,0.000,0.000
1605214320269388032,10.0.1.140,589,move_down,-0.400,-0.400,-0.400,0.000,0.000,0.000
1605214321909624064,10.0.1.140,574,move_down,-0.420,-0.420,-0.420,0.000,0.000,0.000
1605214323662034944,10.0.1.140,687,move_down,-0.440,-0.440,-0.440,0.000,0.000,0.000
1605214325253406976,10.0.1.140,535,move_down,-0.460,-0.460,-0.460,0.000,0.000,0.000
1605214327113315072,10.0.1.140,797,move_down,-0.480,-0.480,-0.480,0.000,0.000,0.000
1605214329179120128,10.0.1.140,924,move_down,-0.500,-0.500,-0.500,0.000,0.000,0.000
1605214331078021888,10.0.1.140,775,move_down,-0.520,-0.520,-0.520,0.000,0.000,0.000
1605214332859272960,10.0.1.140,687,move_down,-0.540,-0.540,-0.540,0.000,0.000,0.000
1605214334503015936,10.0.1.140,605,move_down,-0.560,-0.560,-0.560,0.000,0.000,0.000
1605214336253647104,10.0.1.140,600,move_down,-0.580,-0.580,-0.580,0.000,0.000,0.000
1605214337528258048,10.0.1.140,72,pick,-0.590,-0.590,-0.590,0.000,0.000,0.000
1605214338506980864,10.0.1.140,50,pick,-0.600,-0.600,-0.600,0.000,0.000,0.000
1605214339553446912,10.0.1.140,72,pick,-0.610,-0.610,-0.610,0.000,0.000,0.000
1605214340558326016,10.0.1.140,76,pick,-0.620,-0.620,-0.620,0.000,0.000,0.000
1605214341557871104,10.0.1.140,70,pick,-0.630,-0.630,-0.630,0.000,0.000,0.000
1605214342558292992,10.0.1.140,62,pick,-0.640,-0.640,-0.640,0.000,0.000,0.000
1605214343535967232,10.0.1.140,38,pick,-0.650,-0.650,-0.650,0.000,0.000,0.000
1605214345500158976,10.0.1.140,NaN,pick,-0.670,-0.670,-0.670,0.000,0.000,0.000
1605214345560177152,10.0.1.140,59,pick,-0.670,-0.670,-0.670,0.000,0.000,0.000
1605214346554294016,10.0.1.140,52,pick,-0.680,-0.680,-0.680,0.000,0.000,0.000
1605214347564211968,10.0.1.140,62,pick,-0.690,-0.690,-0.690,0.000,0.000,0.000
1605214348562699008,10.0.1.140,58,pick,-0.700,-0.700,-0.700,0.000,0.000,0.000
1605214349568190976,10.0.1.140,64,pick,-0.710,-0.710,-0.710,0.000,0.000,0.000
1605214350554955008,10.0.1.140,47,pick,-0.720,-0.720,-0.720,0.000,0.000,0.000
1605214351551544832,10.0.1.140,42,pick,-0.730,-0.730,-0.730,0.000,0.000,0.000
1605214352592963072,10.0.1.140,73,pick,-0.740,-0.740,-0.740,0.000,0.000,0.000
1605214353576781056,10.0.1.140,57,pick,-0.750,-0.750,-0.750,0.000,0.000,0.000
1605214354579998976,10.0.1.140,60,pick,-0.760,-0.760,-0.760,0.000,0.000,0.000
1605214356521966080,10.0.1.140,NaN,move_up,-0.750,-0.750,-0.750,0.000,0.000,0.000
1605214357125389056,10.0.1.140,603,move_up,-0.750,-0.750,-0.750,0.000,0.000,0.000
1605214358710241024,10.0.1.140,521,move_up,-0.730,-0.730,-0.730,0.000,0.000,0.000
1605214360299657984,10.0.1.140,535,move_up,-0.710,-0.710,-0.710,0.000,0.000,0.000
1605214362058119936,10.0.1.140,681,move_up,-0.690,-0.690,-0.690,0.000,0.000,0.000
1605214363852623872,10.0.1.140,711,move_up,-0.670,-0.670,-0.670,0.000,0.000,0.000
1605214365462868992,10.0.1.140,492,move_up,-0.650,-0.650,-0.650,0.000,0.000,0.000
1605214367383290880,10.0.1.140,708,move_up,-0.630,-0.630,-0.630,0.000,0.000,0.000
1605214369162816000,10.0.1.140,655,move_up,-0.610,-0.610,-0.610,0.000,0.000,0.000
1605214370998050048,10.0.1.140,733,move_up,-0.590,-0.590,-0.590,0.000,0.000,0.000
1605214372780844800,10.0.1.140,730,move_up,-0.570,-0.570,-0.570,0.000,0.000,0.000
1605214374912736000,10.0.1.140,1093,move_up,-0.550,-0.550,-0.550,0.000,0.000,0.000
1605214376678381056,10.0.1.140,676,move_up,-0.530,-0.530,-0.530,0.000,0.000,0.000
1605214378411065088,10.0.1.140,620,move_up,-0.510,-0.510,-0.510,0.000,0.000,0.000
1605214380517296128,10.0.1.140,994,move_up,-0.490,-0.490,-0.490,0.000,0.000,0.000
1605214382373519872,10.0.1.140,789,move_up,-0.470,-0.470,-0.470,0.000,0.000,0.000
1605214384045245952,10.0.1.140,587,move_up,-0.450,-0.450,-0.450,0.000,0.000,0.000
1605214386447968000,10.0.1.140,1260,move_up,-0.430,-0.430,-0.430,0.000,0.000,0.000
1605214388285916928,10.0.1.140,808,move_up,-0.410,-0.410,-0.410,0.000,0.000,0.000
1605214389997785088,10.0.1.140,610,move_up,-0.390,-0.390,-0.390,0.000,0.000,0.000
1605214392028812800,10.0.1.140,947,move_up,-0.370,-0.370,-0.370,0.000,0.000,0.000
1605214393692771840,10.0.1.140,592,move_up,-0.350,-0.350,-0.350,0.000,0.000,0.000
1605214395644777984,10.0.1.140,667,move_up,-0.330,-0.330,-0.330,0.000,0.000,0.000
1605214397779072000,10.0.1.140,794,move_up,-0.310,-0.310,-0.310,0.000,0.000,0.000
1605214399896940032,10.0.1.140,968,move_up,-0.290,-0.290,-0.290,0.000,0.000,0.000
1605214401522855168,10.0.1.140,521,move_up,-0.270,-0.270,-0.270,0.000,0.000,0.000
1605214403419966976,10.0.1.140,776,move_up,-0.250,-0.250,-0.250,0.000,0.000,0.000
1605214405154163968,10.0.1.140,633,move_up,-0.230,-0.230,-0.230,0.000,0.000,0.000
1605214406995742208,10.0.1.140,655,move_up,-0.210,-0.210,-0.210,0.000,0.000,0.000
1605214408916430848,10.0.1.140,874,move_up,-0.190,-0.190,-0.190,0.000,0.000,0.000
1605214410070644992,10.0.1.140,64,place,-0.180,-0.180,-0.180,0.000,0.000,0.000
1605214411052468992,10.0.1.140,46,place,-0.170,-0.170,-0.170,0.000,0.000,0.000
1605214413011557120,10.0.1.140,NaN,place,-0.150,-0.150,-0.150,0.000,0.000,0.000
1605214413147015936,10.0.1.140,135,place,-0.150,-0.150,-0.150,0.000,0.000,0.000
1605214414066948864,10.0.1.140,54,place,-0.140,-0.140,-0.140,0.000,0.000,0.000
1605214415061340160,10.0.1.140,47,place,-0.130,-0.130,-0.130,0.000,0.000,0.000
1605214416079854848,10.0.1.140,56,place,-0.120,-0.120,-0.120,0.000,0.000,0.000
1605214417083106048,10.0.1.140,59,place,-0.110,-0.110,-0.110,0.000,0.000,0.000
1605214418081871872,10.0.1.140,56,place,-0.100,-0.100,-0.100,0.000,0.000,0.000
1605214419081826816,10.0.1.140,50,place,-0.090,-0.090,-0.090,0.000,0.000,0.000
1605214420072861952,10.0.1.140,39,place,-0.080,-0.080,-0.080,0.000,0.000,0.000
1605214422051170048,10.0.1.140,NaN,place,-0.060,-0.060,-0.060,0.000,0.000,0.000
1605214423057577984,10.0.1.140,NaN,place,-0.050,-0.050,-0.050,0.000,0.000,0.000
1605214424058379008,10.0.1.140,NaN,place,-0.040,-0.040,-0.040,0.000,0.000,0.000
1605214425063110144,10.0.1.140,NaN,place,-0.030,-0.030,-0.030,0.000,0.000,0.000
1605214425139952896,10.0.1.140,76,place,-0.030,-0.030,-0.030,0.000,0.000,0.000
1605214426102107136,10.0.1.140,37,place,-0.020,-0.020,-0.020,0.000,0.000,0.000
1605214427122641920,10.0.1.140,56,place,-0.010,-0.010,-0.010,0.000,0.000,0.000
1605214428125857024,10.0.1.140,55,place,0.000,0.000,0.000,0.000,0.000,0.000
1605214429746733824,10.0.1.140,674,move_down,-0.020,-0.020,-0.020,0.000,0.000,0.000
1605214431708834048,10.0.1.140,847,move_down,-0.040,-0.040,-0.040,0.000,0.000,0.000
1605214433405214976,10.0.1.140,567,move_down,-0.060,-0.060,-0.060,0.000,0.000,0.000
1605214435400538880,10.0.1.140,895,move_down,-0.080,-0.080,-0.080,0.000,0.000,0.000
1605214437367990016,10.0.1.140,822,move_down,-0.100,-0.100,-0.100,0.000,0.000,0.000
1605214439015979008,10.0.1.140,597,move_down,-0.120,-0.120,-0.120,0.000,0.000,0.000
1605214440657562112,10.0.1.140,578,move_down,-0.140,-0.140,-0.140,0.000,0.000,0.000
1605214442317665024,10.0.1.140,528,move_down,-0.160,-0.160,-0.160,0.000,0.000,0.000
1605214444227990016,10.0.1.140,808,move_down,-0.180,-0.180,-0.180,0.000,0.000,0.000
1605214446138753792,10.0.1.140,815,move_down,-0.200,-0.200,-0.200,0.000,0.000,0.000
1605214447832033024,10.0.1.140,545,move_down,-0.220,-0.220,-0.220,0.000,0.000,0.000
1605214450071154176,10.0.1.140,1200,move_down,-0.240,-0.240,-0.240,0.000,0.000,0.000
1605214451824471040,10.0.1.140,623,move_down,-0.260,-0.260,-0.260,0.000,0.000,0.000
1605214453739084032,10.0.1.140,791,move_down,-0.280,-0.280,-0.280,0.000,0.000,0.000
1605214455434070016,10.0.1.140,528,move_down,-0.300,-0.300,-0.300,0.000,0.000,0.000
1605214457462505984,10.0.1.140,947,move_down,-0.320,-0.320,-0.320,0.000,0.000,0.000
1605214459230430976,10.0.1.140,606,move_down,-0.340,-0.340,-0.340,0.000,0.000,0.000
1605214460853431040,10.0.1.140,541,move_down,-0.360,-0.360,-0.360,0.000,0.000,0.000
1605214462828025088,10.0.1.140,833,move_down,-0.380,-0.380,-0.380,0.000,0.000,0.000
1605214464596400896,10.0.1.140,700,move_down,-0.400,-0.400,-0.400,0.000,0.000,0.000
1605214466292574976,10.0.1.140,612,move_down,-0.420,-0.420,-0.420,0.000,0.000,0.000
1605214467874872064,10.0.1.140,549,move_down,-0.440,-0.440,-0.440,0.000,0.000,0.000
1605214469611589888,10.0.1.140,619,move_down,-0.460,-0.460,-0.460,0.000,0.000,0.000
1605214471316829952,10.0.1.140,568,move_down,-0.480,-0.480,-0.480,0.000,0.000,0.000
1605214473143744000,10.0.1.140,672,move_down,-0.500,-0.500,-0.500,0.000,0.000,0.000
1605214474822396928,10.0.1.140,623,move_down,-0.520,-0.520,-0.520,0.000,0.000,0.000
1605214476630764032,10.0.1.140,583,move_down,-0.540,-0.540,-0.540,0.000,0.000,0.000
1605214478455697920,10.0.1.140,701,move_down,-0.560,-0.560,-0.560,0.000,0.000,0.000
1605214480327362048,10.0.1.140,616,move_down,-0.580,-0.580,-0.580,0.000,0.000,0.000
1605214482449340160,10.0.1.140,NaN,pick,-0.600,-0.600,-0.600,0.000,0.000,0.000
1605214482507719936,10.0.1.140,58,pick,-0.600,-0.600,-0.600,0.000,0.000,0.000
1605214484451539968,10.0.1.140,NaN,pick,-0.620,-0.620,-0.620,0.000,0.000,0.000
1605214484493022976,10.0.1.140,41,pick,-0.620,-0.620,-0.620,0.000,0.000,0.000
1605214485560535040,10.0.1.140,106,pick,-0.630,-0.630,-0.630,0.000,0.000,0.000
1605214486509335040,10.0.1.140,49,pick,-0.640,-0.640,-0.640,0.000,0.000,0.000
1605214487507771904,10.0.1.140,46,pick,-0.650,-0.650,-0.650,0.000,0.000,0.000
1605214488506917120,10.0.1.140,35,pick,-0.660,-0.660,-0.660,0.000,0.000,0.000
1605214489506608896,10.0.1.140,32,pick,-0.670,-0.670,-0.670,0.000,0.000,0.000
1605214490530332928,10.0.1.140,54,pick,-0.680,-0.680,-0.680,0.000,0.000,0.000
1605214492491314944,10.0.1.140,NaN,pick,-0.700,-0.700,-0.700,0.000,0.000,0.000
1605214492530738176,10.0.1.140,39,pick,-0.700,-0.700,-0.700,0.000,0.000,0.000
1605214493567270912,10.0.1.140,67,pick,-0.710,-0.710,-0.710,0.000,0.000,0.000
1605214494555550208,10.0.1.140,55,pick,-0.720,-0.720,-0.720,0.000,0.000,0.000
1605214495579341056,10.0.1.140,78,pick,-0.730,-0.730,-0.730,0.000,0.000,0.000
1605214496567406848,10.0.1.140,65,pick,-0.740,-0.740,-0.740,0.000,0.000,0.000
1605214497564819200,10.0.1.140,42,pick,-0.750,-0.750,-0.750,0.000,0.000,0.000
1605214498570217984,10.0.1.140,47,pick,-0.760,-0.760,-0.760,0.000,0.000,0.000
1605214499614008832,10.0.1.140,79,pick,-0.770,-0.770,-0.770,0.000,0.000,0.000
1605214501326412032,10.0.1.140,790,move_up,-0.750,-0.750,-0.750,0.000,0.000,0.000
1605214503019782912,10.0.1.140,542,move_up,-0.730,-0.730,-0.730,0.000,0.000,0.000
1605214504691668992,10.0.1.140,538,move_up,-0.710,-0.710,-0.710,0.000,0.000,0.000
1605214506527312128,10.0.1.140,735,move_up,-0.690,-0.690,-0.690,0.000,0.000,0.000
1605214508291529984,10.0.1.140,652,move_up,-0.670,-0.670,-0.670,0.000,0.000,0.000
1605214510149332992,10.0.1.140,589,move_up,-0.650,-0.650,-0.650,0.000,0.000,0.000
1605214512011950848,10.0.1.140,769,move_up,-0.630,-0.630,-0.630,0.000,0.000,0.000
1605214513876283904,10.0.1.140,716,move_up,-0.610,-0.610,-0.610,0.000,0.000,0.000
1605214515384612096,10.0.1.140,509,move_up,-0.590,-0.590,-0.590,0.000,0.000,0.000
1605214517078233856,10.0.1.140,577,move_up,-0.570,-0.570,-0.570,0.000,0.000,0.000
1605214518908261888,10.0.1.140,704,move_up,-0.550,-0.550,-0.550,0.000,0.000,0.000
1605214521061170176,10.0.1.140,699,move_up,-0.530,-0.530,-0.530,0.000,0.000,0.000
1605214522910288128,10.0.1.140,807,move_up,-0.510,-0.510,-0.510,0.000,0.000,0.000
1605214524695652096,10.0.1.140,592,move_up,-0.490,-0.490,-0.490,0.000,0.000,0.000
1605214526603456000,10.0.1.140,796,move_up,-0.470,-0.470,-0.470,0.000,0.000,0.000
1605214528334422016,10.0.1.140,594,move_up,-0.450,-0.450,-0.450,0.000,0.000,0.000
1605214530114255872,10.0.1.140,699,move_up,-0.430,-0.430,-0.430,0.000,0.000,0.000
1605214532079016960,10.0.1.140,886,move_up,-0.410,-0.410,-0.410,0.000,0.000,0.000
1605214534018295040,10.0.1.140,625,move_up,-0.390,-0.390,-0.390,0.000,0.000,0.000
1605214536209146880,10.0.1.140,867,move_up,-0.370,-0.370,-0.370,0.000,0.000,0.000
1605214538054227200,10.0.1.140,742,move_up,-0.350,-0.350,-0.350,0.000,0.000,0.000
1605214540024528128,10.0.1.140,858,move_up,-0.330,-0.330,-0.330,0.000,0.000,0.000
1605214542130369024,10.0.1.140,896,move_up,-0.310,-0.310,-0.310,0.000,0.000,0.000
1605214543887262208,10.0.1.140,712,move_up,-0.290,-0.290,-0.290,0.000,0.000,0.000
1605214545608323072,10.0.1.140,665,move_up,-0.270,-0.270,-0.270,0.000,0.000,0.000
1605214547206393856,10.0.1.140,514,move_up,-0.250,-0.250,-0.250,0.000,0.000,0.000
1605214548815824128,10.0.1.140,509,move_up,-0.230,-0.230,-0.230,0.000,0.000,0.000
1605214550447410944,10.0.1.140,572,move_up,-0.210,-0.210,-0.210,0.000,0.000,0.000
1605214552085582080,10.0.1.140,508,move_up,-0.190,-0.190,-0.190,0.000,0.000,0.000
1605214553246359040,10.0.1.140,34,place,-0.180,-0.180,-0.180,0.000,0.000,0.000
1605214554274127104,10.0.1.140,48,place,-0.170,-0.170,-0.170,0.000,0.000,0.000
1605214555305097984,10.0.1.140,66,place,-0.160,-0.160,-0.160,0.000,0.000,0.000
1605214556310165760,10.0.1.140,68,place,-0.150,-0.150,-0.150,0.000,0.000,0.000
1605214557317984000,10.0.1.140,68,place,-0.140,-0.140,-0.140,0.000,0.000,0.000
1605214558292108032,10.0.1.140,41,place,-0.130,-0.130,-0.130,0.000,0.000,0.000
1605214559286113024,10.0.1.140,34,place,-0.120,-0.120,-0.120,0.000,0.000,0.000
1605214560292396032,10.0.1.140,39,place,-0.110,-0.110,-0.110,0.000,0.000,0.000
1605214561302337024,10.0.1.140,42,place,-0.100,-0.100,-0.100,0.000,0.000,0.000
1605214562309498112,10.0.1.140,48,place,-0.090,-0.090,-0.090,0.000,0.000,0.000
1605214564263544064,10.0.1.140,NaN,place,-0.070,-0.070,-0.070,0.000,0.000,0.000
1605214564343962880,10.0.1.140,80,place,-0.070,-0.070,-0.070,0.000,0.000,0.000
1605214565313467136,10.0.1.140,45,place,-0.060,-0.060,-0.060,0.000,0.000,0.000
1605214566308478208,10.0.1.140,40,place,-0.050,-0.050,-0.050,0.000,0.000,0.000
1605214567315099904,10.0.1.140,42,place,-0.040,-0.040,-0.040,0.000,0.000,0.000
1605214569284750080,10.0.1.140,NaN,place,-0.020,-0.020,-0.020,0.000,0.000,0.000
1605214569334614016,10.0.1.140,49,place,-0.020,-0.020,-0.020,0.000,0.000,0.000
1605214570326054144,10.0.1.140,37,place,-0.010,-0.010,-0.010,0.000,0.000,0.000
1605214571366899968,10.0.1.140,76,place,0.000,0.000,0.000,0.000,0.000,0.000
1605214572999811840,10.0.1.140,708,move_down,-0.020,-0.020,-0.020,0.000,0.000,0.000
1605214574674764032,10.0.1.140,585,move_down,-0.040,-0.040,-0.040,0.000,0.000,0.000
1605214576505511936,10.0.1.140,549,move_down,-0.060,-0.060,-0.060,0.000,0.000,0.000
1605214578503762944,10.0.1.140,792,move_down,-0.080,-0.080,-0.080,0.000,0.000,0.000
1605214580237345024,10.0.1.140,601,move_down,-0.100,-0.100,-0.100,0.000,0.000,0.000
1605214582184433920,10.0.1.140,932,move_down,-0.120,-0.120,-0.120,0.000,0.000,0.000
1605214584035393024,10.0.1.140,673,move_down,-0.140,-0.140,-0.140,0.000,0.000,0.000
1605214585676889856,10.0.1.140,497,move_down,-0.160,-0.160,-0.160,0.000,0.000,0.000
1605214587513376000,10.0.1.140,665,move_down,-0.180,-0.180,-0.180,0.000,0.000,0.000
1605214589079820032,10.0.1.140,500,move_down,-0.200,-0.200,-0.200,0.000,0.000,0.000
1605214590808141824,10.0.1.140,640,move_down,-0.220,-0.220,-0.220,0.000,0.000,0.000
1605214592745392128,10.0.1.140,781,move_down,-0.240,-0.240,-0.240,0.000,0.000,0.000
1605214594601777920,10.0.1.140,790,move_down,-0.260,-0.260,-0.260,0.000,0.000,0.000
1605214596367830016,10.0.1.140,635,move_down,-0.280,-0.280,-0.280,0.000,0.000,0.000
1605214598706262016,10.0.1.140,911,move_down,-0.300,-0.300,-0.300,0.000,0.000,0.000
1605214600349266944,10.0.1.140,534,move_down,-0.320,-0.320,-0.320,0.000,0.000,0.000
1605214602034723072,10.0.1.140,582,move_down,-0.340,-0.340,-0.340,0.000,0.000,0.000
1605214603664307968,10.0.1.140,572,move_down,-0.360,-0.360,-0.360,0.000,0.000,0.000
1605214605273607936,10.0.1.140,488,move_down,-0.380,-0.380,-0.380,0.000,0.000,0.000
1605214606974903040,10.0.1.140,638,move_down,-0.400,-0.400,-0.400,0.000,0.000,0.000
1605214608498606848,10.0.1.140,486,move_down,-0.420,-0.420,-0.420,0.000,0.000,0.000
1605214610580749056,10.0.1.140,782,move_down,-0.440,-0.440,-0.440,0.000,0.000,0.000
1605214612365015040,10.0.1.140,600,move_down,-0.460,-0.460,-0.460,0.000,0.000,0.000
1605214614044771840,10.0.1.140,638,move_down,-0.480,-0.480,-0.480,0.000,0.000,0.000
1605214616001179904,10.0.1.140,910,move_down,-0.500,-0.500,-0.500,0.000,0.000,0.000
1605214618163223040,10.0.1.140,1122,move_down,-0.520,-0.520,-0.520,0.000,0.000,0.000
1605214619950748928,10.0.1.140,648,move_down,-0.540,-0.540,-0.540,0.000,0.000,0.000
1605214621647912960,10.0.1.140,578,move_down,-0.560,-0.560,-0.560,0.000,0.000,0.000
1605214623580305152,10.0.1.140,792,move_down,-0.580,-0.580,-0.580,0.000,0.000,0.000
1605214624797697024,10.0.1.140,87,pick,-0.590,-0.590,-0.590,0.000,0.000,0.000
1605214625759777024,10.0.1.140,48,pick,-0.600,-0.600,-0.600,0.000,0.000,0.000
1605214627722822912,10.0.1.140,NaN,pick,-0.620,-0.620,-0.620,0.000,0.000,0.000
1605214627763799040,10.0.1.140,40,pick,-0.620,-0.620,-0.620,0.000,0.000,0.000
1605214628762712832,10.0.1.140,39,pick,-0.630,-0.630,-0.630,0.000,0.000,0.000
1605214629783824896,10.0.1.140,53,pick,-0.640,-0.640,-0.640,0.000,0.000,0.000
1605214630798717952,10.0.1.140,67,pick,-0.650,-0.650,-0.650,0.000,0.000,0.000
1605214631806944000,10.0.1.140,66,pick,-0.660,-0.660,-0.660,0.000,0.000,0.000
1605214632830776832,10.0.1.140,89,pick,-0.670,-0.670,-0.670,0.000,0.000,0.000
1605214634758764032,10.0.1.140,NaN,pick,-0.690,-0.690,-0.690,0.000,0.000,0.000
1605214634801888000,10.0.1.140,43,pick,-0.690,-0.690,-0.690,0.000,0.000,0.000
1605214635807311104,10.0.1.140,41,pick,-0.700,-0.700,-0.700,0.000,0.000,0.000
1605214636818512896,10.0.1.140,41,pick,-0.710,-0.710,-0.710,0.000,0.000,0.000
1605214637861117952,10.0.1.140,82,pick,-0.720,-0.720,-0.720,0.000,0.000,0.000
1605214638834142976,10.0.1.140,52,pick,-0.730,-0.730,-0.730,0.000,0.000,0.000
1605214639832106240,10.0.1.140,48,pick,-0.740,-0.740,-0.740,0.000,0.000,0.000
1605214640882639872,10.0.1.140,78,pick,-0.750,-0.750,-0.750,0.000,0.000,0.000
1605214641865276928,10.0.1.140,59,pick,-0.760,-0.760,-0.760,0.000,0.000,0.000
1605214642844312064,10.0.1.140,36,pick,-0.770,-0.770,-0.770,0.000,0.000,0.000
1605214644646806016,10.0.1.140,838,move_up,-0.750,-0.750,-0.750,0.000,0.000,0.000
1605214646498297856,10.0.1.140,556,move_up,-0.730,-0.730,-0.730,0.000,0.000,0.000
1605214648240642048,10.0.1.140,576,move_up,-0.710,-0.710,-0.710,0.000,0.000,0.000
1605214650103684864,10.0.1.140,741,move_up,-0.690,-0.690,-0.690,0.000,0.000,0.000
1605214651983716864,10.0.1.140,838,move_up,-0.670,-0.670,-0.670,0.000,0.000,0.000
1605214653668945152,10.0.1.140,597,move_up,-0.650,-0.650,-0.650,0.000,0.000,0.000
1605214655683838976,10.0.1.140,806,move_up,-0.630,-0.630,-0.630,0.000,0.000,0.000
1605214657420062976,10.0.1.140,618,move_up,-0.610,-0.610,-0.610,0.000,0.000,0.000
1605214659079111936,10.0.1.140,564,move_up,-0.590,-0.590,-0.590,0.000,0.000,0.000
1605214660798002944,10.0.1.140,634,move_up,-0.570,-0.570,-0.570,0.000,0.000,0.000
1605214662568711936,10.0.1.140,620,move_up,-0.550,-0.550,-0.550,0.000,0.000,0.000
1605214664299966976,10.0.1.140,593,move_up,-0.530,-0.530,-0.530,0.000,0.000,0.000
1605214666097985024,10.0.1.140,708,move_up,-0.510,-0.510,-0.510,0.000,0.000,0.000
1605214667837635072,10.0.1.140,511,move_up,-0.490,-0.490,-0.490,0.000,0.000,0.000
1605214669682831104,10.0.1.140,713,move_up,-0.470,-0.470,-0.470,0.000,0.000,0.000
1605214671674701824,10.0.1.140,879,move_up,-0.450,-0.450,-0.450,0.000,0.000,0.000
1605214673343563008,10.0.1.140,613,move_up,-0.430,-0.430,-0.430,0.000,0.000,0.000
1605214675306100992,10.0.1.140,602,move_up,-0.410,-0.410,-0.410,0.000,0.000,0.000
1605214677407535104,10.0.1.140,1014,move_up,-0.390,-0.390,-0.390,0.000,0.000,0.000
1605214679116064000,10.0.1.140,528,move_up,-0.370,-0.370,-0.370,0.000,0.000,0.000
1605214680942672896,10.0.1.140,562,move_up,-0.350,-0.350,-0.350,0.000,0.000,0.000
1605214682753655808,10.0.1.140,673,move_up,-0.330,-0.330,-0.330,0.000,0.000,0.000
1605214684807806976,10.0.1.140,956,move_up,-0.310,-0.310,-0.310,0.000,0.000,0.000
1605214686457457152,10.0.1.140,586,move_up,-0.290,-0.290,-0.290,0.000,0.000,0.000
1605214688271430912,10.0.1.140,677,move_up,-0.270,-0.270,-0.270,0.000,0.000,0.000
1605214690260579072,10.0.1.140,891,move_up,-0.250,-0.250,-0.250,0.000,0.000,0.000
1605214692291966976,10.0.1.140,782,move_up,-0.230,-0.230,-0.230,0.000,0.000,0.000
1605214693911392000,10.0.1.140,597,move_up,-0.210,-0.210,-0.210,0.000,0.000,0.000
1605214695731873024,10.0.1.140,609,move_up,-0.190,-0.190,-0.190,0.000,0.000,0.000
1605214696847417088,10.0.1.140,46,place,-0.180,-0.180,-0.180,0.000,0.000,0.000
1605214697869923072,10.0.1.140,54,place,-0.170,-0.170,-0.170,0.000,0.000,0.000
1605214699818406144,10.0.1.140,NaN,place,-0.150,-0.150,-0.150,0.000,0.000,0.000
1605214699868197888,10.0.1.140,49,place,-0.150,-0.150,-0.150,0.000,0.000,0.000
1605214700862443008,10.0.1.140,42,place,-0.140,-0.140,-0.140,0.000,0.000,0.000
1605214702855127040,10.0.1.140,NaN,place,-0.120,-0.120,-0.120,0.000,0.000,0.000
1605214703856568064,10.0.1.140,NaN,place,-0.110,-0.110,-0.110,0.000,0.000,0.000
1605214703919197952,10.0.1.140,62,place,-0.110,-0.110,-0.110,0.000,0.000,0.000
1605214705864420864,10.0.1.140,NaN,place,-0.090,-0.090,-0.090,0.000,0.000,0.000
1605214705907435008,10.0.1.140,42,place,-0.090,-0.090,-0.090,0.000,0.000,0.000
1605214707868566016,10.0.1.140,NaN,place,-0.070,-0.070,-0.070,0.000,0.000,0.000
1605214708869880832,10.0.1.140,NaN,place,-0.060,-0.060,-0.060,0.000,0.000,0.000
1605214708935789056,10.0.1.140,65,place,-0.060,-0.060,-0.060,0.000,0.000,0.000
1605214709911598848,10.0.1.140,40,place,-0.050,-0.050,-0.050,0.000,0.000,0.000
1605214710989435904,10.0.1.140,111,place,-0.040,-0.040,-0.040,0.000,0.000,0.000
1605214711953596160,10.0.1.140,73,place,-0.030,-0.030,-0.030,0.000,0.000,0.000
1605214712921832192,10.0.1.140,40,place,-0.020,-0.020,-0.020,0.000,0.000,0.000
1605214713926369024,10.0.1.140,43,place,-0.010,-0.010,-0.010,0.000,0.000,0.000
1605214714939855104,10.0.1.140,53,place,0.000,0.000,0.000,0.000,0.000,0.000
1605214716384363008,10.0.1.140,484,move_down,-0.020,-0.020,-0.020,0.000,0.000,0.000
1605214718151827200,10.0.1.140,602,move_down,-0.040,-0.040,-0.040,0.000,0.000,0.000
1605214719823586816,10.0.1.140,534,move_down,-0.060,-0.060,-0.060,0.000,0.000,0.000
1605214721394696960,10.0.1.140,492,move_down,-0.080,-0.080,-0.080,0.000,0.000,0.000
1605214723137064960,10.0.1.140,610,move_down,-0.100,-0.100,-0.100,0.000,0.000,0.000
1605214725262924800,10.0.1.140,914,move_down,-0.120,-0.120,-0.120,0.000,0.000,0.000
1605214727010208000,10.0.1.140,542,move_down,-0.140,-0.140,-0.140,0.000,0.000,0.000
1605214729088631040,10.0.1.140,813,move_down,-0.160,-0.160,-0.160,0.000,0.000,0.000
1605214730962371072,10.0.1.140,794,move_down,-0.180,-0.180,-0.180,0.000,0.000,0.000
1605214732845139968,10.0.1.140,741,move_down,-0.200,-0.200,-0.200,0.000,0.000,0.000
1605214734519234816,10.0.1.140,559,move_down,-0.220,-0.220,-0.220,0.000,0.000,0.000
1605214736440020992,10.0.1.140,787,move_down,-0.240,-0.240,-0.240,0.000,0.000,0.000
1605214738243424000,10.0.1.140,720,move_down,-0.260,-0.260,-0.260,0.000,0.000,0.000
1605214740319891968,10.0.1.140,904,move_down,-0.280,-0.280,-0.280,0.000,0.000,0.000
1605214742118014976,10.0.1.140,679,move_down,-0.300,-0.300,-0.300,0.000,0.000,0.000
1605214743919522048,10.0.1.140,640,move_down,-0.320,-0.320,-0.320,0.000,0.000,0.000
1605214745615287040,10.0.1.140,593,move_down,-0.340,-0.340,-0.340,0.000,0.000,0.000
1605214747435576832,10.0.1.140,691,move_down,-0.360,-0.360,-0.360,0.000,0.000,0.000
1605214749224332032,10.0.1.140,667,move_down,-0.380,-0.380,-0.380,0.000,0.000,0.000
1605214750984190976,10.0.1.140,701,move_down,-0.400,-0.400,-0.400,0.000,0.000,0.000
1605214752576355072,10.0.1.140,502,move_down,-0.420,-0.420,-0.420,0.000,0.000,0.000
1605214754594121984,10.0.1.140,922,move_down,-0.440,-0.440,-0.440,0.000,0.000,0.000
1605214756425803008,10.0.1.140,686,move_down,-0.460,-0.460,-0.460,0.000,0.000,0.000
1605214758379318016,10.0.1.140,632,move_down,-0.480,-0.480,-0.480,0.000,0.000,0.000
1605214760327717120,10.0.1.140,726,move_down,-0.500,-0.500,-0.500,0.000,0.000,0.000
1605214762161240064,10.0.1.140,698,move_down,-0.520,-0.520,-0.520,0.000,0.000,0.000
1605214763920641024,10.0.1.140,557,move_down,-0.540,-0.540,-0.540,0.000,0.000,0.000
1605214766115126016,10.0.1.140,616,move_down,-0.560,-0.560,-0.560,0.000,0.000,0.000
1605214768118069760,10.0.1.140,801,move_down,-0.580,-0.580,-0.580,0.000,0.000,0.000
1605214769358115072,10.0.1.140,51,pick,-0.590,-0.590,-0.590,0.000,0.000,0.000
1605214770363897088,10.0.1.140,56,pick,-0.600,-0.600,-0.600,0.000,0.000,0.000
1605214771368427008,10.0.1.140,56,pick,-0.610,-0.610,-0.610,0.000,0.000,0.000
1605214772357873920,10.0.1.140,44,pick,-0.620,-0.620,-0.620,0.000,0.000,0.000
1605214773358629888,10.0.1.140,44,pick,-0.630,-0.630,-0.630,0.000,0.000,0.000
1605214774373789952,10.0.1.140,54,pick,-0.640,-0.640,-0.640,0.000,0.000,0.000
1605214775374569984,10.0.1.140,54,pick,-0.650,-0.650,-0.650,0.000,0.000,0.000
1605214776394370048,10.0.1.140,72,pick,-0.660,-0.660,-0.660,0.000,0.000,0.000
1605214777372242944,10.0.1.140,49,pick,-0.670,-0.670,-0.670,0.000,0.000,0.000
1605214779343751936,10.0.1.140,NaN,pick,-0.690,-0.690,-0.690,0.000,0.000,0.000
1605214779374102016,10.0.1.140,30,pick,-0.690,-0.690,-0.690,0.000,0.000,0.000
1605214780405391872,10.0.1.140,60,pick,-0.700,-0.700,-0.700,0.000,0.000,0.000
1605214781406998016,10.0.1.140,50,pick,-0.710,-0.710,-0.710,0.000,0.000,0.000
1605214782400093952,10.0.1.140,43,pick,-0.720,-0.720,-0.720,0.000,0.000,0.000
1605214783449577216,10.0.1.140,91,pick,-0.730,-0.730,-0.730,0.000,0.000,0.000
1605214784410931200,10.0.1.140,51,pick,-0.740,-0.740,-0.740,0.000,0.000,0.000
1605214786361374976,10.0.1.140,NaN,pick,-0.760,-0.760,-0.760,0.000,0.000,0.000
1605214786446199040,10.0.1.140,84,pick,-0.760,-0.760,-0.760,0.000,0.000,0.000
1605214787417324032,10.0.1.140,54,pick,-0.770,-0.770,-0.770,0.000,0.000,0.000
1605214789005359872,10.0.1.140,638,move_up,-0.750,-0.750,-0.750,0.000,0.000,0.000
1605214790698106112,10.0.1.140,598,move_up,-0.730,-0.730,-0.730,0.000,0.000,0.000
1605214793305263104,10.0.1.140,1490,move_up,-0.710,-0.710,-0.710,0.000,0.000,0.000
1605214795133953024,10.0.1.140,694,move_up,-0.690,-0.690,-0.690,0.000,0.000,0.000
1605214796859854848,10.0.1.140,664,move_up,-0.670,-0.670,-0.670,0.000,0.000,0.000
1605214798535077120,10.0.1.140,562,move_up,-0.650,-0.650,-0.650,0.000,0.000,0.000
1605214800455586048,10.0.1.140,682,move_up,-0.630,-0.630,-0.630,0.000,0.000,0.000
1605214802102978048,10.0.1.140,610,move_up,-0.610,-0.610,-0.610,0.000,0.000,0.000
1605214803830022144,10.0.1.140,597,move_up,-0.590,-0.590,-0.590,0.000,0.000,0.000
1605214805364669952,10.0.1.140,446,move_up,-0.570,-0.570,-0.570,0.000,0.000,0.000
1605214806895998976,10.0.1.140,505,move_up,-0.550,-0.550,-0.550,0.000,0.000,0.000
1605214808616081920,10.0.1.140,582,move_up,-0.530,-0.530,-0.530,0.000,0.000,0.000
1605214810675160832,10.0.1.140,768,move_up,-0.510,-0.510,-0.510,0.000,0.000,0.000
1605214812466790912,10.0.1.140,679,move_up,-0.490,-0.490,-0.490,0.000,0.000,0.000
1605214814424787968,10.0.1.140,657,move_up,-0.470,-0.470,-0.470,0.000,0.000,0.000
1605214816367696896,10.0.1.140,757,move_up,-0.450,-0.450,-0.450,0.000,0.000,0.000
1605214818291769088,10.0.1.140,558,move_up,-0.430,-0.430,-0.430,0.000,0.000,0.000
1605214820308065792,10.0.1.140,815,move_up,-0.410,-0.410,-0.410,0.000,0.000,0.000
1605214822279844096,10.0.1.140,586,move_up,-0.390,-0.390,-0.390,0.000,0.000,0.000
1605214824076928000,10.0.1.140,799,move_up,-0.370,-0.370,-0.370,0.000,0.000,0.000
1605214825716999168,10.0.1.140,505,move_up,-0.350,-0.350,-0.350,0.000,0.000,0.000
1605214827719286016,10.0.1.140,707,move_up,-0.330,-0.330,-0.330,0.000,0.000,0.000
1605214829486833152,10.0.1.140,675,move_up,-0.310,-0.310,-0.310,0.000,0.000,0.000
1605214831247345920,10.0.1.140,575,move_up,-0.290,-0.290,-0.290,0.000,0.000,0.000
1605214833055851008,10.0.1.140,684,move_up,-0.270,-0.270,-0.270,0.000,0.000,0.000
1605214834655819008,10.0.1.140,577,move_up,-0.250,-0.250,-0.250,0.000,0.000,0.000
1605214836307996928,10.0.1.140,566,move_up,-0.230,-0.230,-0.230,0.000,0.000,0.000
1605214838104419840,10.0.1.140,722,move_up,-0.210,-0.210,-0.210,0.000,0.000,0.000
1605214839866537984,10.0.1.140,613,move_up,-0.190,-0.190,-0.190,0.000,0.000,0.000
1605214841008503808,10.0.1.140,45,place,-0.180,-0.180,-0.180,0.000,0.000,0.000
1605214842019218944,10.0.1.140,51,place,-0.170,-0.170,-0.170,0.000,0.000,0.000
1605214843976933888,10.0.1.140,NaN,place,-0.150,-0.150,-0.150,0.000,0.000,0.000
1605214844988507136,10.0.1.140,NaN,place,-0.140,-0.140,-0.140,0.000,0.000,0.000
1605214845996054016,10.0.1.140,NaN,place,-0.130,-0.130,-0.130,0.000,0.000,0.000
1605214846997374976,10.0.1.140,NaN,place,-0.120,-0.120,-0.120,0.000,0.000,0.000
1605214847058478080,10.0.1.140,61,place,-0.120,-0.120,-0.120,0.000,0.000,0.000
1605214848055026944,10.0.1.140,52,place,-0.110,-0.110,-0.110,0.000,0.000,0.000
1605214849075831808,10.0.1.140,65,place,-0.100,-0.100,-0.100,0.000,0.000,0.000
1605214850062777088,10.0.1.140,51,place,-0.090,-0.090,-0.090,0.000,0.000,0.000
1605214851079289856,10.0.1.140,64,place,-0.080,-0.080,-0.080,0.000,0.000,0.000
1605214852082240000,10.0.1.140,62,place,-0.070,-0.070,-0.070,0.000,0.000,0.000
1605214853073349888,10.0.1.140,52,place,-0.060,-0.060,-0.060,0.000,0.000,0.000
1605214854070925056,10.0.1.140,48,place,-0.050,-0.050,-0.050,0.000,0.000,0.000
1605214856061798144,10.0.1.140,NaN,place,-0.030,-0.030,-0.030,0.000,0.000,0.000
1605214856102034176,10.0.1.140,40,place,-0.030,-0.030,-0.030,0.000,0.000,0.000
1605214857100951040,10.0.1.140,37,place,-0.020,-0.020,-0.020,0.000,0.000,0.000
1605214859068069888,10.0.1.140,NaN,place,0.000,0.000,0.000,0.000,0.000,0.000
1605214859118927104,10.0.1.140,50,place,0.000,0.000,0.000,0.000,0.000,0.000
1605214860802639872,10.0.1.140,724,move_down,-0.020,-0.020,-0.020,0.000,0.000,0.000
1605214862575853056,10.0.1.140,741,move_down,-0.040,-0.040,-0.040,0.000,0.000,0.000
1605214864585006848,10.0.1.140,746,move_down,-0.060,-0.060,-0.060,0.000,0.000,0.000
1605214866350821888,10.0.1.140,637,move_down,-0.080,-0.080,-0.080,0.000,0.000,0.000
1605214868216541952,10.0.1.140,779,move_down,-0.100,-0.100,-0.100,0.000,0.000,0.000
1605214869871705088,10.0.1.140,540,move_down,-0.120,-0.120,-0.120,0.000,0.000,0.000
1605214871782486016,10.0.1.140,815,move_down,-0.140,-0.140,-0.140,0.000,0.000,0.000
1605214873746466048,10.0.1.140,894,move_down,-0.160,-0.160,-0.160,0.000,0.000,0.000
1605214875628616192,10.0.1.140,719,move_down,-0.180,-0.180,-0.180,0.000,0.000,0.000
1605214877405208064,10.0.1.140,686,move_down,-0.200,-0.200,-0.200,0.000,0.000,0.000
1605214879029319168,10.0.1.140,506,move_down,-0.220,-0.220,-0.220,0.000,0.000,0.000
1605214881427574016,10.0.1.140,1234,move_down,-0.240,-0.240,-0.240,0.000,0.000,0.000
1605214883023565056,10.0.1.140,533,move_down,-0.260,-0.260,-0.260,0.000,0.000,0.000
1605214884805149952,10.0.1.140,572,move_down,-0.280,-0.280,-0.280,0.000,0.000,0.000
1605214886604423168,10.0.1.140,596,move_down,-0.300,-0.300,-0.300,0.000,0.000,0.000
1605214888452007168,10.0.1.140,809,move_down,-0.320,-0.320,-0.320,0.000,0.000,0.000
1605214890302210048,10.0.1.140,771,move_down,-0.340,-0.340,-0.340,0.000,0.000,0.000
1605214892204758784,10.0.1.140,641,move_down,-0.360,-0.360,-0.360,0.000,0.000,0.000
1605214894422731008,10.0.1.140,890,move_down,-0.380,-0.380,-0.380,0.000,0.000,0.000
1605214896037067776,10.0.1.140,535,move_down,-0.400,-0.400,-0.400,0.000,0.000,0.000
1605214897703612928,10.0.1.140,512,move_down,-0.420,-0.420,-0.420,0.000,0.000,0.000
1605214899355747072,10.0.1.140,512,move_down,-0.440,-0.440,-0.440,0.000,0.000,0.000
1605214900921756928,10.0.1.140,507,move_down,-0.460,-0.460,-0.460,0.000,0.000,0.000
1605214902861344000,10.0.1.140,825,move_down,-0.480,-0.480,-0.480,0.000,0.000,0.000
1605214904645767936,10.0.1.140,686,move_down,-0.500,-0.500,-0.500,0.000,0.000,0.000
1605214906515523072,10.0.1.140,786,move_down,-0.520,-0.520,-0.520,0.000,0.000,0.000
1605214908120367104,10.0.1.140,523,move_down,-0.540,-0.540,-0.540,0.000,0.000,0.000
1605214910061274112,10.0.1.140,683,move_down,-0.560,-0.560,-0.560,0.000,0.000,0.000
1605214912233711872,10.0.1.140,1102,move_down,-0.580,-0.580,-0.580,0.000,0.000,0.000
1605214913450190080,10.0.1.140,42,pick,-0.590,-0.590,-0.590,0.000,0.000,0.000
1605214915415778048,10.0.1.140,NaN,pick,-0.610,-0.610,-0.610,0.000,0.000,0.000
1605214915467652096,10.0.1.140,51,pick,-0.610,-0.610,-0.610,0.000,0.000,0.000
1605214916469580800,10.0.1.140,52,pick,-0.620,-0.620,-0.620,0.000,0.000,0.000
1605214917469996032,10.0.1.140,50,pick,-0.630,-0.630,-0.630,0.000,0.000,0.000
1605214918485136128,10.0.1.140,52,pick,-0.640,-0.640,-0.640,0.000,0.000,0.000
1605214919492440832,10.0.1.140,57,pick,-0.650,-0.650,-0.650,0.000,0.000,0.000
1605214920502104064,10.0.1.140,66,pick,-0.660,-0.660,-0.660,0.000,0.000,0.000
1605214921491827968,10.0.1.140,50,pick,-0.670,-0.670,-0.670,0.000,0.000,0.000
1605214922485079040,10.0.1.140,42,pick,-0.680,-0.680,-0.680,0.000,0.000,0.000
1605214924445838848,10.0.1.140,NaN,pick,-0.700,-0.700,-0.700,0.000,0.000,0.000
1605214924505856000,10.0.1.140,59,pick,-0.700,-0.700,-0.700,0.000,0.000,0.000
1605214925483836928,10.0.1.140,36,pick,-0.710,-0.710,-0.710,0.000,0.000,0.000
1605214926498814208,10.0.1.140,48,pick,-0.720,-0.720,-0.720,0.000,0.000,0.000
1605214928452121856,10.0.1.140,NaN,pick,-0.740,-0.740,-0.740,0.000,0.000,0.000
1605214928497875968,10.0.1.140,45,pick,-0.740,-0.740,-0.740,0.000,0.000,0.000
1605214929516410112,10.0.1.140,57,pick,-0.750,-0.750,-0.750,0.000,0.000,0.000
1605214930522424064,10.0.1.140,62,pick,-0.760,-0.760,-0.760,0.000,0.000,0.000
1605214931511600896,10.0.1.140,46,pick,-0.770,-0.770,-0.770,0.000,0.000,0.000
1605214933385575936,10.0.1.140,917,move_up,-0.750,-0.750,-0.750,0.000,0.000,0.000
1605214935391602944,10.0.1.140,699,move_up,-0.730,-0.730,-0.730,0.000,0.000,0.000
1605214936861272064,10.0.1.140,469,move_up,-0.710,-0.710,-0.710,0.000,0.000,0.000
1605214938436995072,10.0.1.140,464,move_up,-0.690,-0.690,-0.690,0.000,0.000,0.000
1605214940234023168,10.0.1.140,636,move_up,-0.670,-0.670,-0.670,0.000,0.000,0.000
1605214941888665856,10.0.1.140,512,move_up,-0.650,-0.650,-0.650,0.000,0.000,0.000
1605214943754441984,10.0.1.140,770,move_up,-0.630,-0.630,-0.630,0.000,0.000,0.000
1605214945597660928,10.0.1.140,669,move_up,-0.610,-0.610,-0.610,0.000,0.000,0.000
1605214947426055936,10.0.1.140,535,move_up,-0.590,-0.590,-0.590,0.000,0.000,0.000
1605214949197719040,10.0.1.140,NaN,move_down,-0.590,-0.590,-0.590,0.000,0.000,0.000
1605214949198554880,10.0.1.140,0,move_down,-0.590,-0.590,-0.590,0.000,0.000,0.000
1605214951682061824,10.0.1.140,653,move_down,-0.610,-0.610,-0.610,0.000,0.000,0.000
1605214953680951040,10.0.1.140,857,move_down,-0.630,-0.630,-0.630,0.000,0.000,0.000
1605214956054048000,10.0.1.140,1290,move_down,-0.650,-0.650,-0.650,0.000,0.000,0.000
1605214957798921216,10.0.1.140,609,move_down,-0.670,-0.670,-0.670,0.000,0.000,0.000
1605214959413455104,10.0.1.140,523,move_down,-0.690,-0.690,-0.690,0.000,0.000,0.000
1605214961046830848,10.0.1.140,508,move_down,-0.710,-0.710,-0.710,0.000,0.000,0.000
1605214963075619072,10.0.1.140,869,move_down,-0.730,-0.730,-0.730,0.000,0.000,0.000
1605214964830877952,10.0.1.140,618,move_down,-0.750,-0.750,-0.750,0.000,0.000,0.000
1605214966511843072,10.0.1.140,506,move_down,-0.770,-0.770,-0.770,0.000,0.000,0.000
1605214968372268032,10.0.1.140,590,move_down,-0.790,-0.790,-0.790,0.000,0.000,0.000
1605214970397615872,10.0.1.140,877,move_down,-0.810,-0.810,-0.810,0.000,0.000,0.000
1605214972549563904,10.0.1.140,932,move_down,-0.830,-0.830,-0.830,0.000,0.000,0.000
1605214974192011008,10.0.1.140,591,move_down,-0.850,-0.850,-0.850,0.000,0.000,0.000
1605214976042668032,10.0.1.140,740,move_down,-0.870,-0.870,-0.870,0.000,0.000,0.000
1605214977668039936,10.0.1.140,536,move_down,-0.890,-0.890,-0.890,0.000,0.000,0.000
1605214979436801024,10.0.1.140,718,move_down,-0.910,-0.910,-0.910,0.000,0.000,0.000
1605214981567596800,10.0.1.140,986,move_down,-0.930,-0.930,-0.930,0.000,0.000,0.000
1605214983140062976,10.0.1.140,NaN,move_down,-0.970,-0.970,-0.970,0.000,0.000,0.000
1605214983673260800,10.0.1.140,NaN,move_down,-0.990,-0.990,-0.990,0.000,0.000,0.000
1605214984182992896,10.0.1.140,NaN,move_down,-1.010,-1.010,-1.010,0.000,0.000,0.000
1605214984848308992,10.0.1.140,NaN,move_down,-1.030,-1.030,-1.030,0.000,0.000,0.000
1605214985948081920,10.0.1.140,NaN,move_down,-1.050,-1.050,-1.050,0.000,0.000,0.000
1605214986404838912,10.0.1.140,NaN,move_down,-1.070,-1.070,-1.070,0.000,0.000,0.000
1605214986717294080,10.0.1.140,NaN,move_down,-1.090,-1.090,-1.090,0.000,0.000,0.000
1605214987064237056,10.0.1.140,NaN,move_down,-1.110,-1.110,-1.110,0.000,0.000,0.000
1605214987368983040,10.0.1.140,NaN,move_down,-1.130,-1.130,-1.130,0.000,0.000,0.000
1605214987915800064,10.0.1.140,NaN,move_down,-1.150,-1.150,-1.150,0.000,0.000,0.000
1605214988207364096,10.0.1.140,NaN,move_down,-1.170,-1.170,-1.170,0.000,0.000,0.000
1605214988774009088,10.0.1.140,NaN,move_down,-1.190,-1.190,-1.190,0.000,0.000,0.000
1605214989338736128,10.0.1.140,NaN,move_down,-1.210,-1.210,-1.210,0.000,0.000,0.000
1605214989685946112,10.0.1.140,NaN,move_down,-1.230,-1.230,-1.230,0.000,0.000,0.000
1605214990129189120,10.0.1.140,NaN,move_down,-1.250,-1.250,-1.250,0.000,0.000,0.000
1605214990596028928,10.0.1.140,NaN,move_down,-1.270,-1.270,-1.270,0.000,0.000,0.000
1605214991281241856,10.0.1.140,NaN,move_down,-1.290,-1.290,-1.290,0.000,0.000,0.000
1605214991855842048,10.0.1.140,NaN,move_down,-1.310,-1.310,-1.310,0.000,0.000,0.000
1605214992566676992,10.0.1.140,NaN,move_down,-1.330,-1.330,-1.330,0.000,0.000,0.000
1605214992942991872,10.0.1.140,NaN,move_down,-1.350,-1.350,-1.350,0.000,0.000,0.000
1605214993503802112,10.0.1.140,NaN,move_down,-1.370,-1.370,-1.370,0.000,0.000,0.000
1605214993792141824,10.0.1.140,NaN,move_down,-1.390,-1.390,-1.390,0.000,0.000,0.000
1605214994054599936,10.0.1.140,NaN,move_down,-1.410,-1.410,-1.410,0.000,0.000,0.000
1605214994305750016,10.0.1.140,NaN,move_down,-1.430,-1.430,-1.430,0.000,0.000,0.000
1605214994520278016,10.0.1.140,NaN,move_down,-1.450,-1.450,-1.450,0.000,0.000,0.000
1605214994666816000,10.0.1.140,NaN,move_down,-1.470,-1.470,-1.470,0.000,0.000,0.000
1605214994757735936,10.0.1.140,NaN,move_down,-1.490,-1.490,-1.490,0.000,0.000,0.000
1605214994809353984,10.0.1.140,NaN,move_down,-1.510,-1.510,-1.510,0.000,0.000,0.000
1605214995005758976,10.0.1.140,NaN,move_down,-1.530,-1.530,-1.530,0.000,0.000,0.000
1605214995196294912,10.0.1.140,NaN,move_down,-1.550,-1.550,-1.550,0.000,0.000,0.000
1605214995360455936,10.0.1.140,NaN,move_down,-1.570,-1.570,-1.570,0.000,0.000,0.000
1605214995628509952,10.0.1.140,NaN,move_down,-1.590,-1.590,-1.590,0.000,0.000,0.000
1605214995753979904,10.0.1.140,NaN,move_down,-1.610,-1.610,-1.610,0.000,0.000,0.000
1605214995921174016,10.0.1.140,NaN,move_down,-1.630,-1.630,-1.630,0.000,0.000,0.000
1605214996022830080,10.0.1.140,NaN,move_down,-1.650,-1.650,-1.650,0.000,0.000,0.000
1605214996261662976,10.0.1.140,NaN,move_down,-1.670,-1.670,-1.670,0.000,0.000,0.000
1605214996425657088,10.0.1.140,NaN,move_down,-1.690,-1.690,-1.690,0.000,0.000,0.000
1605214996618155008,10.0.1.140,NaN,move_down,-1.710,-1.710,-1.710,0.000,0.000,0.000
1605214996764430080,10.0.1.140,NaN,move_down,-1.730,-1.730,-1.730,0.000,0.000,0.000
1605214996911872000,10.0.1.140,NaN,move_down,-1.750,-1.750,-1.750,0.000,0.000,0.000
1605214997053437952,10.0.1.140,NaN,move_down,-1.770,-1.770,-1.770,0.000,0.000,0.000
1605214997304649984,10.0.1.140,NaN,move_down,-1.790,-1.790,-1.790,0.000,0.000,0.000
1605214997478432000,10.0.1.140,NaN,move_down,-1.810,-1.810,-1.810,0.000,0.000,0.000
1605214997673518848,10.0.1.140,NaN,move_down,-1.830,-1.830,-1.830,0.000,0.000,0.000
1605214997791452928,10.0.1.140,NaN,move_down,-1.850,-1.850,-1.850,0.000,0.000,0.000
1605214998021752064,10.0.1.140,NaN,move_down,-1.870,-1.870,-1.870,0.000,0.000,0.000
1605214998203533056,10.0.1.140,NaN,move_down,-1.890,-1.890,-1.890,0.000,0.000,0.000
1605214998440781056,10.0.1.140,NaN,move_down,-1.910,-1.910,-1.910,0.000,0.000,0.000
1605214998644236032,10.0.1.140,NaN,move_down,-1.930,-1.930,-1.930,0.000,0.000,0.000
1605214998817408000,10.0.1.140,NaN,move_down,-1.950,-1.950,-1.950,0.000,0.000,0.000
1605214998952861952,10.0.1.140,NaN,move_down,-1.970,-1.970,-1.970,0.000,0.000,0.000
1605214999113553152,10.0.1.140,NaN,move_down,-1.990,-1.990,-1.990,0.000,0.000,0.000
1605214999410428160,10.0.1.140,NaN,move_down,-2.010,-2.010,-2.010,0.000,0.000,0.000
1605214999710684160,10.0.1.140,NaN,move_down,-2.030,-2.030,-2.030,0.000,0.000,0.000
1605214999976577024,10.0.1.140,NaN,move_down,-2.050,-2.050,-2.050,0.000,0.000,0.000
1605215000150542080,10.0.1.140,NaN,move_down,-2.070,-2.070,-2.070,0.000,0.000,0.000
1605215000296269824,10.0.1.140,NaN,move_down,-2.090,-2.090,-2.090,0.000,0.000,0.000
1605215000384514048,10.0.1.140,NaN,move_down,-2.110,-2.110,-2.110,0.000,0.000,0.000
1605215000620467968,10.0.1.140,NaN,move_down,-2.130,-2.130,-2.130,0.000,0.000,0.000
1605215001121277184,10.0.1.140,NaN,move_down,-2.150,-2.150,-2.150,0.000,0.000,0.000
1605215001450112000,10.0.1.140,NaN,move_down,-2.170,-2.170,-2.170,0.000,0.000,0.000
1605215001633204992,10.0.1.140,NaN,move_down,-2.190,-2.190,-2.190,0.000,0.000,0.000
1605215001859198976,10.0.1.140,NaN,move_down,-2.210,-2.210,-2.210,0.000,0.000,0.000
1605215002170041088,10.0.1.140,NaN,move_down,-2.230,-2.230,-2.230,0.000,0.000,0.000
1605215002381238016,10.0.1.140,NaN,move_down,-2.250,-2.250,-2.250,0.000,0.000,0.000
1605215002532681984,10.0.1.140,NaN,move_down,-2.270,-2.270,-2.270,0.000,0.000,0.000
1605215002677602048,10.0.1.140,NaN,move_down,-2.290,-2.290,-2.290,0.000,0.000,0.000
1605215002876673024,10.0.1.140,NaN,move_down,-2.310,-2.310,-2.310,0.000,0.000,0.000
1605215003036557056,10.0.1.140,NaN,move_down,-2.330,-2.330,-2.330,0.000,0.000,0.000
1605215003330946048,10.0.1.140,NaN,move_down,-2.350,-2.350,-2.350,0.000,0.000,0.000
1605215003540005888,10.0.1.140,NaN,move_down,-2.370,-2.370,-2.370,0.000,0.000,0.000
1605215003770041856,10.0.1.140,NaN,move_down,-2.390,-2.390,-2.390,0.000,0.000,0.000
1605215003911714048,10.0.1.140,NaN,move_down,-2.410,-2.410,-2.410,0.000,0.000,0.000
1605215004056706816,10.0.1.140,NaN,move_down,-2.430,-2.430,-2.430,0.000,0.000,0.000
1605215004240979968,10.0.1.140,NaN,move_down,-2.450,-2.450,-2.450,0.000,0.000,0.000
1605215004371726080,10.0.1.140,NaN,move_down,-2.470,-2.470,-2.470,0.000,0.000,0.000
1605215004653404928,10.0.1.140,NaN,move_down,-2.490,-2.490,-2.490,0.000,0.000,0.000
1605215004786731008,10.0.1.140,NaN,move_down,-2.510,-2.510,-2.510,0.000,0.000,0.000
1605215004924104960,10.0.1.140,NaN,move_down,-2.530,-2.530,-2.530,0.000,0.000,0.000
1605215005043792128,10.0.1.140,NaN,move_down,-2.550,-2.550,-2.550,0.000,0.000,0.000
1605215005312498176,10.0.1.140,NaN,move_down,-2.570,-2.570,-2.570,0.000,0.000,0.000
1605215005458291968,10.0.1.140,NaN,move_down,-2.590,-2.590,-2.590,0.000,0.000,0.000
1605215005603022080,10.0.1.140,NaN,move_down,-2.610,-2.610,-2.610,0.000,0.000,0.000
1605215005807089920,10.0.1.140,NaN,move_down,-2.630,-2.630,-2.630,0.000,0.000,0.000
1605215005950150912,10.0.1.140,NaN,move_down,-2.650,-2.650,-2.650,0.000,0.000,0.000
1605215006092935936,10.0.1.140,NaN,move_down,-2.670,-2.670,-2.670,0.000,0.000,0.000
1605215006282012928,10.0.1.140,NaN,move_down,-2.690,-2.690,-2.690,0.000,0.000,0.000
1605215006560123904,10.0.1.140,NaN,move_down,-2.710,-2.710,-2.710,0.000,0.000,0.000
1605215006763283968,10.0.1.140,NaN,move_down,-2.730,-2.730,-2.730,0.000,0.000,0.000
1605215006939919104,10.0.1.140,NaN,move_down,-2.750,-2.750,-2.750,0.000,0.000,0.000
1605215007047377152,10.0.1.140,NaN,move_down,-2.770,-2.770,-2.770,0.000,0.000,0.000
1605215007257238016,10.0.1.140,NaN,move_down,-2.790,-2.790,-2.790,0.000,0.000,0.000
1605215007427002880,10.0.1.140,NaN,move_down,-2.810,-2.810,-2.810,0.000,0.000,0.000
1605215007570908928,10.0.1.140,NaN,move_down,-2.830,-2.830,-2.830,0.000,0.000,0.000
1605215007767544064,10.0.1.140,NaN,move_down,-2.850,-2.850,-2.850,0.000,0.000,0.000
1605215008026839040,10.0.1.140,NaN,move_down,-2.870,-2.870,-2.870,0.000,0.000,0.000
1605215008406786048,10.0.1.140,NaN,move_down,-2.890,-2.890,-2.890,0.000,0.000,0.000
1605215008548444928,10.0.1.140,NaN,move_down,-2.910,-2.910,-2.910,0.000,0.000,0.000
1605215008801084160,10.0.1.140,NaN,move_down,-2.930,-2.930,-2.930,0.000,0.000,0.000
1605215008933017856,10.0.1.140,NaN,move_down,-2.950,-2.950,-2.950,0.000,0.000,0.000
1605215009151886848,10.0.1.140,NaN,move_down,-2.970,-2.970,-2.970,0.000,0.000,0.000
1605215009308615936,10.0.1.140,NaN,move_down,-2.990,-2.990,-2.990,0.000,0.000,0.000
1605215009841917952,10.0.1.140,NaN,move_down,-3.010,-3.010,-3.010,0.000,0.000,0.000
1605215010129882112,10.0.1.140,NaN,move_down,-3.030,-3.030,-3.030,0.000,0.000,0.000
1605215010462646016,10.0.1.140,NaN,move_down,-3.050,-3.050,-3.050,0.000,0.000,0.000
1605215010695800064,10.0.1.140,NaN,move_down,-3.070,-3.070,-3.070,0.000,0.000,0.000
1605215010814991104,10.0.1.140,NaN,move_down,-3.090,-3.090,-3.090,0.000,0.000,0.000
1605215011013819904,10.0.1.140,NaN,move_down,-3.110,-3.110,-3.110,0.000,0.000,0.000
1605215011157618944,10.0.1.140,NaN,move_down,-3.130,-3.130,-3.130,0.000,0.000,0.000
1605215011325235968,10.0.1.140,NaN,move_down,-3.150,-3.150,-3.150,0.000,0.000,0.000
1605215011444866816,10.0.1.140,NaN,move_down,-3.170,-3.170,-3.170,0.000,0.000,0.000
1605215011552249856,10.0.1.140,NaN,move_down,-3.190,-3.190,-3.190,0.000,0.000,0.000
1605215011811398912,10.0.1.140,NaN,move_down,-3.210,-3.210,-3.210,0.000,0.000,0.000
1605215011932851200,10.0.1.140,NaN,move_down,-3.230,-3.230,-3.230,0.000,0.000,0.000
1605215012191559936,10.0.1.140,NaN,move_down,-3.250,-3.250,-3.250,0.000,0.000,0.000
1605215012249204992,10.0.1.140,NaN,move_down,-3.270,-3.270,-3.270,0.000,0.000,0.000
1605215012428713984,10.0.1.140,NaN,move_down,-3.290,-3.290,-3.290,0.000,0.000,0.000
1605215012507612928,10.0.1.140,NaN,move_down,-3.310,-3.310,-3.310,0.000,0.000,0.000
1605215012612432896,10.0.1.140,NaN,move_down,-3.330,-3.330,-3.330,0.000,0.000,0.000
1605215012761785088,10.0.1.140,NaN,move_down,-3.350,-3.350,-3.350,0.000,0.000,0.000
1605215012924019200,10.0.1.140,NaN,move_down,-3.370,-3.370,-3.370,0.000,0.000,0.000
1605215013110023936,10.0.1.140,NaN,move_down,-3.390,-3.390,-3.390,0.000,0.000,0.000
1605215013452267008,10.0.1.140,NaN,move_down,-3.410,-3.410,-3.410,0.000,0.000,0.000
1605215013708521984,10.0.1.140,NaN,move_down,-3.430,-3.430,-3.430,0.000,0.000,0.000
1605215013904187904,10.0.1.140,NaN,move_down,-3.450,-3.450,-3.450,0.000,0.000,0.000
1605215014087513856,10.0.1.140,NaN,move_down,-3.470,-3.470,-3.470,0.000,0.000,0.000
1605215014600995072,10.0.1.140,NaN,move_down,-3.490,-3.490,-3.490,0.000,0.000,0.000
1605215015041444096,10.0.1.140,NaN,move_down,-3.510,-3.510,-3.510,0.000,0.000,0.000
1605215015215745024,10.0.1.140,NaN,move_down,-3.530,-3.530,-3.530,0.000,0.000,0.000
1605215016013233920,10.0.1.140,NaN,move_down,-3.550,-3.550,-3.550,0.000,0.000,0.000
1605215016219726080,10.0.1.140,NaN,move_down,-3.570,-3.570,-3.570,0.000,0.000,0.000
1605215016338608128,10.0.1.140,NaN,move_down,-3.590,-3.590,-3.590,0.000,0.000,0.000
1605215016518078208,10.0.1.140,NaN,move_down,-3.610,-3.610,-3.610,0.000,0.000,0.000
1605215016681682944,10.0.1.140,NaN,move_down,-3.630,-3.630,-3.630,0.000,0.000,0.000
1605215016873421056,10.0.1.140,NaN,move_down,-3.650,-3.650,-3.650,0.000,0.000,0.000
1605215017002032896,10.0.1.140,NaN,move_down,-3.670,-3.670,-3.670,0.000,0.000,0.000
1605215017175904000,10.0.1.140,NaN,move_down,-3.690,-3.690,-3.690,0.000,0.000,0.000
1605215017500701952,10.0.1.140,NaN,move_down,-3.710,-3.710,-3.710,0.000,0.000,0.000
1605215018006052096,10.0.1.140,NaN,move_down,-3.730,-3.730,-3.730,0.000,0.000,0.000
1605215018082640896,10.0.1.140,NaN,move_down,-3.750,-3.750,-3.750,0.000,0.000,0.000
1605215018250597120,10.0.1.140,NaN,move_down,-3.770,-3.770,-3.770,0.000,0.000,0.000
1605215018482594048,10.0.1.140,NaN,move_down,-3.790,-3.790,-3.790,0.000,0.000,0.000
1605215018655930880,10.0.1.140,NaN,move_down,-3.810,-3.810,-3.810,0.000,0.000,0.000
1605215019105015040,10.0.1.140,NaN,move_down,-3.830,-3.830,-3.830,0.000,0.000,0.000
1605215019169174784,10.0.1.140,NaN,move_down,-3.850,-3.850,-3.850,0.000,0.000,0.000
1605215019298302976,10.0.1.140,NaN,move_down,-3.870,-3.870,-3.870,0.000,0.000,0.000
1605215019461692160,10.0.1.140,NaN,move_down,-3.890,-3.890,-3.890,0.000,0.000,0.000
1605215019584451840,10.0.1.140,NaN,move_down,-3.910,-3.910,-3.910,0.000,0.000,0.000
1605215019875910144,10.0.1.140,NaN,move_down,-3.930,-3.930,-3.930,0.000,0.000,0.000
1605215020023677184,10.0.1.140,NaN,move_down,-3.950,-3.950,-3.950,0.000,0.000,0.000
1605215020208806144,10.0.1.140,NaN,move_down,-3.970,-3.970,-3.970,0.000,0.000,0.000
1605215020404526848,10.0.1.140,NaN,move_down,-3.990,-3.990,-3.990,0.000,0.000,0.000
1605215020545195008,10.0.1.140,NaN,move_down,-4.010,-4.010,-4.010,0.000,0.000,0.000
1605215020792550144,10.0.1.140,NaN,move_down,-4.030,-4.030,-4.030,0.000,0.000,0.000
1605215020901884928,10.0.1.140,NaN,move_down,-4.050,-4.050,-4.050,0.000,0.000,0.000
1605215021032392960,10.0.1.140,NaN,move_down,-4.070,-4.070,-4.070,0.000,0.000,0.000
1605215021276099072,10.0.1.140,NaN,move_down,-4.090,-4.090,-4.090,0.000,0.000,0.000
1605215021497675008,10.0.1.140,NaN,move_down,-4.110,-4.110,-4.110,0.000,0.000,0.000
1605215022138374144,10.0.1.140,NaN,move_down,-4.130,-4.130,-4.130,0.000,0.000,0.000
1605215022287215872,10.0.1.140,NaN,move_down,-4.150,-4.150,-4.150,0.000,0.000,0.000
1605215022545260032,10.0.1.140,NaN,move_down,-4.170,-4.170,-4.170,0.000,0.000,0.000
1605215022685662976,10.0.1.140,NaN,move_down,-4.190,-4.190,-4.190,0.000,0.000,0.000
1605215022805479936,10.0.1.140,NaN,move_down,-4.210,-4.210,-4.210,0.000,0.000,0.000
1605215022973314048,10.0.1.140,NaN,move_down,-4.230,-4.230,-4.230,0.000,0.000,0.000
1605215023123883008,10.0.1.140,NaN,move_down,-4.250,-4.250,-4.250,0.000,0.000,0.000
1605215023372515840,10.0.1.140,NaN,move_down,-4.270,-4.270,-4.270,0.000,0.000,0.000
1605215023546528000,10.0.1.140,NaN,move_down,-4.290,-4.290,-4.290,0.000,0.000,0.000
1605215023792960000,10.0.1.140,NaN,move_down,-4.310,-4.310,-4.310,0.000,0.000,0.000
1605215024016815872,10.0.1.140,NaN,move_down,-4.330,-4.330,-4.330,0.000,0.000,0.000
1605215024128244992,10.0.1.140,NaN,move_down,-4.350,-4.350,-4.350,0.000,0.000,0.000
1605215024253714176,10.0.1.140,NaN,move_down,-4.370,-4.370,-4.370,0.000,0.000,0.000
1605215024503937024,10.0.1.140,NaN,move_down,-4.390,-4.390,-4.390,0.000,0.000,0.000
1605215024931292160,10.0.1.140,NaN,move_down,-4.410,-4.410,-4.410,0.000,0.000,0.000
1605215025359883008,10.0.1.140,NaN,move_down,-4.430,-4.430,-4.430,0.000,0.000,0.000
1605215025658821120,10.0.1.140,NaN,move_down,-4.450,-4.450,-4.450,0.000,0.000,0.000
1605215025877878016,10.0.1.140,NaN,move_down,-4.470,-4.470,-4.470,0.000,0.000,0.000
1605215026011750912,10.0.1.140,NaN,move_down,-4.490,-4.490,-4.490,0.000,0.000,0.000
1605215026204376832,10.0.1.140,NaN,move_down,-4.510,-4.510,-4.510,0.000,0.000,0.000
1605215026392389888,10.0.1.140,NaN,move_down,-4.530,-4.530,-4.530,0.000,0.000,0.000
1605215026551858944,10.0.1.140,NaN,move_down,-4.550,-4.550,-4.550,0.000,0.000,0.000
1605215026811225856,10.0.1.140,NaN,move_down,-4.570,-4.570,-4.570,0.000,0.000,0.000
1605215027016894208,10.0.1.140,NaN,move_down,-4.590,-4.590,-4.590,0.000,0.000,0.000
1605215027418510080,10.0.1.140,NaN,move_down,-4.610,-4.610,-4.610,0.000,0.000,0.000
1605215027672454144,10.0.1.140,NaN,move_down,-4.630,-4.630,-4.630,0.000,0.000,0.000
1605215027949048064,10.0.1.140,NaN,move_down,-4.650,-4.650,-4.650,0.000,0.000,0.000
1605215028248200960,10.0.1.140,NaN,move_down,-4.670,-4.670,-4.670,0.000,0.000,0.000
1605215028403332096,10.0.1.140,NaN,move_down,-4.690,-4.690,-4.690,0.000,0.000,0.000
1605215028656576000,10.0.1.140,NaN,move_down,-4.710,-4.710,-4.710,0.000,0.000,0.000
1605215028798571008,10.0.1.140,NaN,move_down,-4.730,-4.730,-4.730,0.000,0.000,0.000
1605215028969257984,10.0.1.140,NaN,move_down,-4.750,-4.750,-4.750,0.000,0.000,0.000
1605215029180908800,10.0.1.140,NaN,move_down,-4.770,-4.770,-4.770,0.000,0.000,0.000
1605215029398803968,10.0.1.140,NaN,move_down,-4.790,-4.790,-4.790,0.000,0.000,0.000
1605215029583371008,10.0.1.140,NaN,move_down,-4.810,-4.810,-4.810,0.000,0.000,0.000
1605215029937380096,10.0.1.140,NaN,move_down,-4.830,-4.830,-4.830,0.000,0.000,0.000
1605215030284468992,10.0.1.140,NaN,move_down,-4.850,-4.850,-4.850,0.000,0.000,0.000
1605215030461180928,10.0.1.140,NaN,move_down,-4.870,-4.870,-4.870,0.000,0.000,0.000
1605215030731986944,10.0.1.140,NaN,move_down,-4.890,-4.890,-4.890,0.000,0.000,0.000
1605215030893472000,10.0.1.140,NaN,move_down,-4.910,-4.910,-4.910,0.000,0.000,0.000
1605215031356128000,10.0.1.140,NaN,move_down,-4.930,-4.930,-4.930,0.000,0.000,0.000
1605215031473313024,10.0.1.140,NaN,move_down,-4.950,-4.950,-4.950,0.000,0.000,0.000
1605215031600219136,10.0.1.140,NaN,move_down,-4.970,-4.970,-4.970,0.000,0.000,0.000
1605215031826426112,10.0.1.140,NaN,move_down,-4.990,-4.990,-4.990,0.000,0.000,0.000
1605215031947478016,10.0.1.140,NaN,move_down,-5.010,-5.010,-5.010,0.000,0.000,0.000
1605215032153048064,10.0.1.140,NaN,move_down,-5.030,-5.030,-5.030,0.000,0.000,0.000
1605215032427268864,10.0.1.140,NaN,move_down,-5.050,-5.050,-5.050,0.000,0.000,0.000
1605215032748316928,10.0.1.140,NaN,move_down,-5.070,-5.070,-5.070,0.000,0.000,0.000
1605215032866381824,10.0.1.140,NaN,move_down,-5.090,-5.090,-5.090,0.000,0.000,0.000
1605215033495134976,10.0.1.140,NaN,move_down,-5.110,-5.110,-5.110,0.000,0.000,0.000
1605215033784477952,10.0.1.140,NaN,move_down,-5.130,-5.130,-5.130,0.000,0.000,0.000
1605215034002248960,10.0.1.140,NaN,move_down,-5.150,-5.150,-5.150,0.000,0.000,0.000
1605215034248183040,10.0.1.140,NaN,move_down,-5.170,-5.170,-5.170,0.000,0.000,0.000
1605215034379846144,10.0.1.140,NaN,move_down,-5.190,-5.190,-5.190,0.000,0.000,0.000
1605215034631931136,10.0.1.140,NaN,move_down,-5.210,-5.210,-5.210,0.000,0.000,0.000
1605215034854834944,10.0.1.140,NaN,move_down,-5.230,-5.230,-5.230,0.000,0.000,0.000
1605215035567869952,10.0.1.140,NaN,move_down,-5.250,-5.250,-5.250,0.000,0.000,0.000
1605215035746403840,10.0.1.140,NaN,move_down,-5.270,-5.270,-5.270,0.000,0.000,0.000
1605215035824630016,10.0.1.140,NaN,move_down,-5.290,-5.290,-5.290,0.000,0.000,0.000
1605215036052687872,10.0.1.140,NaN,move_down,-5.310,-5.310,-5.310,0.000,0.000,0.000
1605215036145777920,10.0.1.140,NaN,move_down,-5.330,-5.330,-5.330,0.000,0.000,0.000
1605215036330343936,10.0.1.140,NaN,move_down,-5.350,-5.350,-5.350,0.000,0.000,0.000
1605215036508913152,10.0.1.140,NaN,move_down,-5.370,-5.370,-5.370,0.000,0.000,0.000
1605215036612404992,10.0.1.140,NaN,move_down,-5.390,-5.390,-5.390,0.000,0.000,0.000
1605215036792843008,10.0.1.140,NaN,move_down,-5.410,-5.410,-5.410,0.000,0.000,0.000
1605215036979762176,10.0.1.140,NaN,move_down,-5.430,-5.430,-5.430,0.000,0.000,0.000
1605215037112413952,10.0.1.140,NaN,move_down,-5.450,-5.450,-5.450,0.000,0.000,0.000
1605215037207997184,10.0.1.140,NaN,move_down,-5.470,-5.470,-5.470,0.000,0.000,0.000
1605215037460130048,10.0.1.140,NaN,move_down,-5.490,-5.490,-5.490,0.000,0.000,0.000
1605215037682804992,10.0.1.140,NaN,move_down,-5.510,-5.510,-5.510,0.000,0.000,0.000
1605215038120270080,10.0.1.140,NaN,move_down,-5.530,-5.530,-5.530,0.000,0.000,0.000
1605215038360471040,10.0.1.140,NaN,move_down,-5.550,-5.550,-5.550,0.000,0.000,0.000
1605215038543737856,10.0.1.140,NaN,move_down,-5.570,-5.570,-5.570,0.000,0.000,0.000
1605215038749160960,10.0.1.140,NaN,move_down,-5.590,-5.590,-5.590,0.000,0.000,0.000
1605215038867994112,10.0.1.140,NaN,move_down,-5.610,-5.610,-5.610,0.000,0.000,0.000
1605215039320197120,10.0.1.140,NaN,move_down,-5.630,-5.630,-5.630,0.000,0.000,0.000
1605215039623961856,10.0.1.140,NaN,move_down,-5.650,-5.650,-5.650,0.000,0.000,0.000
1605215039751884032,10.0.1.140,NaN,move_down,-5.670,-5.670,-5.670,0.000,0.000,0.000
1605215039981341952,10.0.1.140,NaN,move_down,-5.690,-5.690,-5.690,0.000,0.000,0.000
1605215040253541120,10.0.1.140,NaN,move_down,-5.710,-5.710,-5.710,0.000,0.000,0.000
1605215040721573120,10.0.1.140,NaN,move_down,-5.730,-5.730,-5.730,0.000,0.000,0.000
1605215040956934912,10.0.1.140,NaN,move_down,-5.750,-5.750,-5.750,0.000,0.000,0.000
1605215041433326080,10.0.1.140,NaN,move_down,-5.770,-5.770,-5.770,0.000,0.000,0.000
1605215041694979840,10.0.1.140,NaN,move_down,-5.790,-5.790,-5.790,0.000,0.000,0.000
1605215041907813120,10.0.1.140,NaN,move_down,-5.810,-5.810,-5.810,0.000,0.000,0.000
1605215042051109120,10.0.1.140,NaN,move_down,-5.830,-5.830,-5.830,0.000,0.000,0.000
1605215042314284032,10.0.1.140,NaN,move_down,-5.850,-5.850,-5.850,0.000,0.000,0.000
1605215042523930112,10.0.1.140,NaN,move_down,-5.870,-5.870,-5.870,0.000,0.000,0.000
1605215042794241792,10.0.1.140,NaN,move_down,-5.890,-5.890,-5.890,0.000,0.000,0.000
1605215043201273856,10.0.1.140,NaN,move_down,-5.910,-5.910,-5.910,0.000,0.000,0.000
1605215043391802112,10.0.1.140,NaN,move_down,-5.930,-5.930,-5.930,0.000,0.000,0.000
1605215043537889024,10.0.1.140,NaN,move_down,-5.950,-5.950,-5.950,0.000,0.000,0.000
1605215043902585088,10.0.1.140,NaN,move_down,-5.970,-5.970,-5.970,0.000,0.000,0.000
1605215044218248960,10.0.1.140,NaN,move_down,-5.990,-5.990,-5.990,0.000,0.000,0.000
1605215044376934144,10.0.1.140,NaN,move_down,-6.010,-6.010,-6.010,0.000,0.000,0.000
1605215044586955008,10.0.1.140,NaN,move_down,-6.030,-6.030,-6.030,0.000,0.000,0.000
1605215044833882112,10.0.1.140,NaN,move_down,-6.050,-6.050,-6.050,0.000,0.000,0.000
1605215045043319040,10.0.1.140,NaN,move_down,-6.070,-6.070,-6.070,0.000,0.000,0.000
1605215045205832960,10.0.1.140,NaN,move_down,-6.090,-6.090,-6.090,0.000,0.000,0.000
1605215045353146112,10.0.1.140,NaN,move_down,-6.110,-6.110,-6.110,0.000,0.000,0.000
1605215045528642816,10.0.1.140,NaN,move_down,-6.130,-6.130,-6.130,0.000,0.000,0.000
1605215045659782912,10.0.1.140,NaN,move_down,-6.150,-6.150,-6.150,0.000,0.000,0.000
1605215045831420928,10.0.1.140,NaN,move_down,-6.170,-6.170,-6.170,0.000,0.000,0.000
1605215045926287872,10.0.1.140,NaN,move_down,-6.190,-6.190,-6.190,0.000,0.000,0.000
