milangroshev/digital-twin-scalability/logs/run5-3600s-nan/10.0.1.134.csv
timestamp,node,latency,action,joint_1,joint_2,joint_3,joint_4,joint_5,joint_6
1605206205807580928,10.0.1.134,NaN,,0.000,0.000,0.000,0.000,0.000,0.000
1605206207819015936,10.0.1.134,2011,,0.000,0.000,0.000,0.000,0.000,0.000
1605206210721851136,10.0.1.134,910,move_down,-0.020,-0.020,-0.020,0.000,0.000,0.000
1605206212314661120,10.0.1.134,511,move_down,-0.040,-0.040,-0.040,0.000,0.000,0.000
1605206213852142080,10.0.1.134,496,move_down,-0.060,-0.060,-0.060,0.000,0.000,0.000
1605206215459938048,10.0.1.134,524,move_down,-0.080,-0.080,-0.080,0.000,0.000,0.000
1605206217022063872,10.0.1.134,547,move_down,-0.100,-0.100,-0.100,0.000,0.000,0.000
1605206218478238208,10.0.1.134,422,move_down,-0.120,-0.120,-0.120,0.000,0.000,0.000
1605206220061045760,10.0.1.134,505,move_down,-0.140,-0.140,-0.140,0.000,0.000,0.000
1605206221584675072,10.0.1.134,433,move_down,-0.160,-0.160,-0.160,0.000,0.000,0.000
1605206223135462912,10.0.1.134,452,move_down,-0.180,-0.180,-0.180,0.000,0.000,0.000
1605206224592355072,10.0.1.134,423,move_down,-0.200,-0.200,-0.200,0.000,0.000,0.000
1605206226134592000,10.0.1.134,505,move_down,-0.220,-0.220,-0.220,0.000,0.000,0.000
1605206227717523968,10.0.1.134,511,move_down,-0.240,-0.240,-0.240,0.000,0.000,0.000
1605206229239251968,10.0.1.134,464,move_down,-0.260,-0.260,-0.260,0.000,0.000,0.000
1605206230802998016,10.0.1.134,487,move_down,-0.280,-0.280,-0.280,0.000,0.000,0.000
1605206232452773120,10.0.1.134,571,move_down,-0.300,-0.300,-0.300,0.000,0.000,0.000
1605206234011193088,10.0.1.134,464,move_down,-0.320,-0.320,-0.320,0.000,0.000,0.000
1605206235661907968,10.0.1.134,568,move_down,-0.340,-0.340,-0.340,0.000,0.000,0.000
1605206237209911040,10.0.1.134,455,move_down,-0.360,-0.360,-0.360,0.000,0.000,0.000
1605206238701640960,10.0.1.134,412,move_down,-0.380,-0.380,-0.380,0.000,0.000,0.000
1605206240372896000,10.0.1.134,574,move_down,-0.400,-0.400,-0.400,0.000,0.000,0.000
1605206241924943872,10.0.1.134,457,move_down,-0.420,-0.420,-0.420,0.000,0.000,0.000
1605206243490627072,10.0.1.134,475,move_down,-0.440,-0.440,-0.440,0.000,0.000,0.000
1605206245053113856,10.0.1.134,475,move_down,-0.460,-0.460,-0.460,0.000,0.000,0.000
1605206246633575936,10.0.1.134,498,move_down,-0.480,-0.480,-0.480,0.000,0.000,0.000
1605206248145483008,10.0.1.134,464,move_down,-0.500,-0.500,-0.500,0.000,0.000,0.000
1605206249611144960,10.0.1.134,428,move_down,-0.520,-0.520,-0.520,0.000,0.000,0.000
1605206251191468032,10.0.1.134,511,move_down,-0.540,-0.540,-0.540,0.000,0.000,0.000
1605206252738404096,10.0.1.134,482,move_down,-0.560,-0.560,-0.560,0.000,0.000,0.000
1605206254230458112,10.0.1.134,491,move_down,-0.580,-0.580,-0.580,0.000,0.000,0.000
1605206255375922944,10.0.1.134,48,pick,-0.590,-0.590,-0.590,0.000,0.000,0.000
1605206256376628992,10.0.1.134,47,pick,-0.600,-0.600,-0.600,0.000,0.000,0.000
1605206257368363008,10.0.1.134,37,pick,-0.610,-0.610,-0.610,0.000,0.000,0.000
1605206258396022016,10.0.1.134,59,pick,-0.620,-0.620,-0.620,0.000,0.000,0.000
1605206259385596160,10.0.1.134,46,pick,-0.630,-0.630,-0.630,0.000,0.000,0.000
1605206260386918912,10.0.1.134,46,pick,-0.640,-0.640,-0.640,0.000,0.000,0.000
1605206261385277952,10.0.1.134,44,pick,-0.650,-0.650,-0.650,0.000,0.000,0.000
1605206262387408896,10.0.1.134,45,pick,-0.660,-0.660,-0.660,0.000,0.000,0.000
1605206263390270976,10.0.1.134,47,pick,-0.670,-0.670,-0.670,0.000,0.000,0.000
1605206264390482944,10.0.1.134,39,pick,-0.680,-0.680,-0.680,0.000,0.000,0.000
1605206265402021888,10.0.1.134,50,pick,-0.690,-0.690,-0.690,0.000,0.000,0.000
1605206266402513920,10.0.1.134,49,pick,-0.700,-0.700,-0.700,0.000,0.000,0.000
1605206267416416768,10.0.1.134,62,pick,-0.710,-0.710,-0.710,0.000,0.000,0.000
1605206268401051904,10.0.1.134,45,pick,-0.720,-0.720,-0.720,0.000,0.000,0.000
1605206269450583040,10.0.1.134,91,pick,-0.730,-0.730,-0.730,0.000,0.000,0.000
1605206270413244928,10.0.1.134,52,pick,-0.740,-0.740,-0.740,0.000,0.000,0.000
1605206272362982912,10.0.1.134,NaN,pick,-0.760,-0.760,-0.760,0.000,0.000,0.000
1605206272409725952,10.0.1.134,46,pick,-0.760,-0.760,-0.760,0.000,0.000,0.000
1605206273402260992,10.0.1.134,37,pick,-0.770,-0.770,-0.770,0.000,0.000,0.000
1605206274821321984,10.0.1.134,455,move_up,-0.750,-0.750,-0.750,0.000,0.000,0.000
1605206276540401920,10.0.1.134,640,move_up,-0.730,-0.730,-0.730,0.000,0.000,0.000
1605206278161660928,10.0.1.134,531,move_up,-0.710,-0.710,-0.710,0.000,0.000,0.000
1605206279716996864,10.0.1.134,490,move_up,-0.690,-0.690,-0.690,0.000,0.000,0.000
1605206281375273984,10.0.1.134,493,move_up,-0.670,-0.670,-0.670,0.000,0.000,0.000
1605206283029766912,10.0.1.134,610,move_up,-0.650,-0.650,-0.650,0.000,0.000,0.000
1605206284624150016,10.0.1.134,468,move_up,-0.630,-0.630,-0.630,0.000,0.000,0.000
1605206286195458048,10.0.1.134,434,move_up,-0.610,-0.610,-0.610,0.000,0.000,0.000
1605206287803653888,10.0.1.134,557,move_up,-0.590,-0.590,-0.590,0.000,0.000,0.000
1605206289389859840,10.0.1.134,470,move_up,-0.570,-0.570,-0.570,0.000,0.000,0.000
1605206290933243136,10.0.1.134,473,move_up,-0.550,-0.550,-0.550,0.000,0.000,0.000
1605206292420133120,10.0.1.134,422,move_up,-0.530,-0.530,-0.530,0.000,0.000,0.000
1605206293950700032,10.0.1.134,442,move_up,-0.510,-0.510,-0.510,0.000,0.000,0.000
1605206295522124032,10.0.1.134,469,move_up,-0.490,-0.490,-0.490,0.000,0.000,0.000
1605206297026705152,10.0.1.134,474,move_up,-0.470,-0.470,-0.470,0.000,0.000,0.000
1605206298597931008,10.0.1.134,475,move_up,-0.450,-0.450,-0.450,0.000,0.000,0.000
1605206300158354944,10.0.1.134,491,move_up,-0.430,-0.430,-0.430,0.000,0.000,0.000
1605206301726362880,10.0.1.134,487,move_up,-0.410,-0.410,-0.410,0.000,0.000,0.000
1605206303245773056,10.0.1.134,455,move_up,-0.390,-0.390,-0.390,0.000,0.000,0.000
1605206304827406848,10.0.1.134,464,move_up,-0.370,-0.370,-0.370,0.000,0.000,0.000
1605206306527578112,10.0.1.134,491,move_up,-0.350,-0.350,-0.350,0.000,0.000,0.000
1605206308023243008,10.0.1.134,436,move_up,-0.330,-0.330,-0.330,0.000,0.000,0.000
1605206309622930176,10.0.1.134,490,move_up,-0.310,-0.310,-0.310,0.000,0.000,0.000
1605206311168901888,10.0.1.134,460,move_up,-0.290,-0.290,-0.290,0.000,0.000,0.000
1605206312897836032,10.0.1.134,618,move_up,-0.270,-0.270,-0.270,0.000,0.000,0.000
1605206314465842944,10.0.1.134,494,move_up,-0.250,-0.250,-0.250,0.000,0.000,0.000
1605206316059976192,10.0.1.134,458,move_up,-0.230,-0.230,-0.230,0.000,0.000,0.000
1605206317590882048,10.0.1.134,434,move_up,-0.210,-0.210,-0.210,0.000,0.000,0.000
1605206319125231104,10.0.1.134,450,move_up,-0.190,-0.190,-0.190,0.000,0.000,0.000
1605206320246887936,10.0.1.134,50,place,-0.180,-0.180,-0.180,0.000,0.000,0.000
1605206321236329984,10.0.1.134,38,place,-0.170,-0.170,-0.170,0.000,0.000,0.000
1605206322246038016,10.0.1.134,46,place,-0.160,-0.160,-0.160,0.000,0.000,0.000
1605206323273008128,10.0.1.134,72,place,-0.150,-0.150,-0.150,0.000,0.000,0.000
1605206324244088832,10.0.1.134,41,place,-0.140,-0.140,-0.140,0.000,0.000,0.000
1605206325254451968,10.0.1.134,51,place,-0.130,-0.130,-0.130,0.000,0.000,0.000
1605206326254999040,10.0.1.134,51,place,-0.120,-0.120,-0.120,0.000,0.000,0.000
1605206327271019008,10.0.1.134,66,place,-0.110,-0.110,-0.110,0.000,0.000,0.000
1605206328241956096,10.0.1.134,35,place,-0.100,-0.100,-0.100,0.000,0.000,0.000
1605206329254868992,10.0.1.134,47,place,-0.090,-0.090,-0.090,0.000,0.000,0.000
1605206330272876032,10.0.1.134,62,place,-0.080,-0.080,-0.080,0.000,0.000,0.000
1605206331257164032,10.0.1.134,42,place,-0.070,-0.070,-0.070,0.000,0.000,0.000
1605206332267756032,10.0.1.134,52,place,-0.060,-0.060,-0.060,0.000,0.000,0.000
1605206333253520896,10.0.1.134,36,place,-0.050,-0.050,-0.050,0.000,0.000,0.000
1605206334257366784,10.0.1.134,39,place,-0.040,-0.040,-0.040,0.000,0.000,0.000
1605206335265198080,10.0.1.134,45,place,-0.030,-0.030,-0.030,0.000,0.000,0.000
1605206337222624000,10.0.1.134,NaN,place,-0.010,-0.010,-0.010,0.000,0.000,0.000
1605206337258814976,10.0.1.134,36,place,-0.010,-0.010,-0.010,0.000,0.000,0.000
1605206339231770112,10.0.1.134,NaN,move_down,-0.020,-0.020,-0.020,0.000,0.000,0.000
1605206339625273088,10.0.1.134,393,move_down,-0.020,-0.020,-0.020,0.000,0.000,0.000
1605206341193949952,10.0.1.134,485,move_down,-0.040,-0.040,-0.040,0.000,0.000,0.000
1605206342812915968,10.0.1.134,538,move_down,-0.060,-0.060,-0.060,0.000,0.000,0.000
1605206344387206144,10.0.1.134,505,move_down,-0.080,-0.080,-0.080,0.000,0.000,0.000
1605206345978245120,10.0.1.134,532,move_down,-0.100,-0.100,-0.100,0.000,0.000,0.000
1605206347446417920,10.0.1.134,434,move_down,-0.120,-0.120,-0.120,0.000,0.000,0.000
1605206349182568960,10.0.1.134,528,move_down,-0.140,-0.140,-0.140,0.000,0.000,0.000
1605206350723440896,10.0.1.134,460,move_down,-0.160,-0.160,-0.160,0.000,0.000,0.000
1605206352197943040,10.0.1.134,495,move_down,-0.180,-0.180,-0.180,0.000,0.000,0.000
1605206353729816064,10.0.1.134,446,move_down,-0.200,-0.200,-0.200,0.000,0.000,0.000
1605206355255204864,10.0.1.134,463,move_down,-0.220,-0.220,-0.220,0.000,0.000,0.000
1605206356836539136,10.0.1.134,452,move_down,-0.240,-0.240,-0.240,0.000,0.000,0.000
1605206358406404096,10.0.1.134,466,move_down,-0.260,-0.260,-0.260,0.000,0.000,0.000
1605206359979650048,10.0.1.134,494,move_down,-0.280,-0.280,-0.280,0.000,0.000,0.000
1605206361590141184,10.0.1.134,481,move_down,-0.300,-0.300,-0.300,0.000,0.000,0.000
1605206363094482944,10.0.1.134,438,move_down,-0.320,-0.320,-0.320,0.000,0.000,0.000
1605206364702857984,10.0.1.134,547,move_down,-0.340,-0.340,-0.340,0.000,0.000,0.000
1605206366253302016,10.0.1.134,440,move_down,-0.360,-0.360,-0.360,0.000,0.000,0.000
1605206367878246912,10.0.1.134,548,move_down,-0.380,-0.380,-0.380,0.000,0.000,0.000
1605206369430897920,10.0.1.134,494,move_down,-0.400,-0.400,-0.400,0.000,0.000,0.000
1605206370913281024,10.0.1.134,424,move_down,-0.420,-0.420,-0.420,0.000,0.000,0.000
1605206372501694976,10.0.1.134,514,move_down,-0.440,-0.440,-0.440,0.000,0.000,0.000
1605206374185841920,10.0.1.134,594,move_down,-0.460,-0.460,-0.460,0.000,0.000,0.000
1605206375824743936,10.0.1.134,584,move_down,-0.480,-0.480,-0.480,0.000,0.000,0.000
1605206377403350016,10.0.1.134,502,move_down,-0.500,-0.500,-0.500,0.000,0.000,0.000
1605206378994141184,10.0.1.134,514,move_down,-0.520,-0.520,-0.520,0.000,0.000,0.000
1605206380576894976,10.0.1.134,538,move_down,-0.540,-0.540,-0.540,0.000,0.000,0.000
1605206382196183040,10.0.1.134,545,move_down,-0.560,-0.560,-0.560,0.000,0.000,0.000
1605206383867568896,10.0.1.134,589,move_down,-0.580,-0.580,-0.580,0.000,0.000,0.000
1605206385005495040,10.0.1.134,53,pick,-0.590,-0.590,-0.590,0.000,0.000,0.000
1605206385992934912,10.0.1.134,39,pick,-0.600,-0.600,-0.600,0.000,0.000,0.000
1605206386993197056,10.0.1.134,38,pick,-0.610,-0.610,-0.610,0.000,0.000,0.000
1605206388013419008,10.0.1.134,54,pick,-0.620,-0.620,-0.620,0.000,0.000,0.000
1605206388990308096,10.0.1.134,30,pick,-0.630,-0.630,-0.630,0.000,0.000,0.000
1605206390015037952,10.0.1.134,54,pick,-0.640,-0.640,-0.640,0.000,0.000,0.000
1605206391014278912,10.0.1.134,52,pick,-0.650,-0.650,-0.650,0.000,0.000,0.000
1605206392018342912,10.0.1.134,54,pick,-0.660,-0.660,-0.660,0.000,0.000,0.000
1605206393009441024,10.0.1.134,43,pick,-0.670,-0.670,-0.670,0.000,0.000,0.000
1605206394006620928,10.0.1.134,39,pick,-0.680,-0.680,-0.680,0.000,0.000,0.000
1605206395051534848,10.0.1.134,82,pick,-0.690,-0.690,-0.690,0.000,0.000,0.000
1605206396030775040,10.0.1.134,47,pick,-0.700,-0.700,-0.700,0.000,0.000,0.000
1605206397043920896,10.0.1.134,59,pick,-0.710,-0.710,-0.710,0.000,0.000,0.000
1605206398030096128,10.0.1.134,42,pick,-0.720,-0.720,-0.720,0.000,0.000,0.000
1605206399034967040,10.0.1.134,46,pick,-0.730,-0.730,-0.730,0.000,0.000,0.000
1605206400038603008,10.0.1.134,48,pick,-0.740,-0.740,-0.740,0.000,0.000,0.000
1605206401034771968,10.0.1.134,43,pick,-0.750,-0.750,-0.750,0.000,0.000,0.000
1605206402036797952,10.0.1.134,44,pick,-0.760,-0.760,-0.760,0.000,0.000,0.000
1605206404005848832,10.0.1.134,NaN,move_up,-0.750,-0.750,-0.750,0.000,0.000,0.000
1605206404491799040,10.0.1.134,485,move_up,-0.750,-0.750,-0.750,0.000,0.000,0.000
1605206406157996800,10.0.1.134,537,move_up,-0.730,-0.730,-0.730,0.000,0.000,0.000
1605206407698977024,10.0.1.134,482,move_up,-0.710,-0.710,-0.710,0.000,0.000,0.000
1605206409233294080,10.0.1.134,415,move_up,-0.690,-0.690,-0.690,0.000,0.000,0.000
1605206410834494208,10.0.1.134,488,move_up,-0.670,-0.670,-0.670,0.000,0.000,0.000
1605206412395648000,10.0.1.134,474,move_up,-0.650,-0.650,-0.650,0.000,0.000,0.000
1605206413998436096,10.0.1.134,509,move_up,-0.630,-0.630,-0.630,0.000,0.000,0.000
1605206415550435072,10.0.1.134,466,move_up,-0.610,-0.610,-0.610,0.000,0.000,0.000
1605206417212215808,10.0.1.134,591,move_up,-0.590,-0.590,-0.590,0.000,0.000,0.000
1605206418792860928,10.0.1.134,508,move_up,-0.570,-0.570,-0.570,0.000,0.000,0.000
1605206420346579200,10.0.1.134,531,move_up,-0.550,-0.550,-0.550,0.000,0.000,0.000
1605206421879077888,10.0.1.134,504,move_up,-0.530,-0.530,-0.530,0.000,0.000,0.000
1605206423435531008,10.0.1.134,469,move_up,-0.510,-0.510,-0.510,0.000,0.000,0.000
1605206424871854080,10.0.1.134,357,move_up,-0.490,-0.490,-0.490,0.000,0.000,0.000
1605206426404092928,10.0.1.134,438,move_up,-0.470,-0.470,-0.470,0.000,0.000,0.000
1605206427944610048,10.0.1.134,455,move_up,-0.450,-0.450,-0.450,0.000,0.000,0.000
1605206429520134912,10.0.1.134,483,move_up,-0.430,-0.430,-0.430,0.000,0.000,0.000
1605206431025819136,10.0.1.134,475,move_up,-0.410,-0.410,-0.410,0.000,0.000,0.000
1605206432528428032,10.0.1.134,450,move_up,-0.390,-0.390,-0.390,0.000,0.000,0.000
1605206434076354048,10.0.1.134,475,move_up,-0.370,-0.370,-0.370,0.000,0.000,0.000
1605206435653925888,10.0.1.134,506,move_up,-0.350,-0.350,-0.350,0.000,0.000,0.000
1605206437234878976,10.0.1.134,463,move_up,-0.330,-0.330,-0.330,0.000,0.000,0.000
1605206438800172032,10.0.1.134,484,move_up,-0.310,-0.310,-0.310,0.000,0.000,0.000
1605206440340866048,10.0.1.134,461,move_up,-0.290,-0.290,-0.290,0.000,0.000,0.000
1605206441881500928,10.0.1.134,481,move_up,-0.270,-0.270,-0.270,0.000,0.000,0.000
1605206443545663232,10.0.1.134,555,move_up,-0.250,-0.250,-0.250,0.000,0.000,0.000
1605206445139955968,10.0.1.134,497,move_up,-0.230,-0.230,-0.230,0.000,0.000,0.000
1605206446781222144,10.0.1.134,519,move_up,-0.210,-0.210,-0.210,0.000,0.000,0.000
1605206448335156992,10.0.1.134,476,move_up,-0.190,-0.190,-0.190,0.000,0.000,0.000
1605206449482956800,10.0.1.134,40,place,-0.180,-0.180,-0.180,0.000,0.000,0.000
1605206450484862208,10.0.1.134,41,place,-0.170,-0.170,-0.170,0.000,0.000,0.000
1605206451494466048,10.0.1.134,47,place,-0.160,-0.160,-0.160,0.000,0.000,0.000
1605206452501198080,10.0.1.134,50,place,-0.150,-0.150,-0.150,0.000,0.000,0.000
1605206453498400000,10.0.1.134,45,place,-0.140,-0.140,-0.140,0.000,0.000,0.000
1605206454510067968,10.0.1.134,55,place,-0.130,-0.130,-0.130,0.000,0.000,0.000
1605206456456866048,10.0.1.134,NaN,place,-0.110,-0.110,-0.110,0.000,0.000,0.000
1605206456499447040,10.0.1.134,42,place,-0.110,-0.110,-0.110,0.000,0.000,0.000
1605206458460788992,10.0.1.134,NaN,place,-0.090,-0.090,-0.090,0.000,0.000,0.000
1605206459462067968,10.0.1.134,NaN,place,-0.080,-0.080,-0.080,0.000,0.000,0.000
1605206459508742144,10.0.1.134,46,place,-0.080,-0.080,-0.080,0.000,0.000,0.000
1605206460503215104,10.0.1.134,39,place,-0.070,-0.070,-0.070,0.000,0.000,0.000
1605206461534725888,10.0.1.134,70,place,-0.060,-0.060,-0.060,0.000,0.000,0.000
1605206462503284992,10.0.1.134,37,place,-0.050,-0.050,-0.050,0.000,0.000,0.000
1605206463503028992,10.0.1.134,31,place,-0.040,-0.040,-0.040,0.000,0.000,0.000
1605206464544017152,10.0.1.134,71,place,-0.030,-0.030,-0.030,0.000,0.000,0.000
1605206465523367936,10.0.1.134,49,place,-0.020,-0.020,-0.020,0.000,0.000,0.000
1605206466532998144,10.0.1.134,57,place,-0.010,-0.010,-0.010,0.000,0.000,0.000
1605206467558361088,10.0.1.134,81,place,0.000,0.000,0.000,0.000,0.000,0.000
1605206469007643904,10.0.1.134,526,move_down,-0.020,-0.020,-0.020,0.000,0.000,0.000
1605206470562144000,10.0.1.134,416,move_down,-0.040,-0.040,-0.040,0.000,0.000,0.000
1605206472202132992,10.0.1.134,482,move_down,-0.060,-0.060,-0.060,0.000,0.000,0.000
1605206473785416960,10.0.1.134,514,move_down,-0.080,-0.080,-0.080,0.000,0.000,0.000
1605206475351907072,10.0.1.134,508,move_down,-0.100,-0.100,-0.100,0.000,0.000,0.000
1605206476964083968,10.0.1.134,541,move_down,-0.120,-0.120,-0.120,0.000,0.000,0.000
1605206478762268160,10.0.1.134,695,move_down,-0.140,-0.140,-0.140,0.000,0.000,0.000
1605206480513812992,10.0.1.134,686,move_down,-0.160,-0.160,-0.160,0.000,0.000,0.000
1605206482028458240,10.0.1.134,510,move_down,-0.180,-0.180,-0.180,0.000,0.000,0.000
1605206483744761856,10.0.1.134,536,move_down,-0.200,-0.200,-0.200,0.000,0.000,0.000
1605206485322606080,10.0.1.134,523,move_down,-0.220,-0.220,-0.220,0.000,0.000,0.000
1605206486870351104,10.0.1.134,483,move_down,-0.240,-0.240,-0.240,0.000,0.000,0.000
1605206488537440000,10.0.1.134,514,move_down,-0.260,-0.260,-0.260,0.000,0.000,0.000
1605206490111293952,10.0.1.134,455,move_down,-0.280,-0.280,-0.280,0.000,0.000,0.000
1605206491672782848,10.0.1.134,510,move_down,-0.300,-0.300,-0.300,0.000,0.000,0.000
1605206493285996800,10.0.1.134,503,move_down,-0.320,-0.320,-0.320,0.000,0.000,0.000
1605206494935340800,10.0.1.134,483,move_down,-0.340,-0.340,-0.340,0.000,0.000,0.000
1605206496475441920,10.0.1.134,539,move_down,-0.360,-0.360,-0.360,0.000,0.000,0.000
1605206498017285120,10.0.1.134,475,move_down,-0.380,-0.380,-0.380,0.000,0.000,0.000
1605206499563215104,10.0.1.134,475,move_down,-0.400,-0.400,-0.400,0.000,0.000,0.000
1605206501076616960,10.0.1.134,435,move_down,-0.420,-0.420,-0.420,0.000,0.000,0.000
1605206502571121920,10.0.1.134,400,move_down,-0.440,-0.440,-0.440,0.000,0.000,0.000
1605206504152604160,10.0.1.134,472,move_down,-0.460,-0.460,-0.460,0.000,0.000,0.000
1605206505758328064,10.0.1.134,541,move_down,-0.480,-0.480,-0.480,0.000,0.000,0.000
1605206507235030784,10.0.1.134,473,move_down,-0.500,-0.500,-0.500,0.000,0.000,0.000
1605206508806260992,10.0.1.134,542,move_down,-0.520,-0.520,-0.520,0.000,0.000,0.000
1605206510437291008,10.0.1.134,517,move_down,-0.540,-0.540,-0.540,0.000,0.000,0.000
1605206512002136064,10.0.1.134,435,move_down,-0.560,-0.560,-0.560,0.000,0.000,0.000
1605206513636641024,10.0.1.134,582,move_down,-0.580,-0.580,-0.580,0.000,0.000,0.000
1605206514735044864,10.0.1.134,43,pick,-0.590,-0.590,-0.590,0.000,0.000,0.000
1605206515736585984,10.0.1.134,43,pick,-0.600,-0.600,-0.600,0.000,0.000,0.000
1605206516766340096,10.0.1.134,72,pick,-0.610,-0.610,-0.610,0.000,0.000,0.000
1605206517752741120,10.0.1.134,41,pick,-0.620,-0.620,-0.620,0.000,0.000,0.000
1605206518747851008,10.0.1.134,35,pick,-0.630,-0.630,-0.630,0.000,0.000,0.000
1605206519767687168,10.0.1.134,52,pick,-0.640,-0.640,-0.640,0.000,0.000,0.000
1605206520768861952,10.0.1.134,52,pick,-0.650,-0.650,-0.650,0.000,0.000,0.000
1605206521775430912,10.0.1.134,58,pick,-0.660,-0.660,-0.660,0.000,0.000,0.000
1605206522767777792,10.0.1.134,49,pick,-0.670,-0.670,-0.670,0.000,0.000,0.000
1605206523764698112,10.0.1.134,45,pick,-0.680,-0.680,-0.680,0.000,0.000,0.000
1605206524764777984,10.0.1.134,43,pick,-0.690,-0.690,-0.690,0.000,0.000,0.000
1605206525767301120,10.0.1.134,45,pick,-0.700,-0.700,-0.700,0.000,0.000,0.000
1605206526764320000,10.0.1.134,40,pick,-0.710,-0.710,-0.710,0.000,0.000,0.000
1605206527770339840,10.0.1.134,45,pick,-0.720,-0.720,-0.720,0.000,0.000,0.000
1605206528777313024,10.0.1.134,51,pick,-0.730,-0.730,-0.730,0.000,0.000,0.000
1605206529764484864,10.0.1.134,37,pick,-0.740,-0.740,-0.740,0.000,0.000,0.000
1605206530770086912,10.0.1.134,42,pick,-0.750,-0.750,-0.750,0.000,0.000,0.000
1605206531762448128,10.0.1.134,31,pick,-0.760,-0.760,-0.760,0.000,0.000,0.000
1605206532785319168,10.0.1.134,43,pick,-0.770,-0.770,-0.770,0.000,0.000,0.000
1605206534346245120,10.0.1.134,603,move_up,-0.750,-0.750,-0.750,0.000,0.000,0.000
1605206535938856960,10.0.1.134,497,move_up,-0.730,-0.730,-0.730,0.000,0.000,0.000
1605206537544096000,10.0.1.134,510,move_up,-0.710,-0.710,-0.710,0.000,0.000,0.000
1605206539118375168,10.0.1.134,485,move_up,-0.690,-0.690,-0.690,0.000,0.000,0.000
1605206540677705984,10.0.1.134,503,move_up,-0.670,-0.670,-0.670,0.000,0.000,0.000
1605206542170625024,10.0.1.134,465,move_up,-0.650,-0.650,-0.650,0.000,0.000,0.000
1605206543643465984,10.0.1.134,453,move_up,-0.630,-0.630,-0.630,0.000,0.000,0.000
1605206545116871168,10.0.1.134,457,move_up,-0.610,-0.610,-0.610,0.000,0.000,0.000
1605206546890147072,10.0.1.134,653,move_up,-0.590,-0.590,-0.590,0.000,0.000,0.000
1605206548495224832,10.0.1.134,520,move_up,-0.570,-0.570,-0.570,0.000,0.000,0.000
1605206550167560960,10.0.1.134,566,move_up,-0.550,-0.550,-0.550,0.000,0.000,0.000
1605206551901127168,10.0.1.134,620,move_up,-0.530,-0.530,-0.530,0.000,0.000,0.000
1605206553470599936,10.0.1.134,496,move_up,-0.510,-0.510,-0.510,0.000,0.000,0.000
1605206555115607040,10.0.1.134,575,move_up,-0.490,-0.490,-0.490,0.000,0.000,0.000
1605206556670039808,10.0.1.134,491,move_up,-0.470,-0.470,-0.470,0.000,0.000,0.000
1605206558337076992,10.0.1.134,596,move_up,-0.450,-0.450,-0.450,0.000,0.000,0.000
1605206559894705152,10.0.1.134,464,move_up,-0.430,-0.430,-0.430,0.000,0.000,0.000
1605206561644339968,10.0.1.134,658,move_up,-0.410,-0.410,-0.410,0.000,0.000,0.000
1605206563212198912,10.0.1.134,534,move_up,-0.390,-0.390,-0.390,0.000,0.000,0.000
1605206564740151808,10.0.1.134,495,move_up,-0.370,-0.370,-0.370,0.000,0.000,0.000
1605206566345947136,10.0.1.134,518,move_up,-0.350,-0.350,-0.350,0.000,0.000,0.000
1605206567936161024,10.0.1.134,544,move_up,-0.330,-0.330,-0.330,0.000,0.000,0.000
1605206569407699200,10.0.1.134,426,move_up,-0.310,-0.310,-0.310,0.000,0.000,0.000
1605206571090089984,10.0.1.134,638,move_up,-0.290,-0.290,-0.290,0.000,0.000,0.000
1605206572718972928,10.0.1.134,526,move_up,-0.270,-0.270,-0.270,0.000,0.000,0.000
1605206574272871936,10.0.1.134,446,move_up,-0.250,-0.250,-0.250,0.000,0.000,0.000
1605206575919169792,10.0.1.134,548,move_up,-0.230,-0.230,-0.230,0.000,0.000,0.000
1605206577502958080,10.0.1.134,525,move_up,-0.210,-0.210,-0.210,0.000,0.000,0.000
1605206578994160896,10.0.1.134,431,move_up,-0.190,-0.190,-0.190,0.000,0.000,0.000
1605206580127172864,10.0.1.134,43,place,-0.180,-0.180,-0.180,0.000,0.000,0.000
1605206581148151040,10.0.1.134,45,place,-0.170,-0.170,-0.170,0.000,0.000,0.000
1605206582151067904,10.0.1.134,47,place,-0.160,-0.160,-0.160,0.000,0.000,0.000
1605206583146989056,10.0.1.134,41,place,-0.150,-0.150,-0.150,0.000,0.000,0.000
1605206584164721920,10.0.1.134,58,place,-0.140,-0.140,-0.140,0.000,0.000,0.000
1605206585149415936,10.0.1.134,41,place,-0.130,-0.130,-0.130,0.000,0.000,0.000
1605206586201440000,10.0.1.134,92,place,-0.120,-0.120,-0.120,0.000,0.000,0.000
1605206587161287168,10.0.1.134,52,place,-0.110,-0.110,-0.110,0.000,0.000,0.000
1605206588159124992,10.0.1.134,47,place,-0.100,-0.100,-0.100,0.000,0.000,0.000
1605206589157249024,10.0.1.134,43,place,-0.090,-0.090,-0.090,0.000,0.000,0.000
1605206590148144896,10.0.1.134,32,place,-0.080,-0.080,-0.080,0.000,0.000,0.000
1605206591172840192,10.0.1.134,53,place,-0.070,-0.070,-0.070,0.000,0.000,0.000
1605206592155811072,10.0.1.134,35,place,-0.060,-0.060,-0.060,0.000,0.000,0.000
1605206593181745920,10.0.1.134,55,place,-0.050,-0.050,-0.050,0.000,0.000,0.000
1605206594173047040,10.0.1.134,45,place,-0.040,-0.040,-0.040,0.000,0.000,0.000
1605206595191267072,10.0.1.134,46,place,-0.030,-0.030,-0.030,0.000,0.000,0.000
1605206596191909120,10.0.1.134,45,place,-0.020,-0.020,-0.020,0.000,0.000,0.000
1605206597189771008,10.0.1.134,42,place,-0.010,-0.010,-0.010,0.000,0.000,0.000
1605206598198700032,10.0.1.134,48,place,0.000,0.000,0.000,0.000,0.000,0.000
1605206599581289984,10.0.1.134,429,move_down,-0.020,-0.020,-0.020,0.000,0.000,0.000
1605206601173594880,10.0.1.134,497,move_down,-0.040,-0.040,-0.040,0.000,0.000,0.000
1605206602724160000,10.0.1.134,485,move_down,-0.060,-0.060,-0.060,0.000,0.000,0.000
1605206604264962816,10.0.1.134,480,move_down,-0.080,-0.080,-0.080,0.000,0.000,0.000
1605206605829963008,10.0.1.134,470,move_down,-0.100,-0.100,-0.100,0.000,0.000,0.000
1605206607364729856,10.0.1.134,410,move_down,-0.120,-0.120,-0.120,0.000,0.000,0.000
1605206608976839936,10.0.1.134,588,move_down,-0.140,-0.140,-0.140,0.000,0.000,0.000
1605206610505767168,10.0.1.134,440,move_down,-0.160,-0.160,-0.160,0.000,0.000,0.000
1605206612167468032,10.0.1.134,555,move_down,-0.180,-0.180,-0.180,0.000,0.000,0.000
1605206613807565824,10.0.1.134,595,move_down,-0.200,-0.200,-0.200,0.000,0.000,0.000
1605206615440866048,10.0.1.134,543,move_down,-0.220,-0.220,-0.220,0.000,0.000,0.000
1605206617149204992,10.0.1.134,560,move_down,-0.240,-0.240,-0.240,0.000,0.000,0.000
1605206618716440832,10.0.1.134,468,move_down,-0.260,-0.260,-0.260,0.000,0.000,0.000
1605206620460130048,10.0.1.134,576,move_down,-0.280,-0.280,-0.280,0.000,0.000,0.000
1605206622035624960,10.0.1.134,479,move_down,-0.300,-0.300,-0.300,0.000,0.000,0.000
1605206623620781824,10.0.1.134,492,move_down,-0.320,-0.320,-0.320,0.000,0.000,0.000
1605206625190722816,10.0.1.134,540,move_down,-0.340,-0.340,-0.340,0.000,0.000,0.000
1605206626870500096,10.0.1.134,563,move_down,-0.360,-0.360,-0.360,0.000,0.000,0.000
1605206628417886976,10.0.1.134,490,move_down,-0.380,-0.380,-0.380,0.000,0.000,0.000
1605206629951906048,10.0.1.134,493,move_down,-0.400,-0.400,-0.400,0.000,0.000,0.000
1605206631647166976,10.0.1.134,609,move_down,-0.420,-0.420,-0.420,0.000,0.000,0.000
1605206633274713088,10.0.1.134,581,move_down,-0.440,-0.440,-0.440,0.000,0.000,0.000
1605206634935206912,10.0.1.134,592,move_down,-0.460,-0.460,-0.460,0.000,0.000,0.000
1605206636482451968,10.0.1.134,477,move_down,-0.480,-0.480,-0.480,0.000,0.000,0.000
1605206638000468992,10.0.1.134,448,move_down,-0.500,-0.500,-0.500,0.000,0.000,0.000
1605206639545361920,10.0.1.134,454,move_down,-0.520,-0.520,-0.520,0.000,0.000,0.000
1605206641048450048,10.0.1.134,432,move_down,-0.540,-0.540,-0.540,0.000,0.000,0.000
1605206642560175872,10.0.1.134,449,move_down,-0.560,-0.560,-0.560,0.000,0.000,0.000
1605206644083128064,10.0.1.134,512,move_down,-0.580,-0.580,-0.580,0.000,0.000,0.000
1605206645153676032,10.0.1.134,38,pick,-0.590,-0.590,-0.590,0.000,0.000,0.000
1605206646167990016,10.0.1.134,50,pick,-0.600,-0.600,-0.600,0.000,0.000,0.000
1605206647154395136,10.0.1.134,36,pick,-0.610,-0.610,-0.610,0.000,0.000,0.000
1605206648156271104,10.0.1.134,36,pick,-0.620,-0.620,-0.620,0.000,0.000,0.000
1605206649162832896,10.0.1.134,39,pick,-0.630,-0.630,-0.630,0.000,0.000,0.000
1605206650176338944,10.0.1.134,43,pick,-0.640,-0.640,-0.640,0.000,0.000,0.000
1605206651189558016,10.0.1.134,53,pick,-0.650,-0.650,-0.650,0.000,0.000,0.000
1605206652178690048,10.0.1.134,38,pick,-0.660,-0.660,-0.660,0.000,0.000,0.000
1605206653180669952,10.0.1.134,37,pick,-0.670,-0.670,-0.670,0.000,0.000,0.000
1605206654198502912,10.0.1.134,54,pick,-0.680,-0.680,-0.680,0.000,0.000,0.000
1605206655180186880,10.0.1.134,35,pick,-0.690,-0.690,-0.690,0.000,0.000,0.000
1605206656194812160,10.0.1.134,48,pick,-0.700,-0.700,-0.700,0.000,0.000,0.000
1605206657190157824,10.0.1.134,42,pick,-0.710,-0.710,-0.710,0.000,0.000,0.000
1605206658206433024,10.0.1.134,57,pick,-0.720,-0.720,-0.720,0.000,0.000,0.000
1605206659203661056,10.0.1.134,46,pick,-0.730,-0.730,-0.730,0.000,0.000,0.000
1605206660212557056,10.0.1.134,52,pick,-0.740,-0.740,-0.740,0.000,0.000,0.000
1605206661212474112,10.0.1.134,51,pick,-0.750,-0.750,-0.750,0.000,0.000,0.000
1605206662211950080,10.0.1.134,49,pick,-0.760,-0.760,-0.760,0.000,0.000,0.000
1605206663194479104,10.0.1.134,30,pick,-0.770,-0.770,-0.770,0.000,0.000,0.000
1605206664607657984,10.0.1.134,440,move_up,-0.750,-0.750,-0.750,0.000,0.000,0.000
1605206666169133056,10.0.1.134,445,move_up,-0.730,-0.730,-0.730,0.000,0.000,0.000
1605206667740317184,10.0.1.134,481,move_up,-0.710,-0.710,-0.710,0.000,0.000,0.000
1605206669350241024,10.0.1.134,480,move_up,-0.690,-0.690,-0.690,0.000,0.000,0.000
1605206670929300992,10.0.1.134,561,move_up,-0.670,-0.670,-0.670,0.000,0.000,0.000
1605206672464096000,10.0.1.134,507,move_up,-0.650,-0.650,-0.650,0.000,0.000,0.000
1605206673975101952,10.0.1.134,443,move_up,-0.630,-0.630,-0.630,0.000,0.000,0.000
1605206675475557120,10.0.1.134,403,move_up,-0.610,-0.610,-0.610,0.000,0.000,0.000
1605206677092336896,10.0.1.134,485,move_up,-0.590,-0.590,-0.590,0.000,0.000,0.000
1605206678693764864,10.0.1.134,484,move_up,-0.570,-0.570,-0.570,0.000,0.000,0.000
1605206680461724928,10.0.1.134,613,move_up,-0.550,-0.550,-0.550,0.000,0.000,0.000
1605206682229305856,10.0.1.134,625,move_up,-0.530,-0.530,-0.530,0.000,0.000,0.000
1605206683755991808,10.0.1.134,495,move_up,-0.510,-0.510,-0.510,0.000,0.000,0.000
1605206685545603072,10.0.1.134,643,move_up,-0.490,-0.490,-0.490,0.000,0.000,0.000
1605206687108807168,10.0.1.134,494,move_up,-0.470,-0.470,-0.470,0.000,0.000,0.000
1605206688771971072,10.0.1.134,544,move_up,-0.450,-0.450,-0.450,0.000,0.000,0.000
1605206690560812032,10.0.1.134,693,move_up,-0.430,-0.430,-0.430,0.000,0.000,0.000
1605206692179389952,10.0.1.134,516,move_up,-0.410,-0.410,-0.410,0.000,0.000,0.000
1605206693709073920,10.0.1.134,480,move_up,-0.390,-0.390,-0.390,0.000,0.000,0.000
1605206695301575936,10.0.1.134,562,move_up,-0.370,-0.370,-0.370,0.000,0.000,0.000
1605206696995611904,10.0.1.134,598,move_up,-0.350,-0.350,-0.350,0.000,0.000,0.000
1605206698613497856,10.0.1.134,537,move_up,-0.330,-0.330,-0.330,0.000,0.000,0.000
1605206700308509184,10.0.1.134,569,move_up,-0.310,-0.310,-0.310,0.000,0.000,0.000
1605206701858937088,10.0.1.134,449,move_up,-0.290,-0.290,-0.290,0.000,0.000,0.000
1605206703445538048,10.0.1.134,458,move_up,-0.270,-0.270,-0.270,0.000,0.000,0.000
1605206705089693952,10.0.1.134,537,move_up,-0.250,-0.250,-0.250,0.000,0.000,0.000
1605206706618707968,10.0.1.134,507,move_up,-0.230,-0.230,-0.230,0.000,0.000,0.000
1605206708271961856,10.0.1.134,589,move_up,-0.210,-0.210,-0.210,0.000,0.000,0.000
1605206709858041088,10.0.1.134,519,move_up,-0.190,-0.190,-0.190,0.000,0.000,0.000
1605206710977243904,10.0.1.134,56,place,-0.180,-0.180,-0.180,0.000,0.000,0.000
1605206711956648960,10.0.1.134,34,place,-0.170,-0.170,-0.170,0.000,0.000,0.000
1605206712976250880,10.0.1.134,47,place,-0.160,-0.160,-0.160,0.000,0.000,0.000
1605206713977788928,10.0.1.134,47,place,-0.150,-0.150,-0.150,0.000,0.000,0.000
1605206714999110912,10.0.1.134,66,place,-0.140,-0.140,-0.140,0.000,0.000,0.000
1605206715983618048,10.0.1.134,42,place,-0.130,-0.130,-0.130,0.000,0.000,0.000
1605206716979006976,10.0.1.134,36,place,-0.120,-0.120,-0.120,0.000,0.000,0.000
1605206717983316992,10.0.1.134,39,place,-0.110,-0.110,-0.110,0.000,0.000,0.000
1605206718980408064,10.0.1.134,33,place,-0.100,-0.100,-0.100,0.000,0.000,0.000
1605206720001394944,10.0.1.134,53,place,-0.090,-0.090,-0.090,0.000,0.000,0.000
1605206721010435072,10.0.1.134,59,place,-0.080,-0.080,-0.080,0.000,0.000,0.000
1605206722008635136,10.0.1.134,57,place,-0.070,-0.070,-0.070,0.000,0.000,0.000
1605206722994554112,10.0.1.134,42,place,-0.060,-0.060,-0.060,0.000,0.000,0.000
1605206723993069056,10.0.1.134,37,place,-0.050,-0.050,-0.050,0.000,0.000,0.000
1605206725013814016,10.0.1.134,56,place,-0.040,-0.040,-0.040,0.000,0.000,0.000
1605206725999952128,10.0.1.134,41,place,-0.030,-0.030,-0.030,0.000,0.000,0.000
1605206727025812992,10.0.1.134,66,place,-0.020,-0.020,-0.020,0.000,0.000,0.000
1605206728013849088,10.0.1.134,52,place,-0.010,-0.010,-0.010,0.000,0.000,0.000
1605206729003587840,10.0.1.134,38,place,0.000,0.000,0.000,0.000,0.000,0.000
1605206730428192000,10.0.1.134,459,move_down,-0.020,-0.020,-0.020,0.000,0.000,0.000
1605206732014683136,10.0.1.134,425,move_down,-0.040,-0.040,-0.040,0.000,0.000,0.000
1605206733537024000,10.0.1.134,465,move_down,-0.060,-0.060,-0.060,0.000,0.000,0.000
1605206735051945984,10.0.1.134,445,move_down,-0.080,-0.080,-0.080,0.000,0.000,0.000
1605206736588304128,10.0.1.134,468,move_down,-0.100,-0.100,-0.100,0.000,0.000,0.000
1605206738108894208,10.0.1.134,465,move_down,-0.120,-0.120,-0.120,0.000,0.000,0.000
1605206739699988992,10.0.1.134,510,move_down,-0.140,-0.140,-0.140,0.000,0.000,0.000
1605206741299713024,10.0.1.134,500,move_down,-0.160,-0.160,-0.160,0.000,0.000,0.000
1605206742855849984,10.0.1.134,484,move_down,-0.180,-0.180,-0.180,0.000,0.000,0.000
1605206744501143040,10.0.1.134,612,move_down,-0.200,-0.200,-0.200,0.000,0.000,0.000
1605206746027846144,10.0.1.134,447,move_down,-0.220,-0.220,-0.220,0.000,0.000,0.000
1605206747633292032,10.0.1.134,530,move_down,-0.240,-0.240,-0.240,0.000,0.000,0.000
1605206749177048832,10.0.1.134,506,move_down,-0.260,-0.260,-0.260,0.000,0.000,0.000
1605206750814078976,10.0.1.134,509,move_down,-0.280,-0.280,-0.280,0.000,0.000,0.000
1605206752400197888,10.0.1.134,461,move_down,-0.300,-0.300,-0.300,0.000,0.000,0.000
1605206754002701056,10.0.1.134,492,move_down,-0.320,-0.320,-0.320,0.000,0.000,0.000
1605206755614809088,10.0.1.134,556,move_down,-0.340,-0.340,-0.340,0.000,0.000,0.000
1605206757292118016,10.0.1.134,568,move_down,-0.360,-0.360,-0.360,0.000,0.000,0.000
1605206758967751936,10.0.1.134,603,move_down,-0.380,-0.380,-0.380,0.000,0.000,0.000
1605206760534342912,10.0.1.134,503,move_down,-0.400,-0.400,-0.400,0.000,0.000,0.000
1605206762149524992,10.0.1.134,518,move_down,-0.420,-0.420,-0.420,0.000,0.000,0.000
1605206763686867968,10.0.1.134,518,move_down,-0.440,-0.440,-0.440,0.000,0.000,0.000
1605206765211606016,10.0.1.134,442,move_down,-0.460,-0.460,-0.460,0.000,0.000,0.000
1605206766776015104,10.0.1.134,558,move_down,-0.480,-0.480,-0.480,0.000,0.000,0.000
1605206768451344128,10.0.1.134,594,move_down,-0.500,-0.500,-0.500,0.000,0.000,0.000
1605206769977456128,10.0.1.134,487,move_down,-0.520,-0.520,-0.520,0.000,0.000,0.000
1605206771647350016,10.0.1.134,619,move_down,-0.540,-0.540,-0.540,0.000,0.000,0.000
1605206773290708992,10.0.1.134,579,move_down,-0.560,-0.560,-0.560,0.000,0.000,0.000
1605206774829488128,10.0.1.134,477,move_down,-0.580,-0.580,-0.580,0.000,0.000,0.000
1605206776015520000,10.0.1.134,46,pick,-0.590,-0.590,-0.590,0.000,0.000,0.000
1605206777010912768,10.0.1.134,38,pick,-0.600,-0.600,-0.600,0.000,0.000,0.000
1605206778033676032,10.0.1.134,54,pick,-0.610,-0.610,-0.610,0.000,0.000,0.000
1605206779038775808,10.0.1.134,58,pick,-0.620,-0.620,-0.620,0.000,0.000,0.000
1605206780023140864,10.0.1.134,40,pick,-0.630,-0.630,-0.630,0.000,0.000,0.000
1605206781034353920,10.0.1.134,50,pick,-0.640,-0.640,-0.640,0.000,0.000,0.000
1605206782025176064,10.0.1.134,40,pick,-0.650,-0.650,-0.650,0.000,0.000,0.000
1605206783039063808,10.0.1.134,52,pick,-0.660,-0.660,-0.660,0.000,0.000,0.000
1605206784033317120,10.0.1.134,45,pick,-0.670,-0.670,-0.670,0.000,0.000,0.000
1605206785052102144,10.0.1.134,62,pick,-0.680,-0.680,-0.680,0.000,0.000,0.000
1605206786032601088,10.0.1.134,41,pick,-0.690,-0.690,-0.690,0.000,0.000,0.000
1605206787039983104,10.0.1.134,48,pick,-0.700,-0.700,-0.700,0.000,0.000,0.000
1605206788056377856,10.0.1.134,45,pick,-0.710,-0.710,-0.710,0.000,0.000,0.000
1605206789057761792,10.0.1.134,45,pick,-0.720,-0.720,-0.720,0.000,0.000,0.000
1605206790051915776,10.0.1.134,35,pick,-0.730,-0.730,-0.730,0.000,0.000,0.000
1605206791096092928,10.0.1.134,78,pick,-0.740,-0.740,-0.740,0.000,0.000,0.000
1605206792083328000,10.0.1.134,63,pick,-0.750,-0.750,-0.750,0.000,0.000,0.000
1605206793068242944,10.0.1.134,41,pick,-0.760,-0.760,-0.760,0.000,0.000,0.000
1605206794070646016,10.0.1.134,41,pick,-0.770,-0.770,-0.770,0.000,0.000,0.000
1605206795498049024,10.0.1.134,467,move_up,-0.750,-0.750,-0.750,0.000,0.000,0.000
1605206797011773952,10.0.1.134,480,move_up,-0.730,-0.730,-0.730,0.000,0.000,0.000
1605206798632311040,10.0.1.134,525,move_up,-0.710,-0.710,-0.710,0.000,0.000,0.000
1605206800218008064,10.0.1.134,499,move_up,-0.690,-0.690,-0.690,0.000,0.000,0.000
1605206801768806912,10.0.1.134,493,move_up,-0.670,-0.670,-0.670,0.000,0.000,0.000
1605206803370307840,10.0.1.134,484,move_up,-0.650,-0.650,-0.650,0.000,0.000,0.000
1605206804947806976,10.0.1.134,509,move_up,-0.630,-0.630,-0.630,0.000,0.000,0.000
1605206806481768960,10.0.1.134,494,move_up,-0.610,-0.610,-0.610,0.000,0.000,0.000
1605206807973169920,10.0.1.134,427,move_up,-0.590,-0.590,-0.590,0.000,0.000,0.000
1605206809563716864,10.0.1.134,490,move_up,-0.570,-0.570,-0.570,0.000,0.000,0.000
1605206811125394944,10.0.1.134,480,move_up,-0.550,-0.550,-0.550,0.000,0.000,0.000
1605206812718066944,10.0.1.134,440,move_up,-0.530,-0.530,-0.530,0.000,0.000,0.000
1605206814309039104,10.0.1.134,487,move_up,-0.510,-0.510,-0.510,0.000,0.000,0.000
1605206815935931904,10.0.1.134,544,move_up,-0.490,-0.490,-0.490,0.000,0.000,0.000
1605206817586586112,10.0.1.134,560,move_up,-0.470,-0.470,-0.470,0.000,0.000,0.000
1605206819173010176,10.0.1.134,458,move_up,-0.450,-0.450,-0.450,0.000,0.000,0.000
1605206820711639040,10.0.1.134,496,move_up,-0.430,-0.430,-0.430,0.000,0.000,0.000
1605206822365124864,10.0.1.134,512,move_up,-0.410,-0.410,-0.410,0.000,0.000,0.000
1605206823849273856,10.0.1.134,447,move_up,-0.390,-0.390,-0.390,0.000,0.000,0.000
1605206825421950976,10.0.1.134,462,move_up,-0.370,-0.370,-0.370,0.000,0.000,0.000
1605206827029671936,10.0.1.134,524,move_up,-0.350,-0.350,-0.350,0.000,0.000,0.000
1605206828591801856,10.0.1.134,521,move_up,-0.330,-0.330,-0.330,0.000,0.000,0.000
1605206830166636032,10.0.1.134,526,move_up,-0.310,-0.310,-0.310,0.000,0.000,0.000
1605206831674813952,10.0.1.134,455,move_up,-0.290,-0.290,-0.290,0.000,0.000,0.000
1605206833203977216,10.0.1.134,405,move_up,-0.270,-0.270,-0.270,0.000,0.000,0.000
1605206834821367040,10.0.1.134,494,move_up,-0.250,-0.250,-0.250,0.000,0.000,0.000
1605206836389755136,10.0.1.134,489,move_up,-0.230,-0.230,-0.230,0.000,0.000,0.000
1605206837963275008,10.0.1.134,535,move_up,-0.210,-0.210,-0.210,0.000,0.000,0.000
1605206839639038208,10.0.1.134,585,move_up,-0.190,-0.190,-0.190,0.000,0.000,0.000
1605206840764604928,10.0.1.134,57,place,-0.180,-0.180,-0.180,0.000,0.000,0.000
1605206841751194880,10.0.1.134,42,place,-0.170,-0.170,-0.170,0.000,0.000,0.000
1605206842776278016,10.0.1.134,55,place,-0.160,-0.160,-0.160,0.000,0.000,0.000
1605206843775316992,10.0.1.134,52,place,-0.150,-0.150,-0.150,0.000,0.000,0.000
1605206844774106880,10.0.1.134,45,place,-0.140,-0.140,-0.140,0.000,0.000,0.000
1605206845781274112,10.0.1.134,51,place,-0.130,-0.130,-0.130,0.000,0.000,0.000
1605206846775531008,10.0.1.134,43,place,-0.120,-0.120,-0.120,0.000,0.000,0.000
1605206848735560960,10.0.1.134,NaN,place,-0.100,-0.100,-0.100,0.000,0.000,0.000
1605206848791282944,10.0.1.134,55,place,-0.100,-0.100,-0.100,0.000,0.000,0.000
1605206849774273024,10.0.1.134,37,place,-0.090,-0.090,-0.090,0.000,0.000,0.000
1605206851740948992,10.0.1.134,NaN,place,-0.070,-0.070,-0.070,0.000,0.000,0.000
1605206852767121920,10.0.1.134,NaN,place,-0.060,-0.060,-0.060,0.000,0.000,0.000
1605206852813359104,10.0.1.134,46,place,-0.060,-0.060,-0.060,0.000,0.000,0.000
1605206853816303872,10.0.1.134,44,place,-0.050,-0.050,-0.050,0.000,0.000,0.000
1605206854836990976,10.0.1.134,59,place,-0.040,-0.040,-0.040,0.000,0.000,0.000
1605206855835059968,10.0.1.134,56,place,-0.030,-0.030,-0.030,0.000,0.000,0.000
1605206856818109952,10.0.1.134,37,place,-0.020,-0.020,-0.020,0.000,0.000,0.000
1605206857816320000,10.0.1.134,34,place,-0.010,-0.010,-0.010,0.000,0.000,0.000
1605206858826750976,10.0.1.134,43,place,0.000,0.000,0.000,0.000,0.000,0.000
1605206860284495104,10.0.1.134,500,move_down,-0.020,-0.020,-0.020,0.000,0.000,0.000
1605206861877576960,10.0.1.134,540,move_down,-0.040,-0.040,-0.040,0.000,0.000,0.000
1605206863454784000,10.0.1.134,486,move_down,-0.060,-0.060,-0.060,0.000,0.000,0.000
1605206865034934016,10.0.1.134,463,move_down,-0.080,-0.080,-0.080,0.000,0.000,0.000
1605206866607407104,10.0.1.134,447,move_down,-0.100,-0.100,-0.100,0.000,0.000,0.000
1605206868236635904,10.0.1.134,511,move_down,-0.120,-0.120,-0.120,0.000,0.000,0.000
1605206869776692992,10.0.1.134,451,move_down,-0.140,-0.140,-0.140,0.000,0.000,0.000
1605206871299442176,10.0.1.134,427,move_down,-0.160,-0.160,-0.160,0.000,0.000,0.000
1605206872874365184,10.0.1.134,480,move_down,-0.180,-0.180,-0.180,0.000,0.000,0.000
1605206874502177024,10.0.1.134,544,move_down,-0.200,-0.200,-0.200,0.000,0.000,0.000
1605206875984455168,10.0.1.134,422,move_down,-0.220,-0.220,-0.220,0.000,0.000,0.000
1605206877515037184,10.0.1.134,435,move_down,-0.240,-0.240,-0.240,0.000,0.000,0.000
1605206879093911808,10.0.1.134,463,move_down,-0.260,-0.260,-0.260,0.000,0.000,0.000
1605206880625678080,10.0.1.134,463,move_down,-0.280,-0.280,-0.280,0.000,0.000,0.000
1605206882196624128,10.0.1.134,485,move_down,-0.300,-0.300,-0.300,0.000,0.000,0.000
1605206883727816192,10.0.1.134,490,move_down,-0.320,-0.320,-0.320,0.000,0.000,0.000
1605206885241345024,10.0.1.134,461,move_down,-0.340,-0.340,-0.340,0.000,0.000,0.000
1605206886780401920,10.0.1.134,436,move_down,-0.360,-0.360,-0.360,0.000,0.000,0.000
1605206888331592192,10.0.1.134,496,move_down,-0.380,-0.380,-0.380,0.000,0.000,0.000
1605206890020442112,10.0.1.134,587,move_down,-0.400,-0.400,-0.400,0.000,0.000,0.000
1605206891617521920,10.0.1.134,482,move_down,-0.420,-0.420,-0.420,0.000,0.000,0.000
1605206893247257088,10.0.1.134,562,move_down,-0.440,-0.440,-0.440,0.000,0.000,0.000
1605206895011188992,10.0.1.134,504,move_down,-0.460,-0.460,-0.460,0.000,0.000,0.000
1605206896669455104,10.0.1.134,539,move_down,-0.480,-0.480,-0.480,0.000,0.000,0.000
1605206898271472896,10.0.1.134,536,move_down,-0.500,-0.500,-0.500,0.000,0.000,0.000
1605206899907795968,10.0.1.134,567,move_down,-0.520,-0.520,-0.520,0.000,0.000,0.000
1605206901467031040,10.0.1.134,529,move_down,-0.540,-0.540,-0.540,0.000,0.000,0.000
1605206902996376064,10.0.1.134,473,move_down,-0.560,-0.560,-0.560,0.000,0.000,0.000
1605206904536173056,10.0.1.134,487,move_down,-0.580,-0.580,-0.580,0.000,0.000,0.000
1605206905703432960,10.0.1.134,70,pick,-0.590,-0.590,-0.590,0.000,0.000,0.000
1605206906677164032,10.0.1.134,41,pick,-0.600,-0.600,-0.600,0.000,0.000,0.000
1605206907699614976,10.0.1.134,62,pick,-0.610,-0.610,-0.610,0.000,0.000,0.000
1605206908692326912,10.0.1.134,54,pick,-0.620,-0.620,-0.620,0.000,0.000,0.000
1605206909687810048,10.0.1.134,47,pick,-0.630,-0.630,-0.630,0.000,0.000,0.000
1605206911645797120,10.0.1.134,NaN,pick,-0.650,-0.650,-0.650,0.000,0.000,0.000
1605206911690089984,10.0.1.134,44,pick,-0.650,-0.650,-0.650,0.000,0.000,0.000
1605206912712024832,10.0.1.134,64,pick,-0.660,-0.660,-0.660,0.000,0.000,0.000
1605206913726033920,10.0.1.134,74,pick,-0.670,-0.670,-0.670,0.000,0.000,0.000
1605206914720999936,10.0.1.134,69,pick,-0.680,-0.680,-0.680,0.000,0.000,0.000
1605206916656780032,10.0.1.134,NaN,pick,-0.700,-0.700,-0.700,0.000,0.000,0.000
1605206916696006912,10.0.1.134,39,pick,-0.700,-0.700,-0.700,0.000,0.000,0.000
1605206918660666880,10.0.1.134,NaN,pick,-0.720,-0.720,-0.720,0.000,0.000,0.000
1605206918720928000,10.0.1.134,60,pick,-0.720,-0.720,-0.720,0.000,0.000,0.000
1605206919709465856,10.0.1.134,45,pick,-0.730,-0.730,-0.730,0.000,0.000,0.000
1605206920723339008,10.0.1.134,58,pick,-0.740,-0.740,-0.740,0.000,0.000,0.000
1605206921711465984,10.0.1.134,45,pick,-0.750,-0.750,-0.750,0.000,0.000,0.000
1605206922721780992,10.0.1.134,54,pick,-0.760,-0.760,-0.760,0.000,0.000,0.000
1605206923727032832,10.0.1.134,58,pick,-0.770,-0.770,-0.770,0.000,0.000,0.000
1605206925164773888,10.0.1.134,494,move_up,-0.750,-0.750,-0.750,0.000,0.000,0.000
1605206926723855104,10.0.1.134,492,move_up,-0.730,-0.730,-0.730,0.000,0.000,0.000
1605206928334801920,10.0.1.134,484,move_up,-0.710,-0.710,-0.710,0.000,0.000,0.000
1605206929920802048,10.0.1.134,478,move_up,-0.690,-0.690,-0.690,0.000,0.000,0.000
1605206931444946944,10.0.1.134,454,move_up,-0.670,-0.670,-0.670,0.000,0.000,0.000
1605206932989608960,10.0.1.134,466,move_up,-0.650,-0.650,-0.650,0.000,0.000,0.000
1605206934427696896,10.0.1.134,427,move_up,-0.630,-0.630,-0.630,0.000,0.000,0.000
1605206936102839040,10.0.1.134,546,move_up,-0.610,-0.610,-0.610,0.000,0.000,0.000
1605206937618793984,10.0.1.134,443,move_up,-0.590,-0.590,-0.590,0.000,0.000,0.000
1605206939120624896,10.0.1.134,461,move_up,-0.570,-0.570,-0.570,0.000,0.000,0.000
1605206940666929920,10.0.1.134,514,move_up,-0.550,-0.550,-0.550,0.000,0.000,0.000
1605206942243174912,10.0.1.134,477,move_up,-0.530,-0.530,-0.530,0.000,0.000,0.000
1605206943777347072,10.0.1.134,460,move_up,-0.510,-0.510,-0.510,0.000,0.000,0.000
1605206945319101952,10.0.1.134,435,move_up,-0.490,-0.490,-0.490,0.000,0.000,0.000
1605206946935163904,10.0.1.134,491,move_up,-0.470,-0.470,-0.470,0.000,0.000,0.000
1605206948515597056,10.0.1.134,512,move_up,-0.450,-0.450,-0.450,0.000,0.000,0.000
1605206950139738112,10.0.1.134,515,move_up,-0.430,-0.430,-0.430,0.000,0.000,0.000
1605206951765991936,10.0.1.134,511,move_up,-0.410,-0.410,-0.410,0.000,0.000,0.000
1605206953426856960,10.0.1.134,568,move_up,-0.390,-0.390,-0.390,0.000,0.000,0.000
1605206955037617920,10.0.1.134,506,move_up,-0.370,-0.370,-0.370,0.000,0.000,0.000
1605206956587846144,10.0.1.134,467,move_up,-0.350,-0.350,-0.350,0.000,0.000,0.000
1605206958196531968,10.0.1.134,523,move_up,-0.330,-0.330,-0.330,0.000,0.000,0.000
1605206959746294016,10.0.1.134,486,move_up,-0.310,-0.310,-0.310,0.000,0.000,0.000
1605206961363384064,10.0.1.134,532,move_up,-0.290,-0.290,-0.290,0.000,0.000,0.000
1605206962992299008,10.0.1.134,534,move_up,-0.270,-0.270,-0.270,0.000,0.000,0.000
1605206964755665152,10.0.1.134,688,move_up,-0.250,-0.250,-0.250,0.000,0.000,0.000
1605206966380176896,10.0.1.134,473,move_up,-0.230,-0.230,-0.230,0.000,0.000,0.000
1605206968066601984,10.0.1.134,503,move_up,-0.210,-0.210,-0.210,0.000,0.000,0.000
1605206969677234944,10.0.1.134,538,move_up,-0.190,-0.190,-0.190,0.000,0.000,0.000
1605206971729406208,10.0.1.134,NaN,place,-0.170,-0.170,-0.170,0.000,0.000,0.000
1605206971771002880,10.0.1.134,41,place,-0.170,-0.170,-0.170,0.000,0.000,0.000
1605206972779740928,10.0.1.134,48,place,-0.160,-0.160,-0.160,0.000,0.000,0.000
1605206973798521088,10.0.1.134,66,place,-0.150,-0.150,-0.150,0.000,0.000,0.000
1605206974775737088,10.0.1.134,42,place,-0.140,-0.140,-0.140,0.000,0.000,0.000
1605206975797895936,10.0.1.134,64,place,-0.130,-0.130,-0.130,0.000,0.000,0.000
1605206977743454976,10.0.1.134,NaN,place,-0.110,-0.110,-0.110,0.000,0.000,0.000
1605206977809556992,10.0.1.134,66,place,-0.110,-0.110,-0.110,0.000,0.000,0.000
1605206978802115072,10.0.1.134,55,place,-0.100,-0.100,-0.100,0.000,0.000,0.000
1605206979791590912,10.0.1.134,44,place,-0.090,-0.090,-0.090,0.000,0.000,0.000
1605206980810158080,10.0.1.134,57,place,-0.080,-0.080,-0.080,0.000,0.000,0.000
1605206982755550976,10.0.1.134,NaN,place,-0.060,-0.060,-0.060,0.000,0.000,0.000
1605206982805376000,10.0.1.134,49,place,-0.060,-0.060,-0.060,0.000,0.000,0.000
1605206983823558144,10.0.1.134,66,place,-0.050,-0.050,-0.050,0.000,0.000,0.000
1605206984806184960,10.0.1.134,47,place,-0.040,-0.040,-0.040,0.000,0.000,0.000
1605206985819122176,10.0.1.134,53,place,-0.030,-0.030,-0.030,0.000,0.000,0.000
1605206987768760064,10.0.1.134,NaN,place,-0.010,-0.010,-0.010,0.000,0.000,0.000
1605206987824718848,10.0.1.134,55,place,-0.010,-0.010,-0.010,0.000,0.000,0.000
1605206988819300864,10.0.1.134,50,place,0.000,0.000,0.000,0.000,0.000,0.000
1605206990246103040,10.0.1.134,472,move_down,-0.020,-0.020,-0.020,0.000,0.000,0.000
1605206991854528000,10.0.1.134,541,move_down,-0.040,-0.040,-0.040,0.000,0.000,0.000
1605206993409010944,10.0.1.134,450,move_down,-0.060,-0.060,-0.060,0.000,0.000,0.000
1605206995011890944,10.0.1.134,474,move_down,-0.080,-0.080,-0.080,0.000,0.000,0.000
1605206996609103872,10.0.1.134,511,move_down,-0.100,-0.100,-0.100,0.000,0.000,0.000
1605206998116652032,10.0.1.134,455,move_down,-0.120,-0.120,-0.120,0.000,0.000,0.000
1605206999736344064,10.0.1.134,580,move_down,-0.140,-0.140,-0.140,0.000,0.000,0.000
1605207001336653824,10.0.1.134,529,move_down,-0.160,-0.160,-0.160,0.000,0.000,0.000
1605207002915899904,10.0.1.134,476,move_down,-0.180,-0.180,-0.180,0.000,0.000,0.000
1605207004523774976,10.0.1.134,499,move_down,-0.200,-0.200,-0.200,0.000,0.000,0.000
1605207006128165888,10.0.1.134,561,move_down,-0.220,-0.220,-0.220,0.000,0.000,0.000
1605207007587028992,10.0.1.134,398,move_down,-0.240,-0.240,-0.240,0.000,0.000,0.000
1605207009181874944,10.0.1.134,478,move_down,-0.260,-0.260,-0.260,0.000,0.000,0.000
1605207010651774976,10.0.1.134,416,move_down,-0.280,-0.280,-0.280,0.000,0.000,0.000
1605207012248893952,10.0.1.134,499,move_down,-0.300,-0.300,-0.300,0.000,0.000,0.000
1605207013782412032,10.0.1.134,427,move_down,-0.320,-0.320,-0.320,0.000,0.000,0.000
1605207015360805120,10.0.1.134,465,move_down,-0.340,-0.340,-0.340,0.000,0.000,0.000
1605207016922144000,10.0.1.134,477,move_down,-0.360,-0.360,-0.360,0.000,0.000,0.000
1605207018470413824,10.0.1.134,527,move_down,-0.380,-0.380,-0.380,0.000,0.000,0.000
1605207020081437952,10.0.1.134,529,move_down,-0.400,-0.400,-0.400,0.000,0.000,0.000
1605207021687580160,10.0.1.134,531,move_down,-0.420,-0.420,-0.420,0.000,0.000,0.000
1605207023216954880,10.0.1.134,478,move_down,-0.440,-0.440,-0.440,0.000,0.000,0.000
1605207024819485952,10.0.1.134,526,move_down,-0.460,-0.460,-0.460,0.000,0.000,0.000
1605207026444264960,10.0.1.134,545,move_down,-0.480,-0.480,-0.480,0.000,0.000,0.000
1605207027955435008,10.0.1.134,464,move_down,-0.500,-0.500,-0.500,0.000,0.000,0.000
1605207029537655040,10.0.1.134,509,move_down,-0.520,-0.520,-0.520,0.000,0.000,0.000
1605207031190422016,10.0.1.134,546,move_down,-0.540,-0.540,-0.540,0.000,0.000,0.000
1605207032838823936,10.0.1.134,571,move_down,-0.560,-0.560,-0.560,0.000,0.000,0.000
1605207034388345088,10.0.1.134,513,move_down,-0.580,-0.580,-0.580,0.000,0.000,0.000
1605207035499230976,10.0.1.134,62,pick,-0.590,-0.590,-0.590,0.000,0.000,0.000
1605207036473566976,10.0.1.134,35,pick,-0.600,-0.600,-0.600,0.000,0.000,0.000
1605207037477099776,10.0.1.134,37,pick,-0.610,-0.610,-0.610,0.000,0.000,0.000
1605207038499056128,10.0.1.134,57,pick,-0.620,-0.620,-0.620,0.000,0.000,0.000
1605207039491260928,10.0.1.134,45,pick,-0.630,-0.630,-0.630,0.000,0.000,0.000
1605207040493742080,10.0.1.134,46,pick,-0.640,-0.640,-0.640,0.000,0.000,0.000
1605207041501932032,10.0.1.134,54,pick,-0.650,-0.650,-0.650,0.000,0.000,0.000
1605207042522209792,10.0.1.134,70,pick,-0.660,-0.660,-0.660,0.000,0.000,0.000
1605207043526343936,10.0.1.134,62,pick,-0.670,-0.670,-0.670,0.000,0.000,0.000
1605207044512523008,10.0.1.134,48,pick,-0.680,-0.680,-0.680,0.000,0.000,0.000
1605207045513232896,10.0.1.134,48,pick,-0.690,-0.690,-0.690,0.000,0.000,0.000
1605207047467539968,10.0.1.134,NaN,pick,-0.710,-0.710,-0.710,0.000,0.000,0.000
1605207047519802112,10.0.1.134,52,pick,-0.710,-0.710,-0.710,0.000,0.000,0.000
1605207049471555072,10.0.1.134,NaN,pick,-0.730,-0.730,-0.730,0.000,0.000,0.000
1605207049513037824,10.0.1.134,41,pick,-0.730,-0.730,-0.730,0.000,0.000,0.000
1605207050524787968,10.0.1.134,51,pick,-0.740,-0.740,-0.740,0.000,0.000,0.000
1605207051542642944,10.0.1.134,55,pick,-0.750,-0.750,-0.750,0.000,0.000,0.000
1605207052541996032,10.0.1.134,51,pick,-0.760,-0.760,-0.760,0.000,0.000,0.000
1605207053553986048,10.0.1.134,59,pick,-0.770,-0.770,-0.770,0.000,0.000,0.000
1605207055099472128,10.0.1.134,604,move_up,-0.750,-0.750,-0.750,0.000,0.000,0.000
1605207056823864064,10.0.1.134,640,move_up,-0.730,-0.730,-0.730,0.000,0.000,0.000
1605207058447918848,10.0.1.134,506,move_up,-0.710,-0.710,-0.710,0.000,0.000,0.000
1605207059971863040,10.0.1.134,439,move_up,-0.690,-0.690,-0.690,0.000,0.000,0.000
1605207061567044864,10.0.1.134,496,move_up,-0.670,-0.670,-0.670,0.000,0.000,0.000
1605207063136749056,10.0.1.134,488,move_up,-0.650,-0.650,-0.650,0.000,0.000,0.000
1605207064738672128,10.0.1.134,500,move_up,-0.630,-0.630,-0.630,0.000,0.000,0.000
1605207066319763968,10.0.1.134,580,move_up,-0.610,-0.610,-0.610,0.000,0.000,0.000
1605207067914210048,10.0.1.134,508,move_up,-0.590,-0.590,-0.590,0.000,0.000,0.000
1605207069526725120,10.0.1.134,494,move_up,-0.570,-0.570,-0.570,0.000,0.000,0.000
1605207071098718976,10.0.1.134,508,move_up,-0.550,-0.550,-0.550,0.000,0.000,0.000
1605207072657291008,10.0.1.134,455,move_up,-0.530,-0.530,-0.530,0.000,0.000,0.000
1605207074182993920,10.0.1.134,451,move_up,-0.510,-0.510,-0.510,0.000,0.000,0.000
1605207075745320192,10.0.1.134,532,move_up,-0.490,-0.490,-0.490,0.000,0.000,0.000
1605207077270279936,10.0.1.134,478,move_up,-0.470,-0.470,-0.470,0.000,0.000,0.000
1605207078803900928,10.0.1.134,511,move_up,-0.450,-0.450,-0.450,0.000,0.000,0.000
1605207080556723200,10.0.1.134,582,move_up,-0.430,-0.430,-0.430,0.000,0.000,0.000
1605207082085107968,10.0.1.134,474,move_up,-0.410,-0.410,-0.410,0.000,0.000,0.000
1605207083630553088,10.0.1.134,470,move_up,-0.390,-0.390,-0.390,0.000,0.000,0.000
1605207085172677120,10.0.1.134,470,move_up,-0.370,-0.370,-0.370,0.000,0.000,0.000
1605207086756897024,10.0.1.134,490,move_up,-0.350,-0.350,-0.350,0.000,0.000,0.000
1605207088322701824,10.0.1.134,449,move_up,-0.330,-0.330,-0.330,0.000,0.000,0.000
1605207089972170240,10.0.1.134,573,move_up,-0.310,-0.310,-0.310,0.000,0.000,0.000
1605207091528382976,10.0.1.134,488,move_up,-0.290,-0.290,-0.290,0.000,0.000,0.000
1605207093076548096,10.0.1.134,547,move_up,-0.270,-0.270,-0.270,0.000,0.000,0.000
1605207094714703104,10.0.1.134,540,move_up,-0.250,-0.250,-0.250,0.000,0.000,0.000
1605207096239265792,10.0.1.134,518,move_up,-0.230,-0.230,-0.230,0.000,0.000,0.000
1605207097783694080,10.0.1.134,466,move_up,-0.210,-0.210,-0.210,0.000,0.000,0.000
1605207099419261952,10.0.1.134,571,move_up,-0.190,-0.190,-0.190,0.000,0.000,0.000
1605207100581664000,10.0.1.134,39,place,-0.180,-0.180,-0.180,0.000,0.000,0.000
1605207101579372032,10.0.1.134,34,place,-0.170,-0.170,-0.170,0.000,0.000,0.000
1605207102601521920,10.0.1.134,55,place,-0.160,-0.160,-0.160,0.000,0.000,0.000
1605207103584201216,10.0.1.134,37,place,-0.150,-0.150,-0.150,0.000,0.000,0.000
1605207104600132096,10.0.1.134,49,place,-0.140,-0.140,-0.140,0.000,0.000,0.000
1605207105611798016,10.0.1.134,60,place,-0.130,-0.130,-0.130,0.000,0.000,0.000
1605207106605668096,10.0.1.134,50,place,-0.120,-0.120,-0.120,0.000,0.000,0.000
1605207107594789888,10.0.1.134,39,place,-0.110,-0.110,-0.110,0.000,0.000,0.000
1605207108594876928,10.0.1.134,36,place,-0.100,-0.100,-0.100,0.000,0.000,0.000
1605207109599483136,10.0.1.134,40,place,-0.090,-0.090,-0.090,0.000,0.000,0.000
1605207110603697920,10.0.1.134,44,place,-0.080,-0.080,-0.080,0.000,0.000,0.000
1605207111606290944,10.0.1.134,45,place,-0.070,-0.070,-0.070,0.000,0.000,0.000
1605207112620378112,10.0.1.134,44,place,-0.060,-0.060,-0.060,0.000,0.000,0.000
1605207114587148800,10.0.1.134,NaN,place,-0.040,-0.040,-0.040,0.000,0.000,0.000
1605207115587596032,10.0.1.134,NaN,place,-0.030,-0.030,-0.030,0.000,0.000,0.000
1605207115633865216,10.0.1.134,46,place,-0.030,-0.030,-0.030,0.000,0.000,0.000
1605207117615778048,10.0.1.134,NaN,place,-0.010,-0.010,-0.010,0.000,0.000,0.000
1605207117661691904,10.0.1.134,45,place,-0.010,-0.010,-0.010,0.000,0.000,0.000
1605207118685353984,10.0.1.134,67,place,0.000,0.000,0.000,0.000,0.000,0.000
1605207120103218944,10.0.1.134,482,move_down,-0.020,-0.020,-0.020,0.000,0.000,0.000
1605207121723627008,10.0.1.134,495,move_down,-0.040,-0.040,-0.040,0.000,0.000,0.000
1605207123415889920,10.0.1.134,515,move_down,-0.060,-0.060,-0.060,0.000,0.000,0.000
1605207125089104896,10.0.1.134,520,move_down,-0.080,-0.080,-0.080,0.000,0.000,0.000
1605207126720057856,10.0.1.134,511,move_down,-0.100,-0.100,-0.100,0.000,0.000,0.000
1605207128324785920,10.0.1.134,519,move_down,-0.120,-0.120,-0.120,0.000,0.000,0.000
1605207129924065024,10.0.1.134,509,move_down,-0.140,-0.140,-0.140,0.000,0.000,0.000
1605207131494718976,10.0.1.134,493,move_down,-0.160,-0.160,-0.160,0.000,0.000,0.000
1605207133094949888,10.0.1.134,521,move_down,-0.180,-0.180,-0.180,0.000,0.000,0.000
1605207134756110848,10.0.1.134,537,move_down,-0.200,-0.200,-0.200,0.000,0.000,0.000
1605207136276163072,10.0.1.134,489,move_down,-0.220,-0.220,-0.220,0.000,0.000,0.000
1605207137799848192,10.0.1.134,466,move_down,-0.240,-0.240,-0.240,0.000,0.000,0.000
1605207139505958912,10.0.1.134,540,move_down,-0.260,-0.260,-0.260,0.000,0.000,0.000
1605207141025767168,10.0.1.134,450,move_down,-0.280,-0.280,-0.280,0.000,0.000,0.000
1605207142667309056,10.0.1.134,505,move_down,-0.300,-0.300,-0.300,0.000,0.000,0.000
1605207144235401984,10.0.1.134,495,move_down,-0.320,-0.320,-0.320,0.000,0.000,0.000
1605207145774379008,10.0.1.134,500,move_down,-0.340,-0.340,-0.340,0.000,0.000,0.000
1605207147449688064,10.0.1.134,579,move_down,-0.360,-0.360,-0.360,0.000,0.000,0.000
1605207149061844224,10.0.1.134,531,move_down,-0.380,-0.380,-0.380,0.000,0.000,0.000
1605207150560807936,10.0.1.134,444,move_down,-0.400,-0.400,-0.400,0.000,0.000,0.000
1605207152185625088,10.0.1.134,530,move_down,-0.420,-0.420,-0.420,0.000,0.000,0.000
1605207153817444096,10.0.1.134,519,move_down,-0.440,-0.440,-0.440,0.000,0.000,0.000
1605207155391864064,10.0.1.134,508,move_down,-0.460,-0.460,-0.460,0.000,0.000,0.000
1605207156974088960,10.0.1.134,490,move_down,-0.480,-0.480,-0.480,0.000,0.000,0.000
1605207158589587968,10.0.1.134,472,move_down,-0.500,-0.500,-0.500,0.000,0.000,0.000
1605207160276305920,10.0.1.134,518,move_down,-0.520,-0.520,-0.520,0.000,0.000,0.000
1605207162039828992,10.0.1.134,669,move_down,-0.540,-0.540,-0.540,0.000,0.000,0.000
1605207163603791872,10.0.1.134,484,move_down,-0.560,-0.560,-0.560,0.000,0.000,0.000
1605207165261298944,10.0.1.134,536,move_down,-0.580,-0.580,-0.580,0.000,0.000,0.000
1605207166337545984,10.0.1.134,32,pick,-0.590,-0.590,-0.590,0.000,0.000,0.000
1605207167369769984,10.0.1.134,63,pick,-0.600,-0.600,-0.600,0.000,0.000,0.000
1605207168359983872,10.0.1.134,51,pick,-0.610,-0.610,-0.610,0.000,0.000,0.000
1605207169369268992,10.0.1.134,59,pick,-0.620,-0.620,-0.620,0.000,0.000,0.000
1605207171311537152,10.0.1.134,NaN,pick,-0.640,-0.640,-0.640,0.000,0.000,0.000
1605207171359813888,10.0.1.134,48,pick,-0.640,-0.640,-0.640,0.000,0.000,0.000
1605207172367520000,10.0.1.134,49,pick,-0.650,-0.650,-0.650,0.000,0.000,0.000
1605207173370177024,10.0.1.134,47,pick,-0.660,-0.660,-0.660,0.000,0.000,0.000
1605207174366221824,10.0.1.134,42,pick,-0.670,-0.670,-0.670,0.000,0.000,0.000
1605207175381822976,10.0.1.134,56,pick,-0.680,-0.680,-0.680,0.000,0.000,0.000
1605207176379971072,10.0.1.134,53,pick,-0.690,-0.690,-0.690,0.000,0.000,0.000
1605207177421908992,10.0.1.134,88,pick,-0.700,-0.700,-0.700,0.000,0.000,0.000
1605207178389548032,10.0.1.134,54,pick,-0.710,-0.710,-0.710,0.000,0.000,0.000
1605207179429250048,10.0.1.134,93,pick,-0.720,-0.720,-0.720,0.000,0.000,0.000
1605207180393543936,10.0.1.134,52,pick,-0.730,-0.730,-0.730,0.000,0.000,0.000
1605207181384557056,10.0.1.134,42,pick,-0.740,-0.740,-0.740,0.000,0.000,0.000
1605207182391346944,10.0.1.134,42,pick,-0.750,-0.750,-0.750,0.000,0.000,0.000
1605207183390803968,10.0.1.134,41,pick,-0.760,-0.760,-0.760,0.000,0.000,0.000
1605207184396201984,10.0.1.134,46,pick,-0.770,-0.770,-0.770,0.000,0.000,0.000
1605207185822747904,10.0.1.134,471,move_up,-0.750,-0.750,-0.750,0.000,0.000,0.000
1605207187490227968,10.0.1.134,584,move_up,-0.730,-0.730,-0.730,0.000,0.000,0.000
1605207189248347136,10.0.1.134,586,move_up,-0.710,-0.710,-0.710,0.000,0.000,0.000
1605207190754134784,10.0.1.134,417,move_up,-0.690,-0.690,-0.690,0.000,0.000,0.000
1605207192254863872,10.0.1.134,415,move_up,-0.670,-0.670,-0.670,0.000,0.000,0.000
1605207193918240000,10.0.1.134,554,move_up,-0.650,-0.650,-0.650,0.000,0.000,0.000
1605207195618024960,10.0.1.134,623,move_up,-0.630,-0.630,-0.630,0.000,0.000,0.000
1605207197229107968,10.0.1.134,571,move_up,-0.610,-0.610,-0.610,0.000,0.000,0.000
1605207198799737856,10.0.1.134,428,move_up,-0.590,-0.590,-0.590,0.000,0.000,0.000
1605207200485780992,10.0.1.134,553,move_up,-0.570,-0.570,-0.570,0.000,0.000,0.000
1605207202180862976,10.0.1.134,545,move_up,-0.550,-0.550,-0.550,0.000,0.000,0.000
1605207203793068032,10.0.1.134,416,move_up,-0.530,-0.530,-0.530,0.000,0.000,0.000
1605207205289319936,10.0.1.134,452,move_up,-0.510,-0.510,-0.510,0.000,0.000,0.000
1605207206807149056,10.0.1.134,487,move_up,-0.490,-0.490,-0.490,0.000,0.000,0.000
1605207208474092032,10.0.1.134,524,move_up,-0.470,-0.470,-0.470,0.000,0.000,0.000
1605207210072851968,10.0.1.134,535,move_up,-0.450,-0.450,-0.450,0.000,0.000,0.000
1605207211721442048,10.0.1.134,520,move_up,-0.430,-0.430,-0.430,0.000,0.000,0.000
1605207213291860224,10.0.1.134,439,move_up,-0.410,-0.410,-0.410,0.000,0.000,0.000
1605207214886929152,10.0.1.134,511,move_up,-0.390,-0.390,-0.390,0.000,0.000,0.000
1605207216382080000,10.0.1.134,442,move_up,-0.370,-0.370,-0.370,0.000,0.000,0.000
1605207218020461056,10.0.1.134,554,move_up,-0.350,-0.350,-0.350,0.000,0.000,0.000
1605207219671891968,10.0.1.134,533,move_up,-0.330,-0.330,-0.330,0.000,0.000,0.000
1605207221239761152,10.0.1.134,476,move_up,-0.310,-0.310,-0.310,0.000,0.000,0.000
1605207222830721024,10.0.1.134,530,move_up,-0.290,-0.290,-0.290,0.000,0.000,0.000
1605207224432736000,10.0.1.134,501,move_up,-0.270,-0.270,-0.270,0.000,0.000,0.000
1605207225996378880,10.0.1.134,488,move_up,-0.250,-0.250,-0.250,0.000,0.000,0.000
1605207227595612928,10.0.1.134,530,move_up,-0.230,-0.230,-0.230,0.000,0.000,0.000
1605207229225961984,10.0.1.134,479,move_up,-0.210,-0.210,-0.210,0.000,0.000,0.000
1605207230807197184,10.0.1.134,547,move_up,-0.190,-0.190,-0.190,0.000,0.000,0.000
1605207231972635136,10.0.1.134,66,place,-0.180,-0.180,-0.180,0.000,0.000,0.000
1605207232950146048,10.0.1.134,38,place,-0.170,-0.170,-0.170,0.000,0.000,0.000
1605207233947931136,10.0.1.134,36,place,-0.160,-0.160,-0.160,0.000,0.000,0.000
1605207235922366976,10.0.1.134,NaN,place,-0.140,-0.140,-0.140,0.000,0.000,0.000
1605207235970087168,10.0.1.134,47,place,-0.140,-0.140,-0.140,0.000,0.000,0.000
1605207236974065152,10.0.1.134,49,place,-0.130,-0.130,-0.130,0.000,0.000,0.000
1605207237960231168,10.0.1.134,34,place,-0.120,-0.120,-0.120,0.000,0.000,0.000
1605207238965925888,10.0.1.134,39,place,-0.110,-0.110,-0.110,0.000,0.000,0.000
1605207239982691072,10.0.1.134,54,place,-0.100,-0.100,-0.100,0.000,0.000,0.000
1605207240979281920,10.0.1.134,49,place,-0.090,-0.090,-0.090,0.000,0.000,0.000
1605207242934434816,10.0.1.134,NaN,place,-0.070,-0.070,-0.070,0.000,0.000,0.000
1605207243935548928,10.0.1.134,NaN,place,-0.060,-0.060,-0.060,0.000,0.000,0.000
1605207243975755008,10.0.1.134,40,place,-0.060,-0.060,-0.060,0.000,0.000,0.000
1605207245010170880,10.0.1.134,72,place,-0.050,-0.050,-0.050,0.000,0.000,0.000
1605207246011859968,10.0.1.134,71,place,-0.040,-0.040,-0.040,0.000,0.000,0.000
1605207246994968832,10.0.1.134,50,place,-0.030,-0.030,-0.030,0.000,0.000,0.000
1605207247990452992,10.0.1.134,47,place,-0.020,-0.020,-0.020,0.000,0.000,0.000
1605207248983376128,10.0.1.134,39,place,-0.010,-0.010,-0.010,0.000,0.000,0.000
1605207250002332928,10.0.1.134,56,place,0.000,0.000,0.000,0.000,0.000,0.000
1605207251466675968,10.0.1.134,519,move_down,-0.020,-0.020,-0.020,0.000,0.000,0.000
1605207253163095040,10.0.1.134,520,move_down,-0.040,-0.040,-0.040,0.000,0.000,0.000
1605207254735024896,10.0.1.134,456,move_down,-0.060,-0.060,-0.060,0.000,0.000,0.000
1605207256376041984,10.0.1.134,522,move_down,-0.080,-0.080,-0.080,0.000,0.000,0.000
1605207258010400000,10.0.1.134,548,move_down,-0.100,-0.100,-0.100,0.000,0.000,0.000
1605207259764271872,10.0.1.134,649,move_down,-0.120,-0.120,-0.120,0.000,0.000,0.000
1605207261399106048,10.0.1.134,535,move_down,-0.140,-0.140,-0.140,0.000,0.000,0.000
1605207263092766976,10.0.1.134,575,move_down,-0.160,-0.160,-0.160,0.000,0.000,0.000
1605207264659468032,10.0.1.134,465,move_down,-0.180,-0.180,-0.180,0.000,0.000,0.000
1605207266286614016,10.0.1.134,540,move_down,-0.200,-0.200,-0.200,0.000,0.000,0.000
1605207267981699840,10.0.1.134,534,move_down,-0.220,-0.220,-0.220,0.000,0.000,0.000
1605207269636323072,10.0.1.134,439,move_down,-0.240,-0.240,-0.240,0.000,0.000,0.000
1605207271194159872,10.0.1.134,449,move_down,-0.260,-0.260,-0.260,0.000,0.000,0.000
1605207272695096064,10.0.1.134,435,move_down,-0.280,-0.280,-0.280,0.000,0.000,0.000
1605207274195123968,10.0.1.134,429,move_down,-0.300,-0.300,-0.300,0.000,0.000,0.000
1605207275758018048,10.0.1.134,480,move_down,-0.320,-0.320,-0.320,0.000,0.000,0.000
1605207277323905024,10.0.1.134,468,move_down,-0.340,-0.340,-0.340,0.000,0.000,0.000
1605207279026052096,10.0.1.134,600,move_down,-0.360,-0.360,-0.360,0.000,0.000,0.000
1605207280690432000,10.0.1.134,568,move_down,-0.380,-0.380,-0.380,0.000,0.000,0.000
1605207282266156032,10.0.1.134,496,move_down,-0.400,-0.400,-0.400,0.000,0.000,0.000
1605207283911195904,10.0.1.134,528,move_down,-0.420,-0.420,-0.420,0.000,0.000,0.000
1605207285513932032,10.0.1.134,499,move_down,-0.440,-0.440,-0.440,0.000,0.000,0.000
1605207287084232192,10.0.1.134,468,move_down,-0.460,-0.460,-0.460,0.000,0.000,0.000
1605207288615478016,10.0.1.134,447,move_down,-0.480,-0.480,-0.480,0.000,0.000,0.000
1605207290112925952,10.0.1.134,412,move_down,-0.500,-0.500,-0.500,0.000,0.000,0.000
1605207291612047872,10.0.1.134,416,move_down,-0.520,-0.520,-0.520,0.000,0.000,0.000
1605207293269315072,10.0.1.134,539,move_down,-0.540,-0.540,-0.540,0.000,0.000,0.000
1605207294884609024,10.0.1.134,539,move_down,-0.560,-0.560,-0.560,0.000,0.000,0.000
1605207296367602944,10.0.1.134,431,move_down,-0.580,-0.580,-0.580,0.000,0.000,0.000
1605207297488604160,10.0.1.134,37,pick,-0.590,-0.590,-0.590,0.000,0.000,0.000
1605207298502883840,10.0.1.134,50,pick,-0.600,-0.600,-0.600,0.000,0.000,0.000
1605207299512698880,10.0.1.134,47,pick,-0.610,-0.610,-0.610,0.000,0.000,0.000
1605207301472673792,10.0.1.134,NaN,pick,-0.630,-0.630,-0.630,0.000,0.000,0.000
1605207302487545088,10.0.1.134,NaN,pick,-0.640,-0.640,-0.640,0.000,0.000,0.000
1605207302549742848,10.0.1.134,62,pick,-0.640,-0.640,-0.640,0.000,0.000,0.000
1605207303526330112,10.0.1.134,34,pick,-0.650,-0.650,-0.650,0.000,0.000,0.000
1605207304536566016,10.0.1.134,42,pick,-0.660,-0.660,-0.660,0.000,0.000,0.000
1605207305542054912,10.0.1.134,44,pick,-0.670,-0.670,-0.670,0.000,0.000,0.000
1605207306550617088,10.0.1.134,51,pick,-0.680,-0.680,-0.680,0.000,0.000,0.000
1605207307547079168,10.0.1.134,47,pick,-0.690,-0.690,-0.690,0.000,0.000,0.000
1605207308541713920,10.0.1.134,40,pick,-0.700,-0.700,-0.700,0.000,0.000,0.000
1605207309581594112,10.0.1.134,79,pick,-0.710,-0.710,-0.710,0.000,0.000,0.000
1605207310554908928,10.0.1.134,46,pick,-0.720,-0.720,-0.720,0.000,0.000,0.000
1605207311569978880,10.0.1.134,59,pick,-0.730,-0.730,-0.730,0.000,0.000,0.000
1605207312571346944,10.0.1.134,49,pick,-0.740,-0.740,-0.740,0.000,0.000,0.000
1605207313579734016,10.0.1.134,57,pick,-0.750,-0.750,-0.750,0.000,0.000,0.000
1605207314575678208,10.0.1.134,52,pick,-0.760,-0.760,-0.760,0.000,0.000,0.000
1605207315587196160,10.0.1.134,61,pick,-0.770,-0.770,-0.770,0.000,0.000,0.000
1605207317009886976,10.0.1.134,479,move_up,-0.750,-0.750,-0.750,0.000,0.000,0.000
1605207318534786816,10.0.1.134,454,move_up,-0.730,-0.730,-0.730,0.000,0.000,0.000
1605207320172174848,10.0.1.134,562,move_up,-0.710,-0.710,-0.710,0.000,0.000,0.000
1605207321779881984,10.0.1.134,504,move_up,-0.690,-0.690,-0.690,0.000,0.000,0.000
1605207323428091904,10.0.1.134,545,move_up,-0.670,-0.670,-0.670,0.000,0.000,0.000
1605207324983732992,10.0.1.134,493,move_up,-0.650,-0.650,-0.650,0.000,0.000,0.000
1605207326603569920,10.0.1.134,469,move_up,-0.630,-0.630,-0.630,0.000,0.000,0.000
1605207328162912000,10.0.1.134,468,move_up,-0.610,-0.610,-0.610,0.000,0.000,0.000
1605207329709800960,10.0.1.134,546,move_up,-0.590,-0.590,-0.590,0.000,0.000,0.000
1605207331199569920,10.0.1.134,442,move_up,-0.570,-0.570,-0.570,0.000,0.000,0.000
1605207332739422208,10.0.1.134,470,move_up,-0.550,-0.550,-0.550,0.000,0.000,0.000
1605207334255301888,10.0.1.134,439,move_up,-0.530,-0.530,-0.530,0.000,0.000,0.000
1605207335854272000,10.0.1.134,498,move_up,-0.510,-0.510,-0.510,0.000,0.000,0.000
1605207337485713920,10.0.1.134,483,move_up,-0.490,-0.490,-0.490,0.000,0.000,0.000
1605207339075310080,10.0.1.134,489,move_up,-0.470,-0.470,-0.470,0.000,0.000,0.000
1605207340641225984,10.0.1.134,557,move_up,-0.450,-0.450,-0.450,0.000,0.000,0.000
1605207342208022016,10.0.1.134,486,move_up,-0.430,-0.430,-0.430,0.000,0.000,0.000
1605207343819938816,10.0.1.134,538,move_up,-0.410,-0.410,-0.410,0.000,0.000,0.000
1605207345412183040,10.0.1.134,427,move_up,-0.390,-0.390,-0.390,0.000,0.000,0.000
1605207346916376064,10.0.1.134,436,move_up,-0.370,-0.370,-0.370,0.000,0.000,0.000
1605207348440304128,10.0.1.134,442,move_up,-0.350,-0.350,-0.350,0.000,0.000,0.000
1605207349966782976,10.0.1.134,487,move_up,-0.330,-0.330,-0.330,0.000,0.000,0.000
1605207351750423808,10.0.1.134,676,move_up,-0.310,-0.310,-0.310,0.000,0.000,0.000
1605207353241570048,10.0.1.134,481,move_up,-0.290,-0.290,-0.290,0.000,0.000,0.000
1605207354782309888,10.0.1.134,472,move_up,-0.270,-0.270,-0.270,0.000,0.000,0.000
1605207356447109888,10.0.1.134,560,move_up,-0.250,-0.250,-0.250,0.000,0.000,0.000
1605207357999224064,10.0.1.134,451,move_up,-0.230,-0.230,-0.230,0.000,0.000,0.000
1605207359546447872,10.0.1.134,395,move_up,-0.210,-0.210,-0.210,0.000,0.000,0.000
1605207361128709120,10.0.1.134,475,move_up,-0.190,-0.190,-0.190,0.000,0.000,0.000
1605207362301915904,10.0.1.134,48,place,-0.180,-0.180,-0.180,0.000,0.000,0.000
1605207364259371008,10.0.1.134,NaN,place,-0.160,-0.160,-0.160,0.000,0.000,0.000
1605207365270149120,10.0.1.134,NaN,place,-0.150,-0.150,-0.150,0.000,0.000,0.000
1605207365320724992,10.0.1.134,50,place,-0.150,-0.150,-0.150,0.000,0.000,0.000
1605207366321044992,10.0.1.134,49,place,-0.140,-0.140,-0.140,0.000,0.000,0.000
1605207367321358080,10.0.1.134,48,place,-0.130,-0.130,-0.130,0.000,0.000,0.000
1605207368338723072,10.0.1.134,44,place,-0.120,-0.120,-0.120,0.000,0.000,0.000
1605207370297956864,10.0.1.134,NaN,place,-0.100,-0.100,-0.100,0.000,0.000,0.000
1605207370346853888,10.0.1.134,48,place,-0.100,-0.100,-0.100,0.000,0.000,0.000
1605207371337476864,10.0.1.134,38,place,-0.090,-0.090,-0.090,0.000,0.000,0.000
1605207372340104960,10.0.1.134,39,place,-0.080,-0.080,-0.080,0.000,0.000,0.000
1605207373357376000,10.0.1.134,46,place,-0.070,-0.070,-0.070,0.000,0.000,0.000
1605207374364865024,10.0.1.134,53,place,-0.060,-0.060,-0.060,0.000,0.000,0.000
1605207375380794112,10.0.1.134,63,place,-0.050,-0.050,-0.050,0.000,0.000,0.000
1605207376364780032,10.0.1.134,45,place,-0.040,-0.040,-0.040,0.000,0.000,0.000
1605207377377370112,10.0.1.134,57,place,-0.030,-0.030,-0.030,0.000,0.000,0.000
1605207378359649024,10.0.1.134,38,place,-0.020,-0.020,-0.020,0.000,0.000,0.000
1605207380326173184,10.0.1.134,NaN,place,0.000,0.000,0.000,0.000,0.000,0.000
1605207381327513088,10.0.1.134,NaN,move_down,-0.020,-0.020,-0.020,0.000,0.000,0.000
1605207381328526848,10.0.1.134,0,move_down,-0.020,-0.020,-0.020,0.000,0.000,0.000
1605207383252310016,10.0.1.134,554,move_down,-0.040,-0.040,-0.040,0.000,0.000,0.000
1605207384715707904,10.0.1.134,442,move_down,-0.060,-0.060,-0.060,0.000,0.000,0.000
1605207386522021120,10.0.1.134,660,move_down,-0.080,-0.080,-0.080,0.000,0.000,0.000
1605207388330789120,10.0.1.134,590,move_down,-0.100,-0.100,-0.100,0.000,0.000,0.000
1605207389981789952,10.0.1.134,516,move_down,-0.120,-0.120,-0.120,0.000,0.000,0.000
1605207391677680896,10.0.1.134,526,move_down,-0.140,-0.140,-0.140,0.000,0.000,0.000
1605207393427060992,10.0.1.134,559,move_down,-0.160,-0.160,-0.160,0.000,0.000,0.000
1605207395067828992,10.0.1.134,535,move_down,-0.180,-0.180,-0.180,0.000,0.000,0.000
1605207396581656064,10.0.1.134,417,move_down,-0.200,-0.200,-0.200,0.000,0.000,0.000
1605207398276040960,10.0.1.134,547,move_down,-0.220,-0.220,-0.220,0.000,0.000,0.000
1605207399784996096,10.0.1.134,419,move_down,-0.240,-0.240,-0.240,0.000,0.000,0.000
1605207401312568064,10.0.1.134,513,move_down,-0.260,-0.260,-0.260,0.000,0.000,0.000
1605207402990233856,10.0.1.134,519,move_down,-0.280,-0.280,-0.280,0.000,0.000,0.000
1605207404639966976,10.0.1.134,574,move_down,-0.300,-0.300,-0.300,0.000,0.000,0.000
1605207406162105088,10.0.1.134,378,move_down,-0.320,-0.320,-0.320,0.000,0.000,0.000
1605207407641114112,10.0.1.134,422,move_down,-0.340,-0.340,-0.340,0.000,0.000,0.000
1605207409210413824,10.0.1.134,491,move_down,-0.360,-0.360,-0.360,0.000,0.000,0.000
1605207410757842944,10.0.1.134,503,move_down,-0.380,-0.380,-0.380,0.000,0.000,0.000
1605207412312072960,10.0.1.134,474,move_down,-0.400,-0.400,-0.400,0.000,0.000,0.000
1605207414041513984,10.0.1.134,626,move_down,-0.420,-0.420,-0.420,0.000,0.000,0.000
1605207415687619840,10.0.1.134,532,move_down,-0.440,-0.440,-0.440,0.000,0.000,0.000
1605207417273408000,10.0.1.134,544,move_down,-0.460,-0.460,-0.460,0.000,0.000,0.000
1605207418880308992,10.0.1.134,442,move_down,-0.480,-0.480,-0.480,0.000,0.000,0.000
1605207420400029952,10.0.1.134,423,move_down,-0.500,-0.500,-0.500,0.000,0.000,0.000
1605207422007784960,10.0.1.134,455,move_down,-0.520,-0.520,-0.520,0.000,0.000,0.000
1605207423737281024,10.0.1.134,634,move_down,-0.540,-0.540,-0.540,0.000,0.000,0.000
1605207425549617152,10.0.1.134,558,move_down,-0.560,-0.560,-0.560,0.000,0.000,0.000
1605207427124929792,10.0.1.134,538,move_down,-0.580,-0.580,-0.580,0.000,0.000,0.000
1605207428265937152,10.0.1.134,58,pick,-0.590,-0.590,-0.590,0.000,0.000,0.000
1605207429260550144,10.0.1.134,51,pick,-0.600,-0.600,-0.600,0.000,0.000,0.000
1605207430261816064,10.0.1.134,52,pick,-0.610,-0.610,-0.610,0.000,0.000,0.000
1605207431291728896,10.0.1.134,69,pick,-0.620,-0.620,-0.620,0.000,0.000,0.000
1605207432281243136,10.0.1.134,57,pick,-0.630,-0.630,-0.630,0.000,0.000,0.000
1605207433273588992,10.0.1.134,48,pick,-0.640,-0.640,-0.640,0.000,0.000,0.000
1605207434276690944,10.0.1.134,47,pick,-0.650,-0.650,-0.650,0.000,0.000,0.000
1605207435271229952,10.0.1.134,34,pick,-0.660,-0.660,-0.660,0.000,0.000,0.000
1605207436309849856,10.0.1.134,66,pick,-0.670,-0.670,-0.670,0.000,0.000,0.000
1605207437295236096,10.0.1.134,51,pick,-0.680,-0.680,-0.680,0.000,0.000,0.000
1605207438302854144,10.0.1.134,57,pick,-0.690,-0.690,-0.690,0.000,0.000,0.000
1605207439312421120,10.0.1.134,66,pick,-0.700,-0.700,-0.700,0.000,0.000,0.000
1605207440295648000,10.0.1.134,48,pick,-0.710,-0.710,-0.710,0.000,0.000,0.000
1605207441300396800,10.0.1.134,51,pick,-0.720,-0.720,-0.720,0.000,0.000,0.000
1605207442306384128,10.0.1.134,55,pick,-0.730,-0.730,-0.730,0.000,0.000,0.000
1605207443308054016,10.0.1.134,56,pick,-0.740,-0.740,-0.740,0.000,0.000,0.000
1605207444297480960,10.0.1.134,45,pick,-0.750,-0.750,-0.750,0.000,0.000,0.000
1605207445300131072,10.0.1.134,46,pick,-0.760,-0.760,-0.760,0.000,0.000,0.000
1605207446307416832,10.0.1.134,52,pick,-0.770,-0.770,-0.770,0.000,0.000,0.000
1605207447728967936,10.0.1.134,462,move_up,-0.750,-0.750,-0.750,0.000,0.000,0.000
1605207449368144896,10.0.1.134,536,move_up,-0.730,-0.730,-0.730,0.000,0.000,0.000
1605207450915975168,10.0.1.134,469,move_up,-0.710,-0.710,-0.710,0.000,0.000,0.000
1605207451988295936,10.0.1.134,-1,move_up,-0.690,-0.690,-0.690,0.000,0.000,0.000
1605207454170370048,10.0.1.134,617,move_up,-0.670,-0.670,-0.670,0.000,0.000,0.000
1605207455853146112,10.0.1.134,523,move_up,-0.650,-0.650,-0.650,0.000,0.000,0.000
1605207457422255104,10.0.1.134,480,move_up,-0.630,-0.630,-0.630,0.000,0.000,0.000
1605207459192956928,10.0.1.134,702,move_up,-0.610,-0.610,-0.610,0.000,0.000,0.000
1605207460773867008,10.0.1.134,469,move_up,-0.590,-0.590,-0.590,0.000,0.000,0.000
1605207462465164032,10.0.1.134,505,move_up,-0.570,-0.570,-0.570,0.000,0.000,0.000
1605207464024347904,10.0.1.134,488,move_up,-0.550,-0.550,-0.550,0.000,0.000,0.000
1605207465675323136,10.0.1.134,582,move_up,-0.530,-0.530,-0.530,0.000,0.000,0.000
1605207467217842944,10.0.1.134,435,move_up,-0.510,-0.510,-0.510,0.000,0.000,0.000
1605207468844183808,10.0.1.134,487,move_up,-0.490,-0.490,-0.490,0.000,0.000,0.000
1605207470493626112,10.0.1.134,510,move_up,-0.470,-0.470,-0.470,0.000,0.000,0.000
1605207472241099008,10.0.1.134,519,move_up,-0.450,-0.450,-0.450,0.000,0.000,0.000
1605207473836456960,10.0.1.134,527,move_up,-0.430,-0.430,-0.430,0.000,0.000,0.000
1605207475471276032,10.0.1.134,508,move_up,-0.410,-0.410,-0.410,0.000,0.000,0.000
1605207477088844032,10.0.1.134,460,move_up,-0.390,-0.390,-0.390,0.000,0.000,0.000
1605207478589767936,10.0.1.134,411,move_up,-0.370,-0.370,-0.370,0.000,0.000,0.000
1605207480123450880,10.0.1.134,489,move_up,-0.350,-0.350,-0.350,0.000,0.000,0.000
1605207481775897088,10.0.1.134,543,move_up,-0.330,-0.330,-0.330,0.000,0.000,0.000
1605207483307902208,10.0.1.134,432,move_up,-0.310,-0.310,-0.310,0.000,0.000,0.000
1605207484877238016,10.0.1.134,471,move_up,-0.290,-0.290,-0.290,0.000,0.000,0.000
1605207486521545984,10.0.1.134,503,move_up,-0.270,-0.270,-0.270,0.000,0.000,0.000
1605207488154861824,10.0.1.134,555,move_up,-0.250,-0.250,-0.250,0.000,0.000,0.000
1605207489780808960,10.0.1.134,582,move_up,-0.230,-0.230,-0.230,0.000,0.000,0.000
1605207491317615872,10.0.1.134,462,move_up,-0.210,-0.210,-0.210,0.000,0.000,0.000
1605207492853313024,10.0.1.134,477,move_up,-0.190,-0.190,-0.190,0.000,0.000,0.000
1605207494006053888,10.0.1.134,46,place,-0.180,-0.180,-0.180,0.000,0.000,0.000
1605207495001574144,10.0.1.134,40,place,-0.170,-0.170,-0.170,0.000,0.000,0.000
1605207496002105088,10.0.1.134,39,place,-0.160,-0.160,-0.160,0.000,0.000,0.000
1605207497019813120,10.0.1.134,56,place,-0.150,-0.150,-0.150,0.000,0.000,0.000
1605207498003488000,10.0.1.134,33,place,-0.140,-0.140,-0.140,0.000,0.000,0.000
1605207499025083136,10.0.1.134,53,place,-0.130,-0.130,-0.130,0.000,0.000,0.000
1605207500027347200,10.0.1.134,53,place,-0.120,-0.120,-0.120,0.000,0.000,0.000
1605207501026550016,10.0.1.134,51,place,-0.110,-0.110,-0.110,0.000,0.000,0.000
1605207502016577024,10.0.1.134,40,place,-0.100,-0.100,-0.100,0.000,0.000,0.000
1605207503019602944,10.0.1.134,39,place,-0.090,-0.090,-0.090,0.000,0.000,0.000
1605207504025007104,10.0.1.134,43,place,-0.080,-0.080,-0.080,0.000,0.000,0.000
1605207505037805056,10.0.1.134,55,place,-0.070,-0.070,-0.070,0.000,0.000,0.000
1605207506031310080,10.0.1.134,47,place,-0.060,-0.060,-0.060,0.000,0.000,0.000
1605207507017728000,10.0.1.134,31,place,-0.050,-0.050,-0.050,0.000,0.000,0.000
1605207508041922048,10.0.1.134,54,place,-0.040,-0.040,-0.040,0.000,0.000,0.000
1605207509022779904,10.0.1.134,35,place,-0.030,-0.030,-0.030,0.000,0.000,0.000
1605207510026267904,10.0.1.134,37,place,-0.020,-0.020,-0.020,0.000,0.000,0.000
1605207511043837952,10.0.1.134,53,place,-0.010,-0.010,-0.010,0.000,0.000,0.000
1605207512020796928,10.0.1.134,29,place,0.000,0.000,0.000,0.000,0.000,0.000
1605207513460813056,10.0.1.134,468,move_down,-0.020,-0.020,-0.020,0.000,0.000,0.000
1605207515085444096,10.0.1.134,517,move_down,-0.040,-0.040,-0.040,0.000,0.000,0.000
1605207516757380864,10.0.1.134,466,move_down,-0.060,-0.060,-0.060,0.000,0.000,0.000
1605207518386807040,10.0.1.134,524,move_down,-0.080,-0.080,-0.080,0.000,0.000,0.000
1605207520004137984,10.0.1.134,540,move_down,-0.100,-0.100,-0.100,0.000,0.000,0.000
1605207521592960000,10.0.1.134,471,move_down,-0.120,-0.120,-0.120,0.000,0.000,0.000
1605207523271610112,10.0.1.134,563,move_down,-0.140,-0.140,-0.140,0.000,0.000,0.000
1605207524818836992,10.0.1.134,528,move_down,-0.160,-0.160,-0.160,0.000,0.000,0.000
1605207526363236864,10.0.1.134,512,move_down,-0.180,-0.180,-0.180,0.000,0.000,0.000
1605207527958514944,10.0.1.134,504,move_down,-0.200,-0.200,-0.200,0.000,0.000,0.000
1605207529525264896,10.0.1.134,522,move_down,-0.220,-0.220,-0.220,0.000,0.000,0.000
1605207531134563072,10.0.1.134,524,move_down,-0.240,-0.240,-0.240,0.000,0.000,0.000
1605207532733040128,10.0.1.134,503,move_down,-0.260,-0.260,-0.260,0.000,0.000,0.000
1605207534439932160,10.0.1.134,581,move_down,-0.280,-0.280,-0.280,0.000,0.000,0.000
1605207536031851008,10.0.1.134,522,move_down,-0.300,-0.300,-0.300,0.000,0.000,0.000
1605207537596002048,10.0.1.134,511,move_down,-0.320,-0.320,-0.320,0.000,0.000,0.000
1605207539284011008,10.0.1.134,521,move_down,-0.340,-0.340,-0.340,0.000,0.000,0.000
1605207540842507008,10.0.1.134,493,move_down,-0.360,-0.360,-0.360,0.000,0.000,0.000
1605207542526832128,10.0.1.134,567,move_down,-0.380,-0.380,-0.380,0.000,0.000,0.000
1605207544110331136,10.0.1.134,473,move_down,-0.400,-0.400,-0.400,0.000,0.000,0.000
1605207545750899968,10.0.1.134,450,move_down,-0.420,-0.420,-0.420,0.000,0.000,0.000
1605207547480019968,10.0.1.134,567,move_down,-0.440,-0.440,-0.440,0.000,0.000,0.000
1605207549174569984,10.0.1.134,546,move_down,-0.460,-0.460,-0.460,0.000,0.000,0.000
1605207550783607040,10.0.1.134,514,move_down,-0.480,-0.480,-0.480,0.000,0.000,0.000
1605207552471906816,10.0.1.134,564,move_down,-0.500,-0.500,-0.500,0.000,0.000,0.000
1605207554007695872,10.0.1.134,502,move_down,-0.520,-0.520,-0.520,0.000,0.000,0.000
1605207555621146880,10.0.1.134,495,move_down,-0.540,-0.540,-0.540,0.000,0.000,0.000
1605207557150671872,10.0.1.134,465,move_down,-0.560,-0.560,-0.560,0.000,0.000,0.000
1605207558704189184,10.0.1.134,469,move_down,-0.580,-0.580,-0.580,0.000,0.000,0.000
1605207559852328960,10.0.1.134,63,pick,-0.590,-0.590,-0.590,0.000,0.000,0.000
1605207560840086016,10.0.1.134,48,pick,-0.600,-0.600,-0.600,0.000,0.000,0.000
1605207561838705920,10.0.1.134,45,pick,-0.610,-0.610,-0.610,0.000,0.000,0.000
1605207563795160064,10.0.1.134,NaN,pick,-0.630,-0.630,-0.630,0.000,0.000,0.000
1605207563842434816,10.0.1.134,47,pick,-0.630,-0.630,-0.630,0.000,0.000,0.000
1605207564846034944,10.0.1.134,48,pick,-0.640,-0.640,-0.640,0.000,0.000,0.000
1605207565853317120,10.0.1.134,48,pick,-0.650,-0.650,-0.650,0.000,0.000,0.000
1605207566848984832,10.0.1.134,42,pick,-0.660,-0.660,-0.660,0.000,0.000,0.000
1605207567850682112,10.0.1.134,43,pick,-0.670,-0.670,-0.670,0.000,0.000,0.000
1605207568846436096,10.0.1.134,38,pick,-0.680,-0.680,-0.680,0.000,0.000,0.000
1605207569848023808,10.0.1.134,38,pick,-0.690,-0.690,-0.690,0.000,0.000,0.000
1605207571819538176,10.0.1.134,NaN,pick,-0.710,-0.710,-0.710,0.000,0.000,0.000
1605207571872791040,10.0.1.134,53,pick,-0.710,-0.710,-0.710,0.000,0.000,0.000
1605207573828937984,10.0.1.134,NaN,pick,-0.730,-0.730,-0.730,0.000,0.000,0.000
1605207573878802944,10.0.1.134,49,pick,-0.730,-0.730,-0.730,0.000,0.000,0.000
1605207574899069184,10.0.1.134,68,pick,-0.740,-0.740,-0.740,0.000,0.000,0.000
1605207575879664896,10.0.1.134,48,pick,-0.750,-0.750,-0.750,0.000,0.000,0.000
1605207576892378112,10.0.1.134,59,pick,-0.760,-0.760,-0.760,0.000,0.000,0.000
1605207577890352128,10.0.1.134,54,pick,-0.770,-0.770,-0.770,0.000,0.000,0.000
1605207579437428992,10.0.1.134,600,move_up,-0.750,-0.750,-0.750,0.000,0.000,0.000
1605207581166095872,10.0.1.134,622,move_up,-0.730,-0.730,-0.730,0.000,0.000,0.000
1605207582727571968,10.0.1.134,463,move_up,-0.710,-0.710,-0.710,0.000,0.000,0.000
1605207584388921088,10.0.1.134,554,move_up,-0.690,-0.690,-0.690,0.000,0.000,0.000
1605207585955048960,10.0.1.134,515,move_up,-0.670,-0.670,-0.670,0.000,0.000,0.000
1605207587525281792,10.0.1.134,506,move_up,-0.650,-0.650,-0.650,0.000,0.000,0.000
1605207589089636096,10.0.1.134,492,move_up,-0.630,-0.630,-0.630,0.000,0.000,0.000
1605207590650295040,10.0.1.134,461,move_up,-0.610,-0.610,-0.610,0.000,0.000,0.000
1605207592323145984,10.0.1.134,580,move_up,-0.590,-0.590,-0.590,0.000,0.000,0.000
1605207593947841792,10.0.1.134,574,move_up,-0.570,-0.570,-0.570,0.000,0.000,0.000
1605207595546689024,10.0.1.134,510,move_up,-0.550,-0.550,-0.550,0.000,0.000,0.000
1605207597224466176,10.0.1.134,544,move_up,-0.530,-0.530,-0.530,0.000,0.000,0.000
1605207598890574080,10.0.1.134,537,move_up,-0.510,-0.510,-0.510,0.000,0.000,0.000
1605207600431822080,10.0.1.134,403,move_up,-0.490,-0.490,-0.490,0.000,0.000,0.000
1605207602279454976,10.0.1.134,523,move_up,-0.470,-0.470,-0.470,0.000,0.000,0.000
1605207603801511168,10.0.1.134,454,move_up,-0.450,-0.450,-0.450,0.000,0.000,0.000
1605207605495448064,10.0.1.134,457,move_up,-0.430,-0.430,-0.430,0.000,0.000,0.000
1605207607080684032,10.0.1.134,505,move_up,-0.410,-0.410,-0.410,0.000,0.000,0.000
1605207608653598976,10.0.1.134,497,move_up,-0.390,-0.390,-0.390,0.000,0.000,0.000
1605207610390499072,10.0.1.134,637,move_up,-0.370,-0.370,-0.370,0.000,0.000,0.000
1605207611979836928,10.0.1.134,486,move_up,-0.350,-0.350,-0.350,0.000,0.000,0.000
1605207613535288064,10.0.1.134,472,move_up,-0.330,-0.330,-0.330,0.000,0.000,0.000
1605207615210525952,10.0.1.134,545,move_up,-0.310,-0.310,-0.310,0.000,0.000,0.000
1605207616722235904,10.0.1.134,452,move_up,-0.290,-0.290,-0.290,0.000,0.000,0.000
1605207618352313088,10.0.1.134,500,move_up,-0.270,-0.270,-0.270,0.000,0.000,0.000
1605207620118311936,10.0.1.134,613,move_up,-0.250,-0.250,-0.250,0.000,0.000,0.000
1605207621670464000,10.0.1.134,478,move_up,-0.230,-0.230,-0.230,0.000,0.000,0.000
1605207623229104896,10.0.1.134,454,move_up,-0.210,-0.210,-0.210,0.000,0.000,0.000
1605207624874126848,10.0.1.134,526,move_up,-0.190,-0.190,-0.190,0.000,0.000,0.000
1605207626054540032,10.0.1.134,60,place,-0.180,-0.180,-0.180,0.000,0.000,0.000
1605207627090141184,10.0.1.134,65,place,-0.170,-0.170,-0.170,0.000,0.000,0.000
1605207628074363904,10.0.1.134,47,place,-0.160,-0.160,-0.160,0.000,0.000,0.000
1605207629067420928,10.0.1.134,39,place,-0.150,-0.150,-0.150,0.000,0.000,0.000
1605207630078018816,10.0.1.134,48,place,-0.140,-0.140,-0.140,0.000,0.000,0.000
1605207631076417024,10.0.1.134,45,place,-0.130,-0.130,-0.130,0.000,0.000,0.000
1605207632093483008,10.0.1.134,59,place,-0.120,-0.120,-0.120,0.000,0.000,0.000
1605207633106285056,10.0.1.134,70,place,-0.110,-0.110,-0.110,0.000,0.000,0.000
1605207634099284992,10.0.1.134,61,place,-0.100,-0.100,-0.100,0.000,0.000,0.000
1605207635087924992,10.0.1.134,43,place,-0.090,-0.090,-0.090,0.000,0.000,0.000
1605207636095259904,10.0.1.134,48,place,-0.080,-0.080,-0.080,0.000,0.000,0.000
1605207637086055936,10.0.1.134,38,place,-0.070,-0.070,-0.070,0.000,0.000,0.000
1605207638098546944,10.0.1.134,49,place,-0.060,-0.060,-0.060,0.000,0.000,0.000
1605207639112974848,10.0.1.134,63,place,-0.050,-0.050,-0.050,0.000,0.000,0.000
1605207640113846016,10.0.1.134,63,place,-0.040,-0.040,-0.040,0.000,0.000,0.000
1605207641107950080,10.0.1.134,55,place,-0.030,-0.030,-0.030,0.000,0.000,0.000
1605207642106940928,10.0.1.134,52,place,-0.020,-0.020,-0.020,0.000,0.000,0.000
1605207643123357952,10.0.1.134,67,place,-0.010,-0.010,-0.010,0.000,0.000,0.000
1605207644114914048,10.0.1.134,54,place,0.000,0.000,0.000,0.000,0.000,0.000
1605207645575994880,10.0.1.134,514,move_down,-0.020,-0.020,-0.020,0.000,0.000,0.000
1605207647170723840,10.0.1.134,459,move_down,-0.040,-0.040,-0.040,0.000,0.000,0.000
1605207648795218944,10.0.1.134,473,move_down,-0.060,-0.060,-0.060,0.000,0.000,0.000
1605207650351158016,10.0.1.134,491,move_down,-0.080,-0.080,-0.080,0.000,0.000,0.000
1605207651995836928,10.0.1.134,541,move_down,-0.100,-0.100,-0.100,0.000,0.000,0.000
1605207653670550016,10.0.1.134,498,move_down,-0.120,-0.120,-0.120,0.000,0.000,0.000
1605207655324562176,10.0.1.134,512,move_down,-0.140,-0.140,-0.140,0.000,0.000,0.000
1605207657085043968,10.0.1.134,622,move_down,-0.160,-0.160,-0.160,0.000,0.000,0.000
1605207658666230016,10.0.1.134,514,move_down,-0.180,-0.180,-0.180,0.000,0.000,0.000
1605207660306673920,10.0.1.134,516,move_down,-0.200,-0.200,-0.200,0.000,0.000,0.000
1605207661970670848,10.0.1.134,555,move_down,-0.220,-0.220,-0.220,0.000,0.000,0.000
1605207663548500992,10.0.1.134,447,move_down,-0.240,-0.240,-0.240,0.000,0.000,0.000
1605207665082889984,10.0.1.134,461,move_down,-0.260,-0.260,-0.260,0.000,0.000,0.000
1605207666769937152,10.0.1.134,571,move_down,-0.280,-0.280,-0.280,0.000,0.000,0.000
1605207668368977920,10.0.1.134,644,move_down,-0.300,-0.300,-0.300,0.000,0.000,0.000
1605207670037597952,10.0.1.134,536,move_down,-0.320,-0.320,-0.320,0.000,0.000,0.000
1605207671615716096,10.0.1.134,504,move_down,-0.340,-0.340,-0.340,0.000,0.000,0.000
1605207673210959872,10.0.1.134,450,move_down,-0.360,-0.360,-0.360,0.000,0.000,0.000
1605207674865825792,10.0.1.134,564,move_down,-0.380,-0.380,-0.380,0.000,0.000,0.000
1605207676443033088,10.0.1.134,496,move_down,-0.400,-0.400,-0.400,0.000,0.000,0.000
1605207678006504960,10.0.1.134,507,move_down,-0.420,-0.420,-0.420,0.000,0.000,0.000
1605207679694888192,10.0.1.134,622,move_down,-0.440,-0.440,-0.440,0.000,0.000,0.000
1605207681416583936,10.0.1.134,626,move_down,-0.460,-0.460,-0.460,0.000,0.000,0.000
1605207683007795968,10.0.1.134,455,move_down,-0.480,-0.480,-0.480,0.000,0.000,0.000
1605207684672110080,10.0.1.134,576,move_down,-0.500,-0.500,-0.500,0.000,0.000,0.000
1605207686290045952,10.0.1.134,557,move_down,-0.520,-0.520,-0.520,0.000,0.000,0.000
1605207687974242048,10.0.1.134,542,move_down,-0.540,-0.540,-0.540,0.000,0.000,0.000
1605207689535897856,10.0.1.134,446,move_down,-0.560,-0.560,-0.560,0.000,0.000,0.000
1605207691069325824,10.0.1.134,472,move_down,-0.580,-0.580,-0.580,0.000,0.000,0.000
1605207693199554816,10.0.1.134,NaN,pick,-0.600,-0.600,-0.600,0.000,0.000,0.000
1605207693260656128,10.0.1.134,61,pick,-0.600,-0.600,-0.600,0.000,0.000,0.000
1605207694249398016,10.0.1.134,36,pick,-0.610,-0.610,-0.610,0.000,0.000,0.000
1605207695251437056,10.0.1.134,34,pick,-0.620,-0.620,-0.620,0.000,0.000,0.000
1605207696316293888,10.0.1.134,96,pick,-0.630,-0.630,-0.630,0.000,0.000,0.000
1605207697275800064,10.0.1.134,54,pick,-0.640,-0.640,-0.640,0.000,0.000,0.000
1605207698277950976,10.0.1.134,51,pick,-0.650,-0.650,-0.650,0.000,0.000,0.000
1605207699272219904,10.0.1.134,43,pick,-0.660,-0.660,-0.660,0.000,0.000,0.000
1605207701231568128,10.0.1.134,NaN,pick,-0.680,-0.680,-0.680,0.000,0.000,0.000
1605207702232888064,10.0.1.134,NaN,pick,-0.690,-0.690,-0.690,0.000,0.000,0.000
1605207702278342912,10.0.1.134,45,pick,-0.690,-0.690,-0.690,0.000,0.000,0.000
1605207704251763200,10.0.1.134,NaN,pick,-0.710,-0.710,-0.710,0.000,0.000,0.000
1605207704286338048,10.0.1.134,34,pick,-0.710,-0.710,-0.710,0.000,0.000,0.000
1605207705296664832,10.0.1.134,36,pick,-0.720,-0.720,-0.720,0.000,0.000,0.000
1605207706323245056,10.0.1.134,60,pick,-0.730,-0.730,-0.730,0.000,0.000,0.000
1605207707319986176,10.0.1.134,56,pick,-0.740,-0.740,-0.740,0.000,0.000,0.000
1605207708317382144,10.0.1.134,52,pick,-0.750,-0.750,-0.750,0.000,0.000,0.000
1605207709313224960,10.0.1.134,43,pick,-0.760,-0.760,-0.760,0.000,0.000,0.000
1605207710327183872,10.0.1.134,47,pick,-0.770,-0.770,-0.770,0.000,0.000,0.000
1605207711756920064,10.0.1.134,471,move_up,-0.750,-0.750,-0.750,0.000,0.000,0.000
1605207713314483968,10.0.1.134,475,move_up,-0.730,-0.730,-0.730,0.000,0.000,0.000
1605207714860353024,10.0.1.134,456,move_up,-0.710,-0.710,-0.710,0.000,0.000,0.000
1605207716364343808,10.0.1.134,472,move_up,-0.690,-0.690,-0.690,0.000,0.000,0.000
1605207718028593920,10.0.1.134,482,move_up,-0.670,-0.670,-0.670,0.000,0.000,0.000
1605207719698152960,10.0.1.134,544,move_up,-0.650,-0.650,-0.650,0.000,0.000,0.000
1605207721240907008,10.0.1.134,436,move_up,-0.630,-0.630,-0.630,0.000,0.000,0.000
1605207722853126144,10.0.1.134,500,move_up,-0.610,-0.610,-0.610,0.000,0.000,0.000
1605207724562520064,10.0.1.134,584,move_up,-0.590,-0.590,-0.590,0.000,0.000,0.000
1605207726221201920,10.0.1.134,489,move_up,-0.570,-0.570,-0.570,0.000,0.000,0.000
1605207727918818048,10.0.1.134,597,move_up,-0.550,-0.550,-0.550,0.000,0.000,0.000
1605207729458064128,10.0.1.134,532,move_up,-0.530,-0.530,-0.530,0.000,0.000,0.000
1605207731091065856,10.0.1.134,508,move_up,-0.510,-0.510,-0.510,0.000,0.000,0.000
1605207732655968000,10.0.1.134,461,move_up,-0.490,-0.490,-0.490,0.000,0.000,0.000
1605207734274180864,10.0.1.134,484,move_up,-0.470,-0.470,-0.470,0.000,0.000,0.000
1605207735905298944,10.0.1.134,522,move_up,-0.450,-0.450,-0.450,0.000,0.000,0.000
1605207737491059968,10.0.1.134,516,move_up,-0.430,-0.430,-0.430,0.000,0.000,0.000
1605207739061672960,10.0.1.134,469,move_up,-0.410,-0.410,-0.410,0.000,0.000,0.000
1605207740693608960,10.0.1.134,546,move_up,-0.390,-0.390,-0.390,0.000,0.000,0.000
1605207742227442944,10.0.1.134,459,move_up,-0.370,-0.370,-0.370,0.000,0.000,0.000
1605207743930216960,10.0.1.134,555,move_up,-0.350,-0.350,-0.350,0.000,0.000,0.000
1605207745691134976,10.0.1.134,588,move_up,-0.330,-0.330,-0.330,0.000,0.000,0.000
1605207747217502208,10.0.1.134,427,move_up,-0.310,-0.310,-0.310,0.000,0.000,0.000
1605207748868519168,10.0.1.134,499,move_up,-0.290,-0.290,-0.290,0.000,0.000,0.000
1605207750459734016,10.0.1.134,497,move_up,-0.270,-0.270,-0.270,0.000,0.000,0.000
1605207751971336960,10.0.1.134,448,move_up,-0.250,-0.250,-0.250,0.000,0.000,0.000
1605207753573765888,10.0.1.134,530,move_up,-0.230,-0.230,-0.230,0.000,0.000,0.000
1605207755136665088,10.0.1.134,487,move_up,-0.210,-0.210,-0.210,0.000,0.000,0.000
1605207756727826176,10.0.1.134,437,move_up,-0.190,-0.190,-0.190,0.000,0.000,0.000
1605207757909688832,10.0.1.134,40,place,-0.180,-0.180,-0.180,0.000,0.000,0.000
1605207758915827968,10.0.1.134,46,place,-0.170,-0.170,-0.170,0.000,0.000,0.000
1605207759919017984,10.0.1.134,48,place,-0.160,-0.160,-0.160,0.000,0.000,0.000
1605207760935740928,10.0.1.134,61,place,-0.150,-0.150,-0.150,0.000,0.000,0.000
1605207761967012864,10.0.1.134,91,place,-0.140,-0.140,-0.140,0.000,0.000,0.000
1605207763892598016,10.0.1.134,NaN,place,-0.120,-0.120,-0.120,0.000,0.000,0.000
1605207763952644096,10.0.1.134,59,place,-0.120,-0.120,-0.120,0.000,0.000,0.000
1605207764929709056,10.0.1.134,35,place,-0.110,-0.110,-0.110,0.000,0.000,0.000
1605207765951302144,10.0.1.134,50,place,-0.100,-0.100,-0.100,0.000,0.000,0.000
1605207766965008896,10.0.1.134,60,place,-0.090,-0.090,-0.090,0.000,0.000,0.000
1605207767958193920,10.0.1.134,52,place,-0.080,-0.080,-0.080,0.000,0.000,0.000
1605207768979868928,10.0.1.134,54,place,-0.070,-0.070,-0.070,0.000,0.000,0.000
1605207769973628160,10.0.1.134,44,place,-0.060,-0.060,-0.060,0.000,0.000,0.000
1605207770971636992,10.0.1.134,40,place,-0.050,-0.050,-0.050,0.000,0.000,0.000
1605207771975457792,10.0.1.134,43,place,-0.040,-0.040,-0.040,0.000,0.000,0.000
1605207772979852032,10.0.1.134,46,place,-0.030,-0.030,-0.030,0.000,0.000,0.000
1605207774007863040,10.0.1.134,74,place,-0.020,-0.020,-0.020,0.000,0.000,0.000
1605207775012175104,10.0.1.134,77,place,-0.010,-0.010,-0.010,0.000,0.000,0.000
1605207776003593984,10.0.1.134,62,place,0.000,0.000,0.000,0.000,0.000,0.000
1605207777435558912,10.0.1.134,492,move_down,-0.020,-0.020,-0.020,0.000,0.000,0.000
1605207779147840000,10.0.1.134,641,move_down,-0.040,-0.040,-0.040,0.000,0.000,0.000
1605207780755558912,10.0.1.134,493,move_down,-0.060,-0.060,-0.060,0.000,0.000,0.000
1605207782329251072,10.0.1.134,502,move_down,-0.080,-0.080,-0.080,0.000,0.000,0.000
1605207783929238016,10.0.1.134,544,move_down,-0.100,-0.100,-0.100,0.000,0.000,0.000
1605207785498701056,10.0.1.134,470,move_down,-0.120,-0.120,-0.120,0.000,0.000,0.000
1605207787082375936,10.0.1.134,498,move_down,-0.140,-0.140,-0.140,0.000,0.000,0.000
1605207788738493952,10.0.1.134,524,move_down,-0.160,-0.160,-0.160,0.000,0.000,0.000
1605207790296428032,10.0.1.134,507,move_down,-0.180,-0.180,-0.180,0.000,0.000,0.000
1605207791932295168,10.0.1.134,484,move_down,-0.200,-0.200,-0.200,0.000,0.000,0.000
1605207793579768832,10.0.1.134,549,move_down,-0.220,-0.220,-0.220,0.000,0.000,0.000
1605207795257518080,10.0.1.134,600,move_down,-0.240,-0.240,-0.240,0.000,0.000,0.000
1605207796949948160,10.0.1.134,580,move_down,-0.260,-0.260,-0.260,0.000,0.000,0.000
1605207798588880896,10.0.1.134,602,move_down,-0.280,-0.280,-0.280,0.000,0.000,0.000
1605207800281469184,10.0.1.134,579,move_down,-0.300,-0.300,-0.300,0.000,0.000,0.000
1605207801919843840,10.0.1.134,560,move_down,-0.320,-0.320,-0.320,0.000,0.000,0.000
1605207803642466048,10.0.1.134,508,move_down,-0.340,-0.340,-0.340,0.000,0.000,0.000
1605207805182266880,10.0.1.134,445,move_down,-0.360,-0.360,-0.360,0.000,0.000,0.000
1605207806784073984,10.0.1.134,514,move_down,-0.380,-0.380,-0.380,0.000,0.000,0.000
1605207808415590912,10.0.1.134,518,move_down,-0.400,-0.400,-0.400,0.000,0.000,0.000
1605207810010565888,10.0.1.134,511,move_down,-0.420,-0.420,-0.420,0.000,0.000,0.000
1605207811642052864,10.0.1.134,434,move_down,-0.440,-0.440,-0.440,0.000,0.000,0.000
1605207813305870080,10.0.1.134,563,move_down,-0.460,-0.460,-0.460,0.000,0.000,0.000
1605207815006499072,10.0.1.134,473,move_down,-0.480,-0.480,-0.480,0.000,0.000,0.000
1605207816578528000,10.0.1.134,487,move_down,-0.500,-0.500,-0.500,0.000,0.000,0.000
1605207818189070848,10.0.1.134,543,move_down,-0.520,-0.520,-0.520,0.000,0.000,0.000
1605207819873133056,10.0.1.134,612,move_down,-0.540,-0.540,-0.540,0.000,0.000,0.000
1605207821453704960,10.0.1.134,547,move_down,-0.560,-0.560,-0.560,0.000,0.000,0.000
1605207823075130112,10.0.1.134,493,move_down,-0.580,-0.580,-0.580,0.000,0.000,0.000
1605207825084038144,10.0.1.134,NaN,pick,-0.600,-0.600,-0.600,0.000,0.000,0.000
1605207826085360896,10.0.1.134,NaN,pick,-0.610,-0.610,-0.610,0.000,0.000,0.000
1605207826164175872,10.0.1.134,78,pick,-0.610,-0.610,-0.610,0.000,0.000,0.000
1605207827126343936,10.0.1.134,38,pick,-0.620,-0.620,-0.620,0.000,0.000,0.000
1605207828155087872,10.0.1.134,66,pick,-0.630,-0.630,-0.630,0.000,0.000,0.000
1605207829125412096,10.0.1.134,35,pick,-0.640,-0.640,-0.640,0.000,0.000,0.000
1605207830142194944,10.0.1.134,51,pick,-0.650,-0.650,-0.650,0.000,0.000,0.000
1605207832095236096,10.0.1.134,NaN,pick,-0.670,-0.670,-0.670,0.000,0.000,0.000
1605207832134979072,10.0.1.134,39,pick,-0.670,-0.670,-0.670,0.000,0.000,0.000
1605207833154484992,10.0.1.134,57,pick,-0.680,-0.680,-0.680,0.000,0.000,0.000
1605207834170955776,10.0.1.134,69,pick,-0.690,-0.690,-0.690,0.000,0.000,0.000
1605207835195396864,10.0.1.134,92,pick,-0.700,-0.700,-0.700,0.000,0.000,0.000
1605207836163049984,10.0.1.134,59,pick,-0.710,-0.710,-0.710,0.000,0.000,0.000
1605207837173177088,10.0.1.134,61,pick,-0.720,-0.720,-0.720,0.000,0.000,0.000
1605207838174283008,10.0.1.134,61,pick,-0.730,-0.730,-0.730,0.000,0.000,0.000
1605207839196912128,10.0.1.134,70,pick,-0.740,-0.740,-0.740,0.000,0.000,0.000
1605207840187357952,10.0.1.134,55,pick,-0.750,-0.750,-0.750,0.000,0.000,0.000
1605207842134022912,10.0.1.134,NaN,pick,-0.770,-0.770,-0.770,0.000,0.000,0.000
1605207842181168128,10.0.1.134,47,pick,-0.770,-0.770,-0.770,0.000,0.000,0.000
1605207843707315968,10.0.1.134,571,move_up,-0.750,-0.750,-0.750,0.000,0.000,0.000
1605207845246018048,10.0.1.134,477,move_up,-0.730,-0.730,-0.730,0.000,0.000,0.000
1605207846911942912,10.0.1.134,495,move_up,-0.710,-0.710,-0.710,0.000,0.000,0.000
1605207848546034944,10.0.1.134,538,move_up,-0.690,-0.690,-0.690,0.000,0.000,0.000
1605207850206278144,10.0.1.134,569,move_up,-0.670,-0.670,-0.670,0.000,0.000,0.000
1605207851928879104,10.0.1.134,639,move_up,-0.650,-0.650,-0.650,0.000,0.000,0.000
1605207853445456896,10.0.1.134,431,move_up,-0.630,-0.630,-0.630,0.000,0.000,0.000
1605207855051030016,10.0.1.134,491,move_up,-0.610,-0.610,-0.610,0.000,0.000,0.000
1605207856664793856,10.0.1.134,528,move_up,-0.590,-0.590,-0.590,0.000,0.000,0.000
1605207858320434176,10.0.1.134,507,move_up,-0.570,-0.570,-0.570,0.000,0.000,0.000
1605207860039681024,10.0.1.134,595,move_up,-0.550,-0.550,-0.550,0.000,0.000,0.000
1605207861662537216,10.0.1.134,554,move_up,-0.530,-0.530,-0.530,0.000,0.000,0.000
